data/fiter_cube/39179523/1023430/file.cube
# Created by Adobe Lightroom plugin Export LUT (1.17.0)
# www.johnrellis.com/lightroom/exportlut.htm
# Preset: 日系大师人物肖像_04 云集
# Color profile: C:\Program Files (x86)\Common Files\Adobe\Color\Profiles\Recommended\AdobeRGB1998.icc
LUT_3D_SIZE 8
DOMAIN_MIN 0.000000 0.000000 0.000000
DOMAIN_MAX 0.903226 0.903226 0.903226
0.065766 0.085786 0.095003
0.114107 0.085603 0.093843
0.348425 0.016602 0.076112
0.633753 0.000000 0.000000
0.795682 0.083131 0.000000
0.897185 0.201694 0.000000
0.977386 0.281926 0.000000
1.000000 0.350622 0.000000
0.058473 0.115511 0.094057
0.108644 0.122927 0.091554
0.333349 0.140749 0.067720
0.617029 0.128206 0.000000
0.785214 0.178714 0.000000
0.885191 0.242588 0.000000
0.966979 0.304601 0.000000
1.000000 0.365209 0.000000
0.000000 0.261173 0.096529
0.110689 0.266545 0.099001
0.322423 0.310277 0.055177
0.617182 0.347906 0.000000
0.788998 0.361181 0.000000
0.885069 0.371374 0.000000
0.974365 0.406012 0.000000
1.000000 0.442969 0.000000
0.000000 0.504234 0.067292
0.000000 0.504753 0.099641
0.350134 0.499825 0.084504
0.618769 0.570245 0.000000
0.799100 0.564996 0.000000
0.886961 0.532738 0.000000
0.969451 0.530266 0.000000
1.000000 0.540887 0.000000
0.000000 0.684565 0.118624
0.000000 0.684779 0.140536
0.360327 0.677485 0.196323
0.591638 0.682246 0.181857
0.765530 0.709010 0.109773
0.866484 0.674250 0.028962
0.952911 0.655940 0.000000
1.000000 0.654841 0.000000
0.000000 0.796658 0.234501
0.000000 0.799557 0.252201
0.405005 0.785885 0.344671
0.587091 0.771359 0.337102
0.723140 0.774685 0.318700
0.847379 0.791745 0.285161
0.942016 0.780880 0.258122
1.000000 0.772457 0.201877
0.054200 0.876829 0.355138
0.219120 0.875395 0.372778
0.479500 0.859586 0.477241
0.603052 0.849516 0.469856
0.724422 0.837919 0.458900
0.824430 0.853635 0.444831
0.925780 0.871519 0.417060
1.000000 0.867491 0.382391
0.305486 0.959258 0.470375
0.367010 0.956329 0.486519
0.546777 0.944610 0.571252
0.668147 0.937499 0.606500
0.752865 0.923583 0.587152
0.845060 0.927153 0.586694
0.927062 0.942962 0.575860
1.000000 0.955413 0.540642
0.041077 0.086671 0.137026
0.096681 0.101320 0.130495
0.325017 0.001160 0.121828
0.611566 0.000000 0.090394
0.782498 0.058961 0.000000
0.880644 0.191104 0.000000
0.962524 0.271458 0.000000
1.000000 0.340246 0.000000
0.010925 0.121828 0.146670
0.103517 0.127565 0.143801
0.323339 0.134401 0.131441
0.607050 0.115602 0.090150
0.779660 0.173159 0.000000
0.875151 0.236973 0.000000
0.955047 0.295872 0.000000
1.000000 0.355871 0.000000
0.000000 0.267277 0.169284
0.068544 0.281193 0.156313
0.322484 0.313695 0.144472
0.605554 0.338750 0.089021
0.776883 0.353094 0.000000
0.872160 0.365759 0.000000
0.956420 0.394202 0.000000
1.000000 0.431647 0.000000
0.000000 0.500267 0.183627
0.000000 0.506218 0.165896
0.344945 0.503227 0.186648
0.596979 0.553002 0.137270
0.773404 0.545892 0.078187
0.865354 0.519463 0.000000
0.949767 0.518853 0.000000
1.000000 0.533165 0.000000
0.000000 0.685908 0.225772
0.000000 0.685267 0.217441
0.358709 0.675135 0.272648
0.580682 0.670680 0.257359
0.749264 0.696498 0.214267
0.853086 0.667109 0.189914
0.941222 0.652399 0.152377
1.000000 0.653132 0.000000
0.000000 0.791806 0.292699
0.000000 0.790524 0.298985
0.399237 0.777890 0.382147
0.579400 0.765133 0.376257
0.716732 0.768917 0.365484
0.840421 0.788479 0.346654
0.934417 0.779324 0.324376
1.000000 0.771206 0.273655
0.000000 0.868986 0.377966
0.192721 0.865507 0.387884
0.452461 0.852567 0.473732
0.597009 0.843015 0.490150
0.719692 0.832425 0.482582
0.817563 0.847990 0.470649
0.916411 0.864836 0.444251
1.000000 0.861601 0.410071
0.283146 0.954772 0.478187
0.350774 0.952667 0.494881
0.523827 0.942748 0.564508
0.665187 0.934112 0.618738
0.759945 0.928527 0.615839
0.846891 0.928557 0.609491
0.924254 0.941283 0.593439
1.000000 0.952575 0.558465
0.000000 0.103395 0.353002
0.000000 0.114382 0.354009
0.321660 0.199222 0.349310
0.624384 0.150637 0.361028
0.785428 0.163699 0.293797
0.875578 0.302617 0.297642
0.959472 0.361975 0.264256
1.000000 0.395697 0.178286
0.000000 0.151949 0.357824
0.000000 0.158633 0.358709
0.320836 0.245060 0.354589
0.611536 0.177401 0.338476
0.778225 0.241337 0.304662
0.869902 0.330236 0.298100
0.953948 0.379095 0.263432
1.000000 0.411841 0.181765
0.000000 0.312932 0.385748
0.000000 0.320226 0.382818
0.324193 0.340246 0.371405
0.602289 0.364446 0.352239
0.774411 0.406928 0.342321
0.865263 0.433478 0.325048
0.949493 0.458900 0.291844
1.000000 0.479316 0.217563
0.000000 0.534936 0.408301
0.000000 0.540764 0.403113
0.322759 0.547845 0.395056
0.600122 0.572625 0.403601
0.766140 0.573816 0.389960
0.856687 0.563653 0.373480
0.942870 0.569970 0.345403
1.000000 0.578607 0.282963
0.000000 0.699519 0.416510
0.000000 0.700435 0.419379
0.343572 0.696651 0.434119
0.594324 0.679896 0.457130
0.744350 0.706905 0.446906
0.842069 0.686519 0.431800
0.930083 0.680629 0.409461
1.000000 0.683864 0.364019
0.000000 0.796658 0.438972
0.000000 0.794827 0.448035
0.377752 0.785641 0.474372
0.587823 0.768460 0.514977
0.713863 0.766537 0.505974
0.826017 0.787106 0.502831
0.919860 0.786648 0.491737
1.000000 0.788113 0.463935
0.109957 0.873259 0.485817
0.235721 0.869963 0.494972
0.427466 0.859770 0.524468
0.612512 0.844144 0.585199
0.719234 0.833799 0.573571
0.813931 0.847196 0.570153
0.909392 0.868376 0.563653
0.995727 0.872648 0.546014
0.265568 0.956847 0.540154
0.327459 0.953765 0.547692
0.487098 0.945068 0.586358
0.671717 0.934264 0.673182
0.759030 0.928649 0.667475
0.845823 0.927550 0.662654
0.921263 0.941924 0.654505
0.999634 0.954894 0.633478
0.000000 0.138979 0.608362
0.000000 0.163943 0.616846
0.408362 0.293492 0.629236
0.619684 0.463294 0.626276
0.766873 0.547539 0.662257
0.849271 0.445441 0.555505
0.929290 0.485328 0.532738
1.000000 0.515801 0.501549
0.000000 0.202213 0.611749
0.000000 0.223362 0.616663
0.411749 0.340032 0.628595
0.618067 0.489082 0.628046
0.764004 0.548638 0.656184
0.843809 0.446601 0.544610
0.926055 0.498665 0.534325
1.000000 0.524041 0.499672
0.000000 0.339239 0.608515
0.000000 0.347356 0.606928
0.352422 0.408789 0.610315
0.609308 0.544457 0.627985
0.754360 0.543359 0.624353
0.840208 0.532494 0.575250
0.928618 0.568597 0.567285
1.000000 0.577691 0.523217
0.000000 0.550988 0.625696
0.000000 0.557488 0.625299
0.313359 0.572747 0.622126
0.586938 0.589075 0.616052
0.739101 0.605493 0.606348
0.829679 0.618128 0.596033
0.918639 0.633173 0.580194
1.000000 0.644678 0.546929
0.000000 0.721736 0.631800
0.000000 0.720424 0.630152
0.347295 0.715602 0.628260
0.589685 0.708064 0.631281
0.730861 0.716518 0.636347
0.823636 0.713588 0.627924
0.912566 0.719326 0.613214
1.000000 0.725887 0.583703
0.000000 0.807950 0.612909
0.101472 0.808164 0.619501
0.407507 0.796963 0.627527
0.596124 0.784054 0.646632
0.720546 0.771572 0.654475
0.814328 0.793668 0.657649
0.905730 0.802090 0.649287
0.994598 0.808927 0.629175
0.134981 0.878294 0.615503
0.254673 0.876219 0.621424
0.444434 0.868467 0.639277
0.605066 0.858000 0.664912
0.728481 0.845182 0.686793
0.813565 0.850736 0.680903
0.899565 0.871855 0.679957
0.985657 0.881132 0.667628
0.279728 0.962249 0.647303
0.341375 0.960388 0.652888
0.476844 0.953429 0.667231
0.623682 0.943755 0.694331
0.754086 0.932464 0.730617
0.840940 0.927611 0.723507
0.916075 0.942321 0.720882
0.993011 0.957061 0.711788
0.000000 0.234989 0.765255
0.000000 0.269810 0.768521
0.432685 0.394629 0.773556
0.676020 0.587213 0.780789
0.764981 0.678950 0.780728
0.843961 0.737331 0.811337
0.911009 0.684657 0.770626
0.986633 0.637995 0.712276
0.000000 0.288243 0.762631
0.000000 0.324620 0.766140
0.443671 0.432593 0.771725
0.676570 0.601678 0.780209
0.762844 0.685573 0.779873
0.842557 0.737087 0.809293
0.909606 0.683436 0.766354
0.986267 0.643854 0.712306
0.000000 0.373816 0.750301
0.000000 0.401160 0.752499
0.424201 0.493538 0.759030
0.665705 0.626184 0.773129
0.754849 0.701198 0.775265
0.832761 0.729519 0.795712
0.901732 0.670985 0.743221
0.983764 0.659602 0.707942
0.000000 0.539239 0.754757
0.000000 0.547051 0.753414
0.350225 0.571832 0.749599
0.614679 0.636347 0.753292
0.743954 0.719661 0.768795
0.818418 0.713344 0.766476
0.895811 0.681666 0.722774
0.986419 0.691005 0.702724
0.000000 0.697230 0.760372
0.000000 0.699580 0.759518
0.372107 0.704280 0.755550
0.583795 0.711604 0.750301
0.714412 0.718441 0.743832
0.802945 0.726101 0.736721
0.893187 0.736782 0.727199
0.983978 0.747005 0.709773
0.000000 0.805966 0.750729
0.102113 0.803738 0.749722
0.396185 0.795377 0.746029
0.582879 0.786923 0.745205
0.704768 0.778805 0.741360
0.798672 0.792325 0.748379
0.892638 0.808286 0.745022
0.982574 0.818509 0.731991
0.163607 0.882444 0.745052
0.263493 0.879515 0.745113
0.440589 0.871397 0.746975
0.594324 0.862303 0.750973
0.705226 0.855009 0.750698
0.802914 0.846677 0.752102
0.887633 0.870756 0.754726
0.975402 0.881956 0.745327
0.258183 0.961273 0.750484
0.320073 0.959014 0.751827
0.457557 0.952422 0.756130
0.599054 0.948302 0.765591
0.706203 0.941070 0.762997
0.820981 0.931456 0.775265
0.904662 0.939330 0.771695
0.983795 0.955444 0.768154
0.153017 0.388922 0.851255
0.287297 0.419959 0.852049
0.508202 0.515770 0.853971
0.697536 0.648585 0.862181
0.811032 0.749905 0.873320
0.856443 0.782284 0.869383
0.920409 0.849424 0.902708
0.975097 0.810758 0.882628
0.177890 0.414282 0.845182
0.306554 0.446967 0.845426
0.512230 0.533379 0.849516
0.692683 0.651942 0.857176
0.807889 0.751766 0.870268
0.853361 0.783139 0.867094
0.919005 0.847776 0.900908
0.974365 0.808530 0.879942
0.145510 0.471931 0.840970
0.286290 0.496986 0.841184
0.520195 0.582116 0.843290
0.690455 0.676692 0.852811
0.803952 0.761440 0.868101
0.851743 0.794644 0.867216
0.918456 0.847044 0.898497
0.974578 0.803799 0.872404
0.000000 0.551598 0.835752
0.171145 0.560449 0.833829
0.419226 0.593194 0.829984
0.663142 0.693111 0.841215
0.793545 0.772213 0.864042
0.851835 0.813626 0.869749
0.917937 0.843442 0.892241
0.976745 0.789364 0.852445
0.000000 0.670832 0.833860
0.216281 0.675502 0.832975
0.428077 0.690272 0.829892
0.596246 0.711452 0.825803
0.734768 0.751156 0.832547
0.833494 0.814969 0.855680
0.900908 0.809140 0.855375
0.974701 0.766293 0.808042
0.172366 0.780667 0.834745
0.274174 0.782681 0.835050
0.447028 0.785306 0.832792
0.598077 0.789242 0.829343
0.705379 0.793149 0.825010
0.794064 0.799863 0.822263
0.886290 0.810147 0.817624
0.977539 0.819486 0.807370
0.265080 0.885008 0.848264
0.331212 0.883970 0.848234
0.469429 0.878569 0.845701
0.602411 0.873045 0.842832
0.702022 0.871244 0.838682
0.787625 0.865843 0.823026
0.882109 0.875792 0.825681
0.973602 0.887053 0.818662
0.281590 0.965454 0.852537
0.333867 0.963592 0.852415
0.458076 0.958495 0.852354
0.587793 0.952819 0.850462
0.688045 0.947875 0.841154
0.781033 0.942809 0.825711
0.891478 0.937255 0.828824
0.975647 0.956359 0.831662
0.426642 0.537133 0.917113
0.474800 0.558221 0.917784
0.594629 0.619257 0.918730
0.722499 0.700038 0.922240
0.821164 0.771084 0.929015
0.892515 0.834226 0.934478
0.926940 0.861753 0.932250
0.968902 0.918914 0.955108
0.428229 0.548455 0.914031
0.480995 0.572015 0.914427
0.595117 0.627649 0.915862
0.719356 0.702632 0.919371
0.818082 0.771633 0.926787
0.890776 0.835203 0.933043
0.924834 0.861448 0.930694
0.967926 0.918730 0.954406
0.393530 0.567529 0.911284
0.454200 0.589624 0.911070
0.595544 0.654414 0.911284
0.714656 0.717525 0.916258
0.814145 0.780453 0.924926
0.892760 0.847288 0.934508
0.926177 0.870756 0.932708
0.969970 0.924498 0.956878
0.225895 0.579644 0.905333
0.323278 0.596063 0.904723
0.518761 0.651942 0.904692
0.689723 0.728420 0.909117
0.800656 0.788632 0.920867
0.893492 0.861509 0.936187
0.927947 0.884123 0.935607
0.972503 0.924834 0.956603
0.238956 0.674189 0.903502
0.305791 0.678950 0.902342
0.452277 0.695003 0.899229
0.592615 0.717006 0.895598
0.751888 0.779141 0.906584
0.875181 0.857298 0.928405
0.925078 0.893950 0.934691
0.973571 0.918547 0.950988
0.280735 0.772946 0.904387
0.336309 0.775235 0.903777
0.466194 0.782589 0.901854
0.595605 0.792813 0.899351
0.696284 0.800259 0.896727
0.817166 0.833585 0.906523
0.919524 0.903716 0.931884
0.972168 0.894987 0.928801
0.330968 0.864378 0.908324
0.375647 0.865019 0.908202
0.484840 0.866209 0.906920
0.600671 0.868498 0.905211
0.693629 0.870817 0.902739
0.781735 0.874296 0.899748
0.874571 0.880003 0.895903
0.968200 0.887877 0.889281
0.323308 0.960662 0.925658
0.364385 0.960052 0.925414
0.472145 0.959472 0.925689
0.586664 0.955993 0.922820
0.680659 0.954406 0.918242
0.773739 0.954406 0.911894
0.867033 0.949676 0.895567
0.967468 0.958465 0.898802
0.592004 0.666560 0.974487
0.614710 0.677607 0.974395
0.677150 0.708827 0.973541
0.755184 0.751125 0.973785
0.836301 0.804135 0.974548
0.908476 0.863523 0.976226
0.953277 0.903471 0.976898
0.976013 0.923827 0.974517
0.589380 0.670649 0.973358
0.614343 0.683101 0.973205
0.675868 0.712764 0.972656
0.753170 0.753292 0.972930
0.834836 0.805478 0.973938
0.907622 0.864286 0.975860
0.953033 0.904662 0.976776
0.975799 0.924651 0.974456
0.550134 0.667231 0.972717
0.584161 0.682948 0.972137
0.666682 0.723049 0.970672
0.746700 0.761715 0.972107
0.830900 0.811612 0.973388
0.905852 0.868498 0.975708
0.954070 0.911254 0.977600
0.976562 0.929778 0.975555
0.416938 0.648096 0.973480
0.472511 0.665217 0.972808
0.603815 0.714290 0.970428
0.722866 0.767849 0.970245
0.817899 0.817166 0.972473
0.900999 0.873838 0.975830
0.956390 0.922454 0.979614
0.978332 0.938628 0.977813
0.278355 0.685115 0.972839
0.331823 0.690547 0.972412
0.454170 0.705379 0.970214
0.623896 0.748104 0.968627
0.777127 0.811917 0.969543
0.884184 0.872892 0.974365
0.957977 0.934356 0.981750
0.980682 0.949981 0.980774
0.293553 0.775662 0.973022
0.339361 0.777920 0.972290
0.452674 0.785306 0.970275
0.574762 0.795499 0.967864
0.677424 0.802548 0.965881
0.836484 0.860838 0.970489
0.949859 0.935485 0.981628
0.983703 0.963439 0.984466
0.316258 0.863615 0.975219
0.356329 0.864408 0.974701
0.458808 0.867124 0.973266
0.575769 0.871794 0.971618
0.673579 0.875181 0.970153
0.767361 0.878508 0.968872
0.901915 0.915221 0.973358
0.984741 0.974334 0.986450
0.341497 0.945006 0.979370
0.375952 0.944976 0.979065
0.470130 0.945556 0.978424
0.580774 0.947295 0.977844
0.672847 0.949248 0.976745
0.766567 0.952361 0.975128
0.863920 0.957275 0.972717
0.961151 0.963317 0.968750
