data/fiter_cube/27130762/1023397/file.cube
# Created by Adobe Lightroom plugin Export LUT (1.17.0)
# www.johnrellis.com/lightroom/exportlut.htm
# Preset: 森系文艺人像美食静物_01 云集
# Color profile: C:\Program Files (x86)\Common Files\Adobe\Color\Profiles\Recommended\AdobeRGB1998.icc
LUT_3D_SIZE 5
DOMAIN_MIN 0.000000 0.000000 0.000000
DOMAIN_MAX 0.903226 0.903226 0.903226
0.153536 0.161410 0.168856
0.181765 0.160159 0.167422
0.454932 0.152895 0.158022
0.779965 0.171511 0.180026
0.986694 0.332738 0.346014
0.157443 0.171786 0.173434
0.172152 0.180606 0.174838
0.487678 0.274388 0.152956
0.791958 0.311254 0.196017
0.990845 0.426490 0.382849
0.231357 0.295659 0.252964
0.259831 0.290257 0.276249
0.355871 0.366583 0.275700
0.796994 0.566827 0.291081
0.992645 0.632837 0.484810
0.422400 0.529931 0.445655
0.449592 0.526238 0.465095
0.504906 0.515496 0.524651
0.605035 0.612879 0.487739
0.937469 0.791958 0.578912
0.665522 0.757382 0.676875
0.679622 0.755673 0.686580
0.714778 0.747860 0.715694
0.757961 0.774319 0.750179
0.847013 0.849088 0.739345
0.152804 0.161196 0.177707
0.177981 0.157321 0.194919
0.409735 0.106477 0.233921
0.744442 0.126772 0.282872
0.967590 0.368688 0.435004
0.158907 0.181125 0.189456
0.187625 0.196902 0.205631
0.444312 0.219638 0.228153
0.758694 0.290532 0.302190
0.970672 0.449256 0.461311
0.226627 0.323552 0.271061
0.281773 0.332799 0.304967
0.367315 0.378515 0.319066
0.792905 0.567254 0.384436
0.979889 0.644312 0.546593
0.426612 0.549584 0.461006
0.464027 0.550683 0.485908
0.523461 0.539574 0.539300
0.612024 0.619684 0.517205
0.942992 0.800595 0.616724
0.667597 0.767147 0.683497
0.682277 0.765255 0.692744
0.725032 0.762295 0.726101
0.766598 0.779873 0.762661
0.851194 0.853147 0.751278
0.167391 0.179995 0.293675
0.201694 0.170901 0.331487
0.377325 0.122805 0.400092
0.663813 0.111116 0.464149
0.929412 0.383764 0.571344
0.221622 0.247959 0.303044
0.229709 0.242710 0.340185
0.392126 0.206363 0.414862
0.677363 0.258061 0.476143
0.933898 0.466133 0.593896
0.243900 0.358282 0.370306
0.290440 0.377661 0.389471
0.427527 0.439094 0.450385
0.727779 0.530724 0.540429
0.950530 0.648280 0.655116
0.387213 0.589105 0.499092
0.436988 0.591485 0.514855
0.559106 0.603540 0.576532
0.636683 0.643580 0.592248
0.956909 0.826200 0.726314
0.645838 0.785397 0.688808
0.668513 0.787778 0.700832
0.730465 0.791257 0.738399
0.783413 0.787137 0.788296
0.856718 0.858427 0.777035
0.245853 0.262272 0.525261
0.276616 0.251652 0.548211
0.412146 0.182528 0.615717
0.639124 0.134646 0.652918
0.867918 0.291814 0.682368
0.312749 0.350134 0.531823
0.325383 0.339544 0.552880
0.420996 0.284611 0.614649
0.640681 0.254063 0.654292
0.866575 0.365515 0.685176
0.450080 0.485451 0.527611
0.480720 0.505303 0.539422
0.500664 0.510796 0.608972
0.652308 0.475227 0.665095
0.889677 0.559045 0.719905
0.456153 0.603510 0.611200
0.484169 0.610468 0.617975
0.563622 0.636194 0.642939
0.677974 0.683375 0.688838
0.939239 0.798123 0.800717
0.601556 0.820645 0.734157
0.625605 0.822049 0.739498
0.698360 0.827848 0.759152
0.801572 0.835233 0.806180
0.871946 0.873198 0.823911
0.490242 0.499397 0.780148
0.498756 0.488533 0.789944
0.542443 0.439368 0.821012
0.668727 0.293278 0.867735
0.877165 0.355016 0.879911
0.535760 0.557519 0.778683
0.539849 0.547814 0.788266
0.569574 0.505638 0.819211
0.677241 0.387640 0.866606
0.878660 0.416602 0.881285
0.646540 0.678126 0.766171
0.645686 0.675349 0.777829
0.644465 0.649805 0.810941
0.703365 0.578149 0.861112
0.883085 0.557000 0.885405
0.704372 0.748592 0.784665
0.715969 0.753780 0.787686
0.752224 0.771054 0.796262
0.761929 0.764706 0.847013
0.891966 0.725582 0.893767
0.709102 0.843595 0.844999
0.719570 0.846433 0.847837
0.753780 0.855528 0.856809
0.815579 0.874846 0.875822
0.914244 0.914702 0.915221
