data/fiter_cube/27130762/1023397/file.cube
# Created by Adobe Lightroom plugin Export LUT (1.17.0)
# www.johnrellis.com/lightroom/exportlut.htm
# Preset: 森系文艺人像美食静物_01 云集
# Color profile: C:\Program Files (x86)\Common Files\Adobe\Color\Profiles\Recommended\AdobeRGB1998.icc
LUT_3D_SIZE 8
DOMAIN_MIN 0.000000 0.000000 0.000000
DOMAIN_MAX 0.903226 0.903226 0.903226
0.153536 0.161410 0.168856
0.154391 0.161013 0.168460
0.201205 0.159945 0.166995
0.350378 0.156100 0.161868
0.559777 0.150149 0.155093
0.739986 0.162112 0.169284
0.881102 0.220157 0.231113
0.986694 0.332738 0.346014
0.152804 0.161410 0.168215
0.154238 0.162203 0.168368
0.207706 0.173190 0.165957
0.356268 0.186069 0.160372
0.561852 0.197604 0.154391
0.737484 0.212497 0.170321
0.877104 0.257359 0.233158
0.984375 0.356207 0.349676
0.161563 0.179629 0.177768
0.166171 0.178408 0.181613
0.184695 0.193271 0.180362
0.376379 0.278355 0.160159
0.596796 0.323156 0.153536
0.758755 0.339757 0.186313
0.892241 0.375494 0.269444
0.990448 0.450477 0.391730
0.198306 0.243442 0.217716
0.206210 0.241123 0.223209
0.225162 0.235813 0.245365
0.285161 0.295506 0.231785
0.563714 0.444648 0.204654
0.793149 0.505119 0.236240
0.904936 0.520836 0.329747
0.992248 0.569787 0.450233
0.276341 0.358892 0.299962
0.286107 0.356695 0.306371
0.314305 0.351110 0.330571
0.344152 0.368383 0.353124
0.425849 0.436500 0.325353
0.660883 0.561791 0.323796
0.883574 0.649470 0.399145
0.993805 0.697047 0.524010
0.386786 0.493172 0.410895
0.398962 0.495216 0.420050
0.425727 0.489998 0.440101
0.459663 0.482795 0.475685
0.489570 0.519890 0.477394
0.570397 0.578973 0.452155
0.755001 0.678920 0.474586
0.958618 0.780911 0.566217
0.524376 0.626368 0.543542
0.531426 0.626215 0.548425
0.550072 0.621881 0.561517
0.578149 0.617121 0.585870
0.603845 0.611841 0.618555
0.635340 0.662348 0.606592
0.706722 0.712123 0.590784
0.846220 0.788296 0.614221
0.665522 0.757382 0.676875
0.669703 0.756771 0.679622
0.684321 0.755367 0.690089
0.708553 0.754818 0.709957
0.728023 0.747677 0.729885
0.751217 0.762814 0.751125
0.787167 0.808194 0.746792
0.847013 0.849088 0.739345
0.152804 0.160800 0.168643
0.154788 0.160433 0.170321
0.195102 0.155459 0.174533
0.332097 0.138277 0.175784
0.539147 0.119875 0.180667
0.720882 0.141054 0.202976
0.865782 0.218387 0.264347
0.976867 0.338994 0.371099
0.152743 0.162112 0.169589
0.156130 0.164126 0.171786
0.202029 0.166384 0.173770
0.341558 0.169314 0.176059
0.545800 0.174807 0.181033
0.722805 0.196841 0.205325
0.863798 0.255589 0.266819
0.974548 0.360479 0.373541
0.161074 0.185580 0.181277
0.171359 0.188479 0.188479
0.190158 0.199222 0.191043
0.376287 0.271122 0.178408
0.579248 0.306065 0.185702
0.741421 0.327794 0.222141
0.875456 0.369421 0.296208
0.980041 0.450233 0.409796
0.199008 0.252171 0.223117
0.211429 0.253239 0.231540
0.234745 0.248539 0.254063
0.285924 0.296361 0.243565
0.555688 0.435554 0.225406
0.769772 0.488594 0.262913
0.888334 0.511528 0.348333
0.982940 0.566705 0.462745
0.280797 0.370214 0.308934
0.290837 0.367346 0.314641
0.319738 0.360540 0.336767
0.347570 0.369116 0.361273
0.422522 0.433234 0.333593
0.658442 0.559564 0.338628
0.878325 0.647852 0.420111
0.987793 0.695155 0.535454
0.387396 0.497688 0.414801
0.396582 0.496284 0.420478
0.424170 0.491371 0.440040
0.460060 0.485481 0.475593
0.490761 0.519371 0.483009
0.570733 0.579339 0.460761
0.756161 0.680476 0.485634
0.956420 0.780941 0.577722
0.520562 0.625422 0.541833
0.525750 0.623468 0.544823
0.545800 0.620172 0.558587
0.576043 0.616968 0.584222
0.603998 0.613306 0.617945
0.634150 0.660395 0.608392
0.703212 0.708644 0.591455
0.844053 0.786007 0.615351
0.662257 0.756710 0.675074
0.667109 0.756619 0.678401
0.682399 0.755550 0.689143
0.707301 0.755276 0.709194
0.733608 0.754116 0.735073
0.754726 0.765194 0.755520
0.787320 0.808011 0.748745
0.845640 0.847715 0.739925
0.153353 0.161837 0.185245
0.157534 0.160555 0.193057
0.193820 0.155764 0.211582
0.304448 0.140139 0.240360
0.506279 0.053040 0.270268
0.699672 0.069612 0.297978
0.850462 0.240696 0.367987
0.965637 0.385901 0.464057
0.160800 0.171725 0.187716
0.162478 0.171267 0.196170
0.196994 0.165805 0.215122
0.312230 0.156283 0.240635
0.514427 0.112673 0.264897
0.701167 0.158145 0.300755
0.849943 0.274998 0.370428
0.964874 0.406134 0.467933
0.164126 0.194278 0.203067
0.173281 0.199710 0.208682
0.207858 0.217868 0.227329
0.348608 0.232517 0.241855
0.551385 0.263615 0.273625
0.719997 0.310765 0.322393
0.858824 0.382818 0.395270
0.967651 0.480507 0.491829
0.186465 0.276738 0.244327
0.203464 0.281254 0.251102
0.261173 0.293889 0.283635
0.310338 0.321813 0.293217
0.578943 0.443488 0.313207
0.749538 0.479194 0.365881
0.874052 0.523705 0.443732
0.973083 0.587915 0.535180
0.269108 0.392126 0.321965
0.287755 0.395972 0.332097
0.342107 0.402991 0.366278
0.382300 0.395209 0.405371
0.444709 0.455543 0.383368
0.682673 0.580835 0.410986
0.882597 0.663905 0.504051
0.979065 0.705226 0.591180
0.383642 0.516991 0.426551
0.399512 0.519402 0.436561
0.440681 0.520562 0.463264
0.479835 0.513329 0.494423
0.508690 0.531029 0.513115
0.578698 0.587182 0.493599
0.769467 0.694331 0.528862
0.958648 0.792630 0.629023
0.523095 0.641108 0.552758
0.532616 0.641596 0.558953
0.556176 0.639216 0.573663
0.586664 0.634333 0.596002
0.616144 0.629725 0.627192
0.644068 0.667262 0.627466
0.711147 0.716304 0.614008
0.857664 0.799924 0.645533
0.663203 0.766690 0.681117
0.668605 0.766476 0.684596
0.683925 0.764645 0.694270
0.711391 0.765255 0.714931
0.738827 0.763455 0.739773
0.762020 0.768734 0.765927
0.792508 0.811765 0.759884
0.850004 0.851926 0.752041
0.159365 0.170169 0.243656
0.166262 0.168704 0.255558
0.208621 0.157076 0.294804
0.302739 0.140108 0.324804
0.449805 0.105592 0.361578
0.649012 0.085420 0.409400
0.813291 0.229770 0.459113
0.941863 0.399115 0.541375
0.172915 0.189975 0.251896
0.176486 0.187686 0.262028
0.210666 0.174533 0.297948
0.307256 0.157839 0.329595
0.454932 0.138949 0.363317
0.652705 0.150149 0.411170
0.814145 0.269780 0.464088
0.942138 0.423529 0.548028
0.210208 0.230259 0.252964
0.222110 0.239017 0.259861
0.232334 0.244175 0.301610
0.320745 0.227268 0.343542
0.486458 0.239261 0.380499
0.673457 0.290959 0.428870
0.828244 0.396368 0.498817
0.949248 0.501579 0.574792
0.205356 0.290105 0.301488
0.218723 0.296849 0.308293
0.265690 0.319493 0.331029
0.346166 0.358251 0.369970
0.536492 0.398230 0.409857
0.701259 0.453773 0.465064
0.842832 0.522850 0.533043
0.956115 0.598505 0.606744
0.237400 0.431312 0.373205
0.258305 0.433570 0.377417
0.324926 0.442695 0.396216
0.421363 0.457954 0.444434
0.474830 0.485512 0.453590
0.713619 0.607202 0.515190
0.867887 0.664576 0.586725
0.965911 0.710933 0.653712
0.366674 0.546563 0.453986
0.386023 0.550866 0.463172
0.437781 0.554955 0.486183
0.507500 0.560723 0.527459
0.545006 0.555016 0.562524
0.598169 0.606043 0.545281
0.798947 0.721401 0.596551
0.965118 0.810269 0.698299
0.510460 0.658961 0.563104
0.521508 0.660273 0.569024
0.556023 0.663905 0.588251
0.602777 0.666499 0.617762
0.638666 0.661067 0.646601
0.663630 0.681086 0.659754
0.722225 0.726986 0.645838
0.877653 0.818662 0.687221
0.656519 0.780697 0.687587
0.663264 0.781399 0.691493
0.684413 0.782864 0.704158
0.715480 0.783047 0.724208
0.746517 0.780117 0.747890
0.773526 0.779202 0.777890
0.800229 0.817075 0.777127
0.855833 0.857633 0.769711
0.180087 0.194339 0.352483
0.189090 0.192355 0.363500
0.230045 0.179782 0.398505
0.329473 0.131960 0.454902
0.459724 0.100771 0.480995
0.603723 0.097780 0.502556
0.764553 0.195529 0.539330
0.914458 0.363745 0.602411
0.196933 0.220005 0.359289
0.203281 0.217563 0.369787
0.236271 0.203830 0.402472
0.329046 0.160098 0.455909
0.462470 0.139071 0.483650
0.605463 0.149813 0.503685
0.767453 0.237064 0.543450
0.915526 0.390265 0.607630
0.259556 0.291630 0.361425
0.263493 0.294652 0.374975
0.271031 0.284886 0.407141
0.335912 0.254093 0.460975
0.470314 0.239536 0.491615
0.607843 0.261784 0.506279
0.775570 0.346868 0.558221
0.918791 0.465370 0.623529
0.298344 0.343969 0.381689
0.311284 0.351659 0.387732
0.354559 0.379309 0.408270
0.382910 0.395331 0.464393
0.485969 0.375097 0.506798
0.629999 0.408453 0.530877
0.795010 0.486183 0.590997
0.930449 0.573083 0.654810
0.293309 0.429999 0.441566
0.307317 0.435218 0.446784
0.352575 0.452094 0.463355
0.423377 0.480262 0.490913
0.505333 0.515465 0.525414
0.677424 0.566735 0.575616
0.827146 0.627344 0.634668
0.945861 0.692103 0.697566
0.320165 0.575769 0.509697
0.339117 0.576867 0.512535
0.397559 0.580011 0.522606
0.481239 0.586938 0.544305
0.566735 0.596155 0.583825
0.615167 0.622614 0.594751
0.835599 0.749142 0.674800
0.963439 0.812345 0.753414
0.485084 0.681117 0.588586
0.495857 0.681422 0.591730
0.531823 0.683497 0.603723
0.586725 0.688502 0.626398
0.648707 0.693141 0.661158
0.683833 0.690944 0.693050
0.732387 0.736751 0.679500
0.905028 0.841154 0.737057
0.636011 0.793698 0.695583
0.642512 0.793912 0.698177
0.664576 0.795041 0.707698
0.704036 0.800351 0.728542
0.747738 0.801419 0.754818
0.783047 0.798276 0.784176
0.808042 0.820981 0.797055
0.860533 0.862119 0.788540
0.228794 0.245396 0.492470
0.238010 0.242741 0.500420
0.273320 0.229343 0.524895
0.351568 0.194339 0.567254
0.476448 0.094392 0.613153
0.606958 0.116732 0.622248
0.739712 0.188144 0.635004
0.876707 0.305608 0.664668
0.247868 0.273381 0.493233
0.254093 0.269963 0.500359
0.282841 0.256260 0.524620
0.353796 0.224002 0.566125
0.475196 0.140597 0.612360
0.606409 0.162966 0.621790
0.739132 0.222934 0.634821
0.877287 0.331975 0.667109
0.319188 0.359411 0.501884
0.320195 0.356512 0.508598
0.331121 0.345006 0.531823
0.375555 0.318578 0.569299
0.478737 0.259495 0.614710
0.611170 0.273777 0.626276
0.741115 0.320867 0.639277
0.882933 0.413764 0.678859
0.416388 0.445014 0.488106
0.418463 0.448493 0.497200
0.427985 0.458900 0.529015
0.439734 0.451392 0.571405
0.498207 0.414221 0.616724
0.621881 0.409796 0.636378
0.746792 0.442329 0.649714
0.895933 0.523308 0.700862
0.421118 0.488380 0.529656
0.431769 0.493477 0.533288
0.465980 0.510552 0.545342
0.517113 0.539422 0.564813
0.541741 0.550896 0.608576
0.628504 0.531395 0.642390
0.761257 0.562341 0.667323
0.913268 0.641993 0.729976
0.419348 0.568780 0.577478
0.430793 0.572473 0.581048
0.464454 0.582330 0.590570
0.514519 0.598444 0.606256
0.573327 0.619989 0.627161
0.645289 0.651606 0.657984
0.814847 0.717433 0.722072
0.941741 0.780362 0.783352
0.465492 0.703914 0.646021
0.475319 0.706355 0.648646
0.504570 0.712795 0.655451
0.559380 0.718898 0.666041
0.630426 0.724727 0.682734
0.708003 0.732143 0.717250
0.751186 0.754971 0.725551
0.943511 0.873991 0.813230
0.610590 0.815061 0.723873
0.617334 0.815152 0.725368
0.640681 0.816098 0.731197
0.679927 0.819211 0.743160
0.730678 0.823117 0.762051
0.788510 0.826505 0.793668
0.823606 0.827726 0.825620
0.869474 0.870848 0.816098
0.323796 0.338231 0.632258
0.329717 0.335149 0.636866
0.353460 0.323186 0.653254
0.403662 0.294774 0.680110
0.489052 0.233799 0.713436
0.611658 0.151217 0.741329
0.738918 0.210880 0.747585
0.868223 0.308965 0.763943
0.345617 0.367010 0.634424
0.349920 0.363531 0.638849
0.368841 0.351080 0.654627
0.412543 0.323064 0.680598
0.492988 0.266728 0.714076
0.613886 0.193790 0.743252
0.740963 0.246098 0.749416
0.869749 0.335332 0.766110
0.409125 0.444556 0.634211
0.410498 0.441566 0.638575
0.418585 0.430457 0.653895
0.444984 0.406500 0.679347
0.507195 0.361181 0.712795
0.617700 0.296452 0.745296
0.742519 0.336034 0.750851
0.869505 0.401068 0.767849
0.497597 0.534325 0.626398
0.499123 0.534936 0.632074
0.502434 0.533196 0.650233
0.506676 0.516197 0.675227
0.539696 0.484504 0.708766
0.625635 0.423224 0.747219
0.745388 0.446235 0.753445
0.870939 0.487343 0.771359
0.555169 0.587488 0.626978
0.561639 0.591577 0.629389
0.582940 0.604974 0.636866
0.591119 0.614191 0.665187
0.593042 0.600305 0.703182
0.641382 0.561700 0.743740
0.752804 0.556298 0.760342
0.875303 0.584039 0.777523
0.558160 0.631403 0.666682
0.564202 0.633845 0.668421
0.584588 0.642267 0.674586
0.616815 0.656245 0.684443
0.659022 0.677394 0.698054
0.680018 0.685084 0.736660
0.761807 0.665949 0.768612
0.889799 0.699092 0.795315
0.557855 0.702174 0.706996
0.563531 0.703578 0.708339
0.582971 0.708980 0.713588
0.614466 0.718227 0.722621
0.657404 0.732387 0.736446
0.711513 0.752438 0.755947
0.778256 0.781094 0.783993
0.935943 0.856565 0.857939
0.605859 0.825589 0.774289
0.611017 0.826993 0.775601
0.627222 0.830991 0.779324
0.655634 0.839536 0.786709
0.701595 0.849363 0.797147
0.768673 0.855497 0.812619
0.842008 0.862119 0.845060
0.884520 0.885496 0.855192
0.490242 0.499397 0.780148
0.492287 0.496071 0.782925
0.502068 0.484718 0.793118
0.523980 0.459297 0.810178
0.567712 0.412757 0.833219
0.643732 0.326360 0.860502
0.758541 0.286198 0.876219
0.877165 0.355016 0.879911
0.505608 0.519188 0.780148
0.507134 0.515953 0.782864
0.515007 0.504448 0.792966
0.534478 0.480354 0.810025
0.574884 0.436255 0.833036
0.647181 0.355077 0.860410
0.760128 0.313603 0.876982
0.878050 0.375891 0.880735
0.549096 0.573754 0.778134
0.549676 0.571099 0.780941
0.553765 0.561364 0.791104
0.565454 0.540002 0.807584
0.596429 0.503227 0.830838
0.658503 0.437598 0.858701
0.763790 0.389654 0.878019
0.879301 0.434668 0.881895
0.612268 0.644831 0.772732
0.611383 0.642634 0.775540
0.610132 0.635004 0.785672
0.612634 0.618738 0.802884
0.629694 0.590082 0.826474
0.676020 0.540429 0.854948
0.768460 0.484108 0.879423
0.881285 0.512932 0.883726
0.682673 0.707942 0.758145
0.682216 0.707942 0.761440
0.680842 0.707424 0.773434
0.676326 0.700374 0.793912
0.675502 0.680110 0.819333
0.700649 0.644404 0.849790
0.774197 0.582391 0.882719
0.885039 0.603113 0.887236
0.704311 0.740688 0.777035
0.707942 0.742458 0.778073
0.719905 0.748440 0.781125
0.739590 0.758541 0.785672
0.747951 0.765072 0.805051
0.743557 0.746700 0.840574
0.785153 0.704494 0.877562
0.889830 0.699611 0.891722
0.706813 0.781643 0.810391
0.710201 0.782773 0.811276
0.721614 0.786648 0.814237
0.740963 0.793118 0.819059
0.768673 0.803311 0.826200
0.804990 0.819516 0.836088
0.822019 0.823667 0.870451
0.899351 0.805295 0.900816
0.709102 0.843595 0.844999
0.712306 0.844480 0.845914
0.722927 0.847318 0.848661
0.741390 0.852110 0.853422
0.768368 0.859800 0.860990
0.804807 0.871244 0.872251
0.852689 0.888273 0.889067
0.914244 0.914702 0.915221
