data/fiter_cube/27130762/1023397/file.cube
# Created by Adobe Lightroom plugin Export LUT (1.17.0)
# www.johnrellis.com/lightroom/exportlut.htm
# Preset: 森系文艺人像美食静物_01 云集
# Color profile: C:\Program Files (x86)\Common Files\Adobe\Color\Profiles\Recommended\AdobeRGB1998.icc
LUT_3D_SIZE 32
DOMAIN_MIN 0.0 0.0 0.0
DOMAIN_MAX 1.0 1.0 1.0
0.153536 0.161410 0.168856
0.153170 0.161471 0.168856
0.152834 0.161379 0.168887
0.152712 0.161257 0.168765
0.154391 0.161013 0.168460
0.159152 0.160861 0.168246
0.167819 0.160586 0.167910
0.181765 0.160159 0.167422
0.201205 0.159945 0.166995
0.227543 0.159335 0.166232
0.261631 0.158389 0.165133
0.303105 0.157351 0.163699
0.350378 0.156100 0.161868
0.401709 0.154696 0.159915
0.454932 0.152895 0.158022
0.508415 0.151064 0.156313
0.559777 0.150149 0.155093
0.606653 0.150088 0.155550
0.649622 0.151949 0.157412
0.696315 0.155886 0.161776
0.739986 0.162112 0.169284
0.779965 0.171511 0.180026
0.816556 0.184756 0.193668
0.850156 0.200839 0.211032
0.881102 0.220157 0.231113
0.909972 0.242985 0.254673
0.937255 0.269383 0.281682
0.962860 0.299260 0.312322
0.986694 0.332738 0.346014
1.000000 0.370153 0.383276
1.000000 0.410803 0.423743
1.000000 0.453803 0.466041
0.153414 0.161288 0.168734
0.153262 0.161166 0.168734
0.152743 0.161105 0.168765
0.152743 0.161105 0.168643
0.154604 0.161135 0.168338
0.159487 0.161105 0.168093
0.168399 0.161105 0.167849
0.181979 0.161013 0.167361
0.201480 0.160922 0.166903
0.227817 0.160922 0.166079
0.261662 0.160494 0.164981
0.302953 0.159823 0.163638
0.349676 0.159304 0.161807
0.400855 0.158663 0.159823
0.453803 0.157168 0.157900
0.507225 0.156161 0.156191
0.558038 0.155612 0.155306
0.605280 0.156313 0.155245
0.648157 0.157534 0.157198
0.694545 0.161685 0.161715
0.737697 0.167727 0.168917
0.777462 0.176486 0.179171
0.814054 0.188815 0.192721
0.847684 0.203952 0.209842
0.878752 0.222721 0.229953
0.907927 0.244938 0.252934
0.935363 0.270573 0.280125
0.961242 0.299931 0.310399
0.985351 0.333196 0.344274
1.000000 0.370031 0.381506
1.000000 0.410285 0.421820
1.000000 0.453101 0.464088
0.153170 0.160891 0.168521
0.153017 0.160922 0.168368
0.152865 0.160800 0.168399
0.152987 0.160922 0.168521
0.154910 0.161379 0.168307
0.159884 0.161776 0.168032
0.168887 0.162051 0.167758
0.182681 0.162356 0.167239
0.202335 0.162661 0.166720
0.228428 0.162997 0.165896
0.262394 0.163119 0.164858
0.303563 0.163485 0.163455
0.350500 0.163577 0.161532
0.401038 0.163210 0.159701
0.453864 0.163272 0.157687
0.506981 0.162631 0.156100
0.558007 0.162600 0.155001
0.604852 0.163577 0.155245
0.647761 0.164981 0.157321
0.694148 0.168978 0.161715
0.736965 0.174929 0.169100
0.776547 0.183627 0.179202
0.813046 0.195193 0.192905
0.846677 0.209689 0.209720
0.877806 0.227817 0.229679
0.906981 0.249332 0.252964
0.934508 0.274205 0.279911
0.960510 0.303166 0.310155
0.984710 0.335821 0.343969
1.000000 0.372320 0.381567
1.000000 0.412055 0.421607
1.000000 0.454566 0.463966
0.152926 0.160647 0.168276
0.152743 0.160678 0.168154
0.152743 0.160678 0.168154
0.152926 0.160800 0.168124
0.155032 0.161959 0.168124
0.161196 0.163333 0.167849
0.170504 0.164401 0.167422
0.184726 0.165469 0.167056
0.204471 0.166567 0.166354
0.230900 0.167880 0.165682
0.265049 0.169528 0.164340
0.306035 0.170901 0.162936
0.352575 0.172366 0.161196
0.403113 0.173953 0.159304
0.455818 0.175021 0.157290
0.508659 0.176211 0.155550
0.559106 0.177340 0.154665
0.605554 0.178408 0.155245
0.649134 0.180423 0.157412
0.694118 0.184695 0.161929
0.736110 0.190372 0.169253
0.775143 0.198062 0.179721
0.811612 0.208804 0.193149
0.845548 0.222446 0.210391
0.877104 0.239414 0.230503
0.906676 0.260166 0.254643
0.934539 0.284123 0.281804
0.960601 0.312444 0.312444
0.984710 0.344152 0.346777
1.000000 0.379706 0.383856
1.000000 0.418250 0.423438
1.000000 0.459632 0.465492
0.152804 0.161410 0.168215
0.152987 0.161227 0.168368
0.153140 0.161196 0.168490
0.153262 0.161318 0.168612
0.154238 0.162203 0.168368
0.159182 0.164523 0.167819
0.171542 0.168246 0.167208
0.187564 0.170901 0.166659
0.207706 0.173190 0.165957
0.234348 0.175753 0.165133
0.268772 0.179080 0.163882
0.309789 0.182620 0.162234
0.356268 0.186069 0.160372
0.406470 0.189395 0.158511
0.458778 0.192355 0.156588
0.511467 0.195224 0.155032
0.561852 0.197604 0.154391
0.607904 0.200137 0.155123
0.652613 0.202487 0.157748
0.696529 0.206882 0.162844
0.737484 0.212497 0.170321
0.776028 0.219455 0.181216
0.811917 0.229191 0.195132
0.845640 0.241703 0.212558
0.877104 0.257359 0.233158
0.906554 0.276432 0.257511
0.934356 0.299168 0.284916
0.960296 0.325872 0.315648
0.984375 0.356207 0.349676
1.000000 0.390143 0.386633
1.000000 0.427527 0.426368
1.000000 0.467659 0.468086
0.153628 0.162875 0.169009
0.153780 0.162844 0.169131
0.153902 0.162814 0.169375
0.154360 0.162722 0.169772
0.155123 0.163485 0.169802
0.157382 0.165347 0.169223
0.165408 0.169497 0.168307
0.186252 0.177218 0.166690
0.211185 0.182925 0.165499
0.240452 0.188022 0.164279
0.275364 0.193271 0.162875
0.316747 0.198672 0.161318
0.362799 0.204410 0.159396
0.412970 0.209873 0.157473
0.464942 0.214847 0.155612
0.517174 0.219272 0.154208
0.566583 0.222873 0.153872
0.611994 0.225650 0.155093
0.657832 0.229740 0.158389
0.700649 0.234134 0.164034
0.740871 0.239445 0.172457
0.778958 0.246036 0.184024
0.831754 0.264195 0.209018
0.863706 0.277226 0.229129
0.893156 0.292790 0.252201
0.920653 0.311223 0.277897
0.946380 0.333471 0.306279
0.970367 0.358740 0.337407
0.992493 0.387823 0.371618
1.000000 0.420417 0.408392
1.000000 0.455695 0.446906
1.000000 0.492622 0.486488
0.154971 0.166384 0.170626
0.155276 0.166323 0.170871
0.155764 0.166232 0.171115
0.156680 0.166079 0.171878
0.157443 0.165743 0.173281
0.158968 0.168124 0.172427
0.163516 0.171511 0.171267
0.174838 0.177310 0.169986
0.205173 0.190494 0.166842
0.242374 0.202152 0.164401
0.288426 0.214145 0.161471
0.330938 0.221927 0.159609
0.377600 0.229679 0.157839
0.427771 0.237156 0.155764
0.478859 0.243534 0.154055
0.529656 0.249027 0.153140
0.577142 0.253086 0.153597
0.623865 0.257145 0.155703
0.668757 0.261540 0.160067
0.710994 0.266209 0.167208
0.751492 0.271977 0.177401
0.790219 0.279576 0.191531
0.826535 0.289097 0.209567
0.860349 0.301488 0.230716
0.891234 0.316381 0.255039
0.919524 0.333837 0.281773
0.945556 0.354589 0.310704
0.969451 0.378302 0.342443
0.991638 0.405615 0.376318
1.000000 0.436194 0.412940
1.000000 0.469551 0.451270
1.000000 0.504631 0.490272
0.157443 0.171786 0.173434
0.157900 0.171725 0.173678
0.158541 0.171481 0.174044
0.159609 0.171145 0.174929
0.161166 0.170718 0.176669
0.162448 0.171450 0.177798
0.165194 0.175418 0.176425
0.172152 0.180606 0.174838
0.185702 0.187381 0.173129
0.224460 0.206271 0.169009
0.276280 0.226688 0.164279
0.331670 0.243717 0.159976
0.387793 0.257877 0.156130
0.437263 0.266728 0.154177
0.487678 0.274388 0.152956
0.537407 0.280888 0.152132
0.584955 0.286046 0.152956
0.631922 0.291112 0.156130
0.674403 0.295048 0.161807
0.715053 0.299290 0.169772
0.754299 0.304509 0.181094
0.791958 0.311254 0.196017
0.827512 0.319982 0.214725
0.860685 0.330907 0.236545
0.891112 0.344305 0.261265
0.919127 0.360296 0.288365
0.944945 0.379095 0.317296
0.968841 0.401007 0.348699
0.990845 0.426490 0.382849
1.000000 0.455055 0.419348
1.000000 0.486763 0.457618
1.000000 0.519646 0.495918
0.161563 0.179629 0.177768
0.162020 0.179416 0.178134
0.162783 0.179294 0.178622
0.164218 0.178897 0.179843
0.166171 0.178408 0.181613
0.168246 0.177737 0.184329
0.170138 0.180575 0.184421
0.174838 0.186282 0.182528
0.184695 0.193271 0.180362
0.201419 0.201846 0.178134
0.247410 0.226291 0.173251
0.314641 0.256748 0.165164
0.376379 0.278355 0.160159
0.444953 0.299016 0.153658
0.499123 0.309728 0.151431
0.548058 0.316747 0.151492
0.596796 0.323156 0.153536
0.640894 0.327764 0.157717
0.681453 0.331090 0.164370
0.720607 0.334691 0.173983
0.758755 0.339757 0.186313
0.795224 0.345647 0.202670
0.829953 0.353521 0.221927
0.862303 0.363409 0.244602
0.892241 0.375494 0.269444
0.919707 0.389593 0.296941
0.945190 0.406897 0.326177
0.968750 0.427100 0.357855
0.990448 0.450477 0.391730
1.000000 0.477089 0.427802
1.000000 0.506523 0.465553
1.000000 0.537163 0.503014
0.167361 0.190402 0.184237
0.167971 0.190188 0.184604
0.168856 0.189914 0.185183
0.170687 0.189487 0.186465
0.173129 0.188815 0.188510
0.175631 0.188083 0.191562
0.178195 0.187167 0.195529
0.180972 0.193515 0.193545
0.188205 0.201022 0.191073
0.200839 0.209842 0.187991
0.221347 0.220584 0.185061
0.272801 0.249516 0.179934
0.348028 0.286381 0.170657
0.421546 0.315557 0.162539
0.494301 0.339422 0.156161
0.563928 0.358129 0.151186
0.609979 0.363897 0.154330
0.651789 0.367315 0.160494
0.690700 0.370092 0.168582
0.728176 0.372992 0.179843
0.764645 0.377020 0.193851
0.799557 0.382116 0.210788
0.832670 0.388800 0.230686
0.863767 0.397192 0.253452
0.892760 0.407568 0.279026
0.919799 0.420356 0.306310
0.944976 0.435889 0.335943
0.968475 0.454627 0.367651
0.989990 0.476478 0.402197
1.000000 0.501396 0.438209
1.000000 0.528862 0.475349
1.000000 0.557549 0.512322
0.174960 0.203799 0.192477
0.175753 0.203677 0.193027
0.176699 0.203525 0.193668
0.178714 0.203067 0.195102
0.181552 0.202243 0.197482
0.184970 0.201511 0.200748
0.188388 0.200504 0.205142
0.191196 0.202121 0.208103
0.195804 0.210361 0.205264
0.205509 0.220127 0.202090
0.221622 0.230991 0.198306
0.245762 0.243809 0.194247
0.300877 0.275761 0.189303
0.384466 0.319768 0.179843
0.471778 0.358343 0.168215
0.544579 0.382971 0.163729
0.610803 0.400641 0.160891
0.661555 0.408606 0.164370
0.698573 0.410132 0.174777
0.734890 0.412360 0.187015
0.769986 0.415656 0.202487
0.803922 0.419776 0.220798
0.836240 0.425757 0.241825
0.866575 0.432898 0.265385
0.894835 0.442267 0.291051
0.921172 0.453651 0.318730
0.945739 0.467536 0.348394
0.968688 0.484596 0.380133
0.989807 0.504448 0.414069
1.000000 0.527459 0.449958
1.000000 0.552392 0.486030
1.000000 0.578943 0.522210
0.184970 0.220676 0.203189
0.185672 0.220676 0.203799
0.186831 0.220401 0.204532
0.188968 0.219944 0.206058
0.192386 0.219089 0.208591
0.196170 0.218204 0.212161
0.200473 0.217105 0.216739
0.204440 0.216098 0.222568
0.207828 0.221530 0.222995
0.214755 0.232029 0.219699
0.227573 0.243931 0.215885
0.248325 0.258122 0.211795
0.284611 0.280827 0.209934
0.345281 0.316503 0.205661
0.437751 0.367468 0.196170
0.532860 0.411048 0.182650
0.602838 0.434241 0.181552
0.663569 0.449531 0.184695
0.718410 0.460395 0.191257
0.755673 0.462776 0.205386
0.788327 0.464332 0.223148
0.819577 0.467201 0.243076
0.849332 0.471321 0.264897
0.877379 0.477333 0.289036
0.903685 0.485084 0.315251
0.928466 0.495125 0.342901
0.951598 0.507500 0.372168
0.973083 0.522637 0.403388
0.992920 0.540429 0.436225
1.000000 0.560693 0.470253
1.000000 0.582757 0.504509
1.000000 0.606287 0.538659
0.198306 0.243442 0.217716
0.199161 0.243229 0.218204
0.200351 0.242863 0.218967
0.202701 0.242130 0.220584
0.206210 0.241123 0.223209
0.210666 0.239933 0.226902
0.215518 0.238529 0.231662
0.220554 0.237186 0.237858
0.225162 0.235813 0.245365
0.230625 0.247776 0.243198
0.241764 0.262150 0.240146
0.259739 0.278172 0.236484
0.285161 0.295506 0.231785
0.318059 0.313329 0.225742
0.376684 0.347265 0.222232
0.471748 0.401495 0.214847
0.563714 0.444648 0.204654
0.635981 0.469917 0.202060
0.693324 0.484901 0.209964
0.746548 0.496620 0.221042
0.793149 0.505119 0.236240
0.823270 0.506645 0.257115
0.851987 0.509667 0.279850
0.879271 0.514275 0.303868
0.904936 0.520836 0.329747
0.929076 0.529351 0.357488
0.951659 0.540276 0.387060
0.972747 0.553765 0.417762
0.992248 0.569787 0.450233
1.000000 0.587976 0.483192
1.000000 0.607782 0.516258
1.000000 0.629328 0.549981
0.212772 0.267247 0.233280
0.213748 0.267033 0.233921
0.214969 0.266697 0.234623
0.217655 0.265965 0.236362
0.221439 0.264805 0.239139
0.226261 0.263523 0.242954
0.232334 0.262669 0.248569
0.238773 0.261753 0.255497
0.245274 0.260960 0.264073
0.250950 0.264744 0.270451
0.258701 0.279393 0.267094
0.272190 0.295537 0.263249
0.292607 0.312779 0.258579
0.319951 0.330694 0.252689
0.354009 0.348638 0.245457
0.406775 0.377417 0.241642
0.502861 0.433570 0.236881
0.590112 0.475288 0.230655
0.665064 0.503227 0.226230
0.721004 0.519097 0.238865
0.772610 0.532036 0.254917
0.819669 0.543023 0.274205
0.855406 0.549096 0.296361
0.881895 0.552483 0.321141
0.906798 0.557733 0.347356
0.930297 0.564965 0.375097
0.952392 0.574456 0.404089
0.972992 0.586328 0.434546
0.992096 0.600519 0.466072
1.000000 0.616602 0.498024
1.000000 0.634424 0.530388
1.000000 0.653834 0.562860
0.231357 0.295659 0.252964
0.232486 0.295659 0.253727
0.233799 0.295232 0.254551
0.236759 0.294682 0.256596
0.241093 0.293797 0.259525
0.246464 0.292729 0.263859
0.252842 0.291539 0.269291
0.259831 0.290257 0.276249
0.266911 0.289006 0.284672
0.273899 0.288090 0.294682
0.279789 0.297368 0.296788
0.289586 0.313542 0.292882
0.305211 0.330724 0.288304
0.327306 0.348699 0.282597
0.355871 0.366583 0.275700
0.390204 0.384192 0.267430
0.435706 0.406683 0.262821
0.530144 0.463111 0.261295
0.614527 0.504448 0.259251
0.689235 0.534325 0.257725
0.747311 0.552758 0.270970
0.796994 0.566827 0.291081
0.842008 0.578882 0.314153
0.882475 0.589776 0.339696
0.908843 0.594995 0.366430
0.931853 0.601129 0.394171
0.953552 0.609552 0.423316
0.973785 0.620356 0.454170
0.992645 0.632837 0.484810
1.000000 0.647333 0.516228
1.000000 0.663416 0.547662
1.000000 0.681025 0.579492
0.253239 0.327214 0.275914
0.254490 0.327214 0.276829
0.255833 0.326848 0.277623
0.258671 0.326299 0.279576
0.263249 0.325383 0.282750
0.269047 0.324224 0.287144
0.275792 0.322972 0.292607
0.283268 0.321782 0.299535
0.291020 0.320378 0.307927
0.298711 0.319219 0.317632
0.305608 0.317876 0.328710
0.311864 0.332982 0.325292
0.322881 0.349706 0.320439
0.339574 0.366949 0.314580
0.362219 0.384344 0.307805
0.390845 0.401617 0.299657
0.425147 0.418708 0.290684
0.466865 0.438056 0.285557
0.555352 0.491188 0.287602
0.638087 0.533440 0.290776
0.711788 0.564843 0.294499
0.773068 0.586481 0.305547
0.821012 0.601831 0.330449
0.864012 0.615198 0.357397
0.902373 0.627649 0.386511
0.934478 0.639002 0.417365
0.955535 0.645960 0.446021
0.975219 0.654963 0.475288
0.993469 0.665614 0.504875
1.000000 0.677943 0.534783
1.000000 0.691707 0.564782
1.000000 0.707088 0.595209
0.276341 0.358892 0.299962
0.277379 0.358618 0.300542
0.278843 0.358251 0.301457
0.281682 0.357794 0.303441
0.286107 0.356695 0.306371
0.291844 0.355535 0.310491
0.298558 0.354131 0.315984
0.306188 0.352605 0.322576
0.314305 0.351110 0.330571
0.322515 0.349676 0.339910
0.330205 0.348363 0.350652
0.336706 0.351904 0.357916
0.344152 0.368383 0.353124
0.356451 0.385504 0.347753
0.374121 0.402655 0.341131
0.397223 0.419623 0.333623
0.425849 0.436500 0.325353
0.459815 0.453101 0.315953
0.500725 0.471901 0.310613
0.579950 0.518639 0.315709
0.660883 0.561791 0.323796
0.732723 0.594263 0.332219
0.796567 0.618494 0.340826
0.842557 0.634821 0.368994
0.883574 0.649470 0.399145
0.920012 0.663508 0.431403
0.952270 0.677455 0.464881
0.975982 0.688075 0.495644
0.993805 0.697047 0.524010
1.000000 0.707546 0.552758
1.000000 0.719570 0.581994
1.000000 0.733211 0.611780
0.301183 0.391272 0.325322
0.302464 0.391363 0.326238
0.310796 0.399878 0.334264
0.313725 0.399176 0.336156
0.318120 0.397986 0.339055
0.323674 0.396521 0.342870
0.330327 0.394934 0.348028
0.337865 0.392859 0.354192
0.346044 0.390997 0.361791
0.354498 0.389166 0.370672
0.362707 0.387335 0.380713
0.370123 0.385534 0.391882
0.375891 0.394690 0.393500
0.384192 0.411261 0.387915
0.397223 0.428046 0.381476
0.415259 0.444648 0.374029
0.438666 0.461189 0.365911
0.466987 0.477302 0.357153
0.499794 0.492653 0.347326
0.538598 0.509667 0.342168
0.608362 0.549950 0.349645
0.687160 0.593500 0.362371
0.756771 0.626734 0.375158
0.818051 0.651789 0.388067
0.865263 0.669551 0.412390
0.903716 0.684871 0.444404
0.937804 0.699214 0.476814
0.967681 0.713191 0.509545
0.993347 0.727260 0.542748
1.000000 0.736782 0.571374
1.000000 0.747005 0.599329
1.000000 0.758755 0.628138
0.329656 0.426856 0.354284
0.331731 0.427802 0.355871
0.334142 0.428809 0.357794
0.337835 0.429297 0.360479
0.342748 0.429206 0.364050
0.348577 0.428260 0.368109
0.355352 0.426703 0.373144
0.362829 0.424964 0.379095
0.370947 0.423102 0.386328
0.379614 0.421271 0.394720
0.388220 0.419471 0.404273
0.396338 0.417609 0.414954
0.403388 0.415686 0.426429
0.408911 0.430762 0.422217
0.418097 0.447089 0.416144
0.431861 0.463478 0.409644
0.450141 0.479622 0.402075
0.473030 0.495186 0.393957
0.500481 0.510307 0.385443
0.532097 0.524956 0.376257
0.569360 0.541161 0.371374
0.631067 0.576074 0.380255
0.708248 0.620600 0.397192
0.776089 0.654902 0.414160
0.835325 0.680995 0.430518
0.884733 0.700679 0.451240
0.921599 0.716793 0.484504
0.953918 0.731930 0.518029
0.981811 0.746456 0.551263
1.000000 0.760800 0.584863
1.000000 0.774105 0.617487
1.000000 0.783993 0.645075
0.357244 0.459754 0.381720
0.359167 0.460761 0.383398
0.361486 0.461646 0.385199
0.365118 0.462013 0.387732
0.369940 0.461921 0.391180
0.375616 0.461097 0.395178
0.382177 0.459632 0.399908
0.389471 0.458015 0.405585
0.397681 0.456367 0.412512
0.406317 0.454505 0.420508
0.415076 0.452796 0.429603
0.423713 0.451026 0.439734
0.431373 0.449134 0.450538
0.437446 0.452064 0.457557
0.443702 0.467964 0.452155
0.453559 0.483680 0.446113
0.467323 0.499153 0.439307
0.485359 0.514214 0.432074
0.507591 0.528985 0.424262
0.534112 0.543420 0.416175
0.564416 0.557305 0.407752
0.600122 0.572900 0.403235
0.654231 0.602594 0.412482
0.729458 0.647730 0.433295
0.795438 0.682887 0.453529
0.852873 0.709987 0.472694
0.902739 0.730770 0.490730
0.938933 0.747463 0.523003
0.969238 0.762875 0.556817
0.994751 0.777584 0.590784
1.000000 0.791867 0.624750
1.000000 0.806180 0.658961
0.386786 0.493172 0.410895
0.388556 0.494118 0.412390
0.390845 0.494881 0.414221
0.394354 0.495338 0.416785
0.398962 0.495216 0.420050
0.404425 0.494453 0.423804
0.410681 0.493233 0.428290
0.417792 0.491554 0.433661
0.425727 0.489998 0.440101
0.434241 0.488228 0.447639
0.442969 0.486549 0.456062
0.451637 0.484688 0.465553
0.459663 0.482795 0.475685
0.466926 0.480995 0.486488
0.472206 0.489448 0.488136
0.479103 0.504662 0.483040
0.489570 0.519890 0.477394
0.503899 0.535027 0.471626
0.522179 0.549950 0.465431
0.544366 0.564630 0.458869
0.570397 0.578973 0.452155
0.599878 0.592889 0.444953
0.634241 0.607965 0.440986
0.681331 0.633021 0.450416
0.755001 0.678920 0.474586
0.818997 0.714687 0.497200
0.874327 0.742367 0.518364
0.921782 0.763851 0.538781
0.958618 0.780911 0.566217
0.986053 0.796170 0.600702
1.000000 0.810483 0.634791
1.000000 0.824277 0.668940
0.422400 0.529931 0.445655
0.423774 0.530358 0.446754
0.425299 0.530449 0.447852
0.427955 0.530266 0.449683
0.431952 0.529839 0.452430
0.436866 0.528954 0.455818
0.442786 0.527642 0.459968
0.449592 0.526238 0.465095
0.457435 0.524895 0.471290
0.465736 0.523522 0.478401
0.474403 0.522148 0.486519
0.483040 0.520684 0.495277
0.491096 0.519005 0.504570
0.498543 0.517235 0.514366
0.504906 0.515496 0.524651
0.509667 0.528801 0.521233
0.517113 0.543175 0.516411
0.527703 0.557488 0.511315
0.541802 0.571740 0.505943
0.559411 0.585687 0.500145
0.580468 0.599481 0.494148
0.605035 0.612879 0.487739
0.632654 0.625788 0.480842
0.664637 0.639643 0.476387
0.705043 0.659876 0.483925
0.776730 0.705776 0.509636
0.838895 0.741878 0.533776
0.892088 0.769986 0.556664
0.937469 0.791958 0.578912
0.974548 0.809018 0.602075
0.999145 0.823972 0.637232
1.000000 0.837858 0.671809
0.455268 0.561456 0.477516
0.456580 0.561913 0.478492
0.458045 0.562097 0.479591
0.460578 0.562005 0.481392
0.464240 0.561547 0.483833
0.468666 0.560601 0.486793
0.474037 0.559503 0.490578
0.480201 0.558160 0.495094
0.487343 0.556970 0.500633
0.494972 0.555535 0.506920
0.503136 0.554253 0.514244
0.511376 0.552911 0.522148
0.519280 0.551415 0.530663
0.526848 0.549950 0.539696
0.533593 0.548425 0.549248
0.539086 0.551049 0.555596
0.544396 0.564782 0.551629
0.552422 0.578637 0.547295
0.563439 0.592493 0.542931
0.577722 0.606287 0.538323
0.595148 0.619928 0.533318
0.615717 0.633356 0.528252
0.639460 0.646479 0.522759
0.665949 0.659083 0.516869
0.693660 0.669703 0.509453
0.730373 0.687770 0.516747
0.798154 0.731838 0.542931
0.858213 0.767971 0.568536
0.909361 0.796292 0.592950
0.952239 0.818387 0.616510
0.987427 0.835416 0.639704
1.000000 0.849851 0.672358
0.492073 0.595941 0.512718
0.493355 0.596338 0.513695
0.494606 0.596490 0.514672
0.496712 0.596277 0.516106
0.499763 0.595697 0.518029
0.503532 0.594659 0.520531
0.508080 0.593408 0.523644
0.513481 0.592004 0.527428
0.519615 0.590448 0.532067
0.526390 0.588861 0.537407
0.533471 0.587274 0.543511
0.540978 0.585748 0.550408
0.548394 0.584161 0.557916
0.555505 0.582605 0.565911
0.562005 0.580804 0.574273
0.567803 0.579095 0.583093
0.572137 0.586053 0.584588
0.577844 0.599023 0.580682
0.586297 0.612299 0.576806
0.597650 0.625849 0.573053
0.612055 0.639338 0.569146
0.629267 0.652674 0.564965
0.649195 0.665553 0.560296
0.671717 0.677913 0.555261
0.696590 0.689662 0.549554
0.724331 0.701381 0.544305
0.760678 0.720027 0.553002
0.821225 0.759213 0.577569
0.878843 0.795041 0.604486
0.927306 0.823026 0.630060
0.967346 0.844785 0.654810
0.999268 0.861540 0.679347
0.524376 0.626368 0.543542
0.525597 0.626734 0.544457
0.526757 0.626947 0.545342
0.528771 0.626734 0.546715
0.531426 0.626215 0.548425
0.534966 0.625360 0.550744
0.539269 0.624323 0.553674
0.544305 0.623163 0.557244
0.550072 0.621881 0.561517
0.556573 0.620752 0.566644
0.563470 0.619532 0.572351
0.570794 0.618280 0.578820
0.578149 0.617121 0.585870
0.585260 0.615839 0.593408
0.592004 0.614405 0.601343
0.598260 0.613092 0.609735
0.603845 0.611841 0.618555
0.608179 0.623377 0.616266
0.614649 0.636194 0.613062
0.623743 0.649256 0.609949
0.635340 0.662348 0.606592
0.649500 0.675349 0.603143
0.666224 0.688045 0.599481
0.685328 0.700313 0.595300
0.706722 0.712123 0.590784
0.730465 0.723354 0.585779
0.756344 0.734157 0.580499
0.792172 0.753445 0.590539
0.846220 0.788296 0.614221
0.901091 0.823545 0.642451
0.946532 0.850950 0.669276
0.983062 0.871946 0.695186
0.558404 0.658289 0.575738
0.559319 0.658564 0.576471
0.560204 0.658534 0.577142
0.561852 0.658198 0.578149
0.564172 0.657618 0.579644
0.567224 0.656764 0.581598
0.571008 0.655695 0.584100
0.575647 0.654688 0.587335
0.580987 0.653529 0.591211
0.587060 0.652522 0.595911
0.593591 0.651423 0.601190
0.600641 0.650568 0.607294
0.607752 0.649592 0.613886
0.614893 0.648585 0.621057
0.621607 0.647456 0.628473
0.627985 0.646296 0.636316
0.633845 0.645228 0.644587
0.638819 0.647578 0.650324
0.643824 0.659846 0.647730
0.650874 0.672419 0.644953
0.660273 0.685145 0.642298
0.671962 0.697749 0.639551
0.685817 0.710140 0.636469
0.701961 0.722225 0.633082
0.720241 0.733944 0.629511
0.740658 0.745174 0.625422
0.763241 0.756008 0.621180
0.787778 0.766445 0.616602
0.822324 0.785489 0.627131
0.870481 0.816495 0.649897
0.922454 0.850919 0.679164
0.964508 0.877256 0.706844
0.591547 0.689357 0.607080
0.592370 0.689509 0.607630
0.593133 0.689570 0.608270
0.594690 0.689357 0.609277
0.596979 0.688960 0.610803
0.600214 0.688533 0.612940
0.604303 0.688167 0.615869
0.609339 0.687953 0.619532
0.615198 0.687800 0.623987
0.621759 0.687739 0.629145
0.628809 0.687678 0.634943
0.636225 0.687587 0.641260
0.643702 0.687434 0.648035
0.651057 0.687068 0.655116
0.658137 0.686519 0.662440
0.664668 0.685725 0.669947
0.670832 0.685023 0.677790
0.676539 0.684443 0.686122
0.681239 0.691188 0.688441
0.686793 0.703120 0.686275
0.694301 0.715236 0.684108
0.703761 0.727321 0.681880
0.715114 0.739193 0.679377
0.728481 0.750851 0.676661
0.743801 0.762203 0.673823
0.761074 0.773190 0.670619
0.780301 0.783841 0.667262
0.801541 0.794156 0.663661
0.824674 0.804227 0.659998
0.857542 0.822843 0.671077
0.899840 0.850065 0.692958
0.947417 0.882353 0.722499
0.630854 0.725673 0.644160
0.631495 0.725673 0.644587
0.632044 0.725582 0.644984
0.633356 0.725307 0.645808
0.635309 0.724819 0.647059
0.637964 0.724269 0.648829
0.641444 0.723720 0.651179
0.645686 0.723171 0.654231
0.650629 0.722652 0.657862
0.656275 0.722255 0.662196
0.662348 0.721767 0.667048
0.668910 0.721370 0.672541
0.675563 0.720912 0.678401
0.682338 0.720424 0.684749
