data/fiter_cube/59424107/1023393/file.cube
# Created by Adobe Lightroom plugin Export LUT (1.17.0)
# www.johnrellis.com/lightroom/exportlut.htm
# Preset: 翠绿色_03 云集
# Color profile: C:\Program Files (x86)\Common Files\Adobe\Color\Profiles\Recommended\AdobeRGB1998.icc
LUT_3D_SIZE 32
DOMAIN_MIN 0.0 0.0 0.0
DOMAIN_MAX 1.0 1.0 1.0
0.068940 0.080568 0.061891
0.069856 0.080446 0.062318
0.070680 0.080995 0.062226
0.074403 0.081788 0.062470
0.085054 0.083742 0.062287
0.105684 0.087190 0.061402
0.136751 0.091005 0.059510
0.178927 0.093782 0.054871
0.234409 0.093599 0.044312
0.303014 0.087007 0.022461
0.381353 0.070649 0.000000
0.463447 0.030671 0.000000
0.543420 0.000000 0.000000
0.616358 0.000000 0.000000
0.677485 0.056397 0.000000
0.728115 0.095766 0.000000
0.771359 0.128847 0.000000
0.808316 0.160555 0.000000
0.839078 0.188876 0.000000
0.866209 0.215274 0.000000
0.890532 0.240940 0.000000
0.912566 0.265812 0.000000
0.932555 0.289769 0.000000
0.950774 0.313207 0.000000
0.967468 0.336156 0.000000
0.982757 0.358740 0.000000
0.996918 0.381598 0.000000
1.000000 0.404669 0.000000
1.000000 0.428321 0.000000
1.000000 0.453132 0.000000
1.000000 0.479408 0.118502
1.000000 0.507561 0.181552
0.068818 0.080903 0.062287
0.069734 0.081117 0.062257
0.070619 0.081331 0.062196
0.074372 0.082460 0.061952
0.084810 0.085420 0.062104
0.105440 0.089387 0.061128
0.136538 0.093690 0.059174
0.178378 0.097597 0.053986
0.233860 0.098268 0.042878
0.302495 0.093355 0.020661
0.380529 0.081117 0.000000
0.462531 0.061677 0.000000
0.542443 0.033295 0.000000
0.615442 0.050080 0.000000
0.676478 0.079469 0.000000
0.727199 0.110323 0.000000
0.770413 0.139559 0.000000
0.807248 0.167880 0.000000
0.837949 0.194217 0.000000
0.865080 0.220218 0.000000
0.889464 0.244724 0.000000
0.911528 0.268376 0.000000
0.931701 0.292119 0.000000
0.950011 0.315251 0.000000
0.966735 0.337743 0.000000
0.982147 0.360021 0.000000
0.996399 0.382635 0.000000
1.000000 0.405585 0.000000
1.000000 0.429053 0.000000
1.000000 0.453559 0.000000
1.000000 0.479713 0.115450
1.000000 0.507836 0.179843
0.068971 0.081849 0.063050
0.069520 0.081788 0.062623
0.070375 0.082338 0.062531
0.074128 0.083833 0.061799
0.084962 0.087282 0.061433
0.105104 0.092439 0.060761
0.136172 0.097688 0.058656
0.177890 0.102510 0.052735
0.233341 0.104250 0.040833
0.301976 0.101595 0.017975
0.379889 0.093263 0.000000
0.462043 0.082094 0.000000
0.541955 0.073915 0.000000
0.614923 0.082002 0.000000
0.675807 0.101595 0.000000
0.726741 0.125765 0.000000
0.769863 0.152316 0.000000
0.806546 0.178225 0.000000
0.837278 0.202853 0.000000
0.864408 0.226749 0.000000
0.888823 0.250278 0.000000
0.911040 0.273289 0.000000
0.931151 0.296330 0.000000
0.949554 0.318578 0.000000
0.966339 0.340673 0.000000
0.981781 0.362585 0.000000
0.996063 0.384924 0.000000
1.000000 0.407446 0.000000
1.000000 0.430732 0.000000
1.000000 0.455116 0.000000
1.000000 0.480812 0.113588
1.000000 0.508904 0.178714
0.068818 0.084169 0.064088
0.069245 0.084443 0.064057
0.069673 0.085054 0.063539
0.072633 0.085908 0.063325
0.082826 0.090913 0.061921
0.104891 0.099153 0.059388
0.135714 0.106569 0.056245
0.178012 0.112886 0.048798
0.233463 0.117525 0.034241
0.301976 0.118563 0.011078
0.380011 0.115969 0.000000
0.462074 0.112398 0.000000
0.541833 0.113222 0.000000
0.614282 0.122286 0.000000
0.675380 0.136812 0.000000
0.726253 0.156405 0.000000
0.769436 0.177584 0.000000
0.805844 0.199466 0.000000
0.836332 0.220432 0.000000
0.863371 0.241642 0.000000
0.887816 0.262486 0.000000
0.910033 0.283879 0.000000
0.930297 0.305333 0.000000
0.948852 0.326452 0.000000
0.965850 0.347692 0.000000
0.981415 0.368933 0.000000
0.995789 0.390478 0.000000
1.000000 0.412543 0.000000
1.000000 0.435218 0.000000
1.000000 0.458869 0.000000
1.000000 0.484138 0.109926
1.000000 0.511559 0.176150
0.067842 0.088624 0.066804
0.067720 0.089235 0.066743
0.068605 0.090028 0.066255
0.070924 0.091279 0.064881
0.078523 0.094392 0.063355
0.098360 0.105104 0.060121
0.132326 0.118257 0.052979
0.177188 0.129458 0.042023
0.233127 0.137209 0.024781
0.301732 0.142824 0.000000
0.379828 0.146242 0.000000
0.461677 0.149233 0.000000
0.541405 0.155642 0.000000
0.613886 0.165377 0.000000
0.674983 0.179049 0.000000
0.725734 0.194217 0.000000
0.769100 0.211429 0.000000
0.805234 0.228305 0.000000
0.835813 0.245853 0.000000
0.862821 0.263462 0.000000
0.887144 0.281559 0.000000
0.909361 0.300664 0.000000
0.929686 0.319829 0.000000
0.948302 0.339422 0.000000
0.965301 0.358862 0.000000
0.980987 0.378973 0.000000
0.995392 0.399268 0.000000
1.000000 0.420294 0.000000
1.000000 0.442023 0.000000
1.000000 0.464790 0.000000
1.000000 0.489174 0.104372
1.000000 0.515740 0.172732
0.065675 0.096834 0.070893
0.065461 0.097383 0.071199
0.066224 0.098665 0.070680
0.068482 0.101411 0.067964
0.074586 0.103883 0.065522
0.089113 0.110201 0.062745
0.120882 0.126619 0.056275
0.166690 0.143893 0.041047
0.231388 0.161379 0.012207
0.302251 0.173434 0.000000
0.380743 0.182895 0.000000
0.462684 0.191379 0.000000
0.541955 0.200748 0.000000
0.614374 0.212253 0.000000
0.675227 0.224002 0.000000
0.725704 0.236454 0.000000
0.769039 0.250309 0.000000
0.805020 0.263584 0.000000
0.835416 0.276982 0.000000
0.862486 0.291356 0.000000
0.886900 0.306371 0.000000
0.909178 0.322484 0.000000
0.934539 0.345434 0.000000
0.952514 0.362615 0.000000
0.968994 0.380102 0.000000
0.984070 0.398138 0.000000
0.998016 0.416602 0.000000
1.000000 0.435676 0.000000
1.000000 0.455909 0.000000
1.000000 0.477363 0.000000
1.000000 0.500664 0.109499
1.000000 0.526024 0.176883
0.060548 0.110506 0.078309
0.060334 0.111208 0.078218
0.061067 0.112795 0.077699
0.063569 0.116670 0.075471
0.068330 0.120485 0.068238
0.082033 0.125460 0.065827
0.106294 0.135103 0.060792
0.151247 0.157076 0.046082
0.212314 0.178531 0.014862
0.293339 0.200565 0.000000
0.382666 0.220462 0.000000
0.466407 0.235203 0.000000
0.546990 0.250889 0.000000
0.618769 0.263432 0.000000
0.678157 0.273442 0.000000
0.728328 0.283299 0.000000
0.771145 0.293400 0.000000
0.806729 0.303044 0.000000
0.837034 0.313390 0.000000
0.864073 0.324620 0.000000
0.888640 0.336858 0.000000
0.911223 0.350835 0.000000
0.931823 0.365545 0.000000
0.950561 0.380957 0.000000
0.967590 0.396887 0.000000
0.983062 0.413245 0.000000
0.997162 0.430243 0.000000
1.000000 0.447944 0.000000
1.000000 0.466773 0.000000
1.000000 0.486885 0.000000
1.000000 0.508721 0.098085
1.000000 0.532952 0.170840
0.044862 0.129549 0.089052
0.044373 0.130159 0.088991
0.045838 0.132021 0.088167
0.050385 0.136385 0.085512
0.060365 0.142977 0.080446
0.071260 0.145998 0.070802
0.093874 0.154910 0.065858
0.129488 0.167971 0.056825
0.188754 0.194461 0.026246
0.265202 0.220951 0.000000
0.357946 0.247532 0.000000
0.457618 0.273167 0.000000
0.542870 0.291508 0.000000
0.616175 0.306706 0.000000
0.677119 0.319738 0.000000
0.728359 0.331029 0.000000
0.770535 0.337835 0.000000
0.805814 0.343877 0.000000
0.836027 0.350958 0.000000
0.863005 0.358770 0.000000
0.887572 0.368017 0.000000
0.910124 0.378759 0.000000
0.930755 0.390631 0.000000
0.949523 0.403449 0.000000
0.966583 0.417212 0.000000
0.982086 0.431525 0.000000
0.996307 0.446509 0.000000
1.000000 0.462562 0.000000
1.000000 0.479744 0.000000
1.000000 0.498390 0.000000
1.000000 0.518791 0.084199
1.000000 0.541680 0.163333
0.009400 0.154482 0.103578
0.009430 0.155734 0.103426
0.010651 0.157717 0.102419
0.015717 0.162020 0.099886
0.030091 0.169039 0.094392
0.050965 0.175845 0.079133
0.076875 0.179385 0.074861
0.111238 0.193210 0.066255
0.160220 0.209812 0.046815
0.235599 0.241154 0.000000
0.325628 0.272007 0.000000
0.425391 0.301305 0.000000
0.524834 0.328588 0.000000
0.612634 0.351659 0.000000
0.674372 0.362524 0.000000
0.725856 0.371649 0.000000
0.768948 0.379400 0.000000
0.805081 0.386755 0.000000
0.835233 0.390723 0.000000
0.862272 0.395605 0.000000
0.886748 0.401984 0.000000
0.909300 0.409613 0.000000
0.929931 0.418830 0.000000
0.948669 0.429206 0.000000
0.965728 0.440406 0.000000
0.981292 0.452430 0.000000
0.995514 0.465370 0.000000
1.000000 0.479561 0.000000
1.000000 0.494820 0.000000
1.000000 0.511803 0.000000
1.000000 0.530632 0.065644
1.000000 0.551995 0.155459
0.000000 0.185702 0.121614
0.000000 0.187198 0.120821
0.000000 0.189303 0.119753
0.000000 0.193881 0.116854
0.000000 0.201083 0.112154
0.005676 0.210452 0.105501
0.047089 0.215763 0.084443
0.088563 0.222477 0.079713
0.135927 0.240574 0.065980
0.199466 0.260197 0.026551
0.290745 0.294865 0.000000
0.389563 0.328435 0.000000
0.491402 0.358648 0.000000
0.586389 0.385138 0.000000
0.665400 0.404974 0.000000
0.722988 0.415167 0.000000
0.766629 0.420203 0.000000
0.802884 0.424292 0.000000
0.833951 0.428412 0.000000
0.861601 0.433753 0.000000
0.886259 0.437995 0.000000
0.908537 0.442817 0.000000
0.928954 0.448890 0.000000
0.947570 0.456672 0.000000
0.964630 0.465370 0.000000
0.980194 0.475196 0.000000
0.994537 0.486122 0.000000
1.000000 0.498268 0.000000
1.000000 0.511803 0.000000
1.000000 0.527062 0.000000
1.000000 0.544305 0.013703
1.000000 0.564050 0.146242
0.000000 0.223209 0.142245
0.000000 0.224796 0.141360
0.000000 0.226902 0.140078
0.000000 0.231571 0.137240
0.000000 0.238773 0.132815
0.000000 0.248539 0.126528
0.000000 0.258427 0.110597
0.051759 0.263249 0.093751
0.107332 0.274693 0.085145
0.169680 0.295842 0.064942
0.248173 0.317449 0.000000
0.351446 0.353460 0.000000
0.454994 0.387671 0.000000
0.554833 0.416999 0.000000
0.639734 0.438788 0.000000
0.707637 0.452796 0.000000
0.762509 0.462623 0.000000
0.799832 0.464149 0.000000
0.831174 0.465644 0.000000
0.859220 0.468116 0.000000
0.884520 0.472175 0.000000
0.907591 0.477333 0.000000
0.928069 0.481117 0.000000
0.946715 0.486275 0.000000
0.963775 0.492531 0.000000
0.979370 0.500145 0.000000
0.993683 0.508721 0.000000
1.000000 0.518944 0.000000
1.000000 0.530449 0.000000
1.000000 0.543786 0.000000
1.000000 0.559228 0.000000
1.000000 0.577295 0.134249
0.000000 0.266911 0.165286
0.000000 0.268467 0.164523
0.000000 0.270542 0.163394
0.000000 0.275151 0.160647
0.000000 0.282414 0.156191
0.000000 0.291966 0.150820
0.000000 0.303929 0.144045
0.000000 0.311864 0.109560
0.066377 0.316381 0.105562
0.135622 0.333379 0.091432
0.213413 0.356146 0.064576
0.304417 0.378820 0.000000
0.423713 0.420783 0.000000
0.527947 0.453895 0.000000
0.619318 0.478126 0.000000
0.692042 0.492409 0.000000
0.750271 0.501427 0.000000
0.797086 0.506981 0.000000
0.833433 0.509209 0.000000
0.861082 0.509026 0.000000
0.886076 0.510246 0.000000
0.908812 0.512902 0.000000
0.929534 0.516503 0.000000
0.948089 0.519860 0.000000
0.964752 0.523613 0.000000
0.980072 0.528740 0.000000
0.994141 0.535210 0.000000
1.000000 0.543023 0.000000
1.000000 0.552453 0.000000
1.000000 0.563653 0.000000
1.000000 0.577111 0.000000
1.000000 0.593133 0.124239
0.000000 0.317510 0.191684
0.000000 0.318700 0.190829
0.000000 0.320714 0.189487
0.000000 0.325078 0.186984
0.000000 0.331853 0.182803
0.000000 0.340764 0.177462
0.000000 0.352117 0.171450
0.000000 0.364324 0.158999
0.000000 0.369543 0.124269
0.089876 0.374517 0.119051
0.176028 0.396857 0.099611
0.268040 0.421668 0.065736
0.370092 0.445136 0.000000
0.485328 0.477974 0.000000
0.584344 0.506859 0.000000
0.664088 0.524010 0.000000
0.727810 0.533684 0.000000
0.778805 0.539086 0.000000
0.820432 0.542351 0.000000
0.855924 0.545495 0.000000
0.882994 0.545830 0.000000
0.906035 0.545983 0.000000
0.927001 0.547662 0.000000
0.946166 0.550256 0.000000
0.963500 0.552972 0.000000
0.978820 0.555810 0.000000
0.992981 0.560266 0.000000
1.000000 0.566033 0.000000
1.000000 0.573449 0.000000
1.000000 0.582788 0.000000
1.000000 0.594293 0.000000
1.000000 0.608515 0.105684
0.000000 0.368505 0.218479
0.000000 0.369787 0.217411
0.000000 0.371679 0.216342
0.000000 0.375708 0.214023
0.000000 0.381933 0.210422
0.000000 0.390295 0.205264
0.000000 0.400824 0.199649
0.000000 0.413153 0.192721
0.000000 0.422370 0.159030
0.000000 0.427436 0.140444
0.128878 0.436255 0.132387
0.226322 0.460334 0.109590
0.326696 0.483284 0.071473
0.432837 0.504326 0.000000
0.543786 0.530816 0.000000
0.632746 0.552789 0.000000
0.702235 0.564172 0.000000
0.757961 0.570275 0.000000
0.803525 0.573327 0.000000
0.841825 0.575799 0.000000
0.874876 0.578210 0.000000
0.903166 0.580804 0.000000
0.924407 0.580316 0.000000
0.943786 0.580835 0.000000
0.961517 0.582269 0.000000
0.977752 0.584283 0.000000
0.991943 0.586450 0.000000
1.000000 0.590356 0.000000
1.000000 0.595819 0.000000
1.000000 0.603174 0.000000
1.000000 0.612787 0.000000
1.000000 0.625177 0.082277
0.000000 0.420996 0.246616
0.000000 0.422339 0.245884
0.000000 0.423896 0.244907
0.000000 0.427710 0.242527
0.000000 0.433265 0.239139
0.000000 0.440955 0.234623
0.000000 0.450446 0.229465
0.000000 0.461646 0.222873
0.000000 0.474708 0.215885
0.000000 0.480690 0.164401
0.064332 0.484932 0.158938
0.179568 0.497444 0.147555
0.282689 0.519554 0.123079
0.387213 0.539940 0.084352
0.493111 0.557916 0.000000
0.595727 0.577111 0.000000
0.673579 0.592432 0.000000
0.734768 0.599664 0.000000
0.784543 0.603418 0.000000
0.826291 0.605524 0.000000
0.861784 0.607355 0.000000
0.892485 0.609461 0.000000
0.919402 0.611780 0.000000
0.941253 0.612482 0.000000
0.959167 0.612116 0.000000
0.975677 0.612482 0.000000
0.990967 0.613611 0.000000
1.000000 0.615656 0.000000
1.000000 0.619318 0.000000
1.000000 0.624994 0.000000
1.000000 0.632746 0.000000
1.000000 0.643275 0.040864
0.000000 0.473335 0.276036
0.000000 0.474525 0.275120
0.000000 0.476020 0.274144
0.000000 0.479377 0.272374
0.000000 0.484443 0.269078
0.000000 0.491798 0.265324
0.000000 0.500542 0.260472
0.000000 0.510857 0.254917
0.000000 0.522271 0.248631
0.000000 0.531792 0.222263
0.000000 0.536095 0.185733
0.129397 0.539391 0.180056
0.236820 0.554131 0.165408
0.341955 0.573297 0.140475
0.446326 0.590234 0.104189
0.548150 0.604974 0.000000
0.639368 0.615839 0.000000
0.708339 0.626581 0.000000
0.763516 0.631556 0.000000
0.809049 0.634150 0.000000
0.847532 0.635920 0.000000
0.880583 0.637568 0.000000
0.909361 0.639307 0.000000
0.934478 0.641108 0.000000
0.956573 0.642756 0.000000
0.973663 0.641962 0.000000
0.989105 0.641505 0.000000
1.000000 0.641657 0.000000
1.000000 0.643610 0.000000
1.000000 0.647303 0.000000
1.000000 0.653193 0.000000
1.000000 0.661738 0.000000
0.000000 0.524071 0.306035
0.000000 0.525109 0.305516
0.000000 0.526452 0.304631
0.000000 0.529381 0.302739
0.000000 0.534112 0.300145
0.000000 0.540124 0.296269
0.000000 0.547570 0.291966
0.000000 0.556512 0.286656
0.000000 0.566308 0.280949
0.000000 0.576898 0.274937
0.000000 0.582757 0.223606
0.036774 0.585443 0.208957
0.187350 0.587640 0.203067
0.296025 0.604395 0.185214
0.400092 0.620294 0.161318
0.500481 0.633600 0.128786
0.596185 0.644556 0.076173
0.677363 0.649409 0.000000
0.739742 0.657404 0.000000
0.789670 0.660853 0.000000
0.831449 0.662806 0.000000
0.866972 0.664271 0.000000
0.897795 0.665705 0.000000
0.924651 0.667140 0.000000
0.948180 0.668421 0.000000
0.968963 0.669368 0.000000
0.986847 0.669520 0.000000
1.000000 0.668452 0.000000
1.000000 0.667903 0.000000
1.000000 0.669825 0.000000
1.000000 0.674006 0.000000
1.000000 0.680690 0.000000
0.000000 0.572168 0.336980
0.000000 0.573083 0.336309
0.000000 0.579278 0.338750
0.000000 0.581750 0.337194
0.000000 0.585657 0.334569
0.000000 0.590723 0.331151
0.000000 0.597162 0.327062
0.000000 0.604456 0.322026
0.000000 0.612848 0.317021
0.000000 0.621851 0.311711
0.000000 0.629633 0.293919
0.000000 0.633143 0.243137
0.151095 0.634302 0.237308
0.253391 0.637537 0.229129
0.358862 0.651759 0.211978
0.458442 0.663661 0.189395
0.553094 0.673487 0.161746
0.642237 0.681392 0.122683
0.714443 0.681636 0.101259
0.770138 0.687129 0.077333
0.815366 0.689326 0.023529
0.853483 0.690791 0.000000
0.886259 0.692042 0.000000
0.914733 0.693202 0.000000
0.939544 0.694087 0.000000
0.961425 0.694636 0.000000
0.980926 0.694850 0.000000
0.998444 0.694789 0.000000
1.000000 0.693568 0.000000
1.000000 0.692561 0.000000
1.000000 0.694942 0.000000
1.000000 0.699886 0.000000
0.000000 0.618921 0.368536
0.000000 0.620233 0.368597
0.000000 0.621912 0.368383
0.000000 0.624720 0.367376
0.000000 0.628534 0.365484
0.000000 0.633051 0.362432
0.000000 0.638392 0.358373
0.000000 0.644648 0.354223
0.000000 0.651453 0.349310
0.000000 0.658747 0.344884
0.000000 0.665949 0.341100
0.000000 0.670680 0.300816
0.090089 0.672602 0.271153
0.219883 0.672541 0.264836
0.315221 0.677546 0.255253
0.414832 0.688411 0.238193
0.508507 0.697536 0.218357
0.597314 0.704952 0.193606
0.680476 0.711055 0.162020
0.745388 0.708492 0.149203
0.795560 0.712276 0.138735
0.837064 0.714168 0.126589
0.872404 0.715602 0.111208
0.902922 0.716854 0.088991
0.929503 0.717739 0.035523
0.952728 0.718349 0.000000
0.973388 0.718593 0.000000
0.991882 0.718471 0.000000
1.000000 0.717952 0.000000
1.000000 0.716945 0.000000
1.000000 0.716030 0.000000
1.000000 0.719326 0.000000
0.000000 0.660700 0.399420
0.000000 0.661738 0.399329
0.000000 0.663294 0.399145
0.000000 0.665522 0.397925
0.000000 0.668666 0.396094
0.000000 0.672358 0.393317
0.000000 0.676722 0.389837
0.000000 0.681636 0.385565
0.000000 0.687160 0.381323
0.000000 0.692988 0.377661
0.000000 0.698787 0.374731
0.000000 0.703944 0.368566
0.000000 0.707149 0.309545
0.189761 0.707057 0.301549
0.282963 0.706233 0.295384
0.375128 0.712276 0.284062
0.468299 0.720699 0.268284
0.555962 0.727596 0.249973
0.638727 0.733242 0.227939
0.715908 0.737881 0.201755
0.774044 0.733486 0.193240
0.819150 0.735744 0.187991
0.857389 0.737453 0.180636
0.890166 0.738949 0.172152
0.918517 0.740047 0.159854
0.943297 0.740749 0.142184
0.965148 0.741054 0.115785
0.984649 0.741024 0.071321
1.000000 0.740566 0.000000
1.000000 0.739681 0.000000
1.000000 0.738308 0.000000
1.000000 0.738491 0.000000
0.000000 0.698390 0.428962
0.000000 0.699428 0.428931
0.000000 0.700679 0.428748
0.000000 0.702510 0.427649
0.000000 0.704982 0.425788
0.000000 0.707942 0.423194
0.000000 0.711482 0.420233
0.000000 0.715450 0.416419
0.000000 0.719875 0.412757
0.000000 0.724453 0.409705
0.000000 0.729030 0.407416
0.000000 0.733211 0.407263
0.081727 0.736416 0.380743
0.159304 0.738186 0.339361
0.263890 0.737148 0.333989
0.342199 0.735866 0.328191
0.432654 0.742855 0.316381
0.519188 0.749477 0.302251
0.601129 0.754879 0.285924
0.678126 0.759060 0.266819
0.749203 0.762539 0.244816
0.801572 0.757595 0.239109
0.842191 0.758511 0.236698
0.877440 0.760372 0.232670
0.907805 0.761776 0.227420
0.934051 0.762783 0.219516
0.957122 0.763272 0.207706
0.977630 0.763424 0.190585
0.996063 0.763149 0.168002
1.000000 0.762417 0.133364
1.000000 0.761318 0.071504
1.000000 0.759304 0.000000
0.000000 0.734493 0.459327
0.000000 0.735134 0.459083
0.000000 0.735836 0.458686
0.000000 0.737057 0.457649
0.000000 0.738949 0.455665
0.000000 0.741268 0.453315
0.000000 0.744076 0.450446
0.000000 0.747311 0.447364
0.000000 0.750912 0.444587
0.000000 0.754635 0.442054
0.000000 0.758297 0.441047
0.000000 0.761471 0.442084
0.147616 0.763943 0.445777
0.174563 0.766506 0.397253
0.251225 0.766476 0.376196
0.331975 0.764950 0.370520
0.403784 0.764462 0.364324
0.488258 0.770413 0.353063
0.568017 0.775204 0.339849
0.643549 0.778897 0.324926
0.714076 0.781796 0.307713
0.779202 0.784115 0.287572
0.826078 0.778927 0.282902
0.862425 0.778683 0.281651
0.894926 0.780423 0.279759
0.923033 0.781704 0.276341
0.947478 0.782559 0.270970
0.969146 0.783047 0.261662
0.988495 0.783139 0.249058
1.000000 0.782773 0.231418
1.000000 0.782132 0.208133
1.000000 0.780331 0.170871
0.000000 0.765499 0.487007
0.000000 0.765988 0.486915
0.000000 0.766629 0.486702
0.000000 0.767636 0.485573
0.000000 0.769192 0.484077
0.000000 0.770993 0.481910
0.000000 0.773281 0.479438
0.000000 0.775845 0.476844
0.000000 0.778653 0.474556
0.000000 0.781552 0.472908
0.000000 0.784298 0.472663
0.000000 0.786557 0.474342
0.112245 0.788113 0.478706
0.228305 0.789578 0.466346
0.244633 0.791867 0.418067
0.325475 0.790249 0.413458
0.393561 0.788418 0.408331
0.462531 0.789273 0.401129
0.539635 0.793668 0.391211
0.612940 0.797147 0.379126
0.682399 0.799741 0.365423
0.747189 0.801785 0.350225
0.806638 0.803494 0.332341
0.848875 0.798520 0.328618
0.880735 0.796872 0.326177
0.910826 0.798642 0.326207
0.936950 0.799924 0.324224
0.959808 0.800809 0.320531
0.980163 0.801389 0.314214
0.998535 0.801602 0.304997
1.000000 0.801358 0.291569
1.000000 0.800015 0.269993
0.000000 0.795377 0.514977
0.000000 0.795804 0.515007
0.000000 0.796170 0.515007
0.000000 0.796902 0.514275
0.000000 0.798032 0.512932
0.000000 0.799405 0.510918
0.000000 0.801114 0.508873
0.000000 0.802976 0.506798
0.000000 0.804990 0.504784
0.000000 0.806973 0.503807
0.000000 0.808743 0.504082
0.000000 0.810086 0.506462
0.071260 0.810758 0.511345
0.260075 0.810666 0.519738
0.290654 0.812222 0.487129
0.326268 0.812711 0.456947
0.391882 0.810727 0.452033
0.450477 0.808621 0.446937
0.516991 0.810422 0.439887
0.587427 0.813626 0.430701
0.654597 0.816068 0.419928
0.718044 0.817960 0.407477
0.777188 0.819394 0.393286
0.831205 0.820676 0.376440
0.869169 0.816068 0.373205
0.898192 0.814176 0.372442
0.925902 0.816007 0.374731
0.950103 0.817319 0.374578
0.971466 0.818357 0.373144
0.990570 0.819120 0.370214
1.000000 0.819242 0.362951
1.000000 0.818540 0.350134
0.000000 0.820920 0.540459
0.000000 0.821286 0.540612
0.000000 0.821622 0.540642
0.000000 0.822110 0.540429
0.000000 0.822904 0.539361
0.000000 0.824033 0.537774
0.000000 0.825376 0.536034
0.000000 0.826871 0.534600
0.000000 0.828397 0.533379
0.000000 0.829862 0.533379
0.000000 0.831052 0.534478
0.000000 0.831785 0.537591
0.000000 0.831815 0.543389
0.254948 0.831083 0.552422
0.343297 0.830503 0.553429
0.350256 0.832578 0.512016
0.399359 0.831479 0.498909
0.454810 0.829435 0.494484
0.506188 0.827390 0.490333
0.570428 0.829770 0.483162
0.634302 0.832029 0.474952
0.695308 0.833799 0.465003
0.752834 0.835142 0.453712
0.806149 0.836271 0.440497
0.854673 0.837461 0.425116
0.888853 0.833249 0.421454
0.914519 0.830777 0.421881
0.940063 0.832670 0.425635
0.962463 0.834318 0.428748
0.982391 0.835691 0.430671
0.999908 0.836118 0.428260
1.000000 0.836057 0.422705
0.000000 0.844755 0.566552
0.000000 0.844999 0.566583
0.000000 0.845182 0.566461
0.000000 0.845579 0.566003
0.000000 0.846067 0.565515
0.000000 0.846891 0.564294
0.000000 0.847929 0.562982
0.000000 0.848997 0.562005
0.000000 0.850034 0.561639
0.000000 0.851011 0.562005
0.000000 0.851682 0.563928
0.000000 0.851835 0.568048
0.000000 0.851255 0.574365
0.254246 0.850004 0.584070
0.365728 0.848020 0.596796
0.401160 0.848478 0.578943
0.414496 0.849912 0.545922
0.465736 0.847929 0.542168
0.513603 0.845945 0.538231
0.561212 0.844541 0.534203
0.620752 0.846738 0.527672
0.678370 0.848508 0.520165
0.733272 0.849882 0.511528
0.784878 0.850980 0.500999
0.832425 0.852049 0.488777
0.875944 0.853178 0.475135
0.906676 0.849363 0.472053
0.929595 0.846555 0.472175
0.952758 0.848539 0.478645
0.973419 0.850309 0.483864
0.991455 0.851316 0.485847
1.000000 0.851957 0.486244
0.000000 0.866270 0.592035
0.000000 0.866453 0.592157
0.000000 0.866636 0.591882
0.000000 0.866972 0.591699
0.000000 0.867460 0.591150
0.000000 0.868162 0.590539
0.000000 0.869078 0.589990
0.000000 0.870054 0.589990
0.000000 0.870970 0.590539
0.000000 0.871733 0.592065
0.000000 0.872068 0.595331
0.000000 0.871824 0.600427
0.000000 0.870848 0.608148
0.265385 0.869078 0.618372
0.377081 0.866636 0.631617
0.456916 0.864317 0.642481
0.462074 0.866209 0.611505
0.487984 0.866178 0.593103
0.531762 0.864317 0.590173
0.573510 0.862425 0.587213
0.618921 0.862028 0.583612
0.671962 0.863737 0.578363
0.722927 0.865080 0.571984
0.771359 0.866209 0.564111
0.816526 0.867277 0.555413
0.858274 0.868406 0.544823
0.896971 0.869657 0.532372
0.924254 0.866270 0.530236
0.944427 0.863310 0.531334
0.964721 0.864683 0.536736
0.983246 0.866300 0.542779
0.999725 0.867613 0.548119
0.000000 0.887663 0.620417
0.000000 0.887816 0.620417
0.000000 0.887938 0.620417
0.000000 0.888212 0.620020
0.000000 0.888548 0.619440
0.000000 0.889097 0.618921
0.000000 0.889860 0.618219
0.000000 0.890440 0.618494
0.000000 0.890898 0.619471
0.000000 0.891112 0.621607
0.000000 0.890867 0.625391
0.000000 0.890013 0.630915
0.056855 0.888396 0.638819
0.276219 0.886076 0.649409
