data/fiter_cube/59424107/1023393/file.cube
# Created by Adobe Lightroom plugin Export LUT (1.17.0)
# www.johnrellis.com/lightroom/exportlut.htm
# Preset: 翠绿色_03 云集
# Color profile: C:\Program Files (x86)\Common Files\Adobe\Color\Profiles\Recommended\AdobeRGB1998.icc
LUT_3D_SIZE 8
DOMAIN_MIN 0.000000 0.000000 0.000000
DOMAIN_MAX 0.903226 0.903226 0.903226
0.068940 0.080568 0.061891
0.085054 0.083742 0.062287
0.234409 0.093599 0.044312
0.543420 0.000000 0.000000
0.771359 0.128847 0.000000
0.890532 0.240940 0.000000
0.967468 0.336156 0.000000
1.000000 0.428321 0.000000
0.067842 0.088624 0.066804
0.078523 0.094392 0.063355
0.233127 0.137209 0.024781
0.541405 0.155642 0.000000
0.769100 0.211429 0.000000
0.887144 0.281559 0.000000
0.965301 0.358862 0.000000
1.000000 0.442023 0.000000
0.009400 0.154482 0.103578
0.030091 0.169039 0.094392
0.160220 0.209812 0.046815
0.524834 0.328588 0.000000
0.768948 0.379400 0.000000
0.886748 0.401984 0.000000
0.965728 0.440406 0.000000
1.000000 0.494820 0.000000
0.000000 0.317510 0.191684
0.000000 0.331853 0.182803
0.000000 0.369543 0.124269
0.370092 0.445136 0.000000
0.727810 0.533684 0.000000
0.882994 0.545830 0.000000
0.963500 0.552972 0.000000
1.000000 0.573449 0.000000
0.000000 0.524071 0.306035
0.000000 0.534112 0.300145
0.000000 0.566308 0.280949
0.187350 0.587640 0.203067
0.596185 0.644556 0.076173
0.831449 0.662806 0.000000
0.948180 0.668421 0.000000
1.000000 0.667903 0.000000
0.000000 0.698390 0.428962
0.000000 0.704982 0.425788
0.000000 0.719875 0.412757
0.081727 0.736416 0.380743
0.432654 0.742855 0.316381
0.749203 0.762539 0.244816
0.907805 0.761776 0.227420
0.996063 0.763149 0.168002
0.000000 0.820920 0.540459
0.000000 0.822904 0.539361
0.000000 0.828397 0.533379
0.000000 0.831815 0.543389
0.399359 0.831479 0.498909
0.634302 0.832029 0.474952
0.854673 0.837461 0.425116
0.962463 0.834318 0.428748
0.000000 0.906554 0.647883
0.000000 0.907347 0.647089
0.000000 0.909453 0.647425
0.106813 0.905364 0.669795
0.547875 0.892180 0.714717
0.639368 0.891905 0.672084
0.796567 0.894469 0.662715
0.930724 0.899138 0.632227
0.068177 0.082246 0.075898
0.080964 0.084718 0.075319
0.220035 0.090883 0.069429
0.523888 0.088258 0.000000
0.764889 0.186679 0.000000
0.886046 0.275395 0.000000
0.964752 0.350561 0.000000
1.000000 0.432380 0.000000
0.064088 0.093324 0.082948
0.079042 0.100008 0.086458
0.214298 0.127871 0.077424
0.521233 0.158694 0.000000
0.762112 0.235935 0.000000
0.884520 0.310918 0.000000
0.963195 0.372351 0.000000
1.000000 0.445533 0.000000
0.000000 0.162051 0.130587
0.012360 0.179263 0.133089
0.163577 0.218692 0.103151
0.515557 0.321935 0.000000
0.755642 0.370153 0.000000
0.880827 0.406439 0.000000
0.962707 0.447395 0.000000
1.000000 0.496437 0.000000
0.000000 0.324163 0.220981
0.000000 0.340124 0.218814
0.000000 0.381628 0.180972
0.368078 0.445106 0.113191
0.717220 0.529107 0.000000
0.873564 0.542382 0.000000
0.958190 0.552880 0.000000
1.000000 0.573785 0.000000
0.000000 0.529503 0.333776
0.000000 0.538567 0.329168
0.000000 0.568322 0.313848
0.199405 0.590051 0.245609
0.591608 0.642145 0.163149
0.826658 0.662806 0.101839
0.945068 0.670741 0.000000
1.000000 0.670192 0.000000
0.000000 0.698543 0.448432
0.000000 0.703304 0.444678
0.000000 0.717861 0.433631
0.157382 0.734768 0.422339
0.435248 0.741299 0.350378
0.747127 0.762295 0.290410
0.904936 0.763455 0.280949
0.993652 0.765560 0.233433
0.000000 0.819120 0.553735
0.000000 0.820615 0.551324
0.000000 0.826383 0.546319
0.000000 0.830320 0.555962
0.410254 0.830442 0.520012
0.634760 0.830747 0.497597
0.851438 0.836606 0.452033
0.959533 0.834775 0.456764
0.000000 0.905699 0.655604
0.000000 0.906676 0.655177
0.000000 0.908812 0.655512
0.090120 0.904906 0.676417
0.549981 0.892882 0.722225
0.644678 0.891966 0.683955
0.796384 0.894163 0.673915
0.928954 0.898924 0.645228
0.000000 0.088106 0.171267
0.065949 0.090303 0.170169
0.177981 0.115877 0.176547
0.479591 0.012482 0.186069
0.739162 0.171878 0.162112
0.871916 0.304662 0.136873
0.960540 0.386999 0.000549
1.000000 0.448402 0.000000
0.000000 0.114290 0.184543
0.024933 0.114717 0.193973
0.173678 0.147250 0.193637
0.473243 0.142397 0.200107
0.733669 0.232334 0.176486
0.869383 0.333440 0.144106
0.958740 0.405798 0.038422
1.000000 0.461219 0.000000
0.000000 0.181064 0.220584
0.000000 0.192538 0.226749
0.155886 0.239689 0.244327
0.465797 0.304875 0.237034
0.727443 0.372107 0.209934
0.865293 0.425208 0.174716
0.955169 0.472145 0.110933
1.000000 0.509300 0.000000
0.000000 0.332708 0.298497
0.000000 0.353124 0.307713
0.000000 0.404852 0.318212
0.374090 0.461189 0.279088
0.711299 0.540703 0.261936
0.857481 0.555474 0.235172
0.948730 0.573388 0.189853
1.000000 0.589929 0.073579
0.000000 0.540368 0.410132
0.000000 0.551049 0.411139
0.000000 0.581262 0.410773
0.242649 0.611627 0.369909
0.593133 0.649714 0.328832
0.819791 0.675074 0.324376
0.938293 0.688746 0.294652
1.000000 0.686671 0.229282
0.000000 0.703944 0.510826
0.000000 0.709163 0.510307
0.000000 0.722896 0.506401
0.201816 0.736934 0.504906
0.451240 0.740841 0.455146
0.740993 0.763577 0.418219
0.896818 0.771756 0.425696
0.986450 0.777676 0.397223
0.000000 0.821592 0.602136
0.000000 0.823331 0.600702
0.000000 0.828183 0.597009
0.081392 0.830655 0.603510
0.461372 0.829068 0.597711
0.642878 0.829343 0.573877
0.845792 0.838041 0.544884
0.952972 0.841367 0.557610
0.000000 0.906371 0.687098
0.000000 0.907012 0.685389
0.000000 0.908995 0.684871
0.000000 0.905425 0.701869
0.543908 0.893431 0.739498
0.658045 0.891722 0.716884
0.797360 0.893889 0.710384
0.925322 0.899931 0.689662
0.000000 0.104463 0.330327
0.000000 0.109865 0.332128
0.169467 0.126864 0.334966
0.397223 0.193332 0.352056
0.687007 0.202914 0.363684
0.840024 0.347265 0.373754
0.937804 0.448890 0.366979
1.000000 0.504021 0.322087
0.000000 0.138308 0.343114
0.000000 0.138491 0.351659
0.164157 0.159548 0.352331
0.394629 0.230503 0.364965
0.682826 0.248814 0.375372
0.836942 0.377325 0.384222
0.935760 0.467201 0.375677
1.000000 0.514733 0.324498
0.000000 0.215885 0.366339
0.000000 0.224308 0.371862
0.091493 0.255497 0.397955
0.383093 0.334325 0.404608
0.668971 0.383368 0.422644
0.830014 0.468971 0.422827
0.932219 0.530083 0.408881
1.000000 0.559594 0.349035
0.000000 0.345647 0.417273
0.000000 0.357031 0.421668
0.000000 0.399878 0.438178
0.361913 0.476265 0.468482
0.657527 0.539269 0.476204
0.819730 0.581994 0.473487
0.923949 0.613764 0.453162
0.997986 0.631159 0.399451
0.000000 0.524132 0.491096
0.000000 0.540856 0.500603
0.000000 0.583062 0.521202
0.299565 0.627375 0.538231
0.584375 0.657221 0.512352
0.803189 0.698177 0.537652
0.913695 0.713283 0.525780
0.987518 0.716640 0.478035
0.000000 0.706172 0.597314
0.000000 0.714382 0.601740
0.000000 0.731350 0.606653
0.217960 0.743008 0.606195
0.499672 0.748898 0.591638
0.731167 0.767025 0.575128
0.883635 0.786831 0.596674
0.972992 0.797116 0.581720
0.000000 0.824826 0.674220
0.000000 0.826780 0.673457
0.000000 0.831418 0.670924
0.033448 0.833219 0.671748
0.522148 0.827787 0.694148
0.653559 0.828000 0.665431
0.837400 0.839963 0.652522
0.944152 0.849668 0.668544
0.000000 0.908415 0.740841
0.000000 0.909239 0.739590
0.000000 0.910887 0.735317
0.000000 0.907836 0.739010
0.521538 0.895476 0.765408
0.674434 0.892180 0.760220
0.797208 0.893584 0.756313
0.920592 0.901366 0.744381
0.000000 0.137240 0.501701
0.000000 0.143191 0.503166
0.097230 0.160616 0.506737
0.385992 0.192477 0.516320
0.611292 0.336095 0.530327
0.792264 0.425299 0.550469
0.895872 0.545830 0.596918
0.972961 0.620111 0.608179
0.000000 0.170260 0.509758
0.000000 0.171176 0.515160
0.074617 0.190921 0.518090
0.385870 0.228031 0.525139
0.607691 0.364599 0.538598
0.789212 0.447791 0.559686
0.894560 0.558984 0.602625
0.972381 0.627253 0.610712
0.000000 0.256840 0.514305
0.000000 0.262852 0.520928
0.000000 0.279210 0.547906
0.372930 0.328801 0.552972
0.595972 0.447608 0.565789
0.778866 0.512596 0.587427
0.890288 0.598810 0.619654
0.970916 0.649104 0.616327
0.000000 0.373327 0.552697
0.000000 0.380713 0.555352
0.000000 0.409400 0.565606
0.313176 0.467659 0.597986
0.580102 0.557488 0.610590
0.765164 0.604273 0.633875
0.886625 0.657923 0.645045
0.971313 0.682185 0.618891
0.000000 0.522210 0.601709
0.000000 0.529717 0.604181
0.000000 0.556512 0.613214
0.245975 0.602716 0.631189
0.563958 0.659236 0.660456
0.762875 0.699794 0.675502
0.883635 0.727993 0.676509
0.965515 0.742214 0.653010
0.000000 0.664759 0.650599
0.000000 0.671412 0.653132
0.000000 0.701930 0.670802
0.156283 0.735805 0.691768
0.527672 0.751492 0.702571
0.717006 0.767971 0.694484
0.873228 0.800320 0.722408
0.957275 0.809567 0.712062
0.000000 0.816098 0.738888
0.000000 0.818692 0.739559
0.000000 0.826749 0.742336
0.000000 0.834501 0.748287
0.491554 0.830350 0.747799
0.668910 0.828916 0.742275
0.828672 0.841306 0.738552
0.937926 0.857633 0.756619
0.000000 0.908019 0.798276
0.000000 0.909026 0.797726
0.000000 0.911162 0.796750
0.000000 0.909697 0.793088
0.448188 0.900237 0.795224
0.702663 0.890440 0.814206
0.793729 0.892576 0.798947
0.915923 0.902708 0.793912
0.000000 0.187533 0.664393
0.000000 0.193545 0.664851
0.000000 0.211429 0.665553
0.370703 0.243931 0.667903
0.597986 0.319646 0.679835
0.740047 0.510796 0.675227
0.860746 0.606867 0.711238
0.943023 0.681361 0.746456
0.000000 0.216678 0.667170
0.000000 0.218357 0.668269
0.000000 0.237308 0.669001
0.364050 0.271519 0.671015
0.594354 0.346777 0.682307
0.736995 0.526207 0.679774
0.859068 0.615869 0.715023
0.942290 0.686366 0.748775
0.000000 0.302037 0.666255
0.000000 0.303777 0.670222
0.000000 0.315526 0.683101
0.340002 0.356939 0.685756
0.585901 0.430304 0.694209
0.729763 0.576776 0.697475
0.854917 0.646052 0.729122
0.939696 0.708095 0.760739
0.000000 0.409064 0.679286
0.000000 0.413092 0.679408
0.000000 0.429816 0.681483
0.276371 0.474220 0.707271
0.569390 0.539818 0.713680
0.721431 0.643854 0.724422
0.850828 0.689021 0.749722
0.938415 0.738979 0.774929
0.000000 0.534112 0.708034
0.000000 0.538720 0.708553
0.000000 0.555138 0.710994
0.160067 0.585473 0.716396
0.518547 0.639033 0.736782
0.710933 0.705989 0.751095
0.847013 0.733730 0.769131
0.940978 0.768246 0.779110
0.000000 0.659663 0.739406
0.000000 0.664057 0.740444
0.000000 0.677882 0.743008
0.009064 0.700862 0.748348
0.481056 0.730282 0.758602
0.703975 0.768368 0.782315
0.852567 0.797726 0.797116
0.942779 0.813993 0.795804
0.000000 0.780880 0.780880
0.000000 0.784115 0.781827
0.000000 0.794003 0.784298
0.000000 0.809812 0.790280
0.458412 0.827085 0.804562
0.683894 0.832425 0.811093
0.822507 0.843534 0.808408
0.936614 0.867308 0.827390
0.000000 0.900633 0.841947
0.000000 0.901610 0.841855
0.000000 0.904265 0.841520
0.000000 0.906035 0.841642
0.420417 0.902831 0.844602
0.660151 0.895079 0.842039
0.797543 0.893736 0.840452
0.912902 0.905089 0.840269
0.000000 0.267491 0.789761
0.000000 0.275029 0.791104
0.000000 0.293614 0.789548
0.370764 0.328252 0.787655
0.593835 0.393194 0.785763
0.732845 0.501366 0.779141
0.828092 0.654994 0.785336
0.917876 0.728420 0.818021
0.000000 0.282383 0.785000
0.000000 0.289494 0.786221
0.000000 0.307927 0.785275
0.355596 0.341161 0.783322
0.581506 0.401984 0.781247
0.725551 0.502983 0.775937
0.821225 0.651667 0.780209
0.913725 0.723812 0.813352
0.000000 0.358129 0.787045
0.000000 0.360632 0.788235
0.000000 0.372107 0.790433
0.331212 0.406531 0.788693
0.567651 0.461891 0.786099
0.727535 0.550866 0.788785
0.820432 0.679347 0.791165
0.915679 0.742275 0.822782
0.000000 0.453559 0.787015
0.000000 0.454047 0.785336
0.000000 0.461219 0.788449
0.269596 0.497353 0.797482
0.543511 0.547662 0.796384
0.723507 0.620417 0.802457
0.820188 0.718471 0.807523
0.917174 0.764645 0.833005
0.000000 0.554009 0.797787
0.000000 0.554498 0.796048
0.000000 0.559472 0.792752
0.000000 0.571832 0.789853
0.473487 0.620050 0.801633
0.696925 0.674495 0.805905
0.811185 0.749813 0.816983
0.916991 0.786740 0.840970
0.000000 0.661738 0.813809
0.000000 0.663813 0.813596
0.000000 0.671107 0.812772
0.000000 0.684535 0.812253
0.393164 0.703609 0.811032
0.655940 0.742489 0.823270
0.812558 0.795956 0.838193
0.920562 0.818235 0.853819
0.000000 0.766567 0.834287
0.000000 0.769345 0.834928
0.000000 0.775631 0.834958
0.000000 0.786069 0.835416
0.396094 0.797421 0.835325
0.633387 0.812528 0.839780
0.810910 0.840787 0.858579
0.927459 0.865629 0.870970
0.000000 0.865263 0.863127
0.000000 0.866545 0.863218
0.000000 0.874296 0.866392
0.000000 0.880827 0.867826
0.345068 0.884550 0.868772
0.628565 0.893309 0.877928
0.801144 0.896300 0.880858
0.910369 0.907286 0.881193
0.000000 0.388098 0.872465
0.000000 0.394202 0.872465
0.199771 0.407599 0.869383
0.422156 0.438758 0.866239
0.605249 0.487984 0.861662
0.753109 0.559930 0.857450
0.827573 0.650385 0.845823
0.899504 0.753902 0.857237
0.000000 0.397406 0.870298
0.000000 0.403265 0.870329
0.177188 0.417151 0.867796
0.409766 0.445960 0.864286
0.596704 0.493599 0.859953
0.747951 0.563592 0.855741
0.823575 0.650507 0.844297
0.897520 0.753994 0.856352
0.000000 0.438941 0.867948
0.000000 0.443946 0.868101
0.033906 0.453315 0.866087
0.385107 0.486305 0.865019
0.580865 0.528191 0.860410
0.737087 0.588251 0.855680
0.821897 0.666804 0.848386
0.896574 0.763607 0.859312
0.000000 0.496956 0.866484
0.000000 0.500145 0.867002
0.000000 0.509667 0.866239
0.318395 0.540887 0.866300
0.548516 0.579278 0.862699
0.720058 0.629969 0.859312
0.824674 0.696376 0.858793
0.897490 0.781827 0.866148
0.000000 0.583459 0.868437
0.000000 0.584649 0.868498
0.000000 0.583001 0.865721
0.000000 0.582391 0.864286
0.466499 0.626947 0.864591
0.680690 0.668757 0.861997
0.820523 0.726833 0.867308
0.898528 0.804807 0.874998
0.000000 0.677729 0.876005
0.000000 0.676997 0.874998
0.000000 0.676081 0.872343
0.000000 0.676387 0.868925
0.269139 0.679194 0.864195
0.610498 0.719081 0.868986
0.808286 0.770230 0.875486
0.899199 0.831815 0.885557
0.000000 0.772702 0.886992
0.000000 0.772793 0.886412
0.000000 0.773800 0.884825
0.000000 0.778042 0.883268
0.278874 0.784512 0.880919
0.540764 0.792599 0.878508
0.761074 0.813535 0.885405
0.897002 0.861082 0.896544
0.000000 0.857450 0.900359
0.000000 0.857877 0.900084
0.000000 0.860838 0.900206
0.000000 0.866972 0.901396
0.330694 0.872007 0.902007
0.573785 0.873686 0.900786
0.749386 0.878416 0.901457
0.898589 0.901884 0.914427
