data/fiter_cube/59424107/1023393/file.cube
# Created by Adobe Lightroom plugin Export LUT (1.17.0)
# www.johnrellis.com/lightroom/exportlut.htm
# Preset: 翠绿色_03 云集
# Color profile: C:\Program Files (x86)\Common Files\Adobe\Color\Profiles\Recommended\AdobeRGB1998.icc
LUT_3D_SIZE 5
DOMAIN_MIN 0.000000 0.000000 0.000000
DOMAIN_MAX 0.903226 0.903226 0.903226
0.068940 0.080568 0.061891
0.178927 0.093782 0.054871
0.677485 0.056397 0.000000
0.912566 0.265812 0.000000
1.000000 0.428321 0.000000
0.044862 0.129549 0.089052
0.129488 0.167971 0.056825
0.677119 0.319738 0.000000
0.910124 0.378759 0.000000
1.000000 0.479744 0.000000
0.000000 0.420996 0.246616
0.000000 0.461646 0.222873
0.493111 0.557916 0.000000
0.892485 0.609461 0.000000
1.000000 0.619318 0.000000
0.000000 0.734493 0.459327
0.000000 0.747311 0.447364
0.251225 0.766476 0.376196
0.779202 0.784115 0.287572
0.988495 0.783139 0.249058
0.000000 0.906554 0.647883
0.000000 0.909239 0.645777
0.395575 0.898192 0.689387
0.672969 0.890501 0.671351
0.930724 0.899138 0.632227
0.038544 0.086091 0.138247
0.142153 0.103304 0.140841
0.640375 0.093599 0.122194
0.900847 0.315282 0.000000
1.000000 0.443458 0.000000
0.000000 0.151064 0.176913
0.125490 0.191562 0.194675
0.631739 0.296880 0.158114
0.896849 0.402655 0.000000
1.000000 0.490059 0.000000
0.000000 0.437873 0.333043
0.000000 0.479133 0.333837
0.490639 0.561761 0.253056
0.883055 0.621973 0.199710
1.000000 0.631525 0.000000
0.000000 0.738796 0.519677
0.000000 0.751003 0.514580
0.322667 0.768887 0.482856
0.773495 0.785245 0.414862
0.981170 0.792752 0.402167
0.000000 0.906950 0.678309
0.000000 0.909514 0.676143
0.394415 0.899443 0.713893
0.685786 0.890715 0.706691
0.926879 0.900114 0.678645
0.000000 0.118959 0.417212
0.036439 0.137240 0.421180
0.515557 0.256870 0.444831
0.844388 0.419409 0.484169
0.992889 0.560815 0.475776
0.000000 0.213565 0.433326
0.000000 0.228824 0.462684
0.504662 0.360204 0.478309
0.837034 0.491127 0.512444
0.991150 0.590784 0.485512
0.000000 0.437110 0.513664
0.000000 0.469978 0.525658
0.472328 0.579675 0.574151
0.822721 0.658106 0.591455
0.981353 0.692927 0.543603
0.000000 0.732967 0.654078
0.000000 0.749630 0.660914
0.392401 0.770657 0.671290
0.754330 0.788510 0.654292
0.960052 0.818723 0.671351
0.000000 0.908568 0.770291
0.000000 0.910796 0.766659
0.279026 0.904204 0.767575
0.707515 0.891539 0.779965
0.917906 0.901732 0.768917
0.000000 0.203525 0.698573
0.000000 0.222019 0.698909
0.491035 0.289982 0.701076
0.763943 0.551385 0.706050
0.936522 0.693660 0.767849
0.000000 0.289128 0.699489
0.000000 0.297429 0.708553
0.474983 0.372808 0.711574
0.757015 0.593256 0.719783
0.934661 0.708858 0.774502
0.000000 0.475654 0.717983
0.000000 0.488319 0.717891
0.392370 0.554253 0.738491
0.737057 0.682155 0.750912
0.931487 0.757748 0.796841
0.000000 0.689937 0.767941
0.000000 0.700465 0.768856
0.302281 0.734249 0.775479
0.732937 0.788785 0.804746
0.938476 0.827848 0.818692
0.000000 0.895354 0.849454
0.000000 0.901457 0.851804
0.140658 0.903319 0.851713
0.701198 0.895109 0.852720
0.912291 0.905669 0.850980
0.000000 0.388098 0.872465
0.118990 0.402960 0.870207
0.517327 0.461036 0.864195
0.779904 0.580255 0.858366
0.899504 0.753902 0.857237
0.000000 0.430304 0.869596
0.000000 0.441505 0.868559
0.495369 0.494759 0.863035
0.769680 0.599786 0.856535
0.897551 0.761746 0.859037
0.000000 0.538354 0.865446
0.000000 0.535973 0.864225
0.390753 0.580774 0.863920
0.737301 0.658137 0.858274
0.897642 0.792233 0.869993
0.000000 0.706020 0.880522
0.000000 0.705531 0.878111
0.000000 0.708461 0.872374
0.647211 0.742702 0.871550
0.898344 0.838193 0.887785
0.000000 0.857450 0.900359
0.000000 0.859770 0.900053
0.000000 0.870207 0.902159
0.621790 0.874327 0.900664
0.898589 0.901884 0.914427
