data/fiter_cube/38543845/1023268/file.cube
# Created by Adobe Lightroom plugin Export LUT (1.17.0)
# www.johnrellis.com/lightroom/exportlut.htm
# Preset: 清新通透胶片预设_04 云集
# Color profile: C:\Program Files (x86)\Common Files\Adobe\Color\Profiles\Recommended\AdobeRGB1998.icc
LUT_3D_SIZE 5
DOMAIN_MIN 0.000000 0.000000 0.000000
DOMAIN_MAX 0.903226 0.903226 0.903226
0.149996 0.157656 0.150057
0.674708 0.000000 0.140169
0.891783 0.038331 0.134524
0.975463 0.260960 0.221988
1.000000 0.368933 0.333349
0.111940 0.508629 0.288121
0.490822 0.541619 0.192111
0.857267 0.493080 0.000000
0.958984 0.440497 0.197299
1.000000 0.454200 0.331731
0.377325 0.753628 0.562188
0.373175 0.724971 0.490547
0.727840 0.760708 0.508507
0.916991 0.684138 0.228763
0.982422 0.609216 0.286900
0.558404 0.828183 0.687587
0.555718 0.819364 0.669734
0.565087 0.797543 0.607172
0.791653 0.824460 0.642176
0.929839 0.785336 0.530144
0.648554 0.875669 0.754757
0.647578 0.871733 0.747494
0.640040 0.856016 0.718898
0.696681 0.855955 0.702815
0.846464 0.874846 0.728054
0.157321 0.199374 0.458076
0.613977 0.274205 0.580682
0.844327 0.381353 0.539971
0.937407 0.430182 0.505852
0.986114 0.475227 0.523003
0.185428 0.567620 0.527642
0.568444 0.586084 0.546319
0.827970 0.526726 0.479622
0.927611 0.511559 0.482399
0.981231 0.519402 0.511345
0.499336 0.761593 0.651759
0.529229 0.735775 0.622492
0.727077 0.755673 0.621271
0.898131 0.680171 0.414618
0.965393 0.632074 0.473579
0.615686 0.828763 0.725856
0.613062 0.819699 0.710903
0.594171 0.791592 0.648341
0.794858 0.824338 0.686580
0.921874 0.787503 0.594171
0.671901 0.875547 0.771908
0.670069 0.871702 0.764584
0.665553 0.858671 0.740597
0.706935 0.855863 0.721462
0.850492 0.876738 0.750088
0.327245 0.332341 0.731991
0.616541 0.509361 0.780423
0.803677 0.629419 0.788235
0.888243 0.642145 0.757961
0.940520 0.656977 0.747189
0.180301 0.409216 0.623285
0.560571 0.576562 0.733486
0.790433 0.690150 0.783932
0.879057 0.671565 0.755428
0.935363 0.677455 0.749081
0.528740 0.774746 0.753841
0.642084 0.778439 0.765835
0.756680 0.769436 0.759579
0.859068 0.723690 0.719112
0.929686 0.699611 0.711513
0.652216 0.842832 0.776791
0.681331 0.833982 0.778347
0.696040 0.803586 0.751278
0.807126 0.827176 0.765591
0.907866 0.786435 0.693263
0.700160 0.878721 0.802396
0.717647 0.875242 0.806271
0.721584 0.863951 0.791073
0.721187 0.849821 0.756558
0.856687 0.877958 0.793637
0.516808 0.523095 0.829618
0.623346 0.589807 0.841917
0.816739 0.736629 0.880461
0.867094 0.726375 0.854368
0.914488 0.733394 0.837156
0.469368 0.549035 0.798734
0.598718 0.615198 0.818448
0.807248 0.754849 0.871122
0.861082 0.748623 0.852628
0.910979 0.744320 0.836698
0.332738 0.628962 0.742611
0.411749 0.622187 0.736446
0.733089 0.746853 0.817746
0.843992 0.791318 0.845396
0.902800 0.772274 0.833433
0.640162 0.840085 0.825193
0.679194 0.839963 0.828031
0.770352 0.845121 0.841428
0.822019 0.832273 0.830442
0.894316 0.796475 0.802060
0.716793 0.890135 0.838895
0.733333 0.887449 0.841215
0.773342 0.879698 0.846250
0.782467 0.861082 0.827176
0.869413 0.884184 0.846983
0.644526 0.663508 0.895232
0.681666 0.680079 0.896666
0.781949 0.733120 0.904082
0.877379 0.795407 0.914702
0.901732 0.776638 0.891295
0.625238 0.668086 0.884031
0.667048 0.686091 0.886839
0.775082 0.741909 0.898100
0.876921 0.809781 0.913603
0.899626 0.788540 0.891600
0.425391 0.630610 0.833707
0.517845 0.650446 0.842313
0.720790 0.737362 0.870756
0.869841 0.836118 0.908537
0.894774 0.819608 0.893217
0.502220 0.755673 0.833524
0.526390 0.751156 0.830014
0.585199 0.732204 0.816678
0.796414 0.807889 0.868070
0.889464 0.855344 0.895537
0.679530 0.887236 0.873289
0.699916 0.886595 0.874418
0.760311 0.886625 0.879911
0.835813 0.892790 0.893156
0.890043 0.898161 0.902617
