data/fiter_cube/38543845/1023268/file.cube
# Created by Adobe Lightroom plugin Export LUT (1.17.0)
# www.johnrellis.com/lightroom/exportlut.htm
# Preset: 清新通透胶片预设_04 云集
# Color profile: C:\Program Files (x86)\Common Files\Adobe\Color\Profiles\Recommended\AdobeRGB1998.icc
LUT_3D_SIZE 8
DOMAIN_MIN 0.000000 0.000000 0.000000
DOMAIN_MAX 0.903226 0.903226 0.903226
0.149996 0.157656 0.150057
0.374212 0.128664 0.153445
0.730129 0.000000 0.136172
0.853819 0.000000 0.129488
0.921813 0.129244 0.146883
0.967742 0.240208 0.205814
0.993408 0.311101 0.268406
1.000000 0.368933 0.333349
0.164126 0.273381 0.198978
0.268864 0.299077 0.172976
0.690730 0.342596 0.092378
0.832914 0.302770 0.098024
0.910887 0.292027 0.129091
0.957794 0.312963 0.188388
0.987488 0.347295 0.252659
1.000000 0.388312 0.320684
0.126040 0.566735 0.328832
0.173281 0.527916 0.273045
0.547753 0.593744 0.228794
0.795285 0.580804 0.000000
0.888884 0.520867 0.032685
0.943023 0.482887 0.164889
0.979583 0.471138 0.251896
1.000000 0.473671 0.325200
0.287327 0.712367 0.494850
0.294926 0.700252 0.465217
0.348516 0.675807 0.374548
0.696712 0.730190 0.439307
0.858610 0.708461 0.296910
0.923095 0.630976 0.128634
0.962921 0.590021 0.228489
0.990051 0.564721 0.304082
0.443244 0.779812 0.607691
0.440711 0.773983 0.593866
0.435431 0.754421 0.545220
0.547875 0.756527 0.516777
0.748684 0.781582 0.554925
0.872923 0.767300 0.472328
0.935821 0.700069 0.279118
0.974365 0.653071 0.270390
0.535729 0.818296 0.671809
0.539849 0.817288 0.669001
0.534508 0.805905 0.645380
0.524712 0.785183 0.600122
0.645899 0.799741 0.604181
0.783993 0.817014 0.628016
0.886198 0.812192 0.592248
0.941833 0.759487 0.464485
0.602594 0.849943 0.719631
0.602899 0.848447 0.716793
0.598993 0.841184 0.703182
0.593408 0.828489 0.679072
0.603082 0.819303 0.646845
0.706172 0.832212 0.661494
0.811978 0.844144 0.676783
0.898009 0.845060 0.664942
0.648554 0.875669 0.754757
0.648188 0.874449 0.752560
0.647547 0.870512 0.745235
0.647791 0.863767 0.733181
0.639216 0.850156 0.708614
0.676814 0.853056 0.699550
0.758694 0.864622 0.713283
0.846464 0.874846 0.728054
0.171450 0.184604 0.251591
0.333959 0.166445 0.305577
0.700862 0.000000 0.320745
0.833127 0.081209 0.278813
0.906462 0.222873 0.287419
0.950774 0.299168 0.314519
0.980804 0.352300 0.349767
1.000000 0.397009 0.392340
0.146456 0.298466 0.273838
0.332586 0.343420 0.299535
0.678614 0.312016 0.261936
0.820005 0.308476 0.258335
0.898222 0.327306 0.273442
0.944549 0.353094 0.301152
0.976257 0.379889 0.335302
0.999695 0.410529 0.377722
0.232364 0.592279 0.426612
0.310674 0.565698 0.402502
0.567315 0.602594 0.376654
0.786557 0.569360 0.201236
0.876097 0.521111 0.232212
0.930602 0.492348 0.276677
0.967834 0.481117 0.324071
0.993896 0.483955 0.375616
0.375463 0.714168 0.550195
0.382696 0.703029 0.527398
0.387182 0.671168 0.435035
0.689082 0.721370 0.494026
0.841276 0.697475 0.357244
0.909148 0.625971 0.234562
0.952300 0.589471 0.292729
0.982849 0.567529 0.350317
0.486976 0.778317 0.633570
0.482338 0.772213 0.620203
0.469978 0.752255 0.573236
0.552605 0.749691 0.538262
0.743984 0.775937 0.577295
0.865049 0.763180 0.500877
0.929564 0.697353 0.322515
0.968902 0.653956 0.321752
0.554040 0.815457 0.682765
0.552422 0.812436 0.676509
0.546044 0.801328 0.653468
0.535546 0.781430 0.610376
0.647791 0.796109 0.615808
0.783749 0.815732 0.643427
0.882811 0.811124 0.608301
0.938201 0.758358 0.484565
0.608423 0.846799 0.723354
0.606348 0.844511 0.718959
0.602960 0.837613 0.705959
0.598444 0.825681 0.683314
0.604730 0.816037 0.651362
0.706203 0.829709 0.666712
0.810239 0.841825 0.681300
0.895232 0.842588 0.667292
0.652064 0.874144 0.757412
0.652247 0.873198 0.755612
0.651667 0.869352 0.748470
0.651667 0.862699 0.736446
0.649409 0.852018 0.717525
0.681056 0.853239 0.705989
0.759548 0.863859 0.717372
0.845762 0.873747 0.730983
0.156100 0.208164 0.525536
0.396551 0.243687 0.608576
0.666255 0.354711 0.638544
0.795529 0.413336 0.613977
0.871641 0.463111 0.597498
0.919860 0.475807 0.572229
0.954070 0.495674 0.569116
0.979431 0.512108 0.573388
0.141817 0.290227 0.446632
0.359045 0.372992 0.558923
0.647791 0.475105 0.626612
0.784421 0.470069 0.602197
0.865599 0.482094 0.578912
0.915953 0.489845 0.558709
0.951537 0.503746 0.557824
0.978088 0.517693 0.564874
0.250645 0.623957 0.586664
0.423224 0.637781 0.606165
0.615656 0.633356 0.601221
0.766537 0.592096 0.550195
0.853300 0.571649 0.540215
0.906523 0.559014 0.537255
0.944915 0.552697 0.541192
0.973419 0.552514 0.551537
0.456031 0.742123 0.646143
0.514824 0.734035 0.651911
0.549737 0.701015 0.616022
0.705684 0.731289 0.638209
0.827481 0.697719 0.536065
0.890715 0.648951 0.500114
0.933806 0.624048 0.514183
0.965393 0.608087 0.530816
0.553368 0.787564 0.689265
0.579553 0.781949 0.693050
0.579217 0.762722 0.664790
0.595270 0.749508 0.623316
0.754330 0.781674 0.665003
0.855131 0.765774 0.602502
0.917754 0.700526 0.469551
0.954101 0.672145 0.497169
0.612970 0.819333 0.724453
0.616083 0.816037 0.721370
0.610376 0.804379 0.702296
0.593927 0.784024 0.663874
0.664576 0.792844 0.660975
0.787259 0.815610 0.688991
0.876005 0.811307 0.658167
0.929747 0.762051 0.565423
0.648096 0.848814 0.751431
0.646876 0.846616 0.747890
0.641779 0.839353 0.735134
0.633417 0.826810 0.712551
0.623835 0.811307 0.678218
0.715450 0.828275 0.694392
0.814786 0.843503 0.713069
0.893645 0.845365 0.701564
0.676692 0.874540 0.775601
0.674983 0.873320 0.772793
0.672816 0.869291 0.765072
0.672633 0.863279 0.753933
0.668147 0.852628 0.734768
0.689540 0.851591 0.721309
0.766232 0.863981 0.735683
0.849790 0.875669 0.752682
0.255619 0.278355 0.685145
0.418952 0.334020 0.716091
0.695979 0.563806 0.778317
0.769650 0.568048 0.752560
0.841489 0.595453 0.737758
0.888975 0.600580 0.718166
0.922148 0.616815 0.712764
0.948974 0.629541 0.713039
0.244144 0.354925 0.655695
0.403479 0.412207 0.691981
0.684901 0.605676 0.765988
0.763302 0.608881 0.751095
0.837034 0.615564 0.736690
0.884794 0.613855 0.717037
0.919097 0.625177 0.711879
0.949584 0.624628 0.704097
0.185977 0.481758 0.600549
0.283330 0.490883 0.606317
0.611749 0.628748 0.710780
0.746029 0.679347 0.743832
0.824735 0.659571 0.727474
0.875792 0.653620 0.714809
0.917845 0.641627 0.699641
0.949035 0.634730 0.691371
0.466804 0.745937 0.721187
0.531640 0.746883 0.726192
0.654353 0.749050 0.739437
0.726650 0.741421 0.729397
0.805936 0.707118 0.690303
0.863676 0.688045 0.681544
0.908202 0.673335 0.676387
0.942687 0.662623 0.674556
0.592767 0.807645 0.744778
0.613458 0.802518 0.745266
0.662348 0.787076 0.745541
0.661585 0.755703 0.711177
0.768826 0.788174 0.736538
0.844175 0.765072 0.686183
0.895811 0.724422 0.649683
0.933684 0.704219 0.651850
0.634607 0.831449 0.756588
0.649470 0.829862 0.759854
0.679561 0.818997 0.761532
0.671565 0.798581 0.734463
0.690700 0.792844 0.714687
0.797055 0.819486 0.742153
0.869993 0.811612 0.711482
0.919738 0.765011 0.645411
0.666926 0.854307 0.774166
0.674952 0.852537 0.775662
0.695888 0.846067 0.778347
0.685664 0.834501 0.757626
0.670283 0.815427 0.726223
0.730037 0.828061 0.731197
0.821378 0.845731 0.751888
0.891112 0.846433 0.737484
0.700252 0.877592 0.797086
0.705745 0.876463 0.798428
0.714717 0.872587 0.797848
0.706630 0.866361 0.783200
0.699458 0.855863 0.763729
0.700893 0.848814 0.742916
0.775448 0.863890 0.761135
0.855558 0.878264 0.782254
0.390967 0.388525 0.765316
0.475074 0.430762 0.776425
0.654688 0.568994 0.807980
0.790768 0.681605 0.839719
0.828580 0.668757 0.813993
0.868681 0.678798 0.798215
0.904906 0.674434 0.782681
0.933227 0.678889 0.775418
0.379309 0.430518 0.748928
0.466590 0.471595 0.762417
0.650111 0.596307 0.799161
0.790127 0.701564 0.838010
0.825193 0.683803 0.812924
0.866514 0.687526 0.797848
0.903075 0.681727 0.782925
0.931762 0.684321 0.775784
0.202396 0.441993 0.660883
0.328527 0.484718 0.693263
0.602625 0.619867 0.762020
0.783902 0.743069 0.830014
0.813993 0.719112 0.807797
0.858183 0.708522 0.793179
0.896422 0.700282 0.780728
0.926879 0.698543 0.774502
0.337591 0.638727 0.708797
0.388922 0.640253 0.709377
0.517479 0.648859 0.713527
0.724910 0.738338 0.783169
0.797635 0.752132 0.796506
0.846830 0.733791 0.782193
0.887144 0.724300 0.774105
0.923766 0.709041 0.762081
0.576135 0.798123 0.780026
0.604822 0.798734 0.782650
0.675380 0.802609 0.791562
0.734005 0.795041 0.792142
0.779873 0.791501 0.784176
0.832181 0.759976 0.750942
0.879606 0.742733 0.743984
0.918395 0.728573 0.739132
0.652461 0.843229 0.792782
0.663600 0.840818 0.793301
0.693324 0.832090 0.793271
0.726925 0.817075 0.790738
0.711788 0.787869 0.755337
0.804288 0.820615 0.784115
0.863706 0.804288 0.748379
0.908598 0.770718 0.720363
0.678431 0.861906 0.798215
0.685389 0.860044 0.798795
0.706844 0.854215 0.800809
0.734188 0.844297 0.802396
0.721462 0.827146 0.776211
0.739010 0.823758 0.761501
0.827024 0.846647 0.786984
0.888121 0.843595 0.766079
0.703365 0.881224 0.810819
0.708339 0.880095 0.811643
0.724147 0.876310 0.814237
0.748836 0.871275 0.819394
0.737575 0.862211 0.800015
0.725277 0.847807 0.774166
0.781918 0.861967 0.785031
0.860136 0.879576 0.809171
0.500298 0.504204 0.820798
0.542138 0.528313 0.825223
0.650446 0.602502 0.839475
0.773098 0.699306 0.865385
0.839780 0.730739 0.873472
0.861509 0.718410 0.848478
0.889036 0.729244 0.837888
0.918486 0.724361 0.827085
0.487709 0.518029 0.808072
0.530999 0.540673 0.813443
0.645472 0.614771 0.831846
0.768582 0.705898 0.860410
0.837278 0.739284 0.871061
0.858885 0.725673 0.847288
0.887358 0.733700 0.837461
0.917235 0.727810 0.826871
0.409918 0.533013 0.771603
0.470100 0.557061 0.781033
0.616510 0.633906 0.807706
0.754696 0.723934 0.846891
0.833555 0.768338 0.867338
0.853117 0.750698 0.846220
0.883391 0.749538 0.837308
0.913695 0.741421 0.827573
0.255222 0.562432 0.718990
0.286625 0.557855 0.715419
0.446204 0.584955 0.732021
0.705226 0.720699 0.810697
0.827512 0.800961 0.861723
0.844755 0.781460 0.844266
0.877592 0.770779 0.835935
0.908965 0.759915 0.827146
0.466987 0.720668 0.767758
0.491951 0.720912 0.767697
0.562768 0.722377 0.767758
0.645533 0.727749 0.769924
0.780423 0.791196 0.825376
0.828946 0.796017 0.831510
0.867826 0.781399 0.822843
0.902647 0.771969 0.817288
0.629480 0.832029 0.816617
0.645197 0.832639 0.818357
0.688808 0.833860 0.822904
0.746242 0.837369 0.831510
0.779690 0.826719 0.827543
0.814817 0.825254 0.822538
0.857572 0.798856 0.796048
0.899077 0.785519 0.792203
0.698116 0.873411 0.831388
0.705806 0.872313 0.832181
0.726894 0.867765 0.833433
0.753567 0.860136 0.833829
0.776181 0.848264 0.830533
0.760464 0.823697 0.799710
0.836332 0.850828 0.824308
0.887327 0.839689 0.797513
0.714015 0.888243 0.832853
0.718868 0.887236 0.833433
0.734524 0.884092 0.835416
0.757290 0.879545 0.838529
0.780056 0.872526 0.840055
0.771756 0.860166 0.820188
0.789425 0.859983 0.811002
0.867643 0.883330 0.839811
0.577417 0.591424 0.860899
0.600366 0.604181 0.862882
0.666133 0.643427 0.869047
0.751400 0.698878 0.880858
0.836271 0.760800 0.896574
0.869047 0.759396 0.893645
0.883391 0.750149 0.871672
0.905638 0.758511 0.863798
0.569848 0.596826 0.853971
0.593591 0.609369 0.856352
0.661311 0.648280 0.863798
0.747799 0.702846 0.877043
0.833951 0.764736 0.894408
0.867399 0.764706 0.892332
0.881621 0.754116 0.870848
0.904295 0.760952 0.863279
0.529992 0.603632 0.833249
0.558953 0.616571 0.836515
0.639612 0.657832 0.847501
0.735744 0.714443 0.866087
0.827420 0.777584 0.888548
0.864622 0.784939 0.890349
0.878386 0.772183 0.871092
0.901518 0.775753 0.865171
0.344701 0.570977 0.779416
0.396185 0.582147 0.785122
0.546044 0.634119 0.806760
0.694514 0.711513 0.839994
0.808469 0.784848 0.874968
0.860227 0.810697 0.887388
0.873167 0.795529 0.870909
0.897856 0.793027 0.866239
0.380163 0.663539 0.777310
0.394781 0.660670 0.775082
0.440009 0.650904 0.767727
0.516320 0.640986 0.760464
0.749813 0.763180 0.839017
0.852354 0.831693 0.882048
0.865202 0.814542 0.867765
0.893858 0.807340 0.864164
0.538262 0.772030 0.809964
0.551415 0.771633 0.809598
0.590845 0.770443 0.808438
0.641962 0.768582 0.806760
0.692592 0.765377 0.804501
0.811276 0.821164 0.852689
0.855009 0.830106 0.861234
0.889158 0.820462 0.857816
0.657984 0.859068 0.844785
0.667475 0.859007 0.845487
0.696956 0.858824 0.847776
0.738949 0.859434 0.852232
0.785458 0.862211 0.859434
0.816648 0.856657 0.859281
0.845396 0.854948 0.855680
0.884733 0.835660 0.838193
0.726162 0.896635 0.858885
0.731350 0.895964 0.859434
0.748287 0.894072 0.861601
0.771298 0.890776 0.864073
0.796078 0.886137 0.866117
0.818418 0.879393 0.866392
0.812070 0.863645 0.846677
0.877592 0.889372 0.871550
0.644526 0.663508 0.895232
0.656275 0.668757 0.895720
0.693080 0.685481 0.897215
0.749508 0.714412 0.901152
0.814847 0.754299 0.907652
0.873259 0.798672 0.915923
0.891905 0.782742 0.910338
0.901732 0.776638 0.891295
0.639490 0.665400 0.891600
0.651637 0.670710 0.892271
0.689631 0.687922 0.894316
0.746975 0.717037 0.898833
0.813260 0.757229 0.906126
0.873198 0.803067 0.915496
0.891020 0.786587 0.909789
0.900969 0.779782 0.891173
0.615717 0.667201 0.880034
0.629664 0.672969 0.881010
0.672786 0.691737 0.884337
0.736660 0.723873 0.891417
0.807248 0.765682 0.901213
0.870420 0.813199 0.913268
0.888945 0.800504 0.908751
0.898955 0.791989 0.891630
0.525414 0.647028 0.856291
0.550286 0.655238 0.857816
0.620172 0.682521 0.863706
0.704128 0.721706 0.875334
0.789670 0.770291 0.890776
0.861967 0.822141 0.908049
0.886076 0.820706 0.907591
0.896300 0.809842 0.892699
0.361730 0.644007 0.817380
0.368505 0.639826 0.815457
0.421271 0.634730 0.814450
0.593408 0.682368 0.838163
0.739376 0.754604 0.867582
0.840879 0.820951 0.896422
0.882628 0.841581 0.906371
0.893339 0.830014 0.893950
0.471504 0.734249 0.828824
0.478737 0.732448 0.827481
0.501732 0.725887 0.822904
0.534020 0.712337 0.814054
0.565332 0.685695 0.798245
0.783444 0.795651 0.866423
0.879942 0.863828 0.905974
0.890349 0.850553 0.895384
0.583185 0.815183 0.848508
0.590295 0.814694 0.848173
0.613031 0.812985 0.847105
0.646906 0.810117 0.845487
0.686702 0.805753 0.843015
0.727749 0.798459 0.838621
0.840177 0.849485 0.880339
0.886961 0.869932 0.896117
0.679530 0.887236 0.873289
0.685634 0.886992 0.873564
0.706508 0.886473 0.874876
0.740322 0.886320 0.877745
0.781308 0.887388 0.882689
0.824796 0.891173 0.890532
0.863401 0.895689 0.899260
0.890043 0.898161 0.902617
