data/fiter_cube/38543845/1023268/file.cube
# Created by Adobe Lightroom plugin Export LUT (1.17.0)
# www.johnrellis.com/lightroom/exportlut.htm
# Preset: 清新通透胶片预设_04 云集
# Color profile: C:\Program Files (x86)\Common Files\Adobe\Color\Profiles\Recommended\AdobeRGB1998.icc
LUT_3D_SIZE 32
DOMAIN_MIN 0.0 0.0 0.0
DOMAIN_MAX 1.0 1.0 1.0
0.149996 0.157656 0.150057
0.175113 0.156069 0.150820
0.193668 0.156313 0.152255
0.247349 0.153628 0.153964
0.374212 0.128664 0.153445
0.500633 0.060304 0.149996
0.601068 0.000000 0.144869
0.674708 0.000000 0.140169
0.730129 0.000000 0.136172
0.771298 0.000000 0.132815
0.803647 0.000000 0.131167
0.830533 0.000000 0.130007
0.853819 0.000000 0.129488
0.874144 0.000000 0.131289
0.891783 0.038331 0.134524
0.907378 0.095979 0.139620
0.921813 0.129244 0.146883
0.937163 0.162722 0.159365
0.948974 0.192050 0.173312
0.959014 0.217227 0.189273
0.967742 0.240208 0.205814
0.975463 0.260960 0.221988
0.982147 0.279393 0.237980
0.988037 0.296269 0.253300
0.993408 0.311101 0.268406
0.998322 0.325536 0.283452
1.000000 0.339818 0.298985
1.000000 0.354070 0.315465
1.000000 0.368933 0.333349
1.000000 0.384588 0.352575
1.000000 0.401434 0.374273
1.000000 0.419745 0.398169
0.153750 0.175814 0.158877
0.165774 0.176669 0.156222
0.191226 0.175998 0.151583
0.244572 0.174777 0.151919
0.367773 0.167086 0.150759
0.492317 0.138491 0.146944
0.593469 0.091554 0.141787
0.667872 0.011414 0.136538
0.724453 0.000000 0.132540
0.766812 0.000000 0.129274
0.799649 0.000000 0.127749
0.826902 0.000000 0.126680
0.850431 0.034638 0.126925
0.871000 0.082399 0.128634
0.888945 0.108766 0.132052
0.904692 0.131380 0.137667
0.919646 0.154208 0.144961
0.934661 0.180056 0.156527
0.946471 0.203220 0.170443
0.956634 0.225132 0.185245
0.965576 0.245518 0.200870
0.973480 0.264317 0.217319
0.980377 0.281559 0.232975
0.986511 0.297124 0.248569
0.992096 0.311437 0.263188
0.997192 0.325322 0.278264
1.000000 0.338994 0.293614
1.000000 0.353338 0.310582
1.000000 0.367834 0.328435
1.000000 0.383124 0.347601
1.000000 0.399512 0.368719
1.000000 0.417365 0.392432
0.160311 0.189242 0.167727
0.163394 0.188998 0.165164
0.179019 0.191653 0.164065
0.237522 0.201480 0.154391
0.359350 0.206821 0.147127
0.482765 0.195071 0.142702
0.584100 0.172641 0.136934
0.660060 0.151827 0.131685
0.718044 0.137270 0.127321
0.761654 0.127504 0.124544
0.795407 0.125826 0.122896
0.823178 0.127687 0.122408
0.847166 0.133303 0.123079
0.868070 0.143191 0.125429
0.886320 0.155520 0.129213
0.902464 0.166964 0.134646
0.917906 0.183871 0.142458
0.932708 0.202274 0.153902
0.944518 0.220432 0.167849
0.954833 0.238834 0.182712
0.963958 0.256291 0.198306
0.972045 0.272740 0.214237
0.979095 0.288548 0.229831
0.985412 0.302617 0.245365
0.991119 0.315923 0.260166
0.996338 0.328923 0.275334
1.000000 0.341894 0.290929
1.000000 0.355688 0.307805
1.000000 0.369512 0.325261
1.000000 0.384466 0.344762
1.000000 0.400458 0.366155
1.000000 0.417700 0.389624
0.167391 0.215763 0.180819
0.169772 0.214267 0.178531
0.173526 0.214298 0.175357
0.208255 0.225803 0.172580
0.335210 0.272953 0.153109
0.467170 0.277531 0.131563
0.569451 0.268193 0.124758
0.647608 0.256413 0.119051
0.707729 0.245121 0.114656
0.753231 0.236179 0.112276
0.788388 0.228031 0.111788
0.816983 0.222782 0.112062
0.841520 0.220798 0.113832
0.863035 0.220432 0.117342
0.881956 0.221256 0.121859
0.898436 0.225559 0.128328
0.914946 0.233127 0.137514
0.929473 0.243626 0.149142
0.941253 0.254459 0.162905
0.951598 0.266453 0.177920
0.960876 0.278752 0.193332
0.969207 0.291447 0.209262
0.976654 0.303899 0.224949
0.983398 0.316197 0.240787
0.989532 0.327947 0.256291
0.995117 0.339849 0.272618
1.000000 0.351812 0.288670
1.000000 0.364569 0.306065
1.000000 0.377600 0.324315
1.000000 0.391119 0.343572
1.000000 0.405615 0.364050
1.000000 0.421576 0.387060
0.164126 0.273381 0.198978
0.167422 0.268742 0.194064
0.171084 0.263035 0.188754
0.189487 0.268925 0.180423
0.268864 0.299077 0.172976
0.427039 0.359411 0.143435
0.544274 0.362158 0.111391
0.627253 0.352178 0.097322
0.690730 0.342596 0.092378
0.739345 0.332494 0.089998
0.776944 0.321508 0.090913
0.807034 0.311315 0.093843
0.832914 0.302770 0.098024
0.855467 0.296666 0.103670
0.875334 0.292210 0.109957
0.892851 0.289952 0.118074
0.910887 0.292027 0.129091
0.925536 0.295537 0.142123
0.937682 0.299809 0.157229
0.948302 0.305821 0.172519
0.957794 0.312963 0.188388
0.966369 0.320897 0.204257
0.974121 0.329198 0.220127
0.981079 0.338262 0.236698
0.987488 0.347295 0.252659
0.993347 0.356664 0.268833
0.998749 0.366796 0.285466
1.000000 0.377020 0.302403
1.000000 0.388312 0.320684
1.000000 0.400275 0.339727
1.000000 0.413184 0.360479
1.000000 0.427802 0.383368
0.148043 0.351507 0.221347
0.152956 0.346227 0.215030
0.158938 0.338140 0.206973
0.169100 0.322271 0.193484
0.223148 0.347173 0.180880
0.342016 0.385229 0.168276
0.508141 0.444923 0.128634
0.604334 0.445624 0.087617
0.672206 0.430884 0.037507
0.724300 0.419898 0.034638
0.764401 0.407294 0.044770
0.796353 0.393500 0.060212
0.823453 0.381292 0.070802
0.847257 0.370886 0.080781
0.868101 0.362005 0.091157
0.887938 0.355993 0.103609
0.906157 0.352789 0.117556
0.921050 0.350713 0.133028
0.933623 0.350011 0.149508
0.944671 0.351141 0.165957
0.954620 0.353704 0.183078
0.963622 0.357458 0.200320
0.979553 0.382483 0.244205
0.985718 0.388342 0.262150
0.991211 0.394232 0.278874
0.996246 0.400366 0.294926
1.000000 0.407263 0.311589
1.000000 0.414771 0.328466
1.000000 0.423316 0.346136
1.000000 0.432837 0.365057
1.000000 0.443549 0.385016
1.000000 0.455787 0.407202
0.122805 0.440833 0.253269
0.130404 0.434913 0.245792
0.139376 0.426978 0.236545
0.155245 0.410590 0.219242
0.176730 0.401343 0.193149
0.281254 0.438361 0.185367
0.426062 0.476997 0.170443
0.585260 0.529747 0.125124
0.661830 0.524895 0.051637
0.716396 0.507927 0.000000
0.757382 0.489204 0.000000
0.790585 0.473365 0.000000
0.818418 0.458289 0.000000
0.842832 0.444160 0.015534
0.864500 0.431800 0.061433
0.886564 0.423682 0.084138
0.904448 0.416144 0.104585
0.919341 0.409522 0.124910
0.932128 0.404944 0.144686
0.943725 0.402350 0.164523
0.954376 0.402167 0.184970
0.964172 0.403723 0.206332
0.972930 0.407019 0.227359
0.980652 0.411017 0.247776
0.987335 0.415808 0.267857
0.993133 0.420386 0.286381
0.998169 0.425544 0.304021
1.000000 0.430976 0.321233
1.000000 0.437476 0.339300
1.000000 0.445045 0.358099
1.000000 0.453590 0.377752
1.000000 0.464088 0.399786
0.111940 0.508629 0.288121
0.120485 0.503685 0.281010
0.130282 0.496803 0.271763
0.147555 0.482338 0.253819
0.166751 0.460334 0.229679
0.223178 0.472969 0.207156
0.346349 0.508263 0.201633
0.490822 0.541619 0.192111
0.633997 0.586419 0.162325
0.697627 0.579034 0.080415
0.742672 0.560327 0.000000
0.776669 0.537224 0.000000
0.805966 0.520256 0.000000
0.831571 0.504906 0.000000
0.857267 0.493080 0.000000
0.878721 0.481453 0.035279
0.896757 0.470466 0.081422
0.912047 0.460548 0.107698
0.925383 0.452583 0.130922
0.937530 0.446357 0.153658
0.948699 0.442512 0.175601
0.958984 0.440497 0.197299
0.968200 0.440070 0.218326
0.976379 0.440742 0.239506
0.983520 0.442237 0.259586
0.989685 0.444251 0.278416
0.995178 0.446723 0.296239
1.000000 0.449897 0.313695
1.000000 0.454200 0.331731
1.000000 0.459602 0.350439
1.000000 0.466590 0.370886
1.000000 0.474952 0.392554
0.126040 0.566735 0.328832
0.132662 0.562799 0.322606
0.140871 0.557580 0.314336
0.155856 0.545739 0.297215
0.173281 0.527916 0.273045
0.190249 0.505699 0.244388
0.286503 0.537560 0.232547
0.413428 0.567346 0.230961
0.547753 0.593744 0.228794
0.673671 0.632532 0.218570
0.726192 0.622705 0.142641
0.764431 0.603052 0.052125
0.795285 0.580804 0.000000
0.823941 0.561913 0.000000
0.848997 0.547875 0.000000
0.870512 0.534081 0.000000
0.888884 0.520867 0.032685
0.904723 0.508843 0.086336
0.918608 0.498299 0.115541
0.931334 0.489601 0.141329
0.943023 0.482887 0.164889
0.953765 0.477882 0.187808
0.963470 0.474464 0.209751
0.972045 0.472267 0.231571
0.979583 0.471138 0.251896
0.986145 0.470466 0.271275
0.992004 0.470619 0.289433
0.997284 0.471565 0.306828
1.000000 0.473671 0.325200
1.000000 0.477028 0.343755
1.000000 0.481788 0.364111
1.000000 0.488258 0.385901
0.158419 0.613672 0.371435
0.163302 0.610712 0.366186
0.167697 0.606531 0.358404
0.178073 0.597528 0.342992
0.191257 0.583551 0.320226
0.204776 0.564508 0.292576
0.239109 0.563867 0.261875
0.353613 0.589899 0.265141
0.475837 0.613611 0.268681
0.592950 0.634821 0.272129
0.703639 0.667567 0.279637
0.750088 0.658503 0.209964
0.785611 0.640986 0.143099
0.814939 0.620233 0.050935
0.839872 0.598199 0.000000
0.861906 0.581415 0.000000
0.881224 0.567224 0.000000
0.897826 0.553887 0.051911
0.912291 0.541894 0.098207
0.925444 0.531182 0.128481
0.937407 0.522148 0.154116
0.948302 0.514641 0.178195
0.958190 0.508354 0.200473
0.967010 0.503410 0.221653
0.974884 0.499580 0.241886
0.981903 0.496742 0.261204
0.988251 0.494667 0.279576
0.993988 0.493782 0.297887
0.999176 0.494301 0.317174
1.000000 0.495918 0.336645
1.000000 0.499214 0.357977
1.000000 0.504082 0.380499
0.196719 0.650446 0.411841
0.199191 0.648280 0.407568
0.202426 0.645136 0.401160
0.209049 0.638422 0.387854
0.218051 0.627741 0.367864
0.227878 0.613184 0.342107
0.237400 0.594568 0.312688
0.306432 0.610834 0.296117
0.418189 0.632013 0.302708
0.531121 0.652613 0.312261
0.634241 0.671931 0.324315
0.731838 0.700435 0.348455
0.770779 0.689357 0.279973
0.802609 0.672084 0.213504
0.829404 0.651698 0.145052
0.852293 0.629938 0.052247
0.872099 0.608515 0.000000
0.889342 0.594446 0.000000
0.904540 0.581201 0.070924
0.918334 0.569238 0.110445
0.930877 0.558679 0.140749
0.942382 0.549432 0.166476
0.952728 0.541680 0.190463
0.962005 0.534905 0.212894
0.970336 0.529137 0.233585
0.977752 0.524254 0.253239
0.984436 0.520409 0.271916
0.990509 0.517571 0.290349
0.996063 0.516045 0.309514
1.000000 0.515770 0.329107
1.000000 0.517113 0.349950
1.000000 0.520287 0.373022
0.237858 0.681849 0.451667
0.239322 0.680232 0.447974
0.241123 0.677699 0.442390
0.244968 0.672480 0.431159
0.250431 0.664271 0.413794
0.256992 0.653040 0.391180
0.263706 0.638758 0.364080
0.274601 0.631525 0.329625
0.376318 0.652735 0.337469
0.482643 0.671412 0.349371
0.580224 0.687373 0.362982
0.666072 0.701167 0.376654
0.764858 0.738460 0.440742
0.799649 0.727077 0.373602
0.828641 0.709590 0.306523
0.852842 0.688808 0.240604
0.873259 0.666407 0.173831
0.890776 0.643549 0.096101
0.905699 0.625177 0.074342
0.918883 0.611902 0.117403
0.930907 0.599786 0.148470
0.941802 0.589075 0.175265
0.951598 0.579339 0.198856
0.960479 0.570855 0.220768
0.968505 0.563348 0.241245
0.975738 0.556939 0.260777
0.982300 0.551385 0.279088
0.988312 0.546807 0.296818
0.993774 0.543572 0.315496
0.998718 0.541619 0.334661
1.000000 0.541192 0.355413
1.000000 0.542504 0.377844
0.287327 0.712367 0.494850
0.288182 0.711086 0.491920
0.288823 0.709285 0.487556
0.291447 0.705837 0.478920
0.294926 0.700252 0.465217
0.298924 0.692439 0.446632
0.303410 0.682307 0.423529
0.308263 0.669642 0.396826
0.348516 0.675807 0.374548
0.447181 0.691554 0.388434
0.540368 0.705776 0.404456
0.623285 0.718685 0.421668
0.696712 0.730190 0.439307
0.774258 0.752560 0.475380
0.808438 0.743923 0.421424
0.835660 0.727932 0.359533
0.858610 0.708461 0.296910
0.878080 0.687404 0.234806
0.895048 0.665736 0.172091
0.910338 0.644160 0.097780
0.923095 0.630976 0.128634
0.934600 0.619196 0.158267
0.944945 0.608484 0.184329
0.954376 0.598749 0.207248
0.962921 0.590021 0.228489
0.970672 0.582147 0.248356
0.977691 0.575311 0.267124
0.984100 0.569543 0.285466
0.990051 0.564721 0.304082
0.995392 0.561425 0.324224
1.000000 0.559472 0.345098
1.000000 0.559289 0.367773
0.335546 0.736019 0.532341
0.336034 0.735134 0.530053
0.336034 0.733730 0.526452
0.336614 0.730709 0.519127
0.336675 0.725826 0.506920
0.337560 0.719265 0.490944
0.339208 0.711055 0.470832
0.340703 0.700984 0.446876
0.342626 0.688930 0.419623
0.411994 0.703517 0.414343
0.499367 0.715602 0.429175
0.578698 0.726772 0.445014
0.649439 0.736995 0.461341
0.713588 0.746670 0.476753
0.782376 0.765316 0.506889
0.816342 0.759182 0.464942
0.841398 0.743771 0.406378
0.862882 0.725460 0.347295
0.881743 0.705684 0.289250
0.898589 0.685542 0.231205
0.913909 0.665217 0.171237
0.927245 0.648035 0.140322
0.938231 0.636530 0.168978
0.948241 0.625971 0.193790
0.957305 0.616266 0.216098
0.965545 0.607385 0.236362
0.973022 0.599481 0.256382
0.979889 0.592462 0.275029
0.986206 0.586694 0.294438
0.991974 0.582055 0.314305
0.997070 0.578912 0.336187
1.000000 0.577417 0.359747
0.377325 0.753628 0.562188
0.377783 0.752987 0.560540
0.377050 0.751797 0.557488
0.376104 0.749203 0.551080
0.375219 0.745144 0.541131
0.373785 0.739681 0.527398
0.373480 0.733028 0.510765
0.373175 0.724971 0.490547
0.373388 0.715602 0.467140
0.384894 0.714717 0.438117
0.466255 0.725063 0.451759
0.541466 0.734737 0.466590
0.609247 0.743801 0.481575
0.670863 0.752590 0.495644
0.727840 0.760708 0.508507
0.789334 0.776181 0.532982
0.822873 0.772335 0.502281
0.846036 0.757778 0.448188
0.866575 0.740658 0.393408
0.885039 0.722286 0.338750
0.901793 0.703304 0.284337
0.916991 0.684138 0.228763
0.930816 0.664851 0.169711
0.941833 0.652064 0.178103
0.951446 0.641596 0.202243
0.960235 0.632044 0.224155
0.968292 0.623346 0.245090
0.975647 0.615747 0.265904
0.982422 0.609216 0.286900
0.988556 0.603937 0.309178
0.994018 0.600061 0.332555
0.998718 0.597742 0.357916
0.413245 0.768063 0.587152
0.413642 0.767544 0.585840
0.413489 0.766629 0.583764
0.412757 0.764614 0.578698
0.411749 0.761410 0.570916
0.410437 0.757168 0.560235
0.409369 0.752010 0.547021
0.408728 0.745846 0.531182
0.407965 0.738460 0.512016
0.406897 0.729763 0.489662
0.443336 0.735409 0.475898
0.512688 0.743130 0.488167
0.575921 0.750637 0.500389
0.634089 0.757992 0.512261
0.688045 0.765133 0.523308
0.738918 0.771786 0.533104
0.794644 0.784878 0.553674
0.828214 0.783474 0.532525
0.850095 0.770230 0.484901
0.869993 0.754635 0.435767
0.888182 0.737758 0.385290
0.904814 0.720058 0.334600
0.920012 0.701869 0.282261
0.933867 0.683558 0.228763
0.946014 0.666865 0.190555
0.955291 0.656672 0.214359
0.963745 0.647303 0.236576
0.971496 0.639002 0.258732
0.978576 0.631678 0.280766
0.985016 0.625391 0.302770
0.990753 0.620386 0.326421
0.995697 0.616815 0.351843
0.443244 0.779812 0.607691
0.442908 0.779263 0.606287
0.442603 0.778439 0.604456
0.441688 0.776669 0.600275
0.440711 0.773983 0.593866
0.439643 0.770413 0.585382
0.438300 0.765957 0.574395
0.436896 0.760678 0.561120
0.435431 0.754421 0.545220
0.433936 0.747311 0.526940
0.435126 0.741878 0.504936
0.488258 0.749813 0.505516
0.547875 0.756527 0.516777
0.603021 0.763180 0.527398
0.654353 0.769619 0.537438
0.702388 0.775814 0.546410
0.748684 0.781582 0.554925
0.799527 0.792844 0.572076
0.833280 0.793606 0.559319
0.853849 0.781643 0.516777
0.872923 0.767300 0.472328
0.890654 0.751400 0.425910
0.906920 0.734707 0.378027
0.921965 0.717556 0.329381
0.935821 0.700069 0.279118
0.948638 0.682460 0.226688
0.958587 0.670039 0.223972
0.966796 0.661067 0.247623
0.974365 0.653071 0.270390
0.981170 0.646052 0.294285
0.987304 0.640223 0.318608
0.992615 0.635798 0.345678
0.470375 0.790707 0.626398
0.470771 0.790372 0.625635
0.488106 0.796475 0.636103
0.487343 0.794949 0.632776
0.486061 0.792538 0.627588
0.484047 0.789303 0.620294
0.482063 0.785275 0.611261
0.479622 0.780423 0.600031
0.477241 0.774838 0.586938
0.474769 0.768521 0.571771
0.471901 0.761349 0.554223
0.483101 0.762081 0.535546
0.535760 0.767544 0.544152
0.585412 0.773129 0.552697
0.632197 0.778622 0.560906
0.676509 0.783963 0.568292
0.719234 0.789212 0.575402
0.760983 0.794034 0.582025
0.807126 0.803311 0.595941
0.840360 0.805600 0.589532
0.859434 0.794461 0.551507
0.877348 0.781003 0.511711
0.894133 0.765957 0.469734
0.909850 0.749966 0.425299
0.924437 0.733333 0.378790
0.937987 0.716365 0.330449
0.950622 0.699245 0.280919
0.962127 0.682918 0.236637
0.969970 0.674067 0.260136
0.977203 0.666285 0.284123
0.983703 0.659663 0.309941
0.989410 0.654475 0.337133
0.498665 0.802121 0.645777
0.500633 0.802548 0.646326
0.502586 0.802762 0.646540
0.503838 0.802213 0.645075
0.504265 0.800778 0.641871
0.503593 0.798276 0.636408
0.501854 0.794888 0.628870
0.499886 0.790707 0.619684
0.497749 0.785916 0.608820
0.495338 0.780453 0.596063
0.492744 0.774136 0.581445
0.489601 0.767117 0.564599
0.517601 0.772366 0.556359
0.563836 0.777340 0.563806
0.607782 0.782284 0.570947
0.649714 0.787228 0.577752
0.690028 0.792050 0.584314
0.729183 0.796750 0.590509
0.768124 0.801205 0.596460
0.810941 0.809384 0.608820
0.844419 0.813413 0.608179
0.862547 0.803555 0.574426
0.879759 0.791257 0.538750
0.895933 0.777371 0.501213
0.911162 0.762325 0.460731
0.925566 0.746609 0.417914
0.939147 0.730495 0.373083
0.951873 0.714351 0.327672
0.963836 0.698177 0.281651
0.973114 0.686397 0.273960
0.980011 0.679133 0.300572
0.986114 0.673182 0.329839
0.517876 0.810330 0.659205
0.519524 0.810697 0.659663
0.521263 0.810910 0.659937
0.522362 0.810452 0.658747
0.522545 0.809171 0.655818
0.521874 0.807034 0.651240
0.520378 0.804044 0.644923
0.518791 0.800473 0.637324
0.516777 0.796262 0.628107
0.514672 0.791470 0.617456
0.512505 0.786038 0.605371
0.509697 0.779873 0.591211
0.510430 0.776913 0.574243
0.547448 0.782071 0.575586
0.588403 0.786587 0.581903
0.627710 0.791073 0.587945
0.665614 0.795560 0.593713
0.702510 0.799985 0.599512
0.738949 0.804318 0.605158
0.775357 0.808438 0.610681
0.815183 0.815610 0.621607
0.848661 0.821134 0.625879
0.865934 0.812284 0.595666
0.882261 0.801053 0.563622
0.897765 0.788113 0.529442
0.912535 0.773983 0.492958
0.926665 0.759121 0.453895
0.940063 0.743954 0.413642
0.952819 0.728634 0.372229
0.964874 0.713375 0.330663
0.976196 0.698238 0.289708
0.982696 0.691615 0.320226
0.535729 0.818296 0.671809
0.537072 0.818601 0.672114
0.538567 0.818814 0.672389
0.539513 0.818387 0.671382
0.539849 0.817288 0.669001
0.539269 0.815396 0.665156
0.537957 0.812802 0.659785
0.536431 0.809628 0.653254
0.534508 0.805905 0.645380
0.532677 0.801663 0.636439
0.530388 0.796841 0.625910
0.527825 0.791379 0.613916
0.524712 0.785183 0.600122
0.534905 0.786954 0.586786
0.572992 0.791104 0.592615
0.609888 0.795377 0.598291
0.645899 0.799741 0.604181
0.680995 0.804166 0.609979
0.715419 0.808621 0.615991
0.749660 0.812924 0.621942
0.783993 0.817014 0.628016
0.821195 0.823484 0.638025
0.854490 0.830167 0.646082
0.870695 0.822354 0.620081
0.886198 0.812192 0.592248
0.900938 0.800381 0.562860
0.915099 0.787350 0.531456
0.928679 0.773648 0.498756
0.941833 0.759487 0.464485
0.954314 0.745205 0.429938
0.966094 0.731075 0.396490
0.977020 0.717556 0.365789
0.558404 0.828183 0.687587
0.558984 0.828153 0.687495
0.559350 0.828031 0.687129
0.559472 0.827359 0.685878
0.559014 0.826108 0.683314
0.558282 0.824369 0.679896
0.557031 0.822110 0.675288
0.555718 0.819364 0.669734
0.554345 0.816251 0.663355
0.552850 0.812589 0.655818
0.551171 0.808438 0.647303
0.549126 0.803708 0.637446
0.546380 0.798306 0.625910
0.543145 0.792264 0.612940
0.565087 0.797543 0.607172
0.598840 0.801328 0.612055
0.631800 0.805234 0.617060
0.664271 0.809232 0.622065
0.696223 0.813230 0.627192
0.727932 0.817197 0.632227
0.759640 0.820951 0.637324
0.791653 0.824460 0.642176
0.825925 0.829831 0.650263
0.858824 0.837095 0.660517
0.874052 0.829984 0.637201
0.888731 0.820706 0.612085
0.902922 0.809873 0.585687
0.916625 0.797940 0.558404
0.929839 0.785336 0.530144
0.942596 0.772335 0.501488
0.954681 0.759487 0.474037
0.965881 0.747311 0.449256
0.573297 0.835294 0.698268
0.573785 0.835294 0.698207
0.574182 0.835172 0.697932
0.574334 0.834623 0.696834
0.574090 0.833555 0.694789
0.573175 0.831968 0.691646
0.572137 0.829923 0.687678
0.570794 0.827512 0.682826
0.569604 0.824613 0.677241
0.568170 0.821408 0.670771
0.566583 0.817655 0.663294
0.564813 0.813504 0.654932
0.562493 0.808774 0.645228
0.559808 0.803403 0.634211
0.560937 0.802029 0.621180
0.588464 0.806058 0.622431
0.619165 0.809659 0.626886
0.649439 0.813413 0.631556
0.679438 0.817227 0.636316
0.709163 0.821012 0.641047
0.738827 0.824704 0.645808
0.768765 0.828244 0.650568
0.798886 0.831540 0.655207
0.830900 0.836240 0.662226
0.862577 0.843015 0.671931
0.877073 0.836606 0.650904
0.891173 0.828305 0.628840
0.904906 0.818479 0.605249
0.918151 0.807675 0.581567
0.930938 0.796445 0.558373
0.943175 0.785245 0.536248
0.954406 0.774716 0.517479
0.591058 0.843778 0.711055
0.591669 0.843809 0.711086
0.592004 0.843687 0.710872
0.591913 0.843107 0.709773
0.591302 0.842069 0.707759
0.590387 0.840574 0.704921
0.589258 0.838682 0.701350
0.587732 0.836393 0.696925
0.586206 0.833677 0.691768
0.584466 0.830594 0.685817
0.582757 0.827115 0.679194
0.580713 0.823239 0.671565
0.578546 0.818936 0.663111
0.575860 0.814054 0.653437
0.572595 0.808591 0.642451
0.580529 0.810575 0.631983
0.608270 0.813687 0.635431
0.636103 0.816983 0.639063
0.664118 0.820432 0.643153
0.692073 0.824033 0.647486
0.720027 0.827634 0.651972
0.748074 0.831144 0.656428
0.776303 0.834348 0.660792
0.804776 0.837247 0.664729
0.834684 0.841123 0.670375
0.866972 0.849454 0.682795
0.880766 0.843748 0.665431
0.894194 0.836240 0.645991
0.907317 0.827634 0.626215
0.920073 0.818265 0.606744
0.932219 0.808804 0.589105
0.943481 0.800015 0.574640
0.602594 0.849943 0.719631
0.603143 0.849973 0.719692
0.603418 0.849882 0.719509
0.603326 0.849393 0.718563
0.602899 0.848447 0.716793
0.602197 0.847166 0.714382
0.601190 0.845518 0.711269
0.600153 0.843534 0.707546
0.598993 0.841184 0.703182
0.597711 0.838560 0.698177
0.596490 0.835569 0.692592
0.595026 0.832212 0.686183
0.593408 0.828489 0.679072
0.591455 0.824277 0.671046
0.588952 0.819547 0.661891
0.586938 0.815183 0.651637
0.603082 0.819303 0.646845
0.628565 0.822324 0.650080
0.654231 0.825528 0.653590
0.680171 0.828855 0.657435
0.706172 0.832212 0.661494
0.732296 0.835508 0.665492
0.758602 0.838651 0.669429
0.785122 0.841550 0.673091
0.811978 0.844144 0.676783
0.839902 0.847471 0.681514
0.870573 0.855253 0.692866
0.885130 0.851316 0.680751
0.898009 0.845060 0.664942
0.910521 0.837949 0.649836
0.922454 0.830533 0.636255
0.933562 0.823697 0.625910
0.614649 0.856474 0.728695
0.615045 0.856443 0.728695
0.615137 0.856291 0.728359
0.614923 0.855802 0.727474
0.614343 0.854887 0.725795
0.613581 0.853727 0.723568
0.612696 0.852201 0.720790
0.611719 0.850401 0.717433
0.610651 0.848325 0.713558
0.609674 0.846006 0.709255
0.608667 0.843351 0.704341
0.607630 0.840482 0.698970
0.606378 0.837217 0.692897
0.604883 0.833524 0.685969
0.602960 0.829404 0.678279
0.600732 0.824796 0.669642
0.601801 0.824155 0.659266
0.622339 0.827268 0.659632
0.645991 0.830198 0.662654
0.669917 0.833280 0.665980
0.694118 0.836423 0.669581
0.718532 0.839536 0.673182
0.743069 0.842557 0.676783
0.767971 0.845426 0.680354
0.793149 0.848081 0.683711
0.818631 0.850553 0.687129
0.845090 0.853544 0.691524
0.874113 0.860685 0.702144
0.889372 0.858518 0.694423
0.901732 0.853513 0.681910
0.913603 0.848051 0.670985
0.924651 0.842924 0.662898
0.624811 0.862364 0.736538
0.624994 0.862272 0.736416
0.625025 0.862150 0.736110
0.624903 0.861692 0.735317
0.624628 0.860990 0.734005
0.624414 0.860105 0.732326
0.624231 0.859007 0.730282
0.624170 0.857694 0.727901
0.624231 0.856229 0.725154
0.624445 0.854520 0.722103
0.624475 0.852598 0.718532
0.624475 0.850370 0.714504
0.624262 0.847837 0.709926
0.623651 0.844846 0.704555
0.622797 0.841489 0.698512
0.621271 0.837705 0.691585
0.619623 0.833433 0.684016
0.625940 0.835752 0.676234
0.646967 0.838437 0.678859
0.668452 0.841215 0.681727
0.690333 0.844114 0.684810
0.712581 0.847013 0.688045
0.735073 0.849882 0.691279
0.758022 0.852689 0.694667
0.781430 0.855344 0.698054
0.805203 0.857847 0.701472
0.829343 0.860288 0.704952
0.853971 0.863005 0.709163
0.880674 0.869322 0.718837
0.896086 0.868742 0.715389
0.907652 0.865263 0.707057
0.918395 0.861875 0.701411
0.639399 0.869993 0.747433
0.639551 0.869932 0.747372
0.639490 0.869780 0.747005
0.639246 0.869352 0.746242
0.638880 0.868650 0.744930
0.638422 0.867765 0.743282
0.638056 0.866697 0.741329
0.637720 0.865415 0.739010
0.637385 0.863981 0.736324
0.637201 0.862303 0.733333
0.636896 0.860410 0.729915
0.636622 0.858274 0.726101
0.636194 0.855924 0.721798
0.635523 0.853178 0.716945
