data/fiter_cube/44540723/1023235/file.cube
# Created by Adobe Lightroom plugin Export LUT (1.17.0)
# www.johnrellis.com/lightroom/exportlut.htm
# Preset: 奶油色调低饱和（弱光环境）_06 云集
# Color profile: C:\Program Files (x86)\Common Files\Adobe\Color\Profiles\Recommended\AdobeRGB1998.icc
LUT_3D_SIZE 8
DOMAIN_MIN 0.000000 0.000000 0.000000
DOMAIN_MAX 0.903226 0.903226 0.903226
0.099062 0.094331 0.093355
0.130526 0.103090 0.101656
0.210025 0.117433 0.116823
0.369146 0.121401 0.136934
0.571771 0.123995 0.167117
0.764462 0.224765 0.224033
0.880156 0.359869 0.307988
0.945800 0.483833 0.418067
0.110475 0.123598 0.110445
0.123201 0.123018 0.117617
0.212558 0.147280 0.119661
0.365362 0.159518 0.139681
0.563470 0.173159 0.168612
0.748348 0.251560 0.220127
0.868254 0.367559 0.298253
0.940673 0.487190 0.409705
0.129763 0.191440 0.145510
0.138460 0.193668 0.148135
0.180636 0.193393 0.173587
0.379156 0.271153 0.174044
0.616388 0.321599 0.189761
0.777493 0.386633 0.247623
0.888640 0.476326 0.343084
0.947295 0.560601 0.453834
0.157656 0.303014 0.199802
0.164034 0.304753 0.198795
0.207797 0.317815 0.220615
0.324987 0.339788 0.285069
0.588617 0.460395 0.324376
0.823514 0.562646 0.316503
0.897459 0.591699 0.396582
0.945678 0.636194 0.492226
0.209720 0.445075 0.273198
0.217624 0.447578 0.272740
0.263066 0.460304 0.287907
0.375860 0.479316 0.335241
0.494697 0.482033 0.401038
0.682918 0.572961 0.460182
0.869841 0.671595 0.483772
0.943114 0.716640 0.545251
0.300206 0.577142 0.357488
0.318425 0.589776 0.366033
0.353582 0.597955 0.372778
0.439033 0.611170 0.409247
0.560571 0.612970 0.461341
0.657404 0.619226 0.530694
0.780331 0.689845 0.616724
0.907622 0.770047 0.659602
0.443854 0.705318 0.470680
0.454231 0.708644 0.474098
0.474830 0.711025 0.474891
0.536950 0.716548 0.501274
0.612512 0.722835 0.541466
0.714229 0.722042 0.597467
0.779690 0.729854 0.658534
0.844816 0.772427 0.733791
0.619959 0.803128 0.608392
0.623865 0.803342 0.609064
0.641199 0.805539 0.614771
0.681514 0.810666 0.636103
0.712551 0.804623 0.648371
0.777066 0.810147 0.691981
0.837369 0.814878 0.739193
0.871916 0.820676 0.779019
0.105165 0.104158 0.122072
0.124544 0.107851 0.125307
0.200015 0.122713 0.143313
0.344701 0.139895 0.171420
0.541039 0.145480 0.200443
0.726101 0.214084 0.246281
0.854795 0.336034 0.314763
0.933165 0.463294 0.414191
0.109377 0.128176 0.127443
0.132998 0.135988 0.138186
0.207370 0.153506 0.153017
0.352758 0.170291 0.175051
0.545190 0.185397 0.203281
0.722530 0.247074 0.246677
0.846433 0.349340 0.309117
0.927611 0.465888 0.404913
0.133425 0.192264 0.158022
0.152377 0.203372 0.172091
0.191806 0.206638 0.194461
0.388891 0.278660 0.196902
0.587488 0.311284 0.222202
0.746792 0.366796 0.267674
0.861479 0.445411 0.338750
0.934081 0.536187 0.440650
0.166903 0.300175 0.214603
0.179477 0.307286 0.220096
0.218906 0.322148 0.237736
0.313817 0.329534 0.286748
0.550378 0.431189 0.312871
0.781491 0.523186 0.312291
0.872526 0.560479 0.381537
0.934112 0.614862 0.476387
0.226535 0.445228 0.290929
0.233249 0.446113 0.289616
0.269749 0.455451 0.298100
0.365972 0.466773 0.336339
0.474952 0.465644 0.393744
0.667597 0.559258 0.450141
0.861173 0.660700 0.476173
0.936339 0.706264 0.539635
0.305943 0.567254 0.364202
0.314458 0.570336 0.365087
0.343572 0.579797 0.368811
0.429053 0.596307 0.405921
0.551659 0.604456 0.459876
0.653895 0.616114 0.532219
0.778195 0.687251 0.614313
0.904753 0.765103 0.653559
0.431525 0.689967 0.463874
0.435096 0.689143 0.462135
0.458686 0.694118 0.465248
0.523430 0.704829 0.492988
0.604456 0.715541 0.537255
0.705562 0.714839 0.591485
0.769497 0.720302 0.648859
0.837461 0.763760 0.722560
0.607935 0.795773 0.600641
0.614557 0.797116 0.603357
0.633478 0.800107 0.610040
0.674189 0.806424 0.631037
0.726314 0.810513 0.663355
0.781491 0.812802 0.698909
0.835843 0.813535 0.738430
0.868803 0.817472 0.775418
0.110292 0.123507 0.190646
0.131472 0.129854 0.192020
0.191531 0.140658 0.208835
0.353887 0.143954 0.249821
0.542809 0.143252 0.275944
0.720241 0.237064 0.333623
0.850431 0.358434 0.398566
0.928923 0.484504 0.483772
0.122255 0.155001 0.207340
0.142000 0.157748 0.210208
0.201328 0.166964 0.220127
0.354925 0.175082 0.252659
0.542382 0.182467 0.277562
0.716945 0.266270 0.333349
0.845640 0.373388 0.394995
0.926421 0.492714 0.481086
0.127291 0.211521 0.210758
0.150240 0.220554 0.220676
0.229313 0.248783 0.255039
0.389075 0.279728 0.278080
0.586053 0.320592 0.316075
0.741970 0.378576 0.358434
0.854124 0.455940 0.417212
0.927092 0.545892 0.499275
0.159030 0.304479 0.237919
0.184146 0.319799 0.254246
0.270207 0.362127 0.302739
0.368688 0.376379 0.350195
0.619257 0.481392 0.378668
0.778164 0.530388 0.407294
0.868864 0.572564 0.463630
0.929534 0.627924 0.538445
0.220432 0.441779 0.308782
0.249424 0.453376 0.323674
0.326604 0.482246 0.359258
0.410224 0.503410 0.393622
0.523674 0.505028 0.450233
0.708797 0.595514 0.497688
0.872160 0.678370 0.527123
0.930816 0.712398 0.589563
0.315007 0.567407 0.387610
0.342290 0.575128 0.400549
0.395544 0.589868 0.420356
0.460090 0.604456 0.442573
0.567681 0.614740 0.491096
0.664698 0.625330 0.556939
0.791073 0.699489 0.631250
0.909850 0.773983 0.675807
0.454658 0.693599 0.492287
0.472633 0.695460 0.500008
0.497139 0.698848 0.504204
0.542657 0.707332 0.518151
0.619287 0.716915 0.558831
0.714870 0.721035 0.611933
0.781582 0.731655 0.671168
0.852628 0.779568 0.741817
0.622004 0.794644 0.618585
0.625666 0.794278 0.618830
0.641352 0.796353 0.622858
0.681056 0.805875 0.642817
0.730678 0.809995 0.672206
0.784512 0.815000 0.708675
0.839750 0.816892 0.748043
0.873381 0.822324 0.785153
0.102663 0.152804 0.302312
0.133089 0.160739 0.306645
0.212985 0.184970 0.310521
0.326452 0.183749 0.338872
0.551171 0.176394 0.399329
0.714046 0.227787 0.431067
0.832792 0.322728 0.465949
0.913695 0.453529 0.527245
0.119844 0.187869 0.326543
0.147005 0.191592 0.327398
0.227756 0.211337 0.326757
0.339910 0.211521 0.349889
0.556756 0.214267 0.404639
0.711391 0.258457 0.430884
0.829007 0.340368 0.463447
0.910338 0.473487 0.532555
0.130953 0.261967 0.340185
0.160922 0.270268 0.349767
0.254002 0.282933 0.362615
0.377935 0.297368 0.380163
0.575921 0.319188 0.422126
0.726772 0.362707 0.449470
0.839567 0.455512 0.503685
0.916716 0.549035 0.566003
0.143130 0.344488 0.332464
0.171237 0.353033 0.340978
0.269718 0.380591 0.369726
0.435828 0.431342 0.430793
0.611017 0.469306 0.456550
0.745846 0.507713 0.488228
0.848722 0.561242 0.533898
0.918517 0.627619 0.596368
0.198947 0.438605 0.339727
0.225650 0.447425 0.350561
0.323522 0.482277 0.394446
0.479255 0.538293 0.470314
0.580652 0.551873 0.521843
0.760250 0.639216 0.563256
0.868803 0.685054 0.598260
0.922759 0.714961 0.643702
0.297765 0.566247 0.411078
0.330907 0.580102 0.427955
0.416388 0.600275 0.463935
0.527123 0.631830 0.515068
0.612055 0.649378 0.555688
0.699428 0.655818 0.610101
0.819547 0.726650 0.667414
0.918608 0.785672 0.705379
0.429206 0.686763 0.500847
0.450965 0.691157 0.510124
0.518578 0.703609 0.540764
0.594354 0.719753 0.575616
0.657221 0.731411 0.605646
0.737057 0.738033 0.650690
0.795956 0.745388 0.699306
0.867369 0.793790 0.758389
0.610803 0.795773 0.626764
0.623407 0.797086 0.632990
0.660151 0.799863 0.650965
0.698970 0.805478 0.668635
0.738674 0.811307 0.688014
0.789273 0.818204 0.723110
0.844297 0.821195 0.760769
0.878508 0.827878 0.797116
0.095460 0.200107 0.444495
0.140627 0.207462 0.447028
0.245212 0.228550 0.447913
0.370428 0.267033 0.450111
0.519036 0.249149 0.492531
0.709834 0.280522 0.551629
0.829801 0.364904 0.580896
0.909026 0.476783 0.617273
0.120882 0.231022 0.458930
0.161501 0.237919 0.462257
0.262333 0.255650 0.461646
0.383124 0.289372 0.459510
0.525872 0.276677 0.497871
0.713100 0.309331 0.555138
0.829831 0.386999 0.582727
0.908263 0.489509 0.618250
0.177707 0.323339 0.482765
0.217563 0.330114 0.487282
0.291997 0.327947 0.488563
0.422492 0.359655 0.489906
0.546105 0.357153 0.513634
0.715724 0.384894 0.559319
0.825772 0.443854 0.583124
0.903990 0.522332 0.616358
0.177188 0.409644 0.479286
0.211856 0.416052 0.485481
0.320348 0.439551 0.510124
0.468696 0.461433 0.532860
0.587457 0.474983 0.546807
0.727016 0.495247 0.573816
0.827512 0.530846 0.592554
0.902708 0.588281 0.626673
0.195041 0.484749 0.456672
0.225620 0.490822 0.463020
0.321324 0.509056 0.483589
0.468177 0.539422 0.520714
0.621180 0.585992 0.581201
0.748623 0.617487 0.602655
0.840818 0.649104 0.630945
0.908507 0.690883 0.670436
0.244602 0.536400 0.424384
0.268986 0.543297 0.433143
0.349218 0.564263 0.462196
0.484565 0.603510 0.518730
0.626642 0.650538 0.590539
0.718013 0.672328 0.647456
0.846525 0.747341 0.698207
0.919890 0.784054 0.729976
0.379278 0.669276 0.508629
0.397803 0.671748 0.514214
0.462562 0.682918 0.537041
0.568017 0.704555 0.582635
0.671351 0.730556 0.635309
0.743069 0.746273 0.676661
0.804166 0.753323 0.721035
0.881193 0.804379 0.769528
0.556939 0.782773 0.616480
0.568475 0.783322 0.620478
0.608240 0.786282 0.635920
0.683436 0.798886 0.674311
0.741787 0.808316 0.703731
0.790127 0.817014 0.732540
0.843931 0.822873 0.769528
0.879820 0.829404 0.804593
0.168643 0.272618 0.596490
0.210880 0.278447 0.596796
0.315892 0.294957 0.593347
0.450813 0.331029 0.596216
0.569451 0.375372 0.602045
0.684230 0.353948 0.630182
0.820493 0.423407 0.677211
0.904509 0.525353 0.709194
0.185855 0.295018 0.595331
0.222477 0.299474 0.594781
0.322850 0.314580 0.593378
0.452949 0.347082 0.595483
0.568536 0.390265 0.599420
0.681849 0.370703 0.628168
0.818845 0.436774 0.676173
0.902953 0.533165 0.708095
0.272557 0.393378 0.618738
0.285252 0.387366 0.618463
0.362127 0.389563 0.618097
0.486122 0.415930 0.617365
0.594079 0.458045 0.614679
0.694972 0.440162 0.639796
0.822690 0.494484 0.683284
0.901823 0.570459 0.711604
0.282628 0.492439 0.631708
0.314153 0.493385 0.632227
0.416083 0.502953 0.638880
0.526360 0.513085 0.649317
0.638117 0.547265 0.649958
0.723598 0.544579 0.666255
0.833402 0.581323 0.700313
0.902525 0.626612 0.719539
0.281865 0.556176 0.602502
0.310124 0.560143 0.606928
0.398596 0.572992 0.621759
0.525811 0.595422 0.648188
0.649775 0.613611 0.667506
0.735134 0.624292 0.677516
0.830625 0.643122 0.699031
0.898711 0.670893 0.714839
0.284062 0.607324 0.568902
0.310887 0.612879 0.575097
0.387579 0.623316 0.588769
0.500206 0.639887 0.611780
0.628351 0.662165 0.644038
0.756069 0.707301 0.703426
0.846311 0.735866 0.725917
0.907225 0.760281 0.749752
0.328161 0.658320 0.538170
0.346410 0.661830 0.542443
0.408423 0.671901 0.558282
0.513939 0.692866 0.593408
0.644617 0.721614 0.647639
0.763272 0.758602 0.714626
0.823941 0.772824 0.757107
0.905425 0.824826 0.796658
0.501183 0.774563 0.624292
0.512535 0.775082 0.627070
0.554162 0.778164 0.638911
0.626947 0.787076 0.665492
0.713558 0.799313 0.703914
0.791897 0.815854 0.747860
0.845365 0.828702 0.784909
0.885374 0.835508 0.819364
0.306676 0.361242 0.713863
0.338689 0.368170 0.715633
0.421485 0.383917 0.714260
0.529137 0.414710 0.712947
0.630518 0.459174 0.709468
0.711574 0.487587 0.713924
0.793759 0.470283 0.731746
0.886534 0.556359 0.768246
0.309270 0.375311 0.709560
0.339391 0.381109 0.710964
0.419776 0.395422 0.709957
0.523705 0.421759 0.707546
0.624170 0.462409 0.703822
0.704280 0.489296 0.706935
0.785885 0.469764 0.724147
0.881346 0.549523 0.761318
0.359808 0.448585 0.722194
0.371832 0.444892 0.722133
0.444312 0.454139 0.719448
0.542718 0.475227 0.716762
0.637781 0.506981 0.711910
0.715419 0.536797 0.713588
0.793484 0.522454 0.732204
0.885893 0.593591 0.770169
0.422736 0.549950 0.731838
0.442176 0.550134 0.731136
0.498695 0.550927 0.731441
0.566583 0.549371 0.731594
0.661067 0.574304 0.728115
0.737667 0.608606 0.728054
0.806271 0.596979 0.746151
0.890318 0.646021 0.779232
0.399298 0.613184 0.720943
0.416693 0.613397 0.721614
0.478614 0.617853 0.727260
0.577874 0.626459 0.735195
0.664790 0.630549 0.738552
0.747463 0.657771 0.737301
0.810269 0.655940 0.751400
0.892607 0.694392 0.784329
0.393835 0.668849 0.699001
0.411994 0.670192 0.701076
0.470619 0.674983 0.708492
0.561212 0.684962 0.722805
0.666590 0.700954 0.743709
0.766354 0.719875 0.762905
0.829435 0.731899 0.773007
0.896849 0.749020 0.792264
0.394171 0.720058 0.677913
0.411505 0.721950 0.680751
0.462745 0.725185 0.687098
0.542748 0.731319 0.699092
0.639826 0.739101 0.715511
0.745724 0.755612 0.742916
0.843442 0.792569 0.793179
0.906126 0.813504 0.810758
0.441199 0.764340 0.652552
0.451453 0.764981 0.653773
0.492927 0.770748 0.662531
0.549004 0.774929 0.670710
0.647089 0.786648 0.700221
0.756222 0.804898 0.745937
0.848356 0.831937 0.802579
0.893828 0.844968 0.839567
0.471748 0.477699 0.802884
0.489967 0.482704 0.803220
0.538354 0.492866 0.800534
0.613092 0.517174 0.798734
0.691157 0.551598 0.795621
0.759640 0.594232 0.791928
0.813107 0.606806 0.799039
0.869017 0.591882 0.811246
0.471351 0.486397 0.800900
0.489235 0.491066 0.801236
0.538170 0.501244 0.799252
0.610803 0.522576 0.796780
0.688930 0.555352 0.793820
0.757504 0.596246 0.790127
0.810391 0.608057 0.796292
0.866575 0.592432 0.808591
0.481849 0.523827 0.802121
0.497749 0.526818 0.801968
0.542596 0.532952 0.799039
0.619928 0.556634 0.799588
0.694392 0.582879 0.796048
0.759762 0.615747 0.791531
0.811704 0.630060 0.796536
0.866606 0.615656 0.809323
0.541039 0.605921 0.804929
0.548577 0.604608 0.805509
0.566735 0.594720 0.804685
0.627008 0.602350 0.803922
0.702052 0.623774 0.801572
0.767727 0.651179 0.798398
0.818479 0.669734 0.801389
0.869963 0.656794 0.814267
0.520531 0.659144 0.805203
0.536400 0.660639 0.806119
0.578607 0.661311 0.806271
0.644190 0.665888 0.807919
0.697749 0.662776 0.806912
0.769192 0.684382 0.804227
0.824552 0.710872 0.805539
0.874632 0.704738 0.821042
0.514214 0.712734 0.795865
0.523552 0.712184 0.796017
0.557733 0.711849 0.797818
0.616632 0.714290 0.803616
0.696010 0.719966 0.811215
0.772305 0.729152 0.817075
0.839841 0.759335 0.821439
0.886351 0.764401 0.836606
0.523369 0.766690 0.787564
0.531914 0.766323 0.787869
0.562280 0.765835 0.789792
0.616724 0.767514 0.795773
0.688685 0.772183 0.805905
0.771695 0.783993 0.822660
0.848264 0.800687 0.839597
0.893645 0.810208 0.847135
0.539025 0.818448 0.782437
0.545647 0.817960 0.782528
0.571588 0.817563 0.784298
0.619013 0.817868 0.788968
0.680934 0.818479 0.795865
0.752590 0.820737 0.806210
0.830686 0.829557 0.824857
0.905943 0.858793 0.866300
