data/fiter_cube/44540723/1023235/file.cube
# Created by Adobe Lightroom plugin Export LUT (1.17.0)
# www.johnrellis.com/lightroom/exportlut.htm
# Preset: 奶油色调低饱和（弱光环境）_06 云集
# Color profile: C:\Program Files (x86)\Common Files\Adobe\Color\Profiles\Recommended\AdobeRGB1998.icc
LUT_3D_SIZE 5
DOMAIN_MIN 0.000000 0.000000 0.000000
DOMAIN_MAX 0.903226 0.903226 0.903226
0.099062 0.094331 0.093355
0.184268 0.114351 0.112825
0.472206 0.117830 0.150515
0.801877 0.261112 0.244053
0.945800 0.483833 0.418067
0.124300 0.171389 0.135225
0.162539 0.171878 0.156771
0.503166 0.259037 0.164462
0.809598 0.377905 0.262669
0.948913 0.548547 0.451575
0.179110 0.372808 0.234501
0.215427 0.383490 0.244602
0.416327 0.417731 0.346654
0.810269 0.600427 0.393347
0.943877 0.675074 0.514183
0.338476 0.617853 0.388769
0.370031 0.628534 0.394232
0.513329 0.649592 0.457374
0.693172 0.650752 0.565118
0.893675 0.774319 0.680934
0.619959 0.803128 0.608392
0.635035 0.804623 0.612360
0.684169 0.801968 0.630060
0.794675 0.811032 0.704128
0.871916 0.820676 0.779019
0.109834 0.117525 0.167239
0.168734 0.130404 0.181460
0.440375 0.137240 0.234562
0.752590 0.252689 0.318181
0.927398 0.470375 0.456062
0.123598 0.186038 0.185946
0.196536 0.213077 0.219333
0.473274 0.260746 0.261723
0.768887 0.360723 0.337560
0.929107 0.527306 0.476722
0.188022 0.372045 0.265263
0.262303 0.404181 0.303014
0.424598 0.423621 0.376776
0.805539 0.597375 0.427344
0.933440 0.672724 0.553491
0.367468 0.617273 0.422797
0.416938 0.631495 0.440711
0.536645 0.653681 0.489052
0.701839 0.658320 0.587274
0.896849 0.778744 0.692836
0.631952 0.800626 0.624201
0.646326 0.802213 0.627649
0.707546 0.809781 0.656977
0.802914 0.816556 0.719570
0.876219 0.825315 0.788388
0.095521 0.174411 0.372839
0.200107 0.197238 0.376867
0.418006 0.210575 0.413001
0.748714 0.271183 0.502495
0.912078 0.457954 0.568750
0.149233 0.272923 0.411261
0.234897 0.276585 0.416144
0.457282 0.300786 0.442969
0.747829 0.357427 0.506798
0.910979 0.505638 0.576165
0.161105 0.415015 0.394690
0.259220 0.437079 0.417700
0.533959 0.511986 0.508629
0.773129 0.574121 0.555627
0.913329 0.661585 0.636316
0.306828 0.588678 0.440162
0.383673 0.605188 0.468421
0.593225 0.664454 0.567102
0.735470 0.688472 0.651270
0.911223 0.792416 0.725978
0.580713 0.787259 0.617212
0.624140 0.792294 0.637293
0.718654 0.805966 0.684413
0.800015 0.818570 0.734646
0.877073 0.826413 0.797787
0.190768 0.287358 0.621271
0.304051 0.305425 0.622034
0.527153 0.370703 0.624872
0.712337 0.378393 0.655146
0.901061 0.528862 0.725246
0.251743 0.368353 0.636469
0.338567 0.375128 0.636255
0.544518 0.425971 0.634791
0.715358 0.435798 0.658106
0.897368 0.556695 0.723415
0.296757 0.531060 0.639857
0.384924 0.541588 0.651270
0.579431 0.556054 0.665614
0.733089 0.573724 0.675227
0.895537 0.643885 0.728786
0.316136 0.642115 0.601862
0.382788 0.646876 0.609705
0.566918 0.671046 0.645838
0.780697 0.730648 0.727565
0.904936 0.770901 0.762051
0.480995 0.770901 0.626062
0.524834 0.775296 0.638148
0.657923 0.791958 0.685145
0.808225 0.820768 0.763302
0.886473 0.836759 0.822904
0.471748 0.477699 0.802884
0.523095 0.489235 0.801205
0.652888 0.533440 0.797482
0.774777 0.606470 0.791318
0.869017 0.591882 0.811246
0.482185 0.514824 0.802731
0.531090 0.523766 0.801175
0.656611 0.560510 0.797665
0.774411 0.620966 0.790738
0.867613 0.611139 0.810269
0.531823 0.630732 0.804959
0.574151 0.633173 0.804959
0.659815 0.630091 0.803494
0.779721 0.669673 0.797513
0.871183 0.678370 0.816342
0.523308 0.729458 0.796231
0.555200 0.728756 0.797665
0.657832 0.733364 0.808438
0.791196 0.746517 0.821134
0.887510 0.775204 0.838468
0.539025 0.818448 0.782437
0.562982 0.817594 0.783597
0.648615 0.818204 0.792233
0.771633 0.822080 0.809812
0.905943 0.858793 0.866300
