data/fiter_cube/44540723/1023235/file.cube
# Created by Adobe Lightroom plugin Export LUT (1.17.0)
# www.johnrellis.com/lightroom/exportlut.htm
# Preset: 奶油色调低饱和（弱光环境）_06 云集
# Color profile: C:\Program Files (x86)\Common Files\Adobe\Color\Profiles\Recommended\AdobeRGB1998.icc
LUT_3D_SIZE 32
DOMAIN_MIN 0.0 0.0 0.0
DOMAIN_MAX 1.0 1.0 1.0
0.099062 0.094331 0.093355
0.102876 0.095308 0.094209
0.107576 0.096376 0.095277
0.117861 0.099123 0.097780
0.130526 0.103090 0.101656
0.145480 0.106996 0.105440
0.163180 0.110506 0.109133
0.184268 0.114351 0.112825
0.210025 0.117433 0.116823
0.240848 0.120455 0.120974
0.277806 0.122255 0.125856
0.321050 0.122683 0.130983
0.369146 0.121401 0.136934
0.420142 0.119051 0.143343
0.472206 0.117830 0.150515
0.523217 0.118074 0.158358
0.571771 0.123995 0.167117
0.617487 0.136202 0.176730
0.664881 0.156558 0.188846
0.719417 0.188876 0.205692
0.764462 0.224765 0.224033
0.801877 0.261112 0.244053
0.832639 0.296056 0.264683
0.858366 0.328954 0.286015
0.880156 0.359869 0.307988
0.899199 0.389929 0.331304
0.916289 0.420386 0.357336
0.931762 0.451392 0.385962
0.945800 0.483833 0.418067
0.958312 0.518151 0.454108
0.969360 0.554467 0.493965
0.978851 0.593103 0.537652
0.100282 0.097932 0.095369
0.102144 0.097841 0.096345
0.107424 0.099855 0.096529
0.117983 0.102998 0.098421
0.130861 0.106722 0.102296
0.145663 0.110048 0.105867
0.163180 0.113741 0.109285
0.183871 0.117128 0.113008
0.209171 0.120485 0.116823
0.239506 0.123445 0.121187
0.275761 0.125582 0.125887
0.318151 0.126406 0.130922
0.365270 0.125795 0.136782
0.415900 0.124208 0.143404
0.467048 0.122835 0.150149
0.517449 0.124208 0.158206
0.566064 0.129122 0.166537
0.611780 0.140475 0.175906
0.659754 0.159335 0.187808
0.712642 0.189212 0.203708
0.757198 0.222751 0.221103
0.794797 0.257603 0.239811
0.826078 0.291142 0.259678
0.852506 0.323522 0.280583
0.875059 0.354437 0.301946
0.894835 0.384527 0.325383
0.912688 0.414862 0.351019
0.928801 0.446265 0.379675
0.943359 0.478859 0.411810
0.956420 0.513207 0.447669
0.967864 0.549554 0.487282
0.977661 0.588128 0.530999
0.101991 0.102541 0.097963
0.103609 0.102785 0.098390
0.106386 0.102510 0.100313
0.116457 0.107393 0.101259
0.131319 0.111116 0.102815
0.146059 0.114504 0.106355
0.163210 0.117678 0.109834
0.183749 0.121218 0.113313
0.208927 0.124483 0.117281
0.239078 0.127596 0.121431
0.274937 0.130220 0.126131
0.317052 0.131380 0.131289
0.363989 0.131380 0.137301
0.414038 0.130587 0.143435
0.464881 0.130098 0.150484
0.515190 0.130922 0.158175
0.563531 0.136385 0.166629
0.609186 0.146975 0.175662
0.657954 0.165530 0.187808
0.709590 0.193942 0.202945
0.753902 0.225834 0.219913
0.791531 0.259464 0.238376
0.822965 0.292088 0.258061
0.849607 0.323644 0.278447
0.872496 0.354192 0.299687
0.892576 0.383764 0.322515
0.910765 0.413947 0.348180
0.927214 0.445197 0.376715
0.942077 0.477699 0.408820
0.955322 0.511955 0.444892
0.966979 0.547967 0.484291
0.976959 0.586267 0.527825
0.106172 0.112123 0.103761
0.107424 0.112367 0.104158
0.109560 0.112673 0.105440
0.114229 0.112245 0.108492
0.126009 0.117952 0.109865
0.147707 0.124147 0.107637
0.165011 0.126955 0.110842
0.185733 0.130068 0.114473
0.210788 0.133425 0.117983
0.240787 0.136812 0.122438
0.276524 0.139864 0.127016
0.318334 0.141665 0.132265
0.364569 0.142611 0.138003
0.414069 0.143191 0.144503
0.464485 0.143587 0.151186
0.514336 0.145998 0.158907
0.562249 0.151736 0.167178
0.607324 0.161715 0.176333
0.656916 0.179904 0.188235
0.705837 0.204959 0.202609
0.748714 0.233799 0.218601
0.785916 0.264652 0.236362
0.817899 0.295995 0.255558
0.845731 0.327398 0.276249
0.869932 0.358007 0.298039
0.891112 0.388373 0.322179
0.910063 0.418952 0.348547
0.926879 0.450172 0.377630
0.941833 0.482338 0.410101
0.955016 0.515526 0.445472
0.966522 0.550469 0.484413
0.976410 0.587366 0.526513
0.110475 0.123598 0.110445
0.111208 0.123690 0.110628
0.113100 0.123781 0.111421
0.117433 0.123659 0.113649
0.123201 0.123018 0.117617
0.134615 0.128817 0.119936
0.160342 0.137942 0.116426
0.187625 0.144015 0.115846
0.212558 0.147280 0.119661
0.242405 0.151095 0.123568
0.278080 0.154360 0.128389
0.319310 0.157321 0.133822
0.365362 0.159518 0.139681
0.414557 0.161349 0.145846
0.464912 0.163272 0.152743
0.515312 0.167025 0.160037
0.563470 0.173159 0.168612
0.608850 0.183383 0.177859
0.660395 0.202121 0.190646
0.707149 0.225437 0.204623
0.748348 0.251560 0.220127
0.784573 0.280003 0.237125
0.816129 0.309026 0.255863
0.843931 0.338506 0.276280
0.868254 0.367559 0.298253
0.889769 0.396857 0.322148
0.908782 0.426307 0.348669
0.925689 0.456153 0.377539
0.940673 0.487190 0.409705
0.953948 0.519432 0.444800
0.965545 0.553399 0.483345
0.975525 0.589502 0.525353
0.114687 0.136446 0.117403
0.115419 0.136721 0.117372
0.116579 0.136934 0.117525
0.119997 0.137301 0.119570
0.126833 0.136538 0.122927
0.133547 0.135897 0.127993
0.144198 0.141115 0.132204
0.174441 0.153780 0.128054
0.212863 0.165164 0.124025
0.247959 0.170932 0.125917
0.283970 0.175051 0.130739
0.325475 0.178531 0.136202
0.371527 0.181765 0.141878
0.420508 0.184787 0.148165
0.470588 0.188296 0.155154
0.520531 0.193149 0.162814
0.568597 0.200290 0.171115
0.617487 0.212894 0.181521
0.667140 0.231113 0.194217
0.712276 0.252964 0.208194
0.752438 0.277714 0.223941
0.787991 0.304051 0.241337
0.858030 0.380468 0.295537
0.880034 0.406989 0.318975
0.898680 0.432197 0.342992
0.914763 0.456641 0.367987
0.928954 0.481483 0.394568
0.941650 0.507042 0.422950
0.953124 0.533928 0.454017
0.963439 0.562524 0.487739
0.972503 0.592889 0.524254
0.980346 0.624994 0.563287
0.119600 0.154238 0.126436
0.120272 0.154482 0.126375
0.121248 0.154696 0.126162
0.124666 0.155306 0.128023
0.129763 0.155795 0.130861
0.139986 0.154696 0.135866
0.147890 0.153902 0.142275
0.158145 0.158633 0.150210
0.196445 0.176974 0.145083
0.245701 0.193454 0.140261
0.306279 0.207919 0.135592
0.350683 0.212161 0.141146
0.397955 0.215915 0.147280
0.446937 0.219730 0.153841
0.495644 0.224033 0.160708
0.542626 0.229831 0.168643
0.587854 0.237888 0.177432
0.641749 0.254734 0.189883
0.689937 0.274235 0.203586
0.734127 0.297154 0.219303
0.774441 0.323735 0.237919
0.811032 0.352544 0.259861
0.843137 0.382757 0.284276
0.870268 0.411933 0.310613
0.892699 0.439704 0.338079
0.910857 0.465248 0.365240
0.926055 0.489845 0.392767
0.939239 0.514366 0.421607
0.951019 0.540124 0.452338
0.961486 0.567163 0.485359
0.970764 0.596002 0.521050
0.978790 0.626856 0.559777
0.124300 0.171389 0.135225
0.125216 0.171572 0.135042
0.125826 0.171908 0.134981
0.128389 0.172396 0.135866
0.133669 0.173220 0.138643
0.141878 0.173281 0.142794
0.153292 0.172366 0.149081
0.162539 0.171878 0.156771
0.170748 0.175082 0.168338
0.215305 0.198123 0.163455
0.272374 0.219272 0.158511
0.342138 0.238254 0.152468
0.407324 0.250187 0.150881
0.455451 0.254429 0.157229
0.503166 0.259037 0.164462
0.549157 0.264927 0.172061
0.601434 0.277379 0.182650
0.650019 0.292424 0.194583
0.694484 0.309361 0.207706
0.735897 0.329473 0.223178
0.774350 0.352544 0.241550
0.809598 0.377905 0.262669
0.840818 0.404456 0.286229
0.867491 0.430610 0.311955
0.889830 0.455421 0.338567
0.908049 0.478920 0.365362
0.923461 0.501488 0.392584
0.936889 0.524407 0.421057
0.948913 0.548547 0.451575
0.959564 0.574090 0.484352
0.969055 0.601587 0.519738
0.977264 0.631159 0.558099
0.129763 0.191440 0.145510
0.130343 0.191714 0.145480
0.131106 0.192142 0.145388
0.133303 0.192752 0.145449
0.138460 0.193668 0.148135
0.144869 0.194766 0.151736
0.156802 0.194583 0.157382
0.169894 0.193698 0.164523
0.180636 0.193393 0.173587
0.188571 0.195987 0.187747
0.237400 0.222568 0.185611
0.303044 0.248325 0.180240
0.379156 0.271153 0.174044
0.460395 0.291691 0.165835
0.515404 0.300053 0.169253
0.567651 0.310033 0.178836
0.616388 0.321599 0.189761
0.660914 0.334447 0.201175
0.702205 0.349371 0.214206
0.741054 0.366674 0.229404
0.777493 0.386633 0.247623
0.811185 0.408484 0.268254
0.841093 0.431189 0.291936
0.866880 0.454200 0.317174
0.888640 0.476326 0.343084
0.906645 0.497108 0.369360
0.921965 0.517540 0.396124
0.935302 0.538476 0.423865
0.947295 0.560601 0.453834
0.957977 0.584314 0.485817
0.967498 0.609949 0.520531
0.975799 0.637598 0.557946
0.135561 0.214054 0.156680
0.136049 0.214420 0.156771
0.136843 0.214786 0.156588
0.138674 0.215549 0.156435
0.143313 0.216526 0.158328
0.150088 0.217594 0.162051
0.158755 0.219333 0.166751
0.174594 0.218387 0.173648
0.189609 0.218021 0.182284
0.202121 0.218082 0.192477
0.211337 0.220371 0.207980
0.261570 0.248447 0.209964
0.334081 0.278111 0.204715
0.416266 0.305272 0.198825
0.507256 0.334112 0.192813
0.588281 0.360632 0.187228
0.634180 0.371069 0.198093
0.676295 0.382238 0.210239
0.714748 0.394842 0.223606
0.750546 0.408789 0.239200
0.783719 0.424475 0.256840
0.814298 0.441810 0.276616
0.841581 0.459907 0.298466
0.865537 0.478309 0.321813
0.886290 0.496773 0.346441
0.904051 0.514946 0.371649
0.919524 0.533562 0.398138
0.933257 0.553063 0.426215
0.945525 0.574060 0.456764
0.956542 0.596612 0.489082
0.966247 0.621241 0.524163
0.974701 0.647852 0.561944
0.141329 0.238102 0.168582
0.142031 0.238529 0.168521
0.142885 0.238895 0.168460
0.144594 0.239872 0.168276
0.148531 0.241154 0.169223
0.155612 0.242863 0.173068
0.164370 0.244846 0.177829
0.177432 0.246433 0.184237
0.195712 0.245853 0.192477
0.213016 0.245975 0.202640
0.227909 0.246433 0.214267
0.238590 0.248478 0.230564
0.292821 0.279393 0.239384
0.376623 0.315709 0.235813
0.465858 0.348516 0.231113
0.552758 0.379004 0.224949
0.631281 0.408576 0.217868
0.687587 0.428443 0.219364
0.723201 0.437568 0.232822
0.756619 0.448341 0.248173
0.788052 0.461219 0.265904
0.817105 0.475410 0.285710
0.843381 0.490761 0.307378
0.866423 0.506523 0.330571
0.886473 0.522240 0.354681
0.903593 0.537896 0.379370
0.918547 0.553918 0.405097
0.931945 0.570916 0.432227
0.944060 0.589685 0.461402
0.954925 0.610071 0.493111
0.964630 0.632685 0.527276
0.973144 0.657435 0.564385
0.148013 0.265446 0.181765
0.148653 0.265812 0.181796
0.149508 0.266148 0.181643
0.151400 0.267124 0.181582
0.154482 0.268742 0.181552
0.161776 0.270665 0.185245
0.170962 0.273136 0.190097
0.181888 0.276158 0.196109
0.200443 0.277195 0.204074
0.221653 0.277134 0.213870
0.243717 0.279881 0.226932
0.264347 0.283574 0.242313
0.306554 0.311254 0.281743
0.369421 0.345495 0.298100
0.467140 0.388983 0.294591
0.559442 0.426825 0.289860
0.640772 0.460151 0.284245
0.709865 0.489021 0.278813
0.766018 0.512871 0.274540
0.797299 0.522087 0.287175
0.821927 0.529229 0.304906
0.844572 0.537896 0.324193
0.864775 0.547143 0.344762
0.882994 0.557519 0.366522
0.899107 0.568475 0.388800
0.913329 0.580102 0.412055
0.925994 0.592370 0.435798
0.937377 0.605798 0.460975
0.947814 0.620966 0.487861
0.957397 0.638209 0.517296
0.966003 0.657588 0.549126
0.973816 0.679133 0.583429
0.157656 0.303014 0.199802
0.158267 0.303227 0.199771
0.159152 0.303319 0.199619
0.160952 0.303868 0.199100
0.164034 0.304753 0.198795
0.170504 0.305913 0.201053
0.180240 0.307897 0.205356
0.191897 0.310735 0.211276
0.207797 0.317815 0.220615
0.236271 0.321874 0.232792
0.266392 0.326970 0.247593
0.296727 0.332952 0.265171
0.324987 0.339788 0.285069
0.344732 0.344488 0.307805
0.402533 0.376654 0.331121
0.500206 0.422065 0.328740
0.588617 0.460395 0.324376
0.664820 0.493019 0.319768
0.728969 0.520562 0.315953
0.782071 0.544060 0.313848
0.823514 0.562646 0.316503
0.844938 0.568536 0.335027
0.864286 0.575341 0.354650
0.881834 0.583154 0.375006
0.897459 0.591699 0.396582
0.911345 0.601038 0.418738
0.923827 0.611292 0.441657
0.935210 0.622889 0.465919
0.945678 0.636194 0.492226
0.955322 0.651728 0.520989
0.964050 0.669520 0.552422
0.972045 0.689509 0.586389
0.166171 0.332738 0.214481
0.167025 0.332982 0.214511
0.167727 0.333379 0.214359
0.169894 0.334844 0.214511
0.173251 0.336797 0.214542
0.179416 0.339605 0.216159
0.190219 0.343114 0.221439
0.203433 0.347814 0.228122
0.219516 0.353979 0.236667
0.243046 0.359899 0.247623
0.276219 0.363897 0.261387
0.310124 0.369116 0.277775
0.342565 0.374456 0.296239
0.371099 0.379644 0.316167
0.389624 0.382208 0.337591
0.435492 0.407324 0.364630
0.529656 0.452216 0.361486
0.612787 0.489754 0.357610
0.685389 0.522179 0.354437
0.746151 0.549493 0.352789
0.796567 0.573053 0.353613
0.837949 0.593133 0.355901
0.864897 0.604608 0.367193
0.881834 0.610376 0.387152
0.896941 0.616938 0.407935
0.910491 0.624262 0.429145
0.922728 0.632654 0.451209
0.933898 0.642420 0.474739
0.944244 0.654017 0.500237
0.953796 0.667872 0.528496
0.962524 0.683894 0.559380
0.970581 0.702144 0.592401
0.179110 0.372808 0.234501
0.180209 0.373480 0.234928
0.180850 0.373663 0.234531
0.182834 0.374395 0.234195
0.186343 0.375433 0.233982
0.190921 0.377173 0.233829
0.201663 0.379889 0.238499
0.215427 0.383490 0.244602
0.231998 0.388861 0.252720
0.251713 0.395880 0.262699
0.283665 0.400977 0.275669
0.320409 0.405249 0.291051
0.356176 0.409766 0.308476
0.388891 0.414008 0.327123
0.416327 0.417731 0.346654
0.433356 0.418463 0.366735
0.466133 0.435950 0.396735
0.556420 0.480354 0.393835
0.636561 0.518090 0.391302
0.705653 0.550408 0.390204
0.763058 0.577539 0.390875
0.810269 0.600427 0.393347
0.848569 0.619532 0.397467
0.879942 0.635554 0.402594
0.896635 0.642054 0.420569
0.910002 0.648096 0.441444
0.922210 0.655329 0.463844
0.933471 0.664271 0.487892
0.943877 0.675074 0.514183
0.953429 0.688075 0.543114
0.962188 0.703182 0.574212
0.970214 0.720150 0.607202
0.193851 0.410895 0.254459
0.194980 0.411627 0.254734
0.195926 0.412024 0.254582
0.198215 0.412909 0.254582
0.201785 0.414252 0.254368
0.207004 0.416480 0.254520
0.216892 0.419471 0.257633
0.231571 0.423377 0.263981
0.249119 0.428443 0.272129
0.269566 0.434668 0.281590
0.293309 0.441627 0.293004
0.331334 0.443824 0.306859
0.367895 0.445808 0.321965
0.401953 0.447639 0.338506
0.431800 0.449165 0.355932
0.456245 0.450538 0.373846
0.472358 0.450477 0.392828
0.496071 0.462806 0.425147
0.581811 0.507012 0.425818
0.660700 0.546441 0.426123
0.727047 0.579461 0.428168
0.781247 0.606744 0.431922
0.825254 0.629175 0.436957
0.860777 0.647639 0.442817
0.889586 0.663081 0.450111
0.911467 0.674830 0.460548
0.923186 0.680568 0.482033
0.933928 0.687984 0.505669
0.943877 0.697017 0.531029
0.953002 0.708003 0.558404
0.961425 0.720699 0.587304
0.969207 0.735195 0.617792
0.209720 0.445075 0.273198
0.210544 0.445289 0.272984
0.211582 0.445655 0.273136
0.213870 0.446235 0.272709
0.217624 0.447578 0.272740
0.222629 0.449592 0.272862
0.230869 0.452461 0.274510
0.245579 0.455818 0.280278
0.263066 0.460304 0.287907
0.283452 0.465736 0.297063
0.306645 0.472450 0.308049
0.337102 0.477516 0.320592
0.375860 0.479316 0.335241
0.412207 0.480568 0.350774
0.444770 0.481392 0.367010
0.472297 0.481575 0.383581
0.494697 0.482033 0.401038
0.510491 0.482155 0.419471
0.531701 0.492531 0.450599
0.607202 0.533532 0.457893
0.682918 0.572961 0.460182
0.745205 0.605310 0.464027
0.795773 0.631678 0.469337
0.836759 0.653590 0.476081
0.869841 0.671595 0.483772
0.896605 0.686702 0.492714
0.918822 0.699763 0.502556
0.933410 0.708766 0.520195
0.943114 0.716640 0.545251
0.952087 0.726192 0.571893
0.960449 0.737453 0.599817
0.968200 0.750484 0.629450
0.228641 0.479561 0.292973
0.230167 0.480659 0.293492
0.248814 0.507378 0.310277
0.251316 0.507988 0.310063
0.255314 0.508904 0.309911
0.260410 0.510063 0.309636
0.267247 0.511803 0.309545
0.281682 0.513909 0.314488
0.300053 0.516930 0.321630
0.321050 0.521019 0.330449
0.344366 0.525933 0.340764
0.369665 0.531334 0.352483
0.405585 0.532403 0.365515
0.443275 0.531670 0.379797
0.476783 0.530785 0.394659
0.506035 0.529595 0.410101
0.530602 0.528649 0.426123
0.550530 0.528099 0.442664
0.564813 0.527733 0.460212
0.583062 0.535912 0.489754
0.646571 0.572168 0.502251
0.715633 0.609674 0.505913
0.771511 0.639612 0.510826
0.816373 0.663874 0.517205
0.852110 0.683040 0.523613
0.880919 0.698848 0.531151
0.904631 0.712184 0.539605
0.924620 0.724178 0.549737
0.941711 0.735561 0.561822
0.951232 0.743771 0.585382
0.959411 0.753414 0.611994
0.967071 0.764675 0.639887
0.255039 0.519463 0.317906
0.258549 0.523278 0.320500
0.262272 0.527123 0.322728
0.267247 0.530846 0.324804
0.273045 0.534264 0.326482
0.279240 0.536675 0.327276
0.286107 0.538750 0.327489
0.297978 0.540948 0.330602
0.315892 0.543847 0.337621
0.335943 0.547265 0.345769
0.358465 0.551568 0.355444
0.382879 0.556329 0.366491
0.409247 0.560693 0.378393
0.447456 0.559564 0.391608
0.482185 0.558160 0.405402
0.512840 0.556603 0.419715
0.539574 0.555047 0.434668
0.562310 0.554131 0.450263
0.581628 0.554284 0.466926
0.596857 0.555169 0.484627
0.613855 0.562676 0.513359
0.668635 0.595911 0.532311
0.733822 0.632807 0.538140
0.786221 0.662287 0.545037
0.827939 0.685695 0.552697
0.861295 0.704707 0.561089
0.888273 0.720394 0.570428
0.910674 0.734157 0.581109
0.929564 0.746731 0.593530
0.945830 0.758511 0.607385
0.958495 0.769223 0.625086
0.966064 0.779049 0.651637
0.276432 0.548302 0.337041
0.280003 0.551781 0.339574
0.284031 0.555322 0.341863
0.288823 0.558740 0.343938
0.294560 0.561822 0.345586
0.300298 0.564080 0.346258
0.307317 0.566155 0.346777
0.316472 0.568383 0.348150
0.333745 0.570886 0.354620
0.353460 0.574060 0.362615
0.375311 0.577966 0.371832
0.398962 0.582238 0.382269
0.423255 0.586419 0.393530
0.453407 0.588373 0.405798
0.489143 0.586786 0.418769
0.521080 0.585046 0.432349
0.549248 0.583246 0.446296
0.574182 0.582025 0.461097
0.596033 0.581720 0.476875
0.614954 0.582666 0.493812
0.630793 0.584802 0.511681
0.646448 0.591485 0.539727
0.691585 0.620722 0.564263
0.752529 0.656550 0.571771
0.800931 0.684749 0.579614
0.839384 0.707240 0.588098
0.870268 0.725582 0.597528
0.895476 0.741176 0.608270
0.916564 0.755123 0.620539
0.934447 0.767941 0.634363
0.949767 0.780056 0.649531
0.962982 0.791684 0.665888
0.300206 0.577142 0.357488
0.303777 0.580316 0.359808
0.307774 0.583642 0.362158
0.312718 0.586938 0.364416
0.318425 0.589776 0.366033
0.324254 0.591943 0.366766
0.330846 0.593774 0.367285
0.338506 0.595758 0.367712
0.353582 0.597955 0.372778
0.372320 0.600641 0.380255
0.393103 0.603784 0.388830
0.415747 0.607538 0.398749
0.439033 0.611170 0.409247
0.463081 0.614923 0.420783
0.496101 0.614954 0.433387
0.529717 0.613642 0.446754
0.560571 0.612970 0.461341
0.588647 0.612970 0.476814
0.614252 0.613916 0.493599
0.637263 0.616022 0.511681
0.657404 0.619226 0.530694
0.674434 0.623499 0.550652
0.688808 0.630121 0.578332
0.725154 0.655787 0.607568
0.780331 0.689845 0.616724
0.823575 0.716335 0.626093
0.857664 0.737453 0.636194
0.885039 0.754940 0.647333
0.907622 0.770047 0.659602
0.926452 0.783536 0.672969
0.942443 0.796017 0.687465
0.956207 0.807858 0.703029
0.338476 0.617853 0.388769
0.340764 0.619440 0.390021
0.343267 0.620844 0.391180
0.346441 0.622278 0.392004
0.350713 0.623713 0.392554
0.355810 0.624964 0.393011
0.362158 0.626551 0.393439
0.370031 0.628534 0.394232
0.382574 0.631098 0.397620
0.401251 0.633814 0.405249
0.422156 0.637018 0.414221
0.444434 0.640345 0.424140
0.466896 0.643641 0.434516
0.489754 0.646754 0.445686
0.513329 0.649592 0.457374
0.547051 0.647913 0.470069
0.577905 0.646662 0.483467
0.606226 0.645991 0.497963
0.632074 0.645930 0.513451
0.655238 0.646693 0.529839
0.675593 0.648371 0.547051
0.693172 0.650752 0.565118
0.707698 0.653956 0.583368
0.718593 0.658167 0.607080
0.746395 0.679103 0.637751
0.796872 0.711147 0.647120
0.836637 0.736507 0.657282
0.868162 0.756985 0.668482
0.893675 0.774319 0.680934
0.914733 0.789334 0.694240
0.932280 0.802823 0.708492
0.947143 0.815518 0.724025
0.367773 0.645930 0.412207
0.370245 0.647303 0.413397
0.372686 0.648768 0.414557
0.375952 0.650141 0.415534
0.380102 0.651392 0.416266
0.384741 0.652277 0.416480
0.390509 0.653346 0.416754
0.397650 0.654902 0.417243
0.406806 0.657008 0.418769
0.424628 0.659083 0.425910
0.444190 0.661646 0.434180
0.464881 0.664393 0.443488
0.486091 0.667201 0.453376
0.508049 0.670039 0.464118
0.530022 0.672938 0.475593
0.556634 0.674250 0.487770
0.588159 0.673121 0.501061
0.617243 0.672480 0.515190
0.644068 0.672572 0.530449
0.668482 0.673274 0.546532
0.690272 0.674861 0.563653
0.709590 0.677211 0.581292
0.726070 0.680293 0.599054
0.739834 0.684047 0.616846
0.742336 0.680873 0.630579
0.763790 0.698482 0.663111
0.810819 0.729366 0.673396
0.847807 0.753964 0.684688
0.877226 0.774105 0.696956
0.901183 0.791318 0.710445
0.920928 0.806577 0.725124
0.937438 0.820523 0.740902
0.412055 0.681544 0.446235
0.414710 0.683040 0.447761
0.416876 0.684047 0.448676
0.419471 0.684779 0.449287
0.422583 0.685176 0.449317
0.426184 0.685481 0.448981
0.430854 0.685847 0.448707
0.436439 0.686275 0.448615
0.443580 0.687190 0.448859
0.456367 0.688075 0.452888
0.473030 0.689021 0.459663
0.491249 0.690455 0.467506
0.510124 0.692134 0.476143
0.529564 0.693690 0.485451
0.548852 0.695155 0.494972
0.568353 0.696712 0.505241
0.595239 0.695583 0.516533
0.623468 0.694087 0.529076
0.650385 0.693599 0.543328
0.675532 0.694209 0.559075
0.698512 0.695766 0.575799
0.718807 0.697871 0.592645
0.736202 0.700221 0.609308
0.750607 0.702663 0.625360
0.761990 0.705287 0.640742
0.768612 0.706477 0.658106
0.787991 0.722896 0.689265
0.826902 0.749905 0.702388
0.860472 0.773129 0.714137
0.887419 0.792508 0.727138
0.909422 0.809354 0.741451
0.927611 0.824613 0.757137
0.443854 0.705318 0.470680
0.446723 0.706722 0.472358
0.448798 0.707637 0.473274
0.451331 0.708278 0.473823
0.454231 0.708644 0.474098
0.457771 0.708980 0.473884
0.462196 0.709377 0.473945
0.467811 0.709957 0.474250
0.474830 0.711025 0.474891
0.485206 0.712276 0.477760
0.501030 0.713344 0.484474
0.518547 0.714900 0.492500
0.536950 0.716548 0.501274
0.555505 0.718166 0.510491
0.574212 0.719692 0.520165
0.593011 0.721218 0.530449
0.612512 0.722835 0.541466
0.640528 0.721309 0.553735
0.666957 0.720699 0.567346
0.691676 0.721035 0.582116
0.714229 0.722042 0.597467
0.734554 0.723659 0.613214
0.752193 0.725551 0.628748
0.767147 0.727626 0.643854
0.779690 0.729854 0.658534
0.789731 0.732235 0.672602
0.794980 0.732815 0.687617
0.812985 0.748562 0.717433
0.844816 0.772427 0.733791
0.875029 0.794522 0.746578
0.899290 0.813169 0.760555
0.919249 0.829770 0.775875
0.482704 0.731075 0.500328
0.484840 0.732021 0.501640
0.486183 0.732479 0.502068
0.488014 0.732692 0.502281
0.490059 0.732631 0.502037
0.492653 0.732570 0.501640
0.496254 0.732570 0.501396
0.501152 0.732876 0.501488
0.507530 0.733639 0.502220
0.515526 0.734859 0.503746
0.529717 0.735866 0.509880
0.546319 0.737240 0.517876
0.563561 0.738766 0.526482
0.581292 0.740169 0.535485
0.598688 0.741421 0.544823
0.616175 0.742611 0.554467
0.633814 0.743984 0.564904
0.654994 0.744503 0.576196
0.680476 0.743648 0.588708
0.704372 0.743648 0.602258
0.726467 0.744259 0.616602
0.746517 0.745510 0.631250
0.764218 0.746975 0.645747
0.779599 0.748714 0.660060
0.792660 0.750576 0.673823
0.803555 0.752621 0.687282
0.812619 0.755062 0.700404
0.817014 0.755398 0.713497
0.833341 0.770077 0.741482
0.859281 0.791135 0.760311
0.886748 0.812314 0.773922
0.908904 0.830594 0.788815
0.519036 0.753170 0.528588
0.520684 0.753750 0.529503
0.521874 0.754147 0.529931
0.523644 0.754391 0.530266
0.526238 0.754726 0.530602
0.529992 0.755337 0.531426
0.535729 0.756497 0.533165
0.543084 0.758175 0.535790
0.552331 0.760342 0.539330
0.562890 0.762936 0.543694
0.577356 0.765438 0.551019
0.594965 0.767727 0.560876
0.612665 0.769924 0.570977
0.630060 0.771878 0.580987
0.646784 0.773465 0.590814
0.662654 0.774655 0.600244
0.678248 0.775875 0.609918
0.693874 0.777340 0.620111
0.714748 0.777249 0.631342
0.736355 0.777005 0.643488
0.756283 0.777249 0.656092
0.774472 0.777981 0.669093
0.790616 0.778927 0.681849
0.804776 0.780117 0.694423
0.817075 0.781521 0.706691
0.827573 0.783078 0.718532
0.836515 0.784970 0.730251
0.843931 0.787137 0.741573
0.847868 0.787869 0.752926
0.861112 0.800259 0.776974
0.880827 0.818021 0.796811
0.904234 0.837308 0.810666
0.578943 0.783719 0.575433
0.580072 0.783993 0.576043
0.580804 0.784085 0.576196
0.581720 0.784024 0.576135
0.583398 0.783932 0.575982
0.585901 0.783963 0.576196
0.589685 0.784298 0.576898
0.594781 0.784909 0.578302
0.601221 0.785855 0.580407
0.608972 0.787137 0.583215
0.618219 0.788479 0.587091
0.631891 0.789548 0.594476
0.645991 0.790616 0.602350
