data/fiter_cube/48671653/1023254/file.cube
# Created by Adobe Lightroom plugin Export LUT (1.17.0)
# www.johnrellis.com/lightroom/exportlut.htm
# Preset: 青橙风光风景_03 云集
# Color profile: C:\Program Files (x86)\Common Files\Adobe\Color\Profiles\Recommended\AdobeRGB1998.icc
LUT_3D_SIZE 32
DOMAIN_MIN 0.0 0.0 0.0
DOMAIN_MAX 1.0 1.0 1.0
0.159457 0.159457 0.159457
0.159457 0.159457 0.159457
0.159457 0.159457 0.159457
0.159457 0.159457 0.159457
0.199985 0.161105 0.158083
0.251469 0.163882 0.155764
0.300603 0.167422 0.152895
0.348974 0.171817 0.149294
0.399176 0.177188 0.144747
0.452216 0.183871 0.138827
0.509636 0.191897 0.130953
0.571374 0.201968 0.120241
0.632563 0.212863 0.106569
0.689784 0.224399 0.089326
0.741695 0.235538 0.066590
0.787778 0.245853 0.010681
0.828489 0.255070 0.000000
0.864347 0.263462 0.000000
0.895872 0.270848 0.000000
0.924498 0.277348 0.000000
0.950744 0.283024 0.000000
0.974945 0.287755 0.000000
0.997192 0.291783 0.000000
1.000000 0.295109 0.000000
1.000000 0.297673 0.000000
1.000000 0.299535 0.000000
1.000000 0.300786 0.000000
1.000000 0.301518 0.000000
1.000000 0.301549 0.000000
1.000000 0.301030 0.000000
1.000000 0.299992 0.000000
1.000000 0.298314 0.000000
0.159457 0.159457 0.159457
0.159457 0.159457 0.159457
0.159457 0.159457 0.159457
0.159457 0.159457 0.159457
0.201663 0.162387 0.157931
0.253269 0.165866 0.155520
0.302434 0.169772 0.152560
0.350866 0.174350 0.148928
0.400946 0.179873 0.144289
0.454322 0.186526 0.138277
0.511711 0.194858 0.130282
0.573510 0.204929 0.119417
0.634546 0.215885 0.105531
0.691585 0.227329 0.088014
0.743191 0.238224 0.064912
0.789090 0.248539 0.005951
0.829587 0.257511 0.000000
0.865263 0.265629 0.000000
0.896605 0.272801 0.000000
0.925170 0.279088 0.000000
0.951293 0.284581 0.000000
0.975402 0.289220 0.000000
0.997559 0.293187 0.000000
1.000000 0.296330 0.000000
1.000000 0.298741 0.000000
1.000000 0.300664 0.000000
1.000000 0.301762 0.000000
1.000000 0.302464 0.000000
1.000000 0.302434 0.000000
1.000000 0.301884 0.000000
1.000000 0.300725 0.000000
1.000000 0.299077 0.000000
0.159457 0.159457 0.159457
0.159457 0.159457 0.159457
0.159457 0.159457 0.159457
0.159457 0.159457 0.159457
0.204013 0.164370 0.157687
0.255741 0.168887 0.155123
0.304723 0.173190 0.152102
0.353155 0.177920 0.148379
0.403449 0.183566 0.143679
0.456794 0.190402 0.137545
0.514458 0.198825 0.129366
0.576379 0.209079 0.118257
0.637140 0.220066 0.104128
0.693935 0.231357 0.086244
0.745174 0.242130 0.062257
0.790799 0.251896 0.000000
0.831083 0.260716 0.000000
0.866484 0.268559 0.000000
0.897673 0.275517 0.000000
0.926024 0.281559 0.000000
0.952056 0.286839 0.000000
0.976043 0.291203 0.000000
0.998108 0.295048 0.000000
1.000000 0.298009 0.000000
1.000000 0.300481 0.000000
1.000000 0.302129 0.000000
1.000000 0.303197 0.000000
1.000000 0.303807 0.000000
1.000000 0.303655 0.000000
1.000000 0.302983 0.000000
1.000000 0.301732 0.000000
1.000000 0.299962 0.000000
0.159457 0.159457 0.159457
0.159457 0.159457 0.159457
0.159457 0.159457 0.159457
0.159457 0.159457 0.159457
0.208835 0.169345 0.157076
0.260716 0.175814 0.154238
0.309758 0.180789 0.151034
0.358465 0.185885 0.147158
0.408881 0.191623 0.142275
0.462654 0.198886 0.135836
0.520592 0.207492 0.127291
0.582635 0.217899 0.115663
0.642908 0.228946 0.100923
0.699001 0.240024 0.082124
0.749569 0.250004 0.054841
0.794553 0.259373 0.000000
0.834257 0.267643 0.000000
0.869200 0.274876 0.000000
0.899931 0.281224 0.000000
0.927916 0.286839 0.000000
0.953674 0.291630 0.000000
0.977417 0.295689 0.000000
0.999268 0.299168 0.000000
1.000000 0.301854 0.000000
1.000000 0.303899 0.000000
1.000000 0.305333 0.000000
1.000000 0.306126 0.000000
1.000000 0.306523 0.000000
1.000000 0.306279 0.000000
1.000000 0.305394 0.000000
1.000000 0.304021 0.000000
1.000000 0.302098 0.000000
0.159457 0.159457 0.159457
0.159457 0.159457 0.159457
0.159457 0.159457 0.159457
0.159457 0.159457 0.159457
0.208499 0.172488 0.156802
0.268162 0.187320 0.152712
0.317632 0.193088 0.149233
0.366613 0.198581 0.145083
0.417548 0.204715 0.139834
0.471717 0.212253 0.132967
0.530236 0.221164 0.123781
0.592248 0.231876 0.111269
0.651698 0.242710 0.095491
0.706752 0.252934 0.075196
0.756252 0.262333 0.034882
0.800198 0.270756 0.000000
0.839078 0.278080 0.000000
0.873259 0.284520 0.000000
0.903410 0.290043 0.000000
0.930907 0.294926 0.000000
0.956207 0.299016 0.000000
0.979583 0.302586 0.000000
1.000000 0.305486 0.000000
1.000000 0.307652 0.000000
1.000000 0.309331 0.000000
1.000000 0.310369 0.000000
1.000000 0.310796 0.000000
1.000000 0.310765 0.000000
1.000000 0.310216 0.000000
1.000000 0.309178 0.000000
1.000000 0.307561 0.000000
1.000000 0.305425 0.000000
0.159457 0.159457 0.159457
0.159457 0.159457 0.159457
0.159457 0.159457 0.159457
0.159457 0.159457 0.159457
0.189303 0.166781 0.157961
0.264561 0.190463 0.152590
0.327733 0.210666 0.146487
0.377386 0.216403 0.141939
0.428901 0.222690 0.136202
0.483833 0.230564 0.128664
0.543267 0.240085 0.118379
0.604944 0.250584 0.104677
0.663142 0.260838 0.087312
0.716854 0.270085 0.064027
0.764950 0.278294 0.004211
0.807706 0.285618 0.000000
0.845457 0.291844 0.000000
0.878660 0.297215 0.000000
0.908019 0.301701 0.000000
0.934844 0.305547 0.000000
0.959564 0.308965 0.000000
0.982422 0.311589 0.000000
1.000000 0.313756 0.000000
1.000000 0.315404 0.000000
1.000000 0.316442 0.000000
1.000000 0.316899 0.000000
1.000000 0.317052 0.000000
1.000000 0.316594 0.000000
1.000000 0.315648 0.000000
1.000000 0.314183 0.000000
1.000000 0.312230 0.000000
1.000000 0.309880 0.000000
0.159457 0.159457 0.159457
0.159457 0.159457 0.159457
0.159457 0.159457 0.159457
0.159457 0.159457 0.159457
0.172671 0.163912 0.158724
0.243351 0.182620 0.154391
0.320378 0.210971 0.146944
0.390417 0.239445 0.137392
0.442939 0.245914 0.130983
0.499245 0.254002 0.122377
0.559594 0.263828 0.110567
0.620294 0.273777 0.095094
0.677119 0.283116 0.074952
0.729183 0.291142 0.034211
0.775662 0.297978 0.000000
0.816800 0.303777 0.000000
0.853208 0.308629 0.000000
0.885283 0.312474 0.000000
0.913664 0.315770 0.000000
0.939666 0.318639 0.000000
0.963714 0.320897 0.000000
0.985962 0.322698 0.000000
1.000000 0.324010 0.000000
1.000000 0.324865 0.000000
1.000000 0.325292 0.000000
1.000000 0.325139 0.000000
1.000000 0.324651 0.000000
1.000000 0.323735 0.000000
1.000000 0.322301 0.000000
1.000000 0.320500 0.000000
1.000000 0.318090 0.000000
1.000000 0.315312 0.000000
0.157687 0.168276 0.161379
0.157534 0.170016 0.160708
0.157504 0.172580 0.158663
0.168185 0.174777 0.157900
0.184634 0.174868 0.157382
0.215640 0.173587 0.156435
0.299718 0.201999 0.149325
0.378546 0.234104 0.139284
0.456153 0.269047 0.125063
0.517235 0.282506 0.113405
0.578607 0.292271 0.099306
0.638056 0.301305 0.080873
0.693263 0.309148 0.052003
0.743313 0.315557 0.000000
0.787900 0.320775 0.000000
0.827298 0.324804 0.000000
0.862211 0.328008 0.000000
0.892973 0.330388 0.000000
0.920287 0.332372 0.000000
0.945373 0.333837 0.000000
0.968627 0.335058 0.000000
0.990143 0.335821 0.000000
1.000000 0.336187 0.000000
1.000000 0.336126 0.000000
1.000000 0.335698 0.000000
1.000000 0.334936 0.000000
1.000000 0.333745 0.000000
1.000000 0.332158 0.000000
1.000000 0.330266 0.000000
1.000000 0.327825 0.000000
1.000000 0.325139 0.000000
1.000000 0.321874 0.000000
0.152834 0.189029 0.166476
0.153017 0.190402 0.164340
0.153506 0.192294 0.160342
0.165805 0.194369 0.156008
0.195621 0.191043 0.155428
0.217533 0.187503 0.155001
0.270939 0.190829 0.152224
0.357763 0.224399 0.142428
0.441657 0.261051 0.128359
0.528893 0.301884 0.106325
0.600031 0.325414 0.082277
0.657954 0.332860 0.056275
0.711269 0.338994 0.000000
0.759152 0.343389 0.000000
0.801541 0.346624 0.000000
0.839109 0.348791 0.000000
0.872374 0.350042 0.000000
0.901762 0.350805 0.000000
0.927794 0.351110 0.000000
0.951873 0.351232 0.000000
0.974212 0.351141 0.000000
0.994934 0.350652 0.000000
1.000000 0.349950 0.000000
1.000000 0.349004 0.000000
1.000000 0.347723 0.000000
1.000000 0.346105 0.000000
1.000000 0.344182 0.000000
1.000000 0.341924 0.000000
1.000000 0.339361 0.000000
1.000000 0.336461 0.000000
1.000000 0.333135 0.000000
1.000000 0.329503 0.000000
0.146883 0.210575 0.172091
0.147311 0.211795 0.169162
0.148196 0.213016 0.163973
0.157321 0.215000 0.153902
0.197757 0.211582 0.158206
0.226719 0.206027 0.153902
0.254215 0.200320 0.160555
0.329412 0.212131 0.146334
0.420203 0.250401 0.132662
0.511864 0.292393 0.111788
0.607538 0.338537 0.073884
0.679438 0.368292 0.000000
0.730526 0.372076 0.000000
0.775967 0.374212 0.000000
0.816312 0.375036 0.000000
0.851957 0.375006 0.000000
0.883482 0.374273 0.000000
0.911254 0.373175 0.000000
0.936065 0.371954 0.000000
0.958984 0.370489 0.000000
0.980407 0.368933 0.000000
1.000000 0.367254 0.000000
1.000000 0.365362 0.000000
1.000000 0.363317 0.000000
1.000000 0.361028 0.000000
1.000000 0.358587 0.000000
1.000000 0.355840 0.000000
1.000000 0.352850 0.000000
1.000000 0.349645 0.000000
1.000000 0.346075 0.000000
1.000000 0.342260 0.000000
1.000000 0.338018 0.000000
0.139467 0.232944 0.178653
0.140200 0.233738 0.174960
0.141360 0.234806 0.169100
0.153506 0.235843 0.160281
0.198947 0.232670 0.174105
0.233371 0.225895 0.162905
0.260258 0.223636 0.169436
0.299870 0.221622 0.179934
0.391363 0.241337 0.148898
0.489723 0.280919 0.117983
0.589624 0.328405 0.083894
0.682460 0.374365 0.000000
0.750759 0.408179 0.000000
0.793912 0.407538 0.000000
0.831968 0.405859 0.000000
0.865599 0.403571 0.000000
0.895262 0.400641 0.000000
0.921477 0.397620 0.000000
0.944945 0.394476 0.000000
0.966735 0.391363 0.000000
0.987091 0.388434 0.000000
1.000000 0.385260 0.000000
1.000000 0.382269 0.000000
1.000000 0.379065 0.000000
1.000000 0.375769 0.000000
1.000000 0.372290 0.000000
1.000000 0.368719 0.000000
1.000000 0.364904 0.000000
1.000000 0.360906 0.000000
1.000000 0.356695 0.000000
1.000000 0.352178 0.000000
1.000000 0.347509 0.000000
0.130556 0.255680 0.185763
0.135561 0.255863 0.183536
0.143374 0.256077 0.180880
0.158541 0.256260 0.174807
0.195834 0.253849 0.180972
0.235019 0.247593 0.180941
0.265019 0.242618 0.176486
0.297520 0.242954 0.187350
0.358434 0.249516 0.196933
0.460304 0.274510 0.150118
0.567529 0.316533 0.093904
0.665492 0.364416 0.000000
0.749783 0.406989 0.000000
0.809781 0.438239 0.000000
0.848203 0.438972 0.000000
0.879728 0.434058 0.000000
0.907622 0.428931 0.000000
0.932250 0.423743 0.000000
0.954376 0.418647 0.000000
0.975006 0.413886 0.000000
0.994263 0.409247 0.000000
1.000000 0.404883 0.000000
1.000000 0.400397 0.000000
1.000000 0.396002 0.000000
1.000000 0.391577 0.000000
1.000000 0.387182 0.000000
1.000000 0.382605 0.000000
1.000000 0.377935 0.000000
1.000000 0.373236 0.000000
1.000000 0.368231 0.000000
1.000000 0.363165 0.000000
1.000000 0.357733 0.000000
0.136446 0.277317 0.199222
0.141939 0.277348 0.197543
0.149447 0.277379 0.195010
0.164096 0.277134 0.189395
0.192905 0.275425 0.188235
0.237552 0.269688 0.199191
0.269444 0.260472 0.184421
0.300511 0.262638 0.193942
0.339178 0.263951 0.207523
0.424598 0.281102 0.205386
0.537591 0.311986 0.148013
0.645777 0.353338 0.040131
0.734371 0.397620 0.000000
0.808103 0.435492 0.000000
0.859464 0.462715 0.000000
0.894255 0.466438 0.000000
0.920348 0.458778 0.000000
0.943359 0.451331 0.000000
0.964141 0.444282 0.000000
0.983612 0.437720 0.000000
1.000000 0.431525 0.000000
1.000000 0.425483 0.000000
1.000000 0.419745 0.000000
1.000000 0.414130 0.000000
1.000000 0.408545 0.000000
1.000000 0.402960 0.000000
1.000000 0.397498 0.000000
1.000000 0.391974 0.000000
1.000000 0.386358 0.000000
1.000000 0.380652 0.000000
1.000000 0.374792 0.000000
1.000000 0.368841 0.000000
0.143526 0.299290 0.213565
0.149050 0.299138 0.211734
0.155825 0.298985 0.209537
0.169924 0.298558 0.204227
0.189853 0.297368 0.196109
0.236820 0.291844 0.210361
0.271916 0.282902 0.203342
0.302220 0.278202 0.198611
0.340459 0.284886 0.213779
0.391608 0.290105 0.231083
0.498878 0.316655 0.212284
0.619776 0.352117 0.141543
0.717342 0.388190 0.000000
0.794614 0.427100 0.000000
0.857511 0.459785 0.000000
0.901823 0.483619 0.000000
0.933196 0.490120 0.000000
0.954742 0.480446 0.000000
0.974212 0.471260 0.000000
0.992432 0.462806 0.000000
1.000000 0.454871 0.000000
1.000000 0.447333 0.000000
1.000000 0.440192 0.000000
1.000000 0.433173 0.000000
1.000000 0.426398 0.000000
1.000000 0.419806 0.000000
1.000000 0.413245 0.000000
1.000000 0.406744 0.000000
1.000000 0.400244 0.000000
1.000000 0.393805 0.000000
1.000000 0.387243 0.000000
1.000000 0.380560 0.000000
0.150912 0.321538 0.227939
0.155886 0.321386 0.226413
0.162478 0.321080 0.224033
0.175906 0.320439 0.219089
0.194308 0.319097 0.210697
0.234562 0.314183 0.217990
0.275059 0.305882 0.222385
0.304417 0.294224 0.205509
0.340337 0.300938 0.217777
0.385809 0.309361 0.235569
0.461219 0.324437 0.258824
0.581048 0.356115 0.216800
0.695857 0.389837 0.132845
0.779995 0.420661 0.000000
0.846555 0.452613 0.000000
0.899931 0.480720 0.000000
0.937835 0.501457 0.000000
0.966155 0.510643 0.000000
0.984344 0.499428 0.000000
1.000000 0.489052 0.000000
1.000000 0.479316 0.000000
1.000000 0.470161 0.000000
1.000000 0.461463 0.000000
1.000000 0.453162 0.000000
1.000000 0.445167 0.000000
1.000000 0.437324 0.000000
1.000000 0.429786 0.000000
1.000000 0.422339 0.000000
1.000000 0.414954 0.000000
1.000000 0.407660 0.000000
1.000000 0.400366 0.000000
1.000000 0.392950 0.000000
0.157870 0.344396 0.242771
0.162814 0.344182 0.241276
0.169131 0.343786 0.239109
0.181949 0.342901 0.234318
0.199619 0.341314 0.226291
0.232120 0.337163 0.225925
0.277806 0.329259 0.239475
0.307927 0.317601 0.224979
0.338628 0.312871 0.219821
0.383673 0.326329 0.238987
0.437079 0.336217 0.259159
0.541375 0.362341 0.270512
0.660365 0.394965 0.220035
0.763272 0.423621 0.122377
0.833768 0.448890 0.000000
0.890745 0.474525 0.000000
0.935912 0.498573 0.000000
0.968505 0.516655 0.000000
0.994537 0.528557 0.000000
1.000000 0.516258 0.000000
1.000000 0.504662 0.000000
1.000000 0.493904 0.000000
1.000000 0.483680 0.000000
1.000000 0.473945 0.000000
1.000000 0.464668 0.000000
1.000000 0.455726 0.000000
1.000000 0.446967 0.000000
1.000000 0.438575 0.000000
1.000000 0.430304 0.000000
1.000000 0.422126 0.000000
1.000000 0.414038 0.000000
1.000000 0.405951 0.000000
0.165164 0.367956 0.258000
0.169650 0.367651 0.256413
0.175845 0.367224 0.254398
0.188327 0.366094 0.249638
0.205478 0.364233 0.242039
0.228885 0.360906 0.234195
0.275761 0.353002 0.247257
0.312108 0.341650 0.244572
0.338933 0.327306 0.225711
0.379858 0.338750 0.240452
0.433112 0.354467 0.262181
0.499550 0.367620 0.285313
0.623163 0.401770 0.279850
0.731655 0.430732 0.222904
0.819547 0.453162 0.118746
0.879606 0.473121 0.000000
0.928313 0.493141 0.000000
0.966735 0.513909 0.000000
0.995331 0.529992 0.000000
1.000000 0.543603 0.000000
1.000000 0.530907 0.000000
1.000000 0.518395 0.000000
1.000000 0.506615 0.000000
1.000000 0.495491 0.000000
1.000000 0.484901 0.000000
1.000000 0.474708 0.000000
1.000000 0.464881 0.000000
1.000000 0.455421 0.000000
1.000000 0.446204 0.000000
1.000000 0.437171 0.000000
1.000000 0.428290 0.000000
1.000000 0.419440 0.000000
0.171725 0.392218 0.273533
0.176577 0.391730 0.271916
0.182406 0.391241 0.269963
0.194491 0.390051 0.265354
0.211307 0.388037 0.257877
0.230472 0.384863 0.247044
0.273747 0.377417 0.255314
0.316686 0.366613 0.264256
0.343755 0.351904 0.245609
0.374609 0.347143 0.239994
0.427466 0.367742 0.263066
0.489754 0.385626 0.287144
0.583429 0.409461 0.316960
0.699062 0.439734 0.289006
0.794217 0.462806 0.225772
0.868284 0.479377 0.118654
0.919982 0.494484 0.000000
0.961730 0.509728 0.000000
0.994202 0.527581 0.000000
1.000000 0.541863 0.000000
1.000000 0.553948 0.000000
1.000000 0.543633 0.000000
1.000000 0.530236 0.000000
1.000000 0.517632 0.000000
1.000000 0.505699 0.000000
1.000000 0.494301 0.000000
1.000000 0.483375 0.000000
1.000000 0.472816 0.000000
1.000000 0.462593 0.000000
1.000000 0.452705 0.000000
1.000000 0.442969 0.000000
1.000000 0.433387 0.000000
0.178500 0.417975 0.289586
0.182864 0.417517 0.288151
0.188724 0.416938 0.286076
0.200351 0.415656 0.281590
0.216709 0.413397 0.274296
0.235874 0.410071 0.263798
0.271397 0.403418 0.263767
0.317754 0.392798 0.276005
0.349645 0.378149 0.265934
0.373999 0.360937 0.245304
0.420783 0.377264 0.262211
0.483223 0.401160 0.287999
0.555962 0.420783 0.314794
0.665736 0.450996 0.343664
0.767330 0.475166 0.298772
0.849607 0.491615 0.228641
0.911772 0.502800 0.118379
0.955962 0.513237 0.000000
0.991547 0.524620 0.000000
1.000000 0.539849 0.000000
1.000000 0.552331 0.000000
1.000000 0.562982 0.000000
1.000000 0.554467 0.000000
1.000000 0.540398 0.000000
1.000000 0.527062 0.000000
1.000000 0.514336 0.000000
1.000000 0.502281 0.000000
1.000000 0.490669 0.000000
1.000000 0.479530 0.000000
1.000000 0.468666 0.000000
1.000000 0.458076 0.000000
1.000000 0.447730 0.000000
0.184298 0.445991 0.306798
0.188602 0.445563 0.305455
0.194247 0.444923 0.303319
0.205661 0.443549 0.298863
0.222080 0.441108 0.291447
0.241337 0.437476 0.280949
0.268559 0.431678 0.272801
0.317144 0.420905 0.285069
0.356573 0.406561 0.287022
0.381720 0.388495 0.265965
0.412879 0.383215 0.259586
0.475868 0.412573 0.287022
0.549340 0.439521 0.315801
0.626612 0.457832 0.346654
0.739986 0.490242 0.359838
0.827756 0.507652 0.309300
0.898466 0.517082 0.230869
0.950256 0.523461 0.116884
0.987976 0.529503 0.000000
1.000000 0.537835 0.000000
1.000000 0.550683 0.000000
1.000000 0.561456 0.000000
1.000000 0.570764 0.000000
1.000000 0.563653 0.000000
1.000000 0.548882 0.000000
1.000000 0.534936 0.000000
1.000000 0.521599 0.000000
1.000000 0.508934 0.000000
1.000000 0.496803 0.000000
1.000000 0.485023 0.000000
1.000000 0.473640 0.000000
1.000000 0.462501 0.000000
0.188815 0.476875 0.325261
0.193149 0.476356 0.323796
0.198856 0.475715 0.321660
0.210636 0.474128 0.317021
0.226993 0.471534 0.309606
0.246555 0.467659 0.299077
0.267399 0.462287 0.284825
0.316228 0.451637 0.294560
0.362921 0.437507 0.306065
0.390631 0.418647 0.287755
0.412604 0.397742 0.264561
0.466926 0.420020 0.284123
0.541497 0.453681 0.314794
0.619471 0.479408 0.347814
0.708980 0.503807 0.388739
0.805173 0.526818 0.377264
0.880552 0.536828 0.319829
0.941161 0.539330 0.232120
0.984192 0.541314 0.111696
1.000000 0.543236 0.000000
1.000000 0.549340 0.000000
1.000000 0.560174 0.000000
1.000000 0.569329 0.000000
1.000000 0.577356 0.000000
1.000000 0.571099 0.000000
1.000000 0.555871 0.000000
1.000000 0.541405 0.000000
1.000000 0.527611 0.000000
1.000000 0.514397 0.000000
1.000000 0.501762 0.000000
1.000000 0.489509 0.000000
1.000000 0.477546 0.000000
0.192020 0.510948 0.345037
0.196353 0.510399 0.343511
0.202213 0.509636 0.341344
0.214054 0.508019 0.336736
0.231174 0.505211 0.329076
0.251164 0.501091 0.318456
0.272831 0.495460 0.304021
0.314855 0.485451 0.304692
0.364721 0.470985 0.316533
0.400885 0.451942 0.310643
0.424109 0.429725 0.286778
0.456214 0.423499 0.279179
0.532189 0.463569 0.311894
0.612573 0.497139 0.347265
0.688502 0.519158 0.385443
0.781308 0.549248 0.437995
0.861875 0.560449 0.395636
0.926452 0.562646 0.329900
0.978424 0.558282 0.230838
1.000000 0.556268 0.100343
1.000000 0.554192 0.000000
1.000000 0.559319 0.000000
1.000000 0.568353 0.000000
1.000000 0.575982 0.000000
1.000000 0.582879 0.000000
1.000000 0.577111 0.000000
1.000000 0.561456 0.000000
1.000000 0.546593 0.000000
1.000000 0.532372 0.000000
1.000000 0.518730 0.000000
1.000000 0.505669 0.000000
1.000000 0.492927 0.000000
0.193729 0.548241 0.366369
0.198245 0.547692 0.364813
0.204227 0.546960 0.362646
0.217014 0.545129 0.357763
0.234562 0.542229 0.350042
0.255528 0.537957 0.339025
0.277989 0.532097 0.324407
0.311772 0.522972 0.315435
0.366400 0.508080 0.327794
0.412329 0.489235 0.335363
0.437232 0.465187 0.310430
0.456641 0.439429 0.284092
0.520287 0.468788 0.306584
0.604211 0.510460 0.344396
0.683009 0.540154 0.385779
0.752834 0.558556 0.429694
0.841978 0.588647 0.467109
0.910765 0.590814 0.413947
0.966125 0.585107 0.338689
1.000000 0.573724 0.225132
1.000000 0.568261 0.073945
1.000000 0.562402 0.000000
1.000000 0.567742 0.000000
1.000000 0.575250 0.000000
1.000000 0.581567 0.000000
1.000000 0.587366 0.000000
1.000000 0.581811 0.000000
1.000000 0.565820 0.000000
1.000000 0.550591 0.000000
1.000000 0.536034 0.000000
1.000000 0.522026 0.000000
1.000000 0.508507 0.000000
0.194888 0.587121 0.388678
0.199710 0.586603 0.387060
0.206302 0.585779 0.384894
0.219333 0.584009 0.380041
0.237766 0.581048 0.372168
0.259586 0.576867 0.361212
0.283330 0.571038 0.346471
0.307591 0.563073 0.327306
0.367346 0.548272 0.339879
0.419135 0.529717 0.351110
0.451972 0.505180 0.335943
0.473091 0.477363 0.308232
0.506035 0.469581 0.298863
0.593683 0.519341 0.338903
0.676295 0.556970 0.383429
0.748836 0.582330 0.431647
0.819669 0.606683 0.487739
0.893614 0.624353 0.493935
0.952544 0.617853 0.431769
1.000000 0.603754 0.344366
1.000000 0.585687 0.214115
1.000000 0.576867 0.000000
1.000000 0.567803 0.000000
1.000000 0.574823 0.000000
1.000000 0.580987 0.000000
1.000000 0.586084 0.000000
1.000000 0.590997 0.000000
1.000000 0.585260 0.000000
1.000000 0.569024 0.000000
1.000000 0.553552 0.000000
1.000000 0.538689 0.000000
1.000000 0.524407 0.000000
0.196353 0.626825 0.411627
0.201450 0.626276 0.410132
0.208438 0.625483 0.407904
0.222141 0.623774 0.403174
0.241581 0.620874 0.395392
0.264561 0.616754 0.384527
0.289525 0.611017 0.370031
0.314977 0.603326 0.351141
0.367193 0.590112 0.353460
0.423743 0.572015 0.365362
0.467292 0.548699 0.364294
0.491493 0.519860 0.334539
0.508476 0.488411 0.304082
0.580713 0.523735 0.330846
0.668116 0.569696 0.378485
0.744259 0.602106 0.430945
0.807767 0.624537 0.485756
0.876066 0.653742 0.547967
0.937499 0.655879 0.518791
0.988006 0.641016 0.447272
1.000000 0.618433 0.345953
1.000000 0.595148 0.202487
1.000000 0.582025 0.000000
1.000000 0.574670 0.000000
1.000000 0.580652 0.000000
1.000000 0.585657 0.000000
1.000000 0.589776 0.000000
1.000000 0.593835 0.000000
1.000000 0.587671 0.000000
1.000000 0.571252 0.000000
1.000000 0.555535 0.000000
1.000000 0.540429 0.000000
0.198703 0.666957 0.435401
0.204318 0.666438 0.433814
0.211460 0.665675 0.431739
0.226078 0.664027 0.427100
0.246494 0.661250 0.419654
0.270634 0.657282 0.409155
0.296910 0.651759 0.395148
0.323857 0.644373 0.376959
0.366735 0.632929 0.368811
0.427771 0.615564 0.381476
0.480568 0.593622 0.391608
0.509819 0.565332 0.364324
0.530571 0.533318 0.331273
0.564446 0.523125 0.319768
0.657862 0.578393 0.370428
0.738705 0.618219 0.427222
0.805173 0.646418 0.487465
0.859373 0.666011 0.542748
0.922515 0.693721 0.594018
0.974487 0.682856 0.540398
1.000000 0.659571 0.458289
1.000000 0.628321 0.340002
1.000000 0.600458 0.176638
1.000000 0.583368 0.000000
1.000000 0.580407 0.000000
1.000000 0.585321 0.000000
1.000000 0.589380 0.000000
1.000000 0.592706 0.000000
1.000000 0.596002 0.000000
1.000000 0.589136 0.000000
1.000000 0.572534 0.000000
1.000000 0.556664 0.000000
0.202914 0.706996 0.459510
0.208713 0.706477 0.458137
0.216342 0.705745 0.456062
0.231479 0.704189 0.451698
0.253147 0.701503 0.444556
0.278691 0.697780 0.434760
0.306371 0.692561 0.421607
0.334600 0.685664 0.404700
0.366461 0.676143 0.386236
0.432288 0.659724 0.400031
0.488930 0.639033 0.411170
0.528344 0.612421 0.398810
0.552300 0.580865 0.362463
0.569421 0.545922 0.325994
0.645106 0.582910 0.359014
0.732052 0.631006 0.420172
0.802335 0.665095 0.486336
0.858549 0.689265 0.547143
0.909087 0.710567 0.602960
0.961334 0.723415 0.619074
1.000000 0.704891 0.557549
1.000000 0.672908 0.462959
1.000000 0.632898 0.323827
1.000000 0.601190 0.120333
1.000000 0.581079 0.000000
1.000000 0.585016 0.000000
1.000000 0.588983 0.000000
1.000000 0.592248 0.000000
1.000000 0.594934 0.000000
1.000000 0.597620 0.000000
1.000000 0.589715 0.000000
1.000000 0.573083 0.000000
0.209415 0.746334 0.483894
0.215457 0.745907 0.482643
0.223362 0.745266 0.480873
0.239567 0.743740 0.476783
0.262272 0.741329 0.470314
0.289250 0.737758 0.461433
0.318334 0.732967 0.449592
0.348241 0.726589 0.434302
0.377691 0.718166 0.414740
0.437873 0.703761 0.421454
0.498085 0.684596 0.433997
0.548241 0.660334 0.439429
0.573754 0.630152 0.399115
0.594934 0.595911 0.358679
