data/fiter_cube/48671653/1023254/file.cube
# Created by Adobe Lightroom plugin Export LUT (1.17.0)
# www.johnrellis.com/lightroom/exportlut.htm
# Preset: 青橙风光风景_03 云集
# Color profile: C:\Program Files (x86)\Common Files\Adobe\Color\Profiles\Recommended\AdobeRGB1998.icc
LUT_3D_SIZE 5
DOMAIN_MIN 0.000000 0.000000 0.000000
DOMAIN_MAX 0.903226 0.903226 0.903226
0.159457 0.159457 0.159457
0.348974 0.171817 0.149294
0.741695 0.235538 0.066590
0.974945 0.287755 0.000000
1.000000 0.301549 0.000000
0.157687 0.168276 0.161379
0.378546 0.234104 0.139284
0.787900 0.320775 0.000000
0.990143 0.335821 0.000000
1.000000 0.330266 0.000000
0.150912 0.321538 0.227939
0.304417 0.294224 0.205509
0.846555 0.452613 0.000000
1.000000 0.470161 0.000000
1.000000 0.414954 0.000000
0.192020 0.510948 0.345037
0.314855 0.485451 0.304692
0.688502 0.519158 0.385443
1.000000 0.559319 0.000000
1.000000 0.532372 0.000000
0.218418 0.784939 0.508629
0.365362 0.766598 0.465553
0.638544 0.611414 0.352911
1.000000 0.766049 0.654078
1.000000 0.593744 0.000000
0.128786 0.221195 0.222354
0.230533 0.191043 0.220859
0.751095 0.310246 0.000000
0.986938 0.351812 0.000000
1.000000 0.330297 0.000000
0.101289 0.263584 0.247379
0.241825 0.241825 0.241825
0.764889 0.354559 0.042115
0.999969 0.389746 0.000000
1.000000 0.355474 0.000000
0.128359 0.340124 0.288518
0.265446 0.360815 0.302525
0.777310 0.474403 0.269749
1.000000 0.506798 0.000000
1.000000 0.433021 0.000000
0.160708 0.547478 0.427466
0.294957 0.543847 0.402533
0.632868 0.531609 0.414160
1.000000 0.602441 0.254459
1.000000 0.545037 0.000000
0.120699 0.811765 0.587884
0.345617 0.796994 0.554253
0.634943 0.671473 0.447639
0.996704 0.808469 0.732296
1.000000 0.593011 0.000000
0.114900 0.409827 0.410803
0.145388 0.407935 0.403052
0.398779 0.320836 0.380041
0.932372 0.405554 0.287968
1.000000 0.392676 0.000000
0.074708 0.441047 0.429236
0.181674 0.433387 0.422400
0.408972 0.350683 0.394537
0.937346 0.450599 0.330236
1.000000 0.409125 0.000000
0.000000 0.522545 0.484810
0.186954 0.510521 0.476905
0.443946 0.443946 0.443946
0.957031 0.590265 0.459815
1.000000 0.471077 0.000000
0.000000 0.622187 0.541558
0.207340 0.615991 0.541955
0.498787 0.615137 0.542382
0.961028 0.752071 0.656214
1.000000 0.583001 0.000000
0.000000 0.809598 0.658656
0.117159 0.822599 0.667781
0.579492 0.825040 0.676631
0.924620 0.835355 0.775692
1.000000 0.734951 0.535027
0.109926 0.640864 0.642359
0.077821 0.643671 0.639124
0.386938 0.614923 0.621637
0.590539 0.457221 0.558984
1.000000 0.602075 0.573602
0.073304 0.661158 0.654170
0.000000 0.663386 0.650965
0.399481 0.632471 0.634577
0.598505 0.480995 0.570245
1.000000 0.626917 0.593591
0.000000 0.713100 0.688014
0.000000 0.716426 0.685359
0.420996 0.687526 0.674067
0.625666 0.555047 0.607904
1.000000 0.694118 0.644221
0.000000 0.788663 0.735805
0.000000 0.787350 0.729122
0.441657 0.767239 0.727687
0.682521 0.682490 0.682490
1.000000 0.796780 0.725826
0.177005 0.888457 0.805081
0.162905 0.888426 0.799496
0.417060 0.879240 0.792966
0.767697 0.865080 0.802945
1.000000 0.922179 0.880674
0.422919 0.854948 0.859312
0.414771 0.856565 0.858000
0.389776 0.862760 0.853330
0.701411 0.806394 0.840513
0.818357 0.672511 0.782895
0.426032 0.861936 0.863432
0.418067 0.863432 0.862119
0.387152 0.869749 0.857450
0.709743 0.821866 0.845884
0.820981 0.682765 0.787198
0.441108 0.882841 0.877043
0.435431 0.883177 0.875761
0.406439 0.888731 0.871153
0.720089 0.859342 0.863493
0.830411 0.716121 0.802029
0.462959 0.920287 0.899351
0.458015 0.921141 0.898497
0.439216 0.923735 0.895018
0.681239 0.903838 0.891447
0.850614 0.779751 0.832547
0.493599 0.966522 0.926390
0.489448 0.968078 0.926024
0.474525 0.972015 0.922576
0.662562 0.959533 0.920562
0.907378 0.907378 0.907378
