data/fiter_cube/48671653/1023254/file.cube
# Created by Adobe Lightroom plugin Export LUT (1.17.0)
# www.johnrellis.com/lightroom/exportlut.htm
# Preset: 青橙风光风景_03 云集
# Color profile: C:\Program Files (x86)\Common Files\Adobe\Color\Profiles\Recommended\AdobeRGB1998.icc
LUT_3D_SIZE 8
DOMAIN_MIN 0.000000 0.000000 0.000000
DOMAIN_MAX 0.903226 0.903226 0.903226
0.159457 0.159457 0.159457
0.199985 0.161105 0.158083
0.399176 0.177188 0.144747
0.632563 0.212863 0.106569
0.828489 0.255070 0.000000
0.950744 0.283024 0.000000
1.000000 0.297673 0.000000
1.000000 0.301549 0.000000
0.159457 0.159457 0.159457
0.208499 0.172488 0.156802
0.417548 0.204715 0.139834
0.651698 0.242710 0.095491
0.839078 0.278080 0.000000
0.956207 0.299016 0.000000
1.000000 0.309331 0.000000
1.000000 0.310216 0.000000
0.152834 0.189029 0.166476
0.195621 0.191043 0.155428
0.441657 0.261051 0.128359
0.711269 0.338994 0.000000
0.872374 0.350042 0.000000
0.974212 0.351141 0.000000
1.000000 0.347723 0.000000
1.000000 0.339361 0.000000
0.136446 0.277317 0.199222
0.192905 0.275425 0.188235
0.339178 0.263951 0.207523
0.734371 0.397620 0.000000
0.920348 0.458778 0.000000
1.000000 0.431525 0.000000
1.000000 0.408545 0.000000
1.000000 0.386358 0.000000
0.165164 0.367956 0.258000
0.205478 0.364233 0.242039
0.338933 0.327306 0.225711
0.623163 0.401770 0.279850
0.928313 0.493141 0.000000
1.000000 0.530907 0.000000
1.000000 0.484901 0.000000
1.000000 0.446204 0.000000
0.188815 0.476875 0.325261
0.226993 0.471534 0.309606
0.362921 0.437507 0.306065
0.541497 0.453681 0.314794
0.880552 0.536828 0.319829
1.000000 0.549340 0.000000
1.000000 0.571099 0.000000
1.000000 0.514397 0.000000
0.196353 0.626825 0.411627
0.241581 0.620874 0.395392
0.367193 0.590112 0.353460
0.508476 0.488411 0.304082
0.807767 0.624537 0.485756
1.000000 0.618433 0.345953
1.000000 0.580652 0.000000
1.000000 0.587671 0.000000
0.218418 0.784939 0.508629
0.274510 0.780209 0.496681
0.396735 0.758968 0.449104
0.595911 0.680018 0.443122
0.795102 0.694484 0.473762
0.982208 0.785489 0.704585
1.000000 0.623682 0.233555
1.000000 0.593744 0.000000
0.159457 0.159457 0.159457
0.159457 0.159457 0.159457
0.393408 0.203769 0.142184
0.645167 0.261997 0.092073
0.838254 0.295079 0.000000
0.956207 0.310704 0.000000
1.000000 0.315465 0.000000
1.000000 0.311925 0.000000
0.157382 0.165774 0.164736
0.162692 0.162692 0.162692
0.392859 0.215793 0.140658
0.661616 0.286168 0.079164
0.847471 0.313939 0.000000
0.961212 0.324712 0.000000
1.000000 0.326055 0.000000
1.000000 0.320165 0.000000
0.146212 0.200534 0.184054
0.171878 0.220310 0.190463
0.393530 0.248722 0.157839
0.713527 0.367681 0.000000
0.877745 0.376593 0.000000
0.977996 0.371405 0.000000
1.000000 0.361608 0.000000
1.000000 0.347784 0.000000
0.135286 0.290257 0.235996
0.187381 0.294041 0.231022
0.327855 0.283116 0.233677
0.703365 0.394202 0.116030
0.922850 0.477180 0.000000
1.000000 0.446357 0.000000
1.000000 0.419196 0.000000
1.000000 0.393042 0.000000
0.165560 0.383642 0.295933
0.207248 0.380011 0.281865
0.333654 0.348882 0.260349
0.593530 0.411078 0.321904
0.915801 0.500389 0.000000
1.000000 0.541985 0.000000
1.000000 0.493050 0.000000
1.000000 0.451423 0.000000
0.185336 0.492683 0.359136
0.225772 0.487556 0.344549
0.344305 0.457862 0.315648
0.522423 0.453010 0.323369
0.865568 0.551904 0.371283
1.000000 0.557244 0.000000
1.000000 0.577569 0.000000
1.000000 0.518578 0.000000
0.186740 0.640253 0.442939
0.235935 0.634760 0.427832
0.340795 0.608698 0.364508
0.511040 0.509545 0.329931
0.796231 0.631189 0.497078
1.000000 0.639887 0.409583
1.000000 0.580072 0.000000
1.000000 0.591089 0.000000
0.199893 0.793210 0.533501
0.262760 0.788785 0.522393
0.395117 0.768887 0.479011
0.593256 0.697047 0.475563
0.779507 0.689448 0.469001
0.975982 0.792508 0.714046
1.000000 0.646021 0.325078
1.000000 0.593530 0.000000
0.108949 0.246159 0.247471
0.112459 0.244511 0.241917
0.254520 0.210361 0.243748
0.560510 0.238590 0.164157
0.842008 0.340398 0.000000
0.967956 0.368688 0.000000
1.000000 0.357061 0.000000
1.000000 0.337591 0.000000
0.098146 0.261021 0.254704
0.133974 0.257603 0.251774
0.258000 0.226932 0.250278
0.562829 0.261570 0.183078
0.844083 0.349706 0.000000
0.972442 0.380865 0.000000
1.000000 0.366155 0.000000
1.000000 0.344884 0.000000
0.066621 0.296849 0.276524
0.143587 0.290684 0.273777
0.268650 0.268650 0.268650
0.581292 0.330602 0.230289
0.855406 0.396063 0.041230
0.987366 0.420935 0.000000
1.000000 0.397314 0.000000
1.000000 0.369970 0.000000
0.093660 0.330144 0.292546
0.163424 0.326635 0.293278
0.282109 0.332830 0.300694
0.592309 0.405310 0.303014
0.877287 0.483162 0.188876
1.000000 0.482002 0.000000
1.000000 0.449439 0.000000
1.000000 0.411933 0.000000
0.132418 0.390234 0.329137
0.187015 0.399451 0.339086
0.298833 0.413855 0.343877
0.488899 0.417853 0.366918
0.865385 0.538048 0.325841
1.000000 0.564172 0.063996
1.000000 0.518242 0.000000
1.000000 0.467170 0.000000
0.150149 0.509667 0.409491
0.202976 0.519066 0.418219
0.316655 0.520409 0.401465
0.452827 0.437385 0.331212
0.807736 0.593927 0.495644
1.000000 0.611231 0.335088
1.000000 0.581476 0.000000
1.000000 0.531670 0.000000
0.126040 0.666163 0.512322
0.198825 0.673030 0.518700
0.337499 0.658259 0.478584
0.507073 0.585077 0.428840
0.748898 0.637049 0.510246
0.989044 0.707118 0.569421
1.000000 0.625605 0.250584
1.000000 0.596124 0.000000
0.012818 0.819333 0.610925
0.189334 0.816464 0.602502
0.379095 0.800381 0.568933
0.549554 0.751125 0.521874
0.708400 0.655146 0.430701
0.952117 0.806302 0.732021
1.000000 0.729244 0.544945
1.000000 0.592767 0.000000
0.112856 0.351904 0.353094
0.105104 0.352361 0.350011
0.229313 0.338476 0.341833
0.350378 0.285069 0.334569
0.699306 0.305730 0.271489
0.936370 0.381903 0.172580
1.000000 0.404974 0.000000
1.000000 0.369848 0.000000
0.098787 0.364446 0.359228
0.091524 0.364446 0.356329
0.236973 0.347417 0.348455
0.353429 0.295750 0.339330
0.703273 0.323766 0.283330
0.937438 0.396033 0.193118
1.000000 0.414160 0.000000
1.000000 0.375280 0.000000
0.066407 0.394110 0.378393
0.073457 0.393957 0.375586
0.249180 0.375067 0.368536
0.363714 0.328557 0.354833
0.718502 0.383001 0.322789
0.942107 0.442939 0.251621
1.000000 0.436500 0.000000
1.000000 0.396826 0.000000
0.000000 0.440314 0.408759
0.068330 0.436713 0.404791
0.254673 0.419471 0.398993
0.381994 0.381994 0.381994
0.746181 0.480507 0.391119
0.953307 0.517540 0.328618
1.000000 0.480354 0.000000
1.000000 0.435828 0.000000
0.000000 0.482643 0.430274
0.110933 0.479561 0.430060
0.269841 0.466529 0.427131
0.403388 0.460365 0.424201
0.754360 0.573175 0.487221
0.968078 0.622278 0.436957
1.000000 0.558709 0.201602
1.000000 0.488167 0.000000
0.000000 0.547356 0.470008
0.130892 0.545617 0.470314
0.284062 0.547143 0.476875
0.429084 0.564843 0.481300
0.674647 0.592737 0.546868
0.958251 0.697414 0.566796
1.000000 0.665126 0.390875
1.000000 0.550317 0.000000
0.000000 0.662074 0.542596
0.082002 0.668788 0.549096
0.293858 0.689723 0.570367
0.466926 0.688594 0.555749
0.617945 0.582940 0.452766
0.936553 0.769070 0.700496
1.000000 0.738033 0.569787
1.000000 0.604120 0.000000
0.000000 0.813748 0.637659
0.000000 0.817655 0.642237
0.299840 0.829435 0.660029
0.517082 0.816037 0.639826
0.666011 0.718715 0.551049
0.909667 0.810056 0.729793
1.000000 0.823301 0.728511
1.000000 0.658625 0.328374
0.109743 0.471809 0.472663
0.102724 0.472358 0.470741
0.151949 0.469612 0.463905
0.334569 0.421729 0.448249
0.448554 0.356023 0.426337
0.794736 0.372900 0.374426
1.000000 0.456001 0.340826
1.000000 0.407630 0.000000
0.093843 0.482338 0.478553
0.086366 0.482551 0.476570
0.167147 0.477028 0.469703
0.341131 0.434272 0.453071
0.451453 0.364385 0.430488
0.798367 0.388067 0.384588
1.000000 0.467231 0.351507
1.000000 0.413275 0.000000
0.011902 0.509667 0.496254
0.000000 0.510521 0.494423
0.190921 0.501213 0.488045
0.356237 0.467323 0.470466
0.462013 0.392370 0.444892
0.811032 0.439948 0.420752
1.000000 0.505211 0.387274
1.000000 0.430915 0.000000
0.000000 0.551720 0.525689
0.000000 0.552483 0.523857
0.197299 0.542382 0.518303
0.368444 0.510307 0.502586
0.481270 0.440436 0.470863
0.832944 0.528954 0.488136
1.000000 0.566308 0.442573
1.000000 0.452735 0.000000
0.000000 0.605646 0.561578
0.000000 0.604028 0.557641
0.197116 0.593378 0.553307
0.379370 0.566613 0.542382
0.510246 0.510246 0.510246
0.865721 0.645655 0.582635
1.000000 0.651362 0.523522
1.000000 0.510552 0.000000
0.000000 0.656947 0.590600
0.000000 0.656031 0.587976
0.209384 0.648646 0.587884
0.397955 0.629206 0.582818
0.545861 0.608057 0.568322
0.876829 0.739528 0.681422
1.000000 0.765255 0.650202
1.000000 0.606561 0.302220
0.000000 0.731807 0.637446
0.000000 0.731502 0.634455
0.196475 0.726680 0.635676
0.416907 0.711757 0.633875
0.589075 0.719844 0.637934
0.834836 0.766079 0.733486
1.000000 0.829221 0.747158
1.000000 0.735225 0.531701
0.000000 0.824460 0.696986
0.000000 0.824125 0.693538
0.000000 0.822477 0.687129
0.436103 0.838956 0.715908
0.637415 0.835080 0.713283
0.787564 0.743191 0.619287
1.000000 0.886259 0.839597
1.000000 0.806363 0.680201
0.095644 0.607080 0.608362
0.086122 0.607965 0.607263
0.016419 0.610681 0.603235
0.293034 0.593500 0.593805
0.425330 0.484321 0.562982
0.560754 0.433783 0.530694
0.875975 0.462135 0.487831
1.000000 0.572534 0.517327
0.079896 0.614740 0.612604
0.068757 0.615351 0.611475
0.000000 0.617670 0.607477
0.298680 0.599207 0.598016
0.436439 0.500206 0.568444
0.563378 0.441016 0.534234
0.878691 0.475502 0.497353
1.000000 0.580102 0.523674
0.000000 0.636164 0.625696
0.000000 0.636774 0.624628
0.000000 0.638972 0.620783
0.312840 0.618219 0.612085
0.470222 0.549706 0.586114
0.572595 0.466377 0.546838
0.888334 0.520745 0.530449
1.000000 0.604517 0.543481
0.000000 0.667079 0.646357
0.000000 0.668086 0.645350
0.000000 0.670405 0.642145
0.327886 0.650141 0.635096
0.499947 0.607172 0.611597
0.588495 0.510033 0.568994
0.905974 0.593988 0.586236
1.000000 0.639429 0.568811
0.000000 0.708827 0.674037
0.000000 0.709895 0.673182
0.000000 0.711513 0.670405
0.335210 0.693629 0.665522
0.512322 0.655818 0.647700
0.612024 0.568597 0.600916
0.932494 0.686854 0.659846
1.000000 0.677882 0.590600
0.000000 0.755489 0.703334
0.000000 0.754940 0.701076
0.000000 0.752041 0.695247
0.350347 0.739010 0.695064
0.531304 0.712306 0.687739
0.648585 0.648493 0.648493
0.961913 0.795865 0.752743
1.000000 0.745632 0.648615
0.000000 0.806851 0.735805
0.000000 0.806760 0.733974
0.000000 0.806119 0.727718
0.354284 0.796994 0.731289
0.555047 0.777005 0.731136
0.695277 0.752743 0.715785
0.969970 0.874632 0.836881
1.000000 0.853788 0.775723
0.110048 0.876677 0.785580
0.103426 0.876646 0.783749
0.069917 0.876310 0.776547
0.293889 0.871336 0.771298
0.563500 0.854765 0.777005
0.743435 0.858579 0.785550
0.954345 0.904631 0.883482
1.000000 0.904814 0.852262
0.207248 0.737118 0.739742
0.202731 0.737911 0.739132
0.185641 0.740658 0.736965
0.224430 0.742184 0.732998
0.487526 0.715389 0.722377
0.543084 0.552239 0.677302
0.682155 0.538079 0.647761
0.954986 0.574792 0.612848
0.204837 0.741634 0.742153
0.200443 0.742336 0.741512
0.183566 0.744869 0.739345
0.232273 0.745632 0.735439
0.490394 0.719173 0.725093
0.545892 0.562097 0.681697
0.683711 0.543603 0.650141
0.956664 0.584466 0.619837
0.200717 0.755032 0.749966
0.196109 0.755703 0.749386
0.178897 0.758114 0.747250
0.248631 0.757717 0.743618
0.498146 0.732113 0.734249
0.568750 0.604425 0.696010
0.689357 0.562280 0.658564
0.962615 0.617365 0.643793
0.199191 0.775692 0.762875
0.194491 0.776333 0.762325
0.177188 0.778653 0.760311
0.251225 0.778378 0.757107
0.504631 0.754177 0.749722
0.620233 0.677546 0.720302
0.699458 0.593500 0.673365
0.973571 0.670619 0.683558
0.200565 0.803647 0.780484
0.196078 0.804349 0.779965
0.178408 0.806729 0.778225
0.218357 0.807614 0.775143
0.495186 0.785183 0.770352
0.654566 0.744198 0.748806
0.714839 0.636622 0.695186
0.988403 0.739773 0.737057
0.206851 0.838010 0.801785
0.202090 0.838773 0.801389
0.184482 0.841520 0.799985
0.210727 0.844083 0.797726
0.489174 0.825040 0.796139
0.661891 0.791196 0.783597
0.739254 0.696712 0.728298
1.000000 0.818997 0.801144
0.220096 0.876707 0.825498
0.217044 0.876707 0.824430
0.206638 0.876341 0.820218
0.215213 0.875303 0.813291
0.503593 0.861967 0.818143
0.681270 0.841276 0.818723
0.781155 0.781155 0.781155
1.000000 0.902403 0.875303
0.313207 0.920806 0.857328
0.311650 0.920928 0.856443
0.305852 0.921355 0.853208
0.293767 0.922057 0.846525
0.471504 0.915251 0.847013
0.693111 0.899718 0.856199
0.834867 0.885557 0.852781
1.000000 0.959503 0.941161
0.422919 0.854948 0.859312
0.420569 0.855406 0.858915
0.411841 0.857145 0.857542
0.395178 0.860624 0.855009
0.522972 0.854765 0.852323
0.685817 0.829038 0.844633
0.704005 0.659785 0.795621
0.818357 0.672511 0.782895
0.423621 0.857145 0.860533
0.421271 0.857572 0.860166
0.412757 0.859281 0.858793
0.396155 0.862638 0.856229
0.523156 0.856840 0.853635
0.688228 0.833036 0.846006
0.704829 0.666926 0.798489
0.819120 0.675593 0.784176
0.427314 0.864073 0.864775
0.425025 0.864500 0.864378
0.416663 0.866117 0.863035
0.400427 0.869352 0.860533
0.520378 0.864073 0.858061
0.692470 0.843626 0.851194
0.708339 0.691341 0.808560
0.821836 0.686122 0.788632
0.436347 0.874846 0.872099
0.434119 0.875273 0.871763
0.425971 0.876829 0.870420
0.410132 0.879973 0.867948
0.502739 0.876951 0.865476
0.690791 0.857023 0.860472
0.716640 0.731777 0.826413
0.826902 0.704067 0.796567
0.446387 0.892271 0.882689
0.444800 0.892424 0.882353
0.438972 0.892851 0.881102
0.428260 0.893126 0.878569
0.436896 0.896391 0.875212
0.677790 0.876036 0.872923
0.762325 0.805570 0.850126
0.834745 0.730556 0.808743
0.459297 0.914214 0.895781
0.457801 0.914458 0.895506
0.452369 0.915251 0.894499
0.442420 0.916381 0.892546
0.425452 0.918029 0.889158
0.639216 0.901976 0.887785
0.798337 0.872313 0.876616
0.846708 0.768093 0.826780
0.475166 0.939391 0.910613
0.473793 0.939727 0.910430
0.468971 0.940917 0.909758
0.459632 0.943084 0.908415
0.443519 0.946746 0.906126
0.607080 0.935485 0.905882
0.793790 0.910521 0.903532
0.866178 0.822354 0.854826
0.493599 0.966522 0.926390
0.492348 0.966979 0.926299
0.487984 0.968627 0.925902
0.479286 0.971893 0.925170
0.468421 0.971984 0.919005
0.603388 0.963653 0.918334
0.802182 0.948119 0.927092
0.907378 0.907378 0.907378
