data/fiter_cube/80369196/1023065/file.cube
# Created by Adobe Lightroom plugin Export LUT (1.17.0)
# www.johnrellis.com/lightroom/exportlut.htm
# Preset: Dream Travel_03
# Color profile: C:\Program Files (x86)\Common Files\Adobe\Color\Profiles\Recommended\AdobeRGB1998.icc
LUT_3D_SIZE 5
DOMAIN_MIN 0.000000 0.000000 0.000000
DOMAIN_MAX 0.903226 0.903226 0.903226
0.050690 0.079316 0.105989
0.152132 0.077455 0.105165
0.428504 0.000000 0.090578
0.765377 0.000000 0.000000
1.000000 0.194614 0.000000
0.029419 0.160525 0.114961
0.090425 0.148898 0.125185
0.434943 0.120333 0.102907
0.772946 0.068940 0.000000
1.000000 0.340795 0.000000
0.000000 0.450568 0.117556
0.111574 0.448676 0.118379
0.316838 0.419715 0.179171
0.778470 0.524254 0.103792
1.000000 0.585992 0.110140
0.151400 0.804227 0.154788
0.263005 0.804623 0.157168
0.470680 0.797421 0.172885
0.629480 0.749599 0.323674
0.964385 0.873747 0.515190
0.529534 0.995514 0.534234
0.564904 0.993286 0.541466
0.656703 0.983764 0.549676
0.791470 0.975067 0.665431
0.886198 0.963561 0.843412
0.000000 0.098207 0.194736
0.151400 0.087678 0.199557
0.455756 0.000000 0.135286
0.733761 0.000000 0.081910
1.000000 0.000000 0.000000
0.000000 0.172457 0.176822
0.154482 0.194461 0.206638
0.460761 0.123110 0.161318
0.750515 0.000000 0.093965
1.000000 0.276188 0.000000
0.000000 0.461982 0.178286
0.172061 0.474525 0.212863
0.354803 0.433295 0.250828
0.782620 0.479805 0.197604
1.000000 0.570977 0.127687
0.194247 0.810971 0.261418
0.300633 0.811215 0.270512
0.493751 0.804959 0.272709
0.642542 0.754421 0.381323
0.966155 0.869078 0.504204
0.529046 0.994781 0.552331
0.563195 0.992584 0.554101
0.667231 0.987152 0.573877
0.795163 0.976715 0.676692
0.888731 0.964599 0.849210
0.000000 0.173617 0.482063
0.000000 0.149508 0.517998
0.561791 0.000000 0.541314
0.845518 0.000000 0.438941
1.000000 0.000000 0.164950
0.000000 0.311772 0.463539
0.000000 0.258671 0.506584
0.574060 0.231571 0.553735
0.827146 0.000000 0.380438
1.000000 0.000000 0.144564
0.000000 0.484657 0.402197
0.158053 0.500725 0.429938
0.542992 0.560479 0.541711
0.789914 0.446235 0.373297
1.000000 0.475227 0.247715
0.067689 0.810849 0.434760
0.269017 0.813718 0.459022
0.554925 0.822629 0.559625
0.698085 0.786343 0.614008
0.975372 0.835813 0.627527
0.475380 0.994202 0.641566
0.535973 0.992493 0.669856
0.678370 0.984863 0.736446
0.795377 0.976532 0.756161
0.888914 0.961761 0.864530
0.000000 0.343023 0.868040
0.000000 0.280400 0.884520
0.607935 0.315068 0.925200
0.853300 0.314977 0.907683
0.993133 0.537133 0.885954
0.000000 0.474800 0.856901
0.000000 0.413947 0.875914
0.588586 0.411688 0.918212
0.847715 0.426947 0.903929
0.991974 0.546410 0.874388
0.000000 0.670741 0.797421
0.000000 0.662379 0.804257
0.488869 0.612177 0.884947
0.836545 0.668666 0.900633
0.999786 0.553368 0.806546
0.000000 0.819242 0.751186
0.122255 0.818997 0.760739
0.528557 0.827543 0.812467
0.802426 0.852201 0.889311
0.989807 0.751492 0.714900
0.454414 0.992279 0.815183
0.512322 0.990356 0.826535
0.664515 0.985046 0.863737
0.822446 0.977142 0.907073
0.908721 0.963409 0.930541
0.372412 0.662654 1.000000
0.416724 0.625116 1.000000
0.671870 0.631647 1.000000
0.887266 0.705806 1.000000
0.982910 0.694697 0.995056
0.429694 0.730892 1.000000
0.466865 0.700649 1.000000
0.666011 0.673976 1.000000
0.885954 0.744320 1.000000
0.980743 0.730709 0.993805
0.449805 0.864927 0.992737
0.529442 0.854398 0.993805
0.649836 0.793515 0.999145
0.873533 0.823209 0.997528
0.975463 0.819516 0.990967
0.389960 0.964355 0.985199
0.445747 0.959045 0.985412
0.591241 0.938659 0.986328
0.827420 0.895598 0.992615
0.971313 0.914000 0.988952
0.479286 1.000000 0.961517
0.524132 1.000000 0.962493
0.657496 0.996887 0.966247
0.830076 0.981689 0.974304
0.966308 0.978851 0.988525
