data/fiter_cube/80369196/1023065/file.cube
# Created by Adobe Lightroom plugin Export LUT (1.17.0)
# www.johnrellis.com/lightroom/exportlut.htm
# Preset: Dream Travel_03
# Color profile: C:\Program Files (x86)\Common Files\Adobe\Color\Profiles\Recommended\AdobeRGB1998.icc
LUT_3D_SIZE 32
DOMAIN_MIN 0.0 0.0 0.0
DOMAIN_MAX 1.0 1.0 1.0
0.050690 0.079316 0.105989
0.054627 0.079408 0.105959
0.059541 0.079744 0.106142
0.069001 0.080629 0.105928
0.083986 0.081331 0.106081
0.102419 0.081483 0.105898
0.124941 0.080690 0.105531
0.152132 0.077455 0.105165
0.183597 0.071626 0.104524
0.219272 0.060029 0.103243
0.258335 0.019867 0.101930
0.299626 0.000000 0.099855
0.342412 0.000000 0.097414
0.385565 0.000000 0.094240
0.428504 0.000000 0.090578
0.470832 0.000000 0.085847
0.513207 0.000000 0.079896
0.556054 0.000000 0.072541
0.610742 0.000000 0.059724
0.665217 0.000000 0.022431
0.716732 0.000000 0.000000
0.765377 0.000000 0.000000
0.810941 0.000000 0.000000
0.854124 0.000000 0.000000
0.894743 0.000000 0.000000
0.932921 0.000000 0.000000
0.968994 0.000000 0.000000
1.000000 0.117037 0.000000
1.000000 0.194614 0.000000
1.000000 0.253635 0.000000
1.000000 0.303655 0.000000
1.000000 0.346715 0.000000
0.050752 0.081025 0.106355
0.052766 0.080568 0.106600
0.058228 0.081544 0.106722
0.067414 0.082460 0.106783
0.082002 0.083650 0.106661
0.100526 0.084169 0.106447
0.123232 0.083101 0.106111
0.150027 0.080659 0.105531
0.181552 0.074922 0.104677
0.216953 0.064546 0.103883
0.255863 0.033631 0.102358
0.296971 0.000000 0.100313
0.339574 0.000000 0.097871
0.382635 0.000000 0.094759
0.425452 0.000000 0.090944
0.467720 0.000000 0.086519
0.509697 0.000000 0.080812
0.552422 0.000000 0.073610
0.606134 0.000000 0.061036
0.659297 0.000000 0.027527
0.709834 0.000000 0.000000
0.758114 0.000000 0.000000
0.803586 0.000000 0.000000
0.846952 0.000000 0.000000
0.887938 0.000000 0.000000
0.926787 0.000000 0.000000
0.963561 0.000000 0.000000
0.997955 0.110262 0.000000
1.000000 0.190555 0.000000
1.000000 0.250675 0.000000
1.000000 0.301366 0.000000
1.000000 0.345159 0.000000
0.051453 0.083284 0.106905
0.052338 0.083558 0.106874
0.055055 0.083040 0.107546
0.064515 0.085695 0.107729
0.079805 0.086488 0.107424
0.098177 0.087129 0.107240
0.120668 0.086610 0.106905
0.147616 0.084413 0.106325
0.179324 0.079500 0.105440
0.214817 0.070161 0.104433
0.253910 0.049897 0.102907
0.295232 0.000000 0.100862
0.337835 0.000000 0.098451
0.381140 0.000000 0.095338
0.423987 0.000000 0.091524
0.466133 0.000000 0.086915
0.508110 0.000000 0.081209
0.550774 0.000000 0.074098
0.604456 0.000000 0.061646
0.656703 0.000000 0.030823
0.706844 0.000000 0.000000
0.754818 0.000000 0.000000
0.800168 0.000000 0.000000
0.843442 0.000000 0.000000
0.884581 0.000000 0.000000
0.923613 0.000000 0.000000
0.960723 0.000000 0.000000
0.995483 0.114443 0.000000
1.000000 0.193088 0.000000
1.000000 0.252628 0.000000
1.000000 0.303105 0.000000
1.000000 0.346868 0.000000
0.050385 0.090761 0.107973
0.052155 0.090974 0.108186
0.055940 0.091035 0.108370
0.059449 0.090150 0.109926
0.072663 0.095583 0.110262
0.093599 0.093507 0.109560
0.116426 0.093507 0.108766
0.144106 0.092134 0.107973
0.176242 0.088167 0.106874
0.212436 0.080690 0.105837
0.251865 0.068025 0.104067
0.293584 0.032013 0.101991
0.336431 0.000000 0.099336
0.379950 0.000000 0.095949
0.422950 0.000000 0.092164
0.465278 0.000000 0.087495
0.507195 0.000000 0.082094
0.551843 0.000000 0.074281
0.603204 0.000000 0.062745
0.653407 0.000000 0.034089
0.702144 0.000000 0.000000
0.749294 0.000000 0.000000
0.794705 0.000000 0.000000
0.838804 0.000000 0.000000
0.881254 0.000000 0.000000
0.921599 0.000000 0.000000
0.959655 0.000000 0.000000
0.994934 0.137697 0.000000
1.000000 0.207645 0.000000
1.000000 0.263676 0.000000
1.000000 0.311894 0.000000
1.000000 0.354223 0.000000
0.049226 0.102571 0.109804
0.051148 0.102724 0.109773
0.054932 0.102785 0.109957
0.059724 0.102235 0.110597
0.064149 0.100191 0.112825
0.081117 0.108614 0.113405
0.107637 0.106111 0.111971
0.137575 0.102419 0.110750
0.170626 0.100191 0.109407
0.207462 0.095216 0.107881
0.247684 0.085939 0.105898
0.290288 0.070710 0.103578
0.333959 0.029114 0.100832
0.378210 0.000000 0.097658
0.421851 0.000000 0.093568
0.464942 0.000000 0.088838
0.507622 0.000000 0.083009
0.555474 0.000000 0.074708
0.605554 0.000000 0.062806
0.654414 0.000000 0.035187
0.701869 0.000000 0.000000
0.748104 0.000000 0.000000
0.792813 0.000000 0.000000
0.836637 0.000000 0.000000
0.879057 0.000000 0.000000
0.919554 0.000000 0.000000
0.957671 0.077272 0.000000
0.993011 0.164492 0.000000
1.000000 0.225681 0.000000
1.000000 0.278111 0.000000
1.000000 0.324407 0.000000
1.000000 0.365881 0.000000
0.046479 0.117433 0.111177
0.048341 0.117586 0.111391
0.051270 0.117678 0.111360
0.058900 0.117556 0.111513
0.064607 0.115755 0.113313
0.070466 0.112886 0.116335
0.090150 0.123293 0.117952
0.123537 0.125307 0.115175
0.163638 0.115480 0.113405
0.202640 0.111818 0.111452
0.244327 0.106050 0.109163
0.288334 0.095644 0.106538
0.333257 0.079866 0.103517
0.378332 0.048127 0.099794
0.423011 0.000000 0.095521
0.466621 0.000000 0.090730
0.510033 0.000000 0.084474
0.561120 0.000000 0.075563
0.610193 0.000000 0.063508
0.658412 0.000000 0.034974
0.705440 0.000000 0.000000
0.751492 0.000000 0.000000
0.841245 0.000000 0.000000
0.882261 0.000000 0.000000
0.920348 0.081514 0.000000
0.955566 0.150484 0.000000
0.988037 0.203250 0.000000
1.000000 0.250492 0.000000
1.000000 0.294163 0.000000
1.000000 0.334905 0.000000
1.000000 0.372259 0.000000
1.000000 0.406653 0.000000
0.038819 0.138216 0.113069
0.042878 0.138094 0.113069
0.046571 0.138186 0.113252
0.054414 0.138277 0.113375
0.064149 0.138125 0.113924
0.072175 0.134371 0.117250
0.079561 0.130220 0.121065
0.100740 0.140627 0.123751
0.147585 0.151308 0.119478
0.196323 0.144350 0.116609
0.248631 0.128908 0.114351
0.295689 0.122408 0.110750
0.342840 0.111666 0.107027
0.389319 0.096162 0.102846
0.434455 0.073030 0.098207
0.477852 0.013550 0.092500
0.527306 0.000000 0.085298
0.578241 0.000000 0.074830
0.627649 0.000000 0.061036
0.676478 0.000000 0.023896
0.725582 0.000000 0.000000
0.774685 0.000000 0.000000
0.822873 0.000000 0.000000
0.868986 0.066712 0.000000
0.911528 0.136355 0.000000
0.949371 0.187228 0.000000
0.983215 0.232731 0.000000
1.000000 0.275425 0.000000
1.000000 0.315801 0.000000
1.000000 0.354070 0.000000
1.000000 0.389899 0.000000
1.000000 0.423529 0.000000
0.029419 0.160525 0.114961
0.031983 0.160616 0.114931
0.037201 0.160494 0.115114
0.048646 0.160403 0.115084
0.061250 0.160281 0.115206
0.071595 0.158267 0.117128
0.081758 0.153750 0.120821
0.090425 0.148898 0.125185
0.111482 0.158022 0.130007
0.170657 0.178500 0.123720
0.226291 0.175479 0.120150
0.286015 0.159091 0.116823
0.340459 0.142763 0.112917
0.388678 0.132937 0.108248
0.434943 0.120333 0.102907
0.483040 0.104372 0.096559
0.533806 0.085725 0.088136
0.582483 0.063783 0.078096
0.630091 0.025177 0.064363
0.677577 0.000000 0.030854
0.725246 0.021149 0.000000
0.772946 0.068940 0.000000
0.819944 0.107301 0.000000
0.865110 0.146914 0.000000
0.907103 0.186984 0.000000
0.944823 0.226871 0.000000
0.978729 0.265385 0.000000
1.000000 0.303258 0.000000
1.000000 0.340795 0.000000
1.000000 0.376745 0.000000
1.000000 0.411292 0.000000
1.000000 0.444160 0.000000
0.013001 0.187991 0.117281
0.018433 0.187900 0.117250
0.023316 0.188052 0.117403
0.036500 0.187961 0.117556
0.056001 0.187808 0.117678
0.069398 0.187625 0.117952
0.083192 0.183627 0.121248
0.095491 0.178012 0.125521
0.106142 0.172244 0.130526
0.126802 0.179507 0.137972
0.199405 0.210239 0.129183
0.260349 0.211032 0.123781
0.324102 0.198428 0.119387
0.387945 0.170504 0.115389
0.440681 0.161379 0.109133
0.491920 0.153658 0.101747
0.541161 0.144656 0.093202
0.588495 0.137148 0.082155
0.635004 0.132052 0.068666
0.681239 0.132815 0.038941
0.727657 0.140688 0.000000
0.774136 0.155001 0.000000
0.819913 0.176730 0.000000
0.863920 0.204349 0.000000
0.905089 0.236057 0.000000
0.942229 0.268345 0.000000
0.975830 0.302098 0.000000
1.000000 0.335851 0.000000
1.000000 0.369879 0.000000
1.000000 0.403510 0.000000
1.000000 0.436133 0.000000
1.000000 0.467872 0.000000
0.000000 0.220005 0.119112
0.000000 0.219944 0.119295
0.003418 0.219821 0.119295
0.019379 0.219821 0.119203
0.044007 0.219760 0.119692
0.065949 0.219516 0.119936
0.082765 0.218235 0.121065
0.099001 0.212375 0.125521
0.113588 0.206424 0.130587
0.126345 0.199649 0.136538
0.146639 0.204929 0.145815
0.230594 0.244480 0.135073
0.296056 0.249302 0.127840
0.367437 0.243473 0.121584
0.437568 0.223606 0.116121
0.499947 0.199313 0.109895
0.549676 0.195315 0.100008
0.597314 0.192569 0.088350
0.643275 0.192264 0.074006
0.688197 0.195285 0.049378
0.732723 0.202670 0.000000
0.776608 0.214817 0.000000
0.819791 0.231815 0.000000
0.861540 0.253300 0.000000
0.901091 0.278965 0.000000
0.937682 0.307073 0.000000
0.971405 0.337072 0.000000
1.000000 0.368322 0.000000
1.000000 0.400488 0.000000
1.000000 0.432837 0.000000
1.000000 0.464607 0.000000
1.000000 0.495644 0.000000
0.000000 0.255161 0.120546
0.000000 0.255100 0.120516
0.000000 0.255253 0.120638
0.000000 0.255131 0.120790
0.023774 0.255039 0.120851
0.060273 0.255192 0.121218
0.080812 0.255253 0.121706
0.101045 0.251896 0.124453
0.119936 0.245670 0.129915
0.136782 0.238712 0.136019
0.151186 0.231205 0.142641
0.175723 0.237766 0.153323
0.263218 0.280949 0.143832
0.343084 0.297948 0.132631
0.414099 0.294652 0.123842
0.482429 0.279515 0.116548
0.548913 0.253574 0.109194
0.602045 0.242405 0.098665
0.647517 0.243809 0.083925
0.691707 0.248112 0.064546
0.735439 0.255894 0.013947
0.778470 0.267338 0.000000
0.820859 0.283024 0.000000
0.861784 0.302251 0.000000
0.900420 0.324865 0.000000
0.936126 0.349279 0.000000
0.969024 0.375921 0.000000
0.999390 0.403937 0.000000
1.000000 0.433204 0.000000
1.000000 0.463203 0.000000
1.000000 0.493385 0.000000
1.000000 0.523369 0.000000
0.000000 0.294804 0.121126
0.000000 0.294957 0.121279
0.000000 0.294865 0.121431
0.000000 0.294926 0.121523
0.000000 0.294957 0.121553
0.047089 0.295018 0.121889
0.078035 0.295384 0.122042
0.101961 0.295659 0.122499
0.125002 0.289708 0.127962
0.147005 0.284489 0.134585
0.168185 0.279667 0.142123
0.186618 0.273716 0.150576
0.231449 0.297734 0.167025
0.324529 0.344213 0.158145
0.419135 0.373114 0.139895
0.491707 0.373510 0.127230
0.561578 0.364752 0.115053
0.627161 0.347417 0.103456
0.686519 0.320653 0.093843
0.727932 0.325597 0.072877
0.768154 0.333013 0.027771
0.807614 0.343725 0.000000
0.845853 0.356817 0.000000
0.882658 0.373205 0.000000
0.917388 0.391882 0.000000
0.949767 0.412573 0.000000
0.979644 0.434638 0.000000
1.000000 0.458137 0.000000
1.000000 0.483070 0.000000
1.000000 0.509026 0.000000
1.000000 0.535515 0.000000
1.000000 0.562768 0.103304
0.000000 0.346197 0.120821
0.000000 0.346319 0.120974
0.000000 0.345739 0.120882
0.000000 0.345220 0.120912
0.000000 0.344396 0.121126
0.023957 0.343633 0.121462
0.074769 0.343633 0.121645
0.104738 0.346777 0.121736
0.133852 0.347906 0.124117
0.161746 0.344427 0.131594
0.188571 0.340673 0.140322
0.213382 0.336034 0.149905
0.236118 0.330602 0.160983
0.265202 0.334325 0.175235
0.353246 0.379614 0.170748
0.456123 0.419562 0.148257
0.528618 0.425360 0.132601
0.596735 0.422553 0.116976
0.659815 0.411414 0.103182
0.718135 0.392432 0.091157
0.766934 0.380346 0.075929
0.805783 0.389807 0.030915
0.843229 0.401465 0.000000
0.879332 0.415656 0.000000
0.913390 0.432044 0.000000
0.945190 0.450263 0.000000
0.974792 0.470253 0.000000
1.000000 0.491676 0.000000
1.000000 0.514824 0.000000
1.000000 0.539391 0.000000
1.000000 0.564782 0.072572
1.000000 0.591150 0.151522
0.000000 0.394568 0.119692
0.000000 0.394903 0.119722
0.000000 0.394903 0.119844
0.000000 0.395087 0.119844
0.000000 0.395209 0.119966
0.000122 0.395789 0.120180
0.073152 0.396826 0.120333
0.107820 0.398077 0.120241
0.139467 0.400244 0.120760
0.170504 0.398077 0.126284
0.200229 0.393713 0.135775
0.228122 0.388800 0.146242
0.253849 0.382788 0.157473
0.276158 0.375128 0.169619
0.302770 0.374823 0.184726
0.383093 0.416266 0.185245
0.492103 0.465156 0.158297
0.562829 0.475532 0.140383
0.629541 0.477821 0.122683
0.691157 0.472358 0.106600
0.748348 0.460456 0.093172
0.801602 0.442237 0.083742
0.841581 0.445960 0.063691
0.877134 0.458869 0.010285
0.910704 0.473487 0.000000
0.942046 0.489845 0.000000
0.971191 0.507774 0.000000
0.998383 0.527367 0.000000
1.000000 0.548791 0.000000
1.000000 0.571801 0.078126
1.000000 0.596002 0.135225
1.000000 0.621424 0.198062
0.000000 0.450568 0.117556
0.000000 0.450996 0.117739
0.000000 0.450507 0.117678
0.000000 0.449897 0.117708
0.000000 0.449134 0.118135
0.000000 0.448463 0.118196
0.072724 0.448280 0.118502
0.111574 0.448676 0.118379
0.145449 0.450019 0.118837
0.178470 0.451972 0.119387
0.210575 0.447333 0.129610
0.241215 0.442359 0.140993
0.269749 0.436500 0.152987
0.295293 0.429053 0.165896
0.316838 0.419715 0.179171
0.339666 0.414588 0.194491
0.412177 0.452369 0.201694
0.523735 0.507012 0.172335
0.597559 0.525597 0.151064
0.662684 0.532036 0.132601
0.722805 0.531212 0.116365
0.778470 0.524254 0.103792
0.830167 0.511070 0.098787
0.874662 0.500664 0.095216
0.907836 0.514092 0.081453
0.939025 0.529168 0.072114
0.968292 0.546258 0.071687
0.995666 0.565270 0.084627
1.000000 0.585992 0.110140
1.000000 0.608331 0.146548
1.000000 0.631861 0.193820
1.000000 0.656611 0.254795
0.000000 0.504784 0.115358
0.000000 0.505089 0.115358
0.000000 0.505058 0.115480
0.000000 0.504753 0.115602
0.000000 0.504051 0.115785
0.000000 0.503655 0.115663
0.079103 0.503899 0.116091
0.120394 0.504417 0.116182
0.155917 0.505608 0.116487
0.190127 0.507042 0.116579
0.224216 0.505882 0.121309
0.256199 0.499489 0.134218
0.285771 0.491890 0.147433
0.312383 0.483131 0.161044
0.335698 0.472663 0.174960
0.355261 0.461097 0.189120
0.374517 0.452216 0.204623
0.440436 0.487709 0.219089
0.551476 0.545159 0.190402
0.633295 0.575769 0.166262
0.697536 0.586389 0.148562
0.756710 0.589746 0.135409
0.811276 0.587091 0.128664
0.860899 0.578943 0.127504
0.905333 0.565393 0.132784
0.938567 0.571801 0.133181
0.967285 0.587335 0.136599
0.994018 0.604791 0.148318
1.000000 0.623621 0.169894
1.000000 0.643885 0.202182
1.000000 0.665217 0.246372
1.000000 0.687861 0.305669
0.000000 0.556542 0.113283
0.000000 0.556481 0.113222
0.000000 0.556146 0.113283
0.000000 0.555657 0.113283
0.000000 0.555016 0.113405
0.000000 0.554650 0.113649
0.088502 0.554406 0.113832
0.129580 0.554620 0.114137
0.166049 0.555230 0.114168
0.200900 0.556359 0.114229
0.235813 0.557946 0.114473
0.269535 0.553796 0.125399
0.300999 0.546624 0.140108
0.329564 0.538140 0.154818
0.354894 0.528099 0.169955
0.376654 0.516228 0.185092
0.394873 0.503563 0.200168
0.410925 0.491615 0.215854
0.471107 0.525170 0.238712
0.580468 0.584649 0.211185
0.667659 0.623865 0.185946
0.730343 0.636774 0.172427
0.787808 0.642756 0.164523
0.840208 0.643336 0.161868
0.887114 0.638911 0.165225
0.928740 0.629755 0.175021
0.963622 0.623987 0.187991
0.990143 0.640131 0.200351
1.000000 0.657710 0.221592
1.000000 0.676600 0.253452
1.000000 0.696681 0.298009
1.000000 0.718135 0.358679
0.000000 0.609369 0.111727
0.000000 0.610010 0.111635
0.000000 0.638025 0.113100
0.000000 0.637385 0.112947
0.000000 0.636316 0.113100
0.082368 0.634913 0.113222
0.125612 0.633478 0.113130
0.162448 0.632227 0.113466
0.198032 0.631525 0.113558
0.233097 0.631250 0.114046
0.267918 0.631434 0.114076
0.302770 0.630610 0.116213
0.335119 0.622278 0.133944
0.364721 0.612909 0.151339
0.391272 0.602197 0.168154
0.414466 0.590234 0.184787
0.434455 0.576959 0.201328
0.451118 0.563073 0.217929
0.464729 0.548852 0.234440
0.516655 0.578393 0.267613
0.621820 0.636500 0.242039
0.712947 0.681483 0.220340
0.772366 0.694881 0.212009
0.825986 0.701839 0.208957
0.873503 0.702937 0.210727
0.915404 0.699367 0.218326
0.952361 0.691646 0.231815
0.985168 0.680659 0.252018
1.000000 0.690669 0.273930
1.000000 0.707790 0.305455
1.000000 0.726192 0.350134
1.000000 0.746273 0.412421
0.000000 0.666773 0.114290
0.000000 0.670314 0.114412
0.000000 0.673762 0.114931
0.000000 0.676539 0.115694
0.063416 0.678218 0.116182
0.109346 0.678309 0.116487
0.145937 0.677516 0.116182
0.180484 0.676417 0.116152
0.214481 0.675868 0.116854
0.248173 0.675349 0.117037
0.282383 0.675196 0.117189
0.316594 0.674983 0.117586
0.350042 0.671107 0.126680
0.380407 0.662562 0.145113
0.408087 0.652796 0.162936
0.433082 0.641962 0.180636
0.454932 0.630030 0.197696
0.473945 0.617578 0.214817
0.490578 0.604913 0.232120
0.504692 0.592309 0.249729
0.552422 0.619135 0.287358
0.651148 0.674952 0.274296
0.745846 0.724910 0.256657
0.803098 0.739651 0.253422
0.853819 0.747646 0.255131
0.898314 0.750546 0.262547
0.937255 0.749142 0.276219
0.971405 0.744472 0.296574
1.000000 0.737392 0.324895
1.000000 0.737575 0.359869
1.000000 0.754635 0.406134
1.000000 0.773648 0.471778
0.000000 0.711055 0.119631
0.000000 0.714015 0.120882
0.000000 0.717159 0.121798
0.069795 0.719570 0.122377
0.107210 0.721035 0.123384
0.139742 0.721126 0.123598
0.171176 0.720394 0.123568
0.202426 0.719478 0.123812
0.234348 0.718807 0.123720
0.266911 0.718318 0.124361
0.300084 0.718135 0.124941
0.333410 0.717922 0.125582
0.366491 0.716976 0.125643
0.397650 0.710689 0.141878
0.426368 0.702113 0.160861
0.452277 0.692378 0.178775
0.475502 0.681910 0.196689
0.496254 0.670863 0.214420
0.514977 0.659785 0.232517
0.531731 0.648676 0.250523
0.546990 0.638300 0.270665
0.592676 0.663691 0.314122
0.682368 0.714595 0.313787
0.774838 0.763210 0.302464
0.833219 0.781888 0.302953
0.880369 0.790219 0.310399
0.921294 0.793698 0.323949
0.956909 0.793729 0.344762
0.987823 0.791196 0.373999
1.000000 0.786954 0.413245
1.000000 0.781979 0.464393
1.000000 0.798825 0.532250
0.073793 0.753384 0.131014
0.087526 0.756130 0.132326
0.102571 0.758846 0.133700
0.122927 0.761013 0.134951
0.147738 0.762234 0.135531
0.173129 0.762295 0.136202
0.200076 0.761593 0.136294
0.228092 0.760678 0.136294
0.257755 0.759823 0.136477
0.288334 0.759091 0.136782
0.319707 0.758541 0.136995
0.351659 0.758022 0.137697
0.383612 0.757137 0.138369
0.415137 0.755093 0.142245
0.444312 0.747890 0.161715
0.471565 0.740139 0.181064
0.496925 0.732113 0.199954
0.520470 0.723964 0.218997
0.542351 0.716030 0.238560
0.563043 0.708614 0.260410
0.582422 0.701717 0.283574
0.600000 0.695003 0.307469
0.642695 0.717769 0.356512
0.724147 0.763912 0.371588
0.811826 0.808377 0.369451
0.870481 0.829587 0.377325
0.912657 0.837186 0.394293
0.948638 0.840726 0.419196
0.979156 0.841520 0.453437
1.000000 0.840543 0.498543
1.000000 0.838804 0.555169
1.000000 0.838376 0.624140
0.151400 0.804227 0.154788
0.157504 0.805325 0.155276
0.164828 0.806180 0.156008
0.177066 0.806729 0.156893
0.194308 0.806699 0.156924
0.214755 0.806119 0.157107
0.237797 0.805356 0.157168
0.263005 0.804623 0.157168
0.290562 0.804166 0.157839
0.319615 0.803830 0.158602
0.349889 0.803708 0.159670
0.380560 0.803342 0.160769
0.411109 0.802579 0.161471
0.441505 0.801419 0.162295
0.470680 0.797421 0.172885
0.497780 0.790585 0.192172
0.523186 0.783474 0.211368
0.547295 0.776364 0.231327
0.570184 0.769589 0.253605
0.591730 0.762783 0.276280
0.611475 0.756130 0.299565
0.629480 0.749599 0.323674
0.645686 0.742947 0.348119
0.683101 0.760800 0.399054
0.754879 0.800656 0.428962
0.836606 0.840116 0.435187
0.894926 0.862669 0.451148
0.932799 0.869871 0.478309
0.964385 0.873747 0.515190
0.990173 0.875395 0.561730
1.000000 0.875975 0.618189
1.000000 0.877317 0.685267
0.201114 0.841215 0.178500
0.205905 0.842252 0.179507
0.211765 0.843107 0.180545
0.222141 0.843565 0.180941
0.236515 0.843534 0.181643
0.253574 0.842863 0.181704
0.273259 0.842008 0.181460
0.295445 0.841001 0.181216
0.320409 0.840208 0.181949
0.347112 0.839628 0.182467
0.375128 0.839200 0.183627
0.403906 0.838712 0.184939
0.432868 0.837919 0.185855
0.461860 0.836942 0.186954
0.490547 0.835843 0.187961
0.518090 0.830961 0.205783
0.544518 0.825528 0.227634
0.569726 0.820096 0.250034
0.593683 0.814664 0.272862
0.616297 0.809384 0.296513
0.637537 0.804227 0.320897
0.657252 0.799191 0.346227
0.675288 0.794339 0.372351
0.691524 0.789456 0.399603
0.718318 0.797360 0.445716
0.781216 0.831754 0.492744
0.857145 0.866941 0.508476
0.914183 0.890166 0.533989
0.947662 0.897032 0.570855
0.974853 0.901183 0.616785
0.996002 0.904021 0.672541
1.000000 0.906828 0.736202
0.261357 0.881926 0.216678
0.265934 0.882902 0.218204
0.270665 0.883421 0.219059
0.278508 0.883391 0.219272
0.289525 0.882841 0.219211
0.303319 0.881804 0.218753
0.319677 0.880522 0.218021
0.338415 0.878935 0.217105
0.359503 0.877409 0.216709
0.382696 0.875975 0.216495
0.407019 0.874540 0.216556
0.432563 0.873228 0.216922
0.458930 0.871946 0.218326
0.485542 0.870451 0.221195
0.511925 0.868681 0.224125
0.538293 0.866300 0.229679
0.563470 0.860807 0.249912
0.587976 0.855558 0.271244
0.611902 0.850797 0.293797
0.635248 0.846525 0.317906
0.657465 0.842557 0.343297
0.678187 0.838682 0.369421
0.697047 0.834470 0.396521
0.713771 0.829953 0.424231
0.728298 0.825010 0.452430
0.755947 0.834531 0.508812
0.809201 0.863157 0.573388
0.877226 0.893217 0.596979
0.931273 0.915709 0.629450
0.959838 0.922118 0.673121
0.982238 0.926665 0.725093
0.998291 0.930510 0.783108
0.307225 0.909972 0.250767
0.311131 0.910826 0.252476
0.315526 0.911254 0.253452
0.322240 0.911223 0.253941
0.331640 0.910735 0.253727
0.343755 0.909880 0.253422
0.358373 0.908843 0.253025
0.375402 0.907683 0.253239
0.394690 0.906584 0.254582
0.416175 0.905608 0.256504
0.438911 0.904662 0.258885
0.463172 0.903777 0.261997
0.488289 0.902831 0.265476
0.513542 0.901671 0.269108
0.538781 0.900267 0.272709
0.564080 0.898802 0.276524
0.589319 0.896147 0.287144
0.613825 0.891844 0.308446
0.637781 0.887846 0.331334
0.661006 0.884215 0.355810
0.683345 0.880797 0.382025
0.704341 0.877470 0.409766
0.723720 0.874022 0.438819
0.741176 0.870451 0.468666
0.756588 0.866667 0.499275
0.770016 0.862699 0.530388
0.792721 0.869108 0.586999
0.836271 0.892699 0.663600
0.896086 0.918303 0.694545
0.944762 0.938781 0.733425
0.970062 0.945953 0.780026
0.987518 0.950683 0.830014
0.358587 0.936889 0.301762
0.361791 0.937377 0.303044
0.364843 0.937469 0.303838
0.370153 0.937194 0.304051
0.377813 0.936522 0.304021
0.387732 0.935576 0.303899
0.400061 0.934539 0.303868
0.414710 0.933379 0.304387
0.431861 0.932280 0.305516
0.450996 0.931365 0.307591
0.471901 0.930449 0.310246
0.494240 0.929717 0.313909
0.517479 0.928862 0.317906
0.541131 0.927794 0.321965
0.564782 0.926482 0.325994
0.588556 0.925017 0.329992
0.612451 0.923552 0.334600
0.636316 0.920653 0.349889
0.659876 0.917144 0.373114
0.682918 0.913909 0.398566
0.705135 0.910887 0.426215
0.726131 0.907988 0.455604
0.745510 0.905028 0.486213
0.763149 0.902068 0.517967
0.778897 0.898985 0.549828
0.792752 0.895842 0.581201
0.804959 0.892882 0.612512
0.823453 0.897124 0.664149
0.858335 0.916411 0.745144
0.910765 0.938476 0.779965
0.952605 0.955871 0.819120
0.977356 0.964843 0.860533
0.406561 0.958587 0.359106
0.408942 0.958801 0.360082
0.411627 0.958862 0.360876
0.416205 0.958648 0.361364
0.423438 0.958282 0.361975
0.433112 0.957916 0.363256
0.445655 0.957671 0.365698
0.460792 0.957519 0.369055
0.478218 0.957488 0.373602
0.497566 0.957519 0.379278
0.518395 0.957549 0.385779
0.540520 0.957519 0.392828
0.563043 0.957244 0.400122
0.585657 0.956725 0.407141
0.608148 0.955840 0.413672
0.630152 0.954589 0.419471
0.652216 0.953246 0.425513
0.674434 0.951934 0.432380
0.697108 0.949126 0.455146
0.719081 0.946227 0.482887
0.740169 0.943420 0.512871
0.759945 0.940764 0.543908
0.778103 0.938140 0.575189
0.794583 0.935576 0.606409
0.809384 0.933013 0.636988
0.822721 0.930541 0.666957
0.834775 0.928283 0.696376
0.845457 0.926268 0.724758
0.860258 0.928954 0.767086
0.887236 0.943267 0.838346
0.930297 0.960571 0.868223
0.963958 0.973938 0.898192
0.474861 0.981659 0.450172
0.476661 0.981720 0.451026
0.478370 0.981598 0.451270
0.481849 0.981292 0.451240
0.487129 0.980804 0.451209
0.494362 0.980194 0.451606
0.503960 0.979583 0.452796
0.515618 0.978943 0.454932
0.529442 0.978332 0.458137
0.545037 0.977722 0.462348
0.562036 0.977020 0.467109
0.580255 0.976318 0.472755
0.599237 0.975494 0.478859
0.618708 0.974517 0.485054
