data/fiter_cube/80369196/1023065/file.cube
# Created by Adobe Lightroom plugin Export LUT (1.17.0)
# www.johnrellis.com/lightroom/exportlut.htm
# Preset: Dream Travel_03
# Color profile: C:\Program Files (x86)\Common Files\Adobe\Color\Profiles\Recommended\AdobeRGB1998.icc
LUT_3D_SIZE 8
DOMAIN_MIN 0.000000 0.000000 0.000000
DOMAIN_MAX 0.903226 0.903226 0.903226
0.050690 0.079316 0.105989
0.083986 0.081331 0.106081
0.183597 0.071626 0.104524
0.342412 0.000000 0.097414
0.513207 0.000000 0.079896
0.716732 0.000000 0.000000
0.894743 0.000000 0.000000
1.000000 0.194614 0.000000
0.049226 0.102571 0.109804
0.064149 0.100191 0.112825
0.170626 0.100191 0.109407
0.333959 0.029114 0.100832
0.507622 0.000000 0.083009
0.701869 0.000000 0.000000
0.879057 0.000000 0.000000
1.000000 0.225681 0.000000
0.013001 0.187991 0.117281
0.056001 0.187808 0.117678
0.106142 0.172244 0.130526
0.324102 0.198428 0.119387
0.541161 0.144656 0.093202
0.727657 0.140688 0.000000
0.905089 0.236057 0.000000
1.000000 0.369879 0.000000
0.000000 0.346197 0.120821
0.000000 0.344396 0.121126
0.133852 0.347906 0.124117
0.236118 0.330602 0.160983
0.528618 0.425360 0.132601
0.766934 0.380346 0.075929
0.913390 0.432044 0.000000
1.000000 0.514824 0.000000
0.000000 0.556542 0.113283
0.000000 0.555016 0.113405
0.166049 0.555230 0.114168
0.300999 0.546624 0.140108
0.394873 0.503563 0.200168
0.667659 0.623865 0.185946
0.887114 0.638911 0.165225
1.000000 0.657710 0.221592
0.073793 0.753384 0.131014
0.147738 0.762234 0.135531
0.257755 0.759823 0.136477
0.383612 0.757137 0.138369
0.496925 0.732113 0.199954
0.582422 0.701717 0.283574
0.811826 0.808377 0.369451
0.979156 0.841520 0.453437
0.307225 0.909972 0.250767
0.331640 0.910735 0.253727
0.394690 0.906584 0.254582
0.488289 0.902831 0.265476
0.589319 0.896147 0.287144
0.683345 0.880797 0.382025
0.756588 0.866667 0.499275
0.896086 0.918303 0.694545
0.529534 0.995514 0.534234
0.539849 0.994751 0.535668
0.577050 0.992737 0.545403
0.639277 0.990295 0.571069
0.694667 0.981842 0.566735
0.772854 0.976959 0.634821
0.839475 0.969818 0.752560
0.886198 0.963561 0.843412
0.029236 0.085481 0.134432
0.074159 0.083009 0.134066
0.188479 0.060883 0.119997
0.342748 0.000000 0.113832
0.505638 0.000000 0.096986
0.688685 0.000000 0.052064
0.867796 0.000000 0.000000
1.000000 0.162570 0.000000
0.033661 0.105409 0.127871
0.073274 0.111727 0.137911
0.182712 0.107149 0.130678
0.342596 0.037263 0.118563
0.509056 0.000000 0.099886
0.686061 0.000000 0.058289
0.857694 0.000000 0.000000
1.000000 0.196017 0.000000
0.005341 0.191836 0.132784
0.068299 0.199039 0.144259
0.124300 0.186709 0.154513
0.342931 0.189120 0.141878
0.532921 0.144808 0.114473
0.706691 0.117067 0.065553
0.874662 0.191989 0.000000
1.000000 0.341009 0.000000
0.000000 0.348333 0.145052
0.012665 0.349187 0.147524
0.149630 0.355444 0.148592
0.240513 0.325475 0.180545
0.507286 0.395575 0.155367
0.731685 0.348821 0.110842
0.884123 0.395422 0.000000
1.000000 0.488106 0.000000
0.000000 0.558404 0.148775
0.000000 0.555322 0.148409
0.178653 0.551629 0.148501
0.302037 0.536492 0.165713
0.389105 0.490486 0.216526
0.656703 0.606226 0.200900
0.874968 0.619715 0.163394
1.000000 0.642695 0.199802
0.091554 0.745357 0.166201
0.144625 0.745296 0.166629
0.252201 0.743740 0.167208
0.377935 0.744228 0.169619
0.494118 0.724483 0.220401
0.581628 0.697627 0.297093
0.806973 0.802121 0.358618
0.975616 0.833677 0.431891
0.293431 0.899504 0.262608
0.312352 0.897154 0.260166
0.379187 0.894652 0.261234
0.477363 0.893767 0.268711
0.581506 0.889464 0.282689
0.673610 0.872801 0.367407
0.744594 0.856107 0.476081
0.890318 0.911070 0.665858
0.514031 0.992584 0.512535
0.526970 0.992279 0.517205
0.566461 0.990570 0.528893
0.631281 0.988434 0.556359
0.702968 0.984405 0.586084
0.775265 0.977905 0.641688
0.837675 0.968841 0.747005
0.883024 0.961456 0.835264
0.000000 0.105409 0.225467
0.000000 0.098604 0.231449
0.198062 0.083803 0.232425
0.404150 0.000000 0.207309
0.553124 0.000000 0.138888
0.696071 0.000000 0.111788
0.876829 0.000000 0.000000
1.000000 0.000000 0.000000
0.000000 0.149477 0.223758
0.000000 0.131289 0.231632
0.202029 0.122133 0.233982
0.394781 0.000000 0.195254
0.533410 0.000000 0.146456
0.696956 0.000000 0.113985
0.870634 0.000000 0.002502
1.000000 0.099458 0.000000
0.000000 0.205112 0.198917
0.045624 0.211734 0.207553
0.200565 0.233890 0.238651
0.388159 0.200534 0.208408
0.562646 0.142855 0.173251
0.720760 0.071382 0.132021
0.880705 0.129183 0.047669
1.000000 0.298711 0.000000
0.000000 0.363775 0.196201
0.000000 0.377356 0.207828
0.212192 0.398962 0.242527
0.314611 0.374151 0.265660
0.576867 0.403845 0.239597
0.750240 0.365026 0.188022
0.895445 0.393317 0.122438
1.000000 0.478767 0.000000
0.000000 0.569970 0.202090
0.000000 0.577935 0.212741
0.239139 0.585992 0.250645
0.363561 0.580529 0.256443
0.450965 0.533837 0.301091
0.697963 0.623896 0.279728
0.893889 0.600946 0.251652
1.000000 0.641718 0.237583
0.005951 0.756497 0.233005
0.177859 0.759365 0.260258
0.295628 0.757687 0.275090
0.410010 0.754116 0.275151
0.520592 0.736507 0.303868
0.602167 0.707607 0.367987
0.826047 0.809781 0.412604
0.980407 0.829160 0.454200
0.317296 0.906676 0.353155
0.343236 0.905058 0.358160
0.404028 0.900694 0.356512
0.493385 0.896696 0.357824
0.592920 0.892210 0.361608
0.685084 0.876768 0.431586
0.756039 0.862394 0.529320
0.902464 0.918547 0.685939
0.522789 0.992187 0.560266
0.529961 0.991272 0.556237
0.565637 0.989105 0.558587
0.632258 0.988037 0.581567
0.701137 0.983886 0.593988
0.774777 0.978058 0.641138
0.838895 0.969329 0.750454
0.885679 0.962585 0.841611
0.000000 0.143862 0.380163
0.000000 0.127016 0.392676
0.211276 0.117800 0.424079
0.435645 0.000000 0.413642
0.658808 0.000000 0.404791
0.780880 0.000000 0.276768
0.896300 0.000000 0.149966
1.000000 0.000000 0.036622
0.000000 0.196811 0.384588
0.000000 0.174044 0.394629
0.209171 0.157748 0.424598
0.441047 0.090120 0.417243
0.655238 0.000000 0.394934
0.770687 0.000000 0.257786
0.884581 0.000000 0.149294
1.000000 0.000000 0.021118
0.000000 0.296086 0.358709
0.000000 0.296483 0.365606
0.167697 0.258457 0.408789
0.452125 0.260166 0.424659
0.636561 0.127321 0.347509
0.745266 0.000000 0.223270
0.881804 0.000000 0.158663
1.000000 0.018952 0.026520
0.000000 0.385260 0.324193
0.000000 0.391699 0.332586
0.221256 0.418006 0.369482
0.438361 0.449592 0.428229
0.610742 0.391638 0.357610
0.747646 0.341375 0.283726
0.891936 0.334722 0.215213
1.000000 0.413306 0.153140
0.000000 0.587518 0.322728
0.000000 0.591852 0.331945
0.248417 0.611414 0.369482
0.444587 0.630762 0.428809
0.535393 0.594263 0.455848
0.753384 0.627436 0.419806
0.903838 0.592615 0.357031
1.000000 0.626001 0.311925
0.000000 0.770230 0.349798
0.137362 0.779507 0.364996
0.301396 0.784848 0.395697
0.470802 0.785458 0.449897
0.577539 0.774563 0.458503
0.649866 0.740719 0.509758
0.850553 0.815061 0.524010
0.988251 0.808133 0.542992
0.253361 0.911040 0.419837
0.292088 0.912078 0.429541
0.414740 0.912261 0.480049
0.532341 0.908751 0.520684
0.625422 0.903777 0.522698
0.712551 0.889738 0.565148
0.773922 0.871733 0.639094
0.921447 0.926757 0.743465
0.493782 0.996857 0.609491
0.515709 0.995972 0.622980
0.590448 0.990814 0.677424
0.645258 0.987732 0.685206
0.709834 0.983551 0.692164
0.779019 0.979339 0.708278
0.842527 0.970245 0.785000
0.889128 0.963409 0.854185
0.000000 0.210666 0.598688
0.000000 0.188022 0.611872
0.007874 0.175021 0.647272
0.498177 0.132357 0.703822
0.673701 0.000000 0.683253
0.832120 0.181064 0.671778
0.939696 0.000000 0.551080
1.000000 0.000000 0.393072
0.000000 0.261021 0.597406
0.000000 0.240543 0.612177
0.000000 0.209567 0.648219
0.502159 0.195773 0.708370
0.674067 0.128084 0.683864
0.831632 0.239963 0.671565
0.938354 0.000000 0.537102
1.000000 0.000000 0.369421
0.000000 0.382635 0.566339
0.000000 0.381231 0.584009
0.000000 0.320348 0.630671
0.482704 0.329168 0.701289
0.671626 0.308873 0.680598
0.819089 0.318791 0.639246
0.928649 0.000000 0.472419
1.000000 0.000000 0.266148
0.000000 0.501244 0.549004
0.000000 0.501884 0.554772
0.101228 0.503380 0.577844
0.410468 0.472877 0.665217
0.668147 0.503685 0.680446
0.796597 0.375860 0.545708
0.905882 0.000000 0.338506
1.000000 0.105745 0.223117
0.000000 0.588037 0.495155
0.000000 0.592920 0.503441
0.214847 0.606439 0.532036
0.447639 0.641810 0.599908
0.630549 0.663020 0.664729
0.763729 0.580987 0.543816
0.892271 0.521111 0.419318
1.000000 0.538598 0.344671
0.000000 0.763180 0.492470
0.082094 0.765713 0.500603
0.276982 0.771542 0.527123
0.459785 0.783261 0.585870
0.613489 0.788357 0.646601
0.690730 0.765072 0.680323
0.871824 0.798581 0.658076
0.992737 0.775753 0.617914
0.233921 0.908782 0.557610
0.271641 0.908324 0.563073
0.378515 0.908202 0.587854
0.518334 0.909117 0.640955
0.644160 0.905943 0.689631
0.730831 0.897124 0.700649
0.788113 0.876493 0.747402
0.934112 0.923064 0.791836
0.466987 0.993286 0.689845
0.484016 0.992462 0.695033
0.539086 0.989899 0.714137
0.632441 0.988159 0.760861
0.715572 0.982422 0.790219
0.782010 0.978241 0.795956
0.846250 0.970245 0.835660
0.893339 0.962371 0.883848
0.000000 0.316991 0.832731
0.000000 0.294163 0.839017
0.000000 0.258518 0.855192
0.468086 0.266667 0.887846
0.712764 0.287114 0.906767
0.827115 0.265415 0.880919
0.927367 0.423438 0.868650
1.000000 0.432654 0.833799
0.000000 0.357549 0.822171
0.000000 0.335943 0.828214
0.000000 0.283604 0.848142
0.456947 0.297307 0.881804
0.707851 0.322698 0.902647
0.823514 0.303624 0.877348
0.924895 0.447791 0.866880
1.000000 0.434180 0.827451
0.000000 0.493446 0.813931
0.000000 0.477668 0.820645
0.000000 0.413886 0.844907
0.432258 0.397833 0.878294
0.709224 0.450019 0.903685
0.821958 0.431434 0.877989
0.921141 0.537804 0.868956
1.000000 0.451026 0.808591
0.000000 0.604150 0.763363
0.000000 0.600824 0.768338
0.059602 0.595056 0.804898
0.380957 0.540490 0.862028
0.707759 0.612451 0.904662
0.822171 0.600488 0.883909
0.917662 0.633631 0.867430
1.000000 0.458534 0.754726
0.000000 0.715328 0.764157
0.000000 0.714961 0.767330
0.000000 0.711849 0.777859
0.350805 0.702876 0.797574
0.620356 0.691127 0.865324
0.805661 0.723934 0.873503
0.905058 0.609918 0.777005
1.000000 0.352789 0.525048
0.000000 0.773556 0.696742
0.000000 0.777188 0.704036
0.199496 0.781796 0.721279
0.433570 0.788907 0.755306
0.628412 0.808011 0.812680
0.772763 0.823484 0.859098
0.879088 0.749325 0.752377
1.000000 0.713497 0.643458
0.220920 0.913207 0.716365
0.267094 0.914275 0.723690
0.379706 0.914000 0.742885
0.516625 0.913725 0.776822
0.654414 0.913481 0.821500
0.768368 0.911101 0.857145
0.821805 0.892454 0.869627
0.950683 0.911772 0.868406
0.457954 0.992706 0.792721
0.474525 0.991852 0.795682
0.529290 0.989441 0.807340
0.614679 0.986572 0.830686
0.712001 0.982238 0.861143
0.797879 0.977417 0.885496
0.859037 0.972442 0.895262
0.905241 0.963348 0.921843
0.000000 0.457496 0.958495
0.000000 0.438666 0.960693
0.000000 0.383673 0.966979
0.471595 0.402319 0.972503
0.712947 0.455085 0.977386
0.847776 0.483528 0.976867
0.921965 0.483711 0.963378
0.981476 0.629023 0.952880
0.000000 0.495125 0.956817
0.000000 0.476905 0.958923
0.000000 0.405768 0.966033
0.464515 0.424781 0.971160
0.710353 0.479652 0.976349
0.847379 0.511009 0.976318
0.921141 0.508629 0.962982
0.980682 0.643305 0.952819
0.000000 0.599023 0.949340
0.000000 0.585351 0.951507
0.123659 0.532067 0.958923
0.437293 0.496071 0.967559
0.700954 0.553796 0.973205
0.846098 0.593042 0.974487
0.918273 0.584619 0.961730
0.978119 0.688624 0.952789
0.000000 0.712184 0.931975
0.000000 0.707332 0.934264
0.279728 0.688441 0.943328
0.418952 0.622766 0.957427
0.674647 0.644404 0.967376
0.844053 0.699550 0.971710
0.913970 0.684108 0.959960
0.974456 0.752163 0.952819
0.000000 0.802090 0.914611
0.000000 0.799344 0.915129
0.000000 0.788663 0.916930
0.395270 0.771115 0.930755
0.609400 0.729824 0.955596
0.838621 0.796841 0.968536
0.909270 0.782650 0.958404
0.970825 0.817411 0.952972
0.000000 0.890593 0.915435
0.000000 0.889097 0.915984
0.023072 0.883360 0.917876
0.362890 0.871489 0.921263
0.553582 0.851682 0.926452
0.777218 0.842008 0.954925
0.904417 0.866453 0.957122
0.973663 0.808774 0.927153
0.000000 0.922332 0.872160
0.087007 0.921904 0.873716
0.289097 0.919921 0.879149
0.456733 0.916197 0.889067
0.622461 0.911376 0.904784
0.780484 0.915435 0.931151
0.883757 0.921019 0.950439
0.964263 0.875151 0.904112
0.445167 0.991608 0.877562
0.464637 0.991119 0.879484
0.525750 0.989471 0.886015
0.611536 0.986511 0.898253
0.711910 0.982361 0.915740
0.811124 0.978119 0.936584
0.886992 0.974914 0.951690
0.927001 0.966674 0.958892
0.372412 0.662654 1.000000
0.385901 0.651881 1.000000
0.430549 0.611658 1.000000
0.591455 0.618708 1.000000
0.744717 0.648737 1.000000
0.864073 0.694881 1.000000
0.933684 0.694697 1.000000
0.982910 0.694697 0.995056
0.392584 0.684962 1.000000
0.405005 0.674830 1.000000
0.446876 0.637110 1.000000
0.589746 0.632685 1.000000
0.743740 0.661707 1.000000
0.863249 0.706630 1.000000
0.933165 0.707332 1.000000
0.982238 0.705898 0.994659
0.444221 0.750118 1.000000
0.454871 0.742061 1.000000
0.491218 0.711727 1.000000
0.578851 0.674586 1.000000
0.738308 0.701289 1.000000
0.860136 0.742580 1.000000
0.931609 0.746761 1.000000
0.980072 0.741451 0.993439
0.499886 0.834531 0.995453
0.509422 0.828672 0.995941
0.542138 0.806760 0.997742
0.596948 0.764523 1.000000
0.721920 0.753750 1.000000
0.852903 0.790219 0.999237
0.929534 0.801450 0.997833
0.977081 0.791806 0.991791
0.381994 0.898802 0.989441
0.410651 0.895537 0.989776
0.499062 0.884062 0.990967
0.626398 0.866026 0.993072
0.701076 0.822446 0.997284
0.836179 0.835569 0.996826
0.928069 0.858579 0.995422
0.973938 0.847654 0.990173
0.381750 0.952270 0.985901
0.399634 0.950591 0.985962
0.455726 0.944518 0.986206
0.537407 0.932677 0.986755
0.668971 0.911040 0.988678
0.802823 0.881254 0.993500
0.927428 0.910277 0.993317
0.971649 0.901518 0.989075
0.417212 0.998505 0.983307
0.433356 0.997253 0.983368
0.485176 0.992767 0.983520
0.564355 0.984405 0.983825
0.662501 0.971344 0.984344
0.767269 0.953216 0.985107
0.897642 0.936309 0.990356
0.970947 0.947875 0.988983
0.479286 1.000000 0.961517
0.493019 1.000000 0.961791
0.538598 1.000000 0.962829
0.612665 1.000000 0.964813
0.705715 0.992889 0.968048
0.805478 0.983948 0.972839
0.901701 0.977966 0.980621
0.966308 0.978851 0.988525
