data/fiter_cube/21023058/1023012/file.cube
# Created by Adobe Lightroom plugin Export LUT (1.17.0)
# www.johnrellis.com/lightroom/exportlut.htm
# Preset: 温暖焦糖婚礼婚纱_08 云集
# Color profile: C:\Program Files (x86)\Common Files\Adobe\Color\Profiles\Recommended\AdobeRGB1998.icc
LUT_3D_SIZE 5
DOMAIN_MIN 0.000000 0.000000 0.000000
DOMAIN_MAX 0.903226 0.903226 0.903226
0.035798 0.043366 0.032319
0.124147 0.066896 0.054597
0.434760 0.105989 0.093629
0.693202 0.340856 0.230381
0.851713 0.595514 0.522942
0.053986 0.069459 0.050507
0.090974 0.083711 0.061616
0.409979 0.162600 0.084047
0.684077 0.362890 0.221103
0.845945 0.596979 0.513573
0.079164 0.128725 0.075380
0.079744 0.102510 0.065522
0.306950 0.246616 0.136416
0.641566 0.414740 0.192325
0.836484 0.620233 0.503014
0.119051 0.235477 0.116854
0.114137 0.191501 0.097963
0.136721 0.164401 0.086397
0.587182 0.510063 0.346227
0.813993 0.665888 0.521080
0.265629 0.485573 0.269230
0.267887 0.482094 0.265629
0.210483 0.331365 0.157382
0.447120 0.480415 0.266423
0.805966 0.753414 0.659297
0.090394 0.110079 0.164034
0.171328 0.103090 0.143343
0.496437 0.187930 0.171847
0.696376 0.371740 0.235691
0.856413 0.609216 0.534020
0.083925 0.126955 0.131044
0.195193 0.189242 0.184115
0.469795 0.232853 0.160494
0.685847 0.386511 0.223728
0.852811 0.613550 0.528923
0.120119 0.216312 0.149447
0.163088 0.232242 0.153414
0.369329 0.310369 0.197055
0.648951 0.437171 0.213413
0.839872 0.628656 0.510826
0.158816 0.314855 0.177829
0.164584 0.286198 0.155703
0.147005 0.177340 0.094118
0.591302 0.517449 0.357610
0.816953 0.672297 0.529992
0.272465 0.492714 0.275914
0.274662 0.489265 0.272435
0.210727 0.332769 0.158083
0.442512 0.477699 0.263554
0.805722 0.753872 0.660395
0.384497 0.422553 0.570886
0.463233 0.436774 0.572930
0.568322 0.398383 0.513939
0.744167 0.526635 0.544305
0.863371 0.646754 0.605859
0.374456 0.445106 0.546532
0.443824 0.463935 0.564172
0.575128 0.453559 0.531060
0.737148 0.545830 0.547051
0.860716 0.647608 0.596490
0.308385 0.463478 0.489479
0.390417 0.494759 0.512291
0.593652 0.584222 0.578180
0.709071 0.563592 0.506554
0.850950 0.655909 0.566949
0.379767 0.561425 0.496742
0.423651 0.569604 0.503258
0.447852 0.523033 0.435462
0.659541 0.613672 0.529839
0.829313 0.691341 0.560021
0.462226 0.648585 0.526635
0.457771 0.641932 0.513542
0.395209 0.557702 0.382635
0.415686 0.466133 0.259373
0.812039 0.763058 0.673426
0.650660 0.667964 0.757595
0.672358 0.675624 0.760067
0.713069 0.667079 0.750698
0.757351 0.650782 0.716457
0.881987 0.744778 0.769863
0.648219 0.674586 0.751034
0.664698 0.678462 0.755154
0.714076 0.681422 0.753414
0.760037 0.666499 0.722774
0.882628 0.748775 0.770474
0.630640 0.682734 0.734432
0.649226 0.689845 0.738430
0.705013 0.710231 0.755093
0.764248 0.704494 0.736812
0.878660 0.756130 0.763882
0.588190 0.688167 0.702754
0.611810 0.696407 0.708736
0.676631 0.721248 0.727169
0.775509 0.768032 0.765377
0.865080 0.755154 0.714015
0.610620 0.747555 0.711818
0.631403 0.755032 0.718898
0.695308 0.779385 0.741787
0.627680 0.693812 0.611597
0.837034 0.800778 0.741909
0.811215 0.819608 0.884977
0.817777 0.821439 0.885771
0.838529 0.825620 0.885740
0.862974 0.817929 0.881743
0.887602 0.815061 0.867033
0.808225 0.820310 0.882902
0.814084 0.821561 0.883879
0.837888 0.828763 0.885710
0.861723 0.820981 0.881712
0.888060 0.819089 0.868559
0.798734 0.823667 0.877897
0.804074 0.825315 0.878965
0.826352 0.831022 0.883726
0.859831 0.834134 0.884337
0.889952 0.832395 0.873899
0.784573 0.828489 0.870054
0.789578 0.829801 0.870970
0.809873 0.836606 0.876127
0.854246 0.854246 0.889525
0.894652 0.858030 0.885100
0.769039 0.840208 0.860502
0.769039 0.840330 0.859983
0.792691 0.849332 0.867124
0.835874 0.865293 0.878813
0.902037 0.897032 0.902434
