data/fiter_cube/21023058/1023012/file.cube
# Created by Adobe Lightroom plugin Export LUT (1.17.0)
# www.johnrellis.com/lightroom/exportlut.htm
# Preset: 温暖焦糖婚礼婚纱_08 云集
# Color profile: C:\Program Files (x86)\Common Files\Adobe\Color\Profiles\Recommended\AdobeRGB1998.icc
LUT_3D_SIZE 32
DOMAIN_MIN 0.0 0.0 0.0
DOMAIN_MAX 1.0 1.0 1.0
0.035798 0.043366 0.032319
0.037964 0.045319 0.033173
0.042634 0.046815 0.035096
0.052644 0.050568 0.037629
0.065248 0.055329 0.041871
0.079347 0.060578 0.046479
0.098543 0.064057 0.050294
0.124147 0.066896 0.054597
0.155673 0.069520 0.059663
0.192691 0.072145 0.062989
0.235477 0.074372 0.066682
0.283024 0.075990 0.071504
0.333165 0.080354 0.077089
0.384436 0.089479 0.084627
0.434760 0.105989 0.093629
0.482856 0.129610 0.104952
0.527031 0.159579 0.118624
0.566369 0.193301 0.134768
0.601373 0.228519 0.153262
0.633753 0.264805 0.175021
0.664302 0.302373 0.200595
0.693202 0.340856 0.230381
0.720119 0.379278 0.264591
0.744961 0.416663 0.303075
0.767849 0.453193 0.345525
0.788968 0.488991 0.390387
0.809873 0.524376 0.435523
0.830808 0.559838 0.479713
0.851713 0.595514 0.522942
0.871977 0.631617 0.565698
0.891325 0.667628 0.607965
0.909483 0.702541 0.649042
0.036774 0.044343 0.033295
0.037964 0.045319 0.033173
0.042451 0.047730 0.035004
0.052522 0.051484 0.037537
0.064607 0.057313 0.041688
0.079286 0.061067 0.046387
0.098756 0.064912 0.050141
0.124514 0.068025 0.055177
0.156100 0.071351 0.059449
0.193790 0.073854 0.063142
0.237003 0.076387 0.066712
0.285222 0.078523 0.071687
0.335912 0.083223 0.077394
0.387579 0.092744 0.084749
0.438239 0.109377 0.094301
0.486213 0.133944 0.105776
0.530205 0.164187 0.119753
0.569543 0.198123 0.136233
0.604364 0.233219 0.155154
0.636561 0.269627 0.177249
0.666957 0.307134 0.203037
0.695644 0.345403 0.233188
0.722316 0.383398 0.267796
0.746853 0.420539 0.306554
0.769528 0.456672 0.349004
0.790494 0.492134 0.393744
0.811246 0.527337 0.438727
0.832151 0.562524 0.482643
0.852903 0.598047 0.525566
0.873106 0.634028 0.568200
0.892332 0.669825 0.610285
0.910338 0.704555 0.651209
0.037415 0.047517 0.034058
0.038758 0.047333 0.034058
0.041108 0.047913 0.035004
0.051392 0.052552 0.037446
0.064607 0.057313 0.041688
0.078767 0.062104 0.046235
0.098360 0.066285 0.049928
0.124178 0.069398 0.054963
0.156161 0.072847 0.059754
0.193973 0.076020 0.062898
0.237644 0.078828 0.066804
0.285801 0.081544 0.071321
0.336858 0.086580 0.077272
0.388617 0.096590 0.084810
0.439277 0.113588 0.094209
0.487587 0.137819 0.106020
0.531609 0.167971 0.120058
0.570794 0.201724 0.136568
0.605676 0.236606 0.155673
0.637720 0.272984 0.177981
0.668025 0.310155 0.204074
0.696651 0.348119 0.234226
0.723171 0.385901 0.268956
0.747646 0.422766 0.308080
0.770199 0.458686 0.350622
0.791165 0.493996 0.395331
0.811917 0.529046 0.440192
0.832792 0.564141 0.483986
0.853513 0.599573 0.526879
0.873625 0.635401 0.569482
0.892821 0.671077 0.611444
0.910796 0.705776 0.652369
0.041352 0.051362 0.036805
0.041352 0.051362 0.036805
0.043702 0.051911 0.037751
0.048890 0.053773 0.039551
0.062776 0.059632 0.041474
0.077394 0.063813 0.045991
0.096315 0.068513 0.049744
0.121889 0.072511 0.053834
0.154055 0.076356 0.059113
0.192020 0.080537 0.062196
0.235874 0.083955 0.066102
0.284520 0.087617 0.070924
0.335760 0.093751 0.076753
0.387976 0.103731 0.084169
0.439277 0.120577 0.093751
0.487678 0.144564 0.105684
0.531945 0.174533 0.119966
0.571466 0.207492 0.136721
0.606592 0.242313 0.156191
0.638941 0.278508 0.178897
0.669520 0.315679 0.205509
0.698054 0.353185 0.236057
0.724331 0.390265 0.271061
0.748470 0.426276 0.309728
0.770657 0.461463 0.351843
0.791257 0.495857 0.395972
0.811856 0.530327 0.440345
0.832609 0.565026 0.483894
0.853330 0.600244 0.526726
0.873533 0.636133 0.569482
0.892882 0.671931 0.611749
0.911009 0.706813 0.653040
0.044953 0.056092 0.040528
0.046296 0.055940 0.040497
0.046143 0.056825 0.040406
0.050111 0.057069 0.041321
0.058869 0.059785 0.043854
0.073701 0.066285 0.046845
0.093812 0.071534 0.049409
0.119448 0.076631 0.053315
0.151553 0.081819 0.058717
0.189670 0.086488 0.061707
0.233707 0.091585 0.065492
0.282750 0.096651 0.070130
0.334539 0.103517 0.075868
0.386938 0.114260 0.083467
0.438087 0.130709 0.093050
0.486488 0.153872 0.104738
0.530541 0.182254 0.118776
0.569909 0.214176 0.135683
0.605249 0.248051 0.155123
0.637903 0.283543 0.178073
0.668788 0.320256 0.204959
0.697627 0.357610 0.235843
0.724147 0.394232 0.271000
0.748348 0.429725 0.310002
0.770535 0.464240 0.352087
0.791196 0.498329 0.396277
0.811795 0.532403 0.440772
0.832700 0.566888 0.484382
0.853452 0.602075 0.527459
0.873747 0.637873 0.570306
0.893156 0.673579 0.612634
0.911254 0.708339 0.653956
0.047974 0.060273 0.044129
0.048890 0.060670 0.044038
0.048890 0.060670 0.044038
0.051087 0.060487 0.042908
0.058137 0.062196 0.045563
0.067536 0.066468 0.049622
0.087221 0.074434 0.052613
0.113802 0.081270 0.053773
0.145998 0.087495 0.057496
0.183932 0.093874 0.060456
0.227665 0.100038 0.064302
0.276799 0.106691 0.068879
0.328649 0.114595 0.074311
0.381720 0.125643 0.081941
0.433387 0.141726 0.091035
0.482155 0.163912 0.102449
0.526726 0.190982 0.116732
0.566369 0.221561 0.133425
0.602014 0.253971 0.152651
0.635035 0.288487 0.175601
0.666133 0.324285 0.202304
0.695277 0.360571 0.233310
0.707454 0.375433 0.248295
0.733852 0.412055 0.286229
0.758145 0.447974 0.328161
0.780301 0.483162 0.373175
0.801755 0.518212 0.419715
0.823453 0.553643 0.465583
0.845151 0.589624 0.510582
0.866514 0.626337 0.555108
0.887022 0.663447 0.599481
0.906432 0.699916 0.642908
0.050294 0.064271 0.047395
0.051331 0.064179 0.047395
0.051331 0.064179 0.047395
0.053529 0.063996 0.046448
0.058198 0.064515 0.047150
0.064607 0.067384 0.048798
0.076570 0.073335 0.056001
0.101930 0.083589 0.057649
0.132998 0.091707 0.059236
0.169802 0.099245 0.059724
0.211521 0.106661 0.062196
0.258549 0.114260 0.065980
0.309789 0.122927 0.071046
0.363287 0.133974 0.077699
0.416449 0.149233 0.086641
0.467292 0.169894 0.097749
0.514061 0.195193 0.111269
0.555535 0.224155 0.127596
0.592157 0.255161 0.146487
0.625666 0.287694 0.168276
0.656672 0.321294 0.193698
0.685512 0.355322 0.222324
0.711971 0.388983 0.254734
0.736599 0.422217 0.291173
0.759487 0.455177 0.331456
0.780972 0.488655 0.375433
0.802182 0.522698 0.421424
0.823880 0.557519 0.467109
0.845640 0.593164 0.512139
0.867124 0.629786 0.556939
0.887724 0.666682 0.601434
0.907134 0.702937 0.644953
0.053986 0.069459 0.050507
0.055024 0.069368 0.050477
0.055024 0.069368 0.050477
0.057343 0.068788 0.049714
0.059236 0.067750 0.049012
0.064424 0.070314 0.050752
0.073548 0.074647 0.054322
0.090974 0.083711 0.061616
0.123964 0.097169 0.062959
0.161196 0.107729 0.063508
0.203647 0.116976 0.063966
0.250736 0.124941 0.063996
0.302129 0.135073 0.069001
0.356146 0.146792 0.075441
0.409979 0.162600 0.084047
0.461585 0.182681 0.094789
0.509056 0.207340 0.108309
0.551415 0.235111 0.124727
0.588769 0.265110 0.143771
0.622950 0.296727 0.165866
0.654566 0.329625 0.191684
0.684077 0.362890 0.221103
0.711086 0.395911 0.254093
0.736049 0.428534 0.291173
0.759213 0.461006 0.331914
0.780850 0.493812 0.376349
0.802274 0.527306 0.422461
0.824063 0.561730 0.468452
0.845945 0.596979 0.513573
0.867491 0.633295 0.558434
0.888151 0.669947 0.603052
0.907622 0.705989 0.646662
0.058778 0.075654 0.054902
0.059388 0.075196 0.054963
0.059541 0.074800 0.054231
0.060304 0.073915 0.053529
0.061769 0.072602 0.052094
0.064332 0.072633 0.052766
0.072450 0.077699 0.056214
0.085145 0.085084 0.059968
0.110262 0.097475 0.067323
0.150271 0.114076 0.068544
0.193118 0.126864 0.069245
0.240787 0.138033 0.069154
0.292241 0.147890 0.069520
0.345830 0.159487 0.072206
0.400092 0.175448 0.080262
0.452735 0.195438 0.090974
0.501366 0.218936 0.104494
0.544884 0.245792 0.120760
0.583215 0.274540 0.139834
0.618372 0.305119 0.162203
0.650782 0.337133 0.188205
0.681056 0.369940 0.218051
0.708797 0.402258 0.251743
0.734310 0.434211 0.289250
0.757961 0.466133 0.330510
0.779934 0.498390 0.375494
0.801572 0.531456 0.422187
0.823606 0.565484 0.468452
0.845701 0.600458 0.513909
0.867491 0.636561 0.559136
0.888334 0.673091 0.604150
0.907927 0.708980 0.648035
0.061646 0.082185 0.059327
0.062348 0.081788 0.058900
0.062409 0.081453 0.058961
0.063386 0.079988 0.057862
0.064393 0.078492 0.056489
0.065431 0.076234 0.055268
0.071565 0.079957 0.057435
0.082795 0.087312 0.061067
0.101045 0.097841 0.064973
0.134707 0.115053 0.074434
0.181552 0.134829 0.076020
0.230106 0.149783 0.076326
0.282567 0.163241 0.076600
0.336370 0.175845 0.077119
0.389441 0.189151 0.078126
0.441871 0.207553 0.086366
0.491249 0.230045 0.099397
0.535576 0.255253 0.115389
0.575036 0.282811 0.134127
0.611414 0.312627 0.156771
0.645228 0.344213 0.183383
0.676936 0.376898 0.213901
0.706020 0.409216 0.248722
0.732570 0.441077 0.287510
0.756954 0.472663 0.329931
0.779355 0.504356 0.375586
0.801144 0.536706 0.422492
0.823270 0.570092 0.468788
0.845426 0.604456 0.514397
0.867247 0.639857 0.559533
0.888121 0.675868 0.604456
0.907774 0.711391 0.648402
0.065553 0.090211 0.062135
0.065736 0.089601 0.061769
0.065797 0.089296 0.061830
0.066743 0.087648 0.061128
0.067384 0.085420 0.060090
0.068147 0.082399 0.059113
0.070710 0.081727 0.058686
0.080171 0.089235 0.061372
0.096254 0.099702 0.064942
0.120302 0.113375 0.070039
0.163699 0.136233 0.083680
0.216892 0.159121 0.085573
0.270329 0.176486 0.085695
0.325689 0.192355 0.086213
0.380194 0.207950 0.087190
0.432197 0.224125 0.088991
0.480720 0.242039 0.094148
0.526421 0.266300 0.109804
0.567407 0.292943 0.128786
0.604944 0.322087 0.151766
0.639796 0.352728 0.178439
0.672450 0.384405 0.209476
0.702388 0.416083 0.244541
0.729610 0.447242 0.283787
0.754635 0.478187 0.327062
0.777584 0.509270 0.373266
0.799771 0.541222 0.420996
0.822293 0.574182 0.468086
0.844816 0.608362 0.514153
0.866911 0.643580 0.559869
0.888060 0.679408 0.605249
0.907897 0.714687 0.649500
0.069001 0.099306 0.065492
0.068757 0.098543 0.065217
0.069520 0.097658 0.064912
0.070161 0.095674 0.063874
0.070497 0.092866 0.062959
0.070924 0.089570 0.061616
0.071534 0.085512 0.059937
0.078065 0.089845 0.061372
0.091676 0.100130 0.065034
0.112795 0.114199 0.069917
0.142397 0.131014 0.076783
0.196078 0.160342 0.094545
0.240574 0.176181 0.092683
0.295171 0.195163 0.093080
0.350439 0.212955 0.093782
0.404089 0.230167 0.095247
0.454719 0.247990 0.098207
0.500969 0.266361 0.102663
0.543969 0.289647 0.116152
0.584283 0.317754 0.137819
0.621851 0.348150 0.163546
0.656764 0.379858 0.193973
0.689540 0.412299 0.229068
0.719203 0.444129 0.268711
0.746120 0.475532 0.312718
0.770596 0.506889 0.360021
0.793576 0.538750 0.409247
0.816831 0.571862 0.458167
0.840177 0.606226 0.505882
0.863096 0.641779 0.553033
0.885130 0.678157 0.599847
0.905760 0.713954 0.645472
0.071717 0.106874 0.067903
0.071443 0.106416 0.067567
0.072175 0.105348 0.067323
0.072328 0.103609 0.066377
0.073121 0.100710 0.065583
0.073854 0.096651 0.064057
0.073732 0.092164 0.062501
0.075257 0.089631 0.061494
0.086366 0.099306 0.064973
0.104005 0.112428 0.069032
0.130159 0.129366 0.074647
0.164126 0.148074 0.083619
0.225345 0.182406 0.104829
0.285466 0.209110 0.106447
0.341283 0.229587 0.106600
0.395697 0.249027 0.107820
0.447578 0.268009 0.110414
0.495064 0.287083 0.114900
0.537774 0.307012 0.121767
0.577417 0.329076 0.132143
0.616083 0.358740 0.158358
0.652064 0.389868 0.189487
0.685725 0.421454 0.225345
0.716304 0.452583 0.265873
0.744015 0.483223 0.310521
0.769070 0.513970 0.358709
0.792508 0.545190 0.408637
0.816068 0.577722 0.458106
0.839719 0.611658 0.506462
0.862943 0.646754 0.553948
0.885161 0.682673 0.601099
0.905974 0.718196 0.646998
0.075624 0.117647 0.071504
0.075471 0.116793 0.071290
0.075807 0.115877 0.070680
0.076143 0.113405 0.069917
0.076692 0.110140 0.068818
0.077211 0.105531 0.067140
0.077089 0.100252 0.065156
0.076570 0.094362 0.062989
0.082612 0.098482 0.064363
0.097597 0.110811 0.068391
0.120333 0.127443 0.074006
0.152590 0.148714 0.081727
0.192355 0.170779 0.092866
0.265019 0.212985 0.119509
0.328099 0.242374 0.121553
0.385290 0.265629 0.122683
0.438727 0.286656 0.125063
0.487831 0.307012 0.129183
0.532006 0.327306 0.135836
0.572534 0.349065 0.145785
0.610193 0.372076 0.158968
0.646357 0.399481 0.184085
0.681056 0.430274 0.220523
0.712551 0.460578 0.261692
0.741024 0.490547 0.306950
0.766781 0.520500 0.355749
0.790616 0.551049 0.406592
0.814603 0.583001 0.456764
0.838651 0.616510 0.505699
0.862150 0.651148 0.553765
0.884703 0.686732 0.601404
0.905760 0.721981 0.647700
0.079164 0.128725 0.075380
0.079561 0.127718 0.074830
0.079469 0.126741 0.074617
0.079957 0.124117 0.073610
0.080415 0.120363 0.072023
0.080781 0.115389 0.070253
0.080598 0.109255 0.068055
0.079744 0.102510 0.065522
0.079286 0.096529 0.063447
0.091829 0.108583 0.067384
0.111055 0.124239 0.072816
0.138674 0.144503 0.080049
0.177676 0.170169 0.089509
0.223514 0.195926 0.103883
0.306950 0.246616 0.136416
0.371130 0.278019 0.139162
0.427741 0.302861 0.141604
0.478798 0.324804 0.145571
0.524620 0.346288 0.152102
0.566735 0.368353 0.161746
0.605371 0.391180 0.174960
0.641566 0.414740 0.192325
0.675776 0.439307 0.215091
0.708370 0.468910 0.256962
0.737667 0.498116 0.302953
0.763973 0.527214 0.352331
0.788205 0.556664 0.403418
0.812314 0.587732 0.453986
0.836484 0.620233 0.503014
0.860197 0.654108 0.551171
0.882963 0.689052 0.599084
0.904356 0.723873 0.645747
0.083955 0.140230 0.079347
0.083894 0.139162 0.079194
0.083955 0.137942 0.078737
0.084199 0.135195 0.077546
0.084169 0.130922 0.075898
0.084169 0.125307 0.073640
0.083955 0.118746 0.071107
0.083070 0.111055 0.068879
0.081849 0.103273 0.065766
0.086122 0.104952 0.066529
0.102480 0.119661 0.071015
0.126253 0.138979 0.077974
0.159762 0.163485 0.086854
0.206241 0.194491 0.098756
0.258274 0.224430 0.116823
0.350713 0.283421 0.156222
0.414038 0.315587 0.160250
0.468421 0.340978 0.164309
0.516197 0.363684 0.170169
0.559319 0.386236 0.179416
0.598962 0.408667 0.192203
0.635828 0.431373 0.209018
0.670619 0.454536 0.230137
0.702724 0.477760 0.255924
0.732662 0.504234 0.296361
0.759854 0.532586 0.346197
0.784604 0.561334 0.398047
0.809140 0.591699 0.449470
0.833860 0.623743 0.499458
0.858152 0.657374 0.548638
0.881590 0.692317 0.597620
0.903624 0.727352 0.645441
0.088319 0.152773 0.084016
0.088655 0.151797 0.083864
0.088502 0.150362 0.083192
0.088594 0.147280 0.081849
0.088472 0.142580 0.080140
0.088441 0.136629 0.077516
0.087922 0.129213 0.075013
0.086824 0.121157 0.072084
0.085328 0.112398 0.069001
0.082948 0.103395 0.065705
0.095094 0.115023 0.069795
0.115236 0.133120 0.075776
0.144167 0.156374 0.083925
0.184329 0.185580 0.095155
0.238437 0.222110 0.109560
0.295659 0.255406 0.131746
0.393713 0.320928 0.178897
0.454627 0.353185 0.184665
0.506462 0.379492 0.190982
0.551629 0.403235 0.199832
0.592676 0.426093 0.212284
0.630579 0.448554 0.228702
0.666163 0.471290 0.249088
0.698848 0.493660 0.274357
0.728817 0.515923 0.303960
0.756344 0.539635 0.341588
0.781643 0.567559 0.394232
0.806607 0.597162 0.446418
0.831724 0.628565 0.497108
0.856474 0.661769 0.546929
0.880339 0.696284 0.596521
0.902800 0.731044 0.645045
0.093507 0.165682 0.088930
0.093050 0.164431 0.088289
0.091676 0.159243 0.086336
0.091829 0.156191 0.085115
0.091859 0.151522 0.083192
0.091585 0.145510 0.080812
0.091310 0.138125 0.078157
0.090211 0.129763 0.074861
0.088350 0.120760 0.071717
0.086366 0.111360 0.068330
0.088319 0.109285 0.067414
0.104891 0.125277 0.072908
0.128939 0.146304 0.080232
0.162570 0.173159 0.090089
0.208591 0.207034 0.103273
0.268986 0.248447 0.120333
0.329412 0.284123 0.146792
0.430457 0.354131 0.201450
0.488167 0.386145 0.208927
0.537530 0.413123 0.218082
0.580957 0.437324 0.230014
0.620630 0.460395 0.245640
0.657649 0.483253 0.265446
0.691646 0.505730 0.289982
0.722835 0.528069 0.319097
0.751369 0.550622 0.353033
0.777646 0.573693 0.390784
0.803494 0.602441 0.442359
0.829374 0.633631 0.494453
0.854765 0.666499 0.545373
0.879179 0.700740 0.595850
0.902251 0.735470 0.645319
0.098207 0.178653 0.094087
0.097932 0.177127 0.093324
0.097841 0.174990 0.092378
0.097444 0.171237 0.090852
0.097261 0.165774 0.088777
0.096925 0.159091 0.085939
0.095857 0.151156 0.082826
0.094636 0.142184 0.079377
0.093172 0.132113 0.075776
0.090486 0.121798 0.071870
0.087434 0.111238 0.068299
0.097200 0.119509 0.070893
0.117586 0.139315 0.077668
0.146792 0.164584 0.086763
0.187259 0.196933 0.098970
0.241367 0.236820 0.115206
0.310002 0.284276 0.136416
0.375494 0.324163 0.169833
0.474617 0.395850 0.233585
0.527489 0.426307 0.242618
0.573266 0.452308 0.254246
0.614130 0.475807 0.268986
0.652033 0.498512 0.287846
0.686763 0.520623 0.310887
0.718441 0.542260 0.338720
0.747341 0.564080 0.371099
0.773983 0.586419 0.407141
0.800351 0.610559 0.445686
0.826841 0.638941 0.491676
0.852842 0.671412 0.543511
0.877928 0.705440 0.595026
0.901610 0.740078 0.645441
0.104707 0.195560 0.100679
0.104311 0.193851 0.099794
0.104036 0.191592 0.098970
0.103639 0.187625 0.097230
0.103243 0.181888 0.094942
0.102815 0.174594 0.091737
0.101778 0.165957 0.088319
0.100343 0.156191 0.084565
0.098329 0.145357 0.080323
0.095521 0.134096 0.076051
0.092348 0.122194 0.072084
0.090272 0.113619 0.069032
0.107698 0.132082 0.075257
0.133059 0.155795 0.083650
0.168490 0.186282 0.094881
0.216342 0.224643 0.109804
0.278965 0.270726 0.129610
0.353063 0.322179 0.156191
0.422461 0.366552 0.198337
0.516014 0.436957 0.269413
0.564111 0.464973 0.280034
0.606378 0.489265 0.293584
0.645350 0.512383 0.311162
0.681025 0.534447 0.333043
0.713436 0.555962 0.359380
0.742947 0.577295 0.390082
0.770047 0.599084 0.424323
0.796933 0.622675 0.460945
0.824094 0.648341 0.499611
0.851133 0.676936 0.542138
0.876860 0.710842 0.594781
0.900908 0.744930 0.645686
0.111849 0.215244 0.108400
0.111330 0.213291 0.107668
0.110994 0.210849 0.106783
0.110689 0.206546 0.104860
0.110231 0.200320 0.102266
0.109468 0.192599 0.099123
0.108309 0.183474 0.095003
0.106844 0.172732 0.090852
0.104646 0.160922 0.085969
0.101595 0.148501 0.081239
0.098146 0.135622 0.076692
0.093904 0.122621 0.071962
0.099275 0.124605 0.072511
0.121065 0.147036 0.080446
0.152071 0.175753 0.090700
0.194217 0.211978 0.104555
0.250278 0.256565 0.123018
0.320012 0.307591 0.147127
0.395941 0.360418 0.179873
0.466560 0.407233 0.230259
0.551690 0.473396 0.305730
0.595239 0.498512 0.316808
0.634363 0.521111 0.331029
0.671229 0.543450 0.350744
0.704463 0.564721 0.374853
0.734829 0.585779 0.403265
0.762692 0.606897 0.435004
0.789822 0.629725 0.469612
0.817411 0.654719 0.506584
0.845151 0.682124 0.546349
0.872496 0.712123 0.589319
0.897368 0.745418 0.639704
0.119051 0.235477 0.116854
0.119051 0.233768 0.116182
0.118776 0.231601 0.115145
0.118349 0.227390 0.113466
0.117800 0.221073 0.110628
0.117128 0.212833 0.107149
0.115755 0.202945 0.102815
0.114137 0.191501 0.097963
0.111574 0.178714 0.092897
0.108614 0.164889 0.087434
0.104646 0.150759 0.082002
0.100099 0.136324 0.076844
0.094881 0.122499 0.071962
0.110140 0.137636 0.076936
0.136721 0.164401 0.086397
0.173678 0.198581 0.099123
0.223453 0.241032 0.116091
0.287480 0.291234 0.138521
0.362921 0.346471 0.168215
0.439155 0.399603 0.208408
0.509422 0.448463 0.267491
0.587182 0.510063 0.346227
0.627649 0.533898 0.358892
0.664118 0.555291 0.374792
0.698634 0.577111 0.397223
0.729824 0.598169 0.423713
0.758297 0.619104 0.453254
0.785916 0.641382 0.485847
0.813993 0.665888 0.521080
0.842252 0.692805 0.559533
0.870298 0.722133 0.601099
0.896056 0.751675 0.642908
0.128939 0.262150 0.128267
0.128939 0.260227 0.127352
0.128603 0.258000 0.126345
0.128176 0.253452 0.124269
0.127260 0.246799 0.121370
0.126406 0.238102 0.117342
0.125246 0.227329 0.112856
0.123293 0.214969 0.107668
0.120638 0.200961 0.101625
0.117311 0.185824 0.095583
0.113375 0.169924 0.089235
0.108400 0.153994 0.083131
0.102846 0.138155 0.077119
0.101015 0.129519 0.074159
0.124178 0.154635 0.082704
0.156832 0.186801 0.094575
0.201175 0.227604 0.110323
0.259831 0.276738 0.131380
0.331456 0.331884 0.159243
0.410620 0.389593 0.196170
0.483986 0.441291 0.243809
0.551080 0.489662 0.310491
0.621363 0.546319 0.389319
0.658350 0.567895 0.402167
0.693141 0.589532 0.421668
0.725307 0.610895 0.445808
0.754391 0.631739 0.473274
0.782620 0.653773 0.503929
0.811246 0.677943 0.537621
0.840085 0.704402 0.574609
0.868620 0.732906 0.614343
0.894408 0.760861 0.653651
0.139986 0.290532 0.141207
0.139284 0.288701 0.140108
0.139193 0.286259 0.138949
0.138643 0.281743 0.136873
0.138033 0.275029 0.133608
0.136995 0.266148 0.129610
0.135714 0.255039 0.124300
0.133791 0.242100 0.118563
0.131197 0.227054 0.112093
0.127626 0.210697 0.105409
0.123232 0.193393 0.098299
0.118135 0.175692 0.091035
0.112367 0.157717 0.084474
0.105592 0.140475 0.077943
0.113222 0.145205 0.079469
0.142336 0.175998 0.090547
0.182437 0.215335 0.105440
0.236271 0.264103 0.125338
0.304356 0.319707 0.152010
0.382025 0.378515 0.187442
0.461921 0.436652 0.232700
0.529686 0.484779 0.287358
0.593042 0.532097 0.360021
0.656550 0.583948 0.436194
0.689784 0.603632 0.449866
0.719081 0.621210 0.466072
0.749233 0.642451 0.491707
0.778256 0.664637 0.520806
0.807675 0.688685 0.553155
0.837247 0.714900 0.588861
0.866026 0.742306 0.626246
0.892393 0.769467 0.663905
0.154574 0.322789 0.156863
0.154391 0.322484 0.156649
0.154513 0.322606 0.156771
0.154147 0.318547 0.154543
0.153140 0.311559 0.150973
0.151949 0.302281 0.146151
0.150393 0.290623 0.140261
0.147646 0.276890 0.133669
0.145022 0.260624 0.126467
0.141176 0.242679 0.118227
0.136507 0.223545 0.110018
0.130800 0.203281 0.101778
0.124208 0.183017 0.093782
0.116976 0.163027 0.086030
0.109041 0.144015 0.079194
0.129335 0.165347 0.086549
0.165133 0.202914 0.100679
0.213870 0.250187 0.119417
0.277287 0.305516 0.144442
0.352697 0.365270 0.177829
0.432990 0.425147 0.221592
0.510033 0.481209 0.274479
0.571557 0.525414 0.334051
0.631342 0.571496 0.409644
0.687221 0.617853 0.479713
0.717006 0.635798 0.493538
0.743069 0.651545 0.509209
0.772671 0.673518 0.536248
0.802670 0.697475 0.567010
0.833036 0.723384 0.600977
0.862089 0.749569 0.635889
0.889158 0.776211 0.672053
0.172610 0.357336 0.175540
0.172549 0.357214 0.175296
0.172610 0.357336 0.175540
0.173129 0.358190 0.175967
0.172732 0.353887 0.173556
0.171054 0.344823 0.167941
0.169009 0.333104 0.161440
0.166293 0.318914 0.153719
0.162875 0.302129 0.145083
0.158663 0.283085 0.135866
0.153292 0.262089 0.126101
0.147311 0.239475 0.116426
0.140261 0.216464 0.106844
0.132235 0.193240 0.097505
0.123568 0.171054 0.088930
0.118990 0.156527 0.083528
0.151339 0.192844 0.096803
0.196017 0.239017 0.114687
0.255406 0.294469 0.138766
0.328222 0.355383 0.171206
0.408545 0.417365 0.214084
0.488075 0.475441 0.266789
0.559228 0.527886 0.325780
0.614313 0.568048 0.387762
0.669368 0.611719 0.461799
0.717281 0.652155 0.525078
0.743923 0.668544 0.539361
0.768643 0.684108 0.555261
0.798795 0.707301 0.583337
0.829953 0.732998 0.615503
0.859312 0.758297 0.648035
0.887053 0.784390 0.682765
0.197147 0.397772 0.200473
0.197147 0.397772 0.200473
0.197299 0.397986 0.200626
0.197818 0.398810 0.201205
0.198642 0.400092 0.201999
0.197238 0.393835 0.197665
0.194247 0.381842 0.189670
0.190402 0.367010 0.180148
0.185672 0.349218 0.169650
0.180026 0.329046 0.158297
0.173678 0.306493 0.146517
0.166629 0.281895 0.134829
0.158694 0.256168 0.123140
0.149935 0.230014 0.111940
0.140505 0.204196 0.101503
0.130404 0.179538 0.091798
0.137514 0.181155 0.092287
0.177584 0.225406 0.109102
0.231846 0.279637 0.131655
0.300877 0.340795 0.162020
0.379797 0.404089 0.203159
0.460975 0.464759 0.254704
0.535546 0.519310 0.313664
0.601099 0.568261 0.375494
0.650507 0.604791 0.436042
0.700160 0.645136 0.506737
0.741726 0.680934 0.564446
0.767544 0.697353 0.579278
0.792203 0.713344 0.595514
0.822202 0.736568 0.622827
0.852567 0.761776 0.653956
0.881559 0.787930 0.687648
0.224430 0.436591 0.228092
0.224430 0.436591 0.228092
0.224796 0.436957 0.228489
0.225437 0.437934 0.229099
0.226749 0.439551 0.230411
0.228183 0.441566 0.231968
0.225925 0.433356 0.225467
0.221744 0.419989 0.215244
0.216526 0.403754 0.203433
0.210422 0.384497 0.190402
0.203342 0.362707 0.176577
0.195468 0.338262 0.162478
0.186618 0.311803 0.148409
0.177035 0.283604 0.134646
