data/fiter_cube/21023058/1023012/file.cube
# Created by Adobe Lightroom plugin Export LUT (1.17.0)
# www.johnrellis.com/lightroom/exportlut.htm
# Preset: 温暖焦糖婚礼婚纱_08 云集
# Color profile: C:\Program Files (x86)\Common Files\Adobe\Color\Profiles\Recommended\AdobeRGB1998.icc
LUT_3D_SIZE 8
DOMAIN_MIN 0.000000 0.000000 0.000000
DOMAIN_MAX 0.903226 0.903226 0.903226
0.035798 0.043366 0.032319
0.065248 0.055329 0.041871
0.155673 0.069520 0.059663
0.333165 0.080354 0.077089
0.527031 0.159579 0.118624
0.664302 0.302373 0.200595
0.767849 0.453193 0.345525
0.851713 0.595514 0.522942
0.044953 0.056092 0.040528
0.058869 0.059785 0.043854
0.151553 0.081819 0.058717
0.334539 0.103517 0.075868
0.530541 0.182254 0.118776
0.668788 0.320256 0.204959
0.770535 0.464240 0.352087
0.853452 0.602075 0.527459
0.058778 0.075654 0.054902
0.061769 0.072602 0.052094
0.110262 0.097475 0.067323
0.292241 0.147890 0.069520
0.501366 0.218936 0.104494
0.650782 0.337133 0.188205
0.757961 0.466133 0.330510
0.845701 0.600458 0.513909
0.071717 0.106874 0.067903
0.073121 0.100710 0.065583
0.086366 0.099306 0.064973
0.225345 0.182406 0.104829
0.447578 0.268009 0.110414
0.616083 0.358740 0.158358
0.744015 0.483223 0.310521
0.839719 0.611658 0.506462
0.088319 0.152773 0.084016
0.088472 0.142580 0.080140
0.085328 0.112398 0.069001
0.144167 0.156374 0.083925
0.393713 0.320928 0.178897
0.592676 0.426093 0.212284
0.728817 0.515923 0.303960
0.831724 0.628565 0.497108
0.111849 0.215244 0.108400
0.110231 0.200320 0.102266
0.104646 0.160922 0.085969
0.099275 0.124605 0.072511
0.250278 0.256565 0.123018
0.551690 0.473396 0.305730
0.704463 0.564721 0.374853
0.817411 0.654719 0.506584
0.154574 0.322789 0.156863
0.153140 0.311559 0.150973
0.145022 0.260624 0.126467
0.124208 0.183017 0.093782
0.165133 0.202914 0.100679
0.432990 0.425147 0.221592
0.687221 0.617853 0.479713
0.802670 0.697475 0.567010
0.265629 0.485573 0.269230
0.268315 0.488624 0.271977
0.261753 0.467597 0.252628
0.226596 0.380377 0.186465
0.182986 0.265019 0.125338
0.364263 0.417517 0.210910
0.649744 0.630152 0.454108
0.805966 0.753414 0.659297
0.058381 0.064424 0.067781
0.072724 0.063844 0.065522
0.186252 0.081758 0.074861
0.343023 0.106874 0.080720
0.532433 0.186435 0.119265
0.671931 0.325292 0.207889
0.773129 0.467964 0.357397
0.856504 0.606165 0.533471
0.054597 0.067048 0.062745
0.078767 0.080476 0.074037
0.177218 0.097841 0.074952
0.335332 0.122530 0.077913
0.529442 0.200565 0.117067
0.671412 0.335454 0.207523
0.774441 0.476112 0.361059
0.858335 0.612696 0.538048
0.066865 0.090150 0.070161
0.082948 0.104372 0.077852
0.131685 0.116152 0.081971
0.297795 0.160403 0.074830
0.505516 0.233585 0.104433
0.656184 0.352544 0.193210
0.765438 0.482277 0.346166
0.852018 0.612970 0.527428
0.084779 0.136599 0.087739
0.093111 0.138827 0.087465
0.096895 0.112245 0.071931
0.237003 0.192966 0.110414
0.464729 0.288029 0.120363
0.629053 0.378729 0.168551
0.753109 0.499306 0.327977
0.846281 0.623560 0.520226
0.104402 0.187167 0.105623
0.105776 0.177127 0.099458
0.092866 0.124117 0.074617
0.150729 0.162417 0.086091
0.405921 0.333349 0.188510
0.600366 0.437690 0.223606
0.733944 0.525536 0.316808
0.836088 0.636225 0.506432
0.125216 0.244022 0.125154
0.122072 0.224399 0.115358
0.107729 0.164828 0.088045
0.102419 0.128542 0.073915
0.256809 0.263005 0.125643
0.555627 0.478462 0.312169
0.707240 0.569574 0.381903
0.820768 0.660487 0.514611
0.158999 0.330999 0.161166
0.157168 0.316716 0.153231
0.147768 0.264439 0.127810
0.125521 0.184756 0.094453
0.169009 0.207492 0.102480
0.439429 0.431647 0.226810
0.691981 0.623865 0.488045
0.807523 0.704158 0.576287
0.272770 0.493141 0.276341
0.274846 0.495186 0.278386
0.267094 0.473671 0.257694
0.231174 0.386542 0.190249
0.181094 0.262089 0.124147
0.362188 0.415778 0.209537
0.651362 0.632105 0.456703
0.808255 0.756100 0.662806
0.108370 0.135134 0.213840
0.147738 0.140627 0.220401
0.222477 0.125612 0.185702
0.454566 0.184360 0.226047
0.574456 0.254032 0.219913
0.675044 0.353887 0.251102
0.767666 0.471168 0.348119
0.854429 0.606897 0.530144
0.113863 0.150240 0.202701
0.144411 0.159640 0.219669
0.234318 0.154971 0.201755
0.454475 0.220859 0.237888
0.573205 0.272068 0.222599
0.674464 0.362860 0.250187
0.768307 0.477699 0.350408
0.855009 0.610986 0.531975
0.100587 0.160800 0.170382
0.129183 0.178378 0.186099
0.255375 0.247318 0.243107
0.415930 0.262821 0.217044
0.548821 0.298650 0.204532
0.659815 0.376287 0.231510
0.761837 0.486854 0.340703
0.851896 0.616510 0.528069
0.122774 0.215732 0.176516
0.146761 0.232212 0.188205
0.212833 0.261631 0.201266
0.343053 0.299413 0.224033
0.508019 0.340490 0.193301
0.632563 0.396612 0.198703
0.749020 0.501366 0.321630
0.845243 0.624994 0.518914
0.145785 0.273838 0.187259
0.161532 0.282292 0.191714
0.193606 0.280034 0.182986
0.193149 0.215183 0.131380
0.448524 0.383520 0.253147
0.604150 0.451026 0.247105
0.732876 0.532128 0.325322
0.836698 0.639368 0.508171
0.170352 0.331914 0.203037
0.179873 0.333501 0.202792
0.189181 0.307469 0.179324
0.130861 0.171298 0.098573
0.282628 0.291844 0.150423
0.557916 0.483955 0.318151
0.709743 0.576959 0.393500
0.822080 0.664729 0.520317
0.204013 0.403571 0.231907
0.208316 0.400397 0.227573
0.200687 0.358343 0.191165
0.149081 0.225162 0.114992
0.174136 0.213931 0.105196
0.442786 0.435828 0.230320
0.691615 0.625422 0.491524
0.806790 0.704738 0.577264
0.287785 0.508446 0.295964
0.287205 0.507866 0.293492
0.275944 0.484047 0.267185
0.237705 0.396796 0.196902
0.187259 0.272801 0.128542
0.360204 0.415686 0.209262
0.650080 0.632288 0.456641
0.807950 0.756558 0.663966
0.273198 0.319127 0.480171
0.313329 0.329412 0.484382
0.398779 0.318944 0.471962
0.474800 0.294255 0.418616
0.639094 0.399542 0.452857
0.713436 0.458656 0.454139
0.781003 0.523980 0.475288
0.860288 0.624964 0.558709
0.271489 0.329534 0.462501
0.299535 0.334356 0.470680
0.396796 0.341222 0.472786
0.477424 0.317418 0.425879
0.637964 0.412421 0.456367
0.711177 0.465034 0.453315
0.780209 0.527855 0.474525
0.860166 0.626825 0.557519
0.255894 0.350256 0.438056
0.286534 0.362860 0.446937
0.385779 0.398962 0.478218
0.491402 0.394568 0.454841
0.628962 0.457038 0.470069
0.697597 0.475959 0.439796
0.770108 0.527733 0.455573
0.854429 0.625605 0.543816
0.214298 0.359442 0.388190
0.245029 0.374182 0.399756
0.348241 0.421912 0.436500
0.504936 0.495613 0.491859
0.597803 0.485298 0.445930
0.679377 0.495064 0.416175
0.761501 0.541711 0.436286
0.848966 0.633936 0.531304
0.210971 0.393530 0.354498
0.249027 0.416144 0.374853
0.367620 0.476509 0.431586
0.422889 0.468757 0.410773
0.549798 0.512047 0.450050
0.650843 0.523095 0.401587
0.743679 0.555230 0.397925
0.839902 0.645747 0.515190
0.282170 0.476967 0.387304
0.295293 0.477729 0.387274
0.338689 0.483925 0.389746
0.354345 0.449866 0.342077
0.340887 0.365301 0.245762
0.612970 0.558679 0.454505
0.721309 0.599145 0.446387
0.826047 0.672145 0.530541
0.313970 0.525231 0.396582
0.320470 0.523705 0.393774
0.335241 0.513695 0.377203
0.312413 0.454231 0.300511
0.174044 0.226078 0.125948
0.457618 0.458900 0.277104
0.695155 0.633600 0.506676
0.810880 0.711299 0.586481
0.391913 0.597467 0.442908
0.389776 0.595850 0.439155
0.383520 0.583917 0.416785
0.343175 0.525444 0.331029
0.233127 0.347936 0.171786
0.347143 0.407813 0.203220
0.646387 0.631739 0.455421
0.808804 0.758785 0.667597
0.478737 0.508690 0.638514
0.493599 0.511528 0.639918
0.545037 0.520897 0.639338
0.598413 0.501457 0.625635
0.638056 0.484840 0.585138
0.738918 0.575616 0.614282
0.798947 0.612024 0.623651
0.867277 0.673976 0.657313
0.477211 0.514244 0.631861
0.488350 0.514397 0.632898
0.543328 0.528923 0.637476
0.597650 0.512810 0.626734
0.639551 0.497047 0.588922
0.738003 0.580468 0.615534
0.797330 0.616022 0.624903
0.866728 0.674556 0.655482
0.466926 0.527276 0.617060
0.481422 0.532250 0.619440
0.528527 0.544366 0.631922
0.596704 0.549126 0.631769
0.644831 0.535943 0.601801
0.736233 0.597528 0.620874
0.792966 0.624750 0.623163
0.865843 0.677577 0.649622
0.441230 0.535332 0.596368
0.457923 0.541466 0.600275
0.509911 0.560937 0.612390
0.587793 0.590906 0.633875
0.650202 0.589685 0.619409
0.727718 0.617334 0.622065
0.782956 0.625940 0.603998
0.861814 0.676478 0.629877
0.401282 0.542901 0.563928
0.419165 0.548760 0.568200
0.477455 0.569757 0.583368
0.563836 0.604883 0.609125
0.657862 0.649226 0.642054
0.706294 0.627039 0.597467
0.768673 0.627375 0.570520
0.854337 0.682033 0.606958
0.357641 0.553216 0.525475
0.385412 0.563684 0.535180
0.469062 0.597162 0.566491
0.576623 0.643214 0.610590
0.579156 0.610071 0.563928
0.680140 0.651179 0.604211
0.748287 0.648066 0.557733
0.840787 0.691981 0.579553
0.482704 0.648249 0.584680
0.491493 0.649714 0.585779
0.514153 0.650690 0.584802
0.529442 0.639002 0.566003
0.485389 0.570733 0.472450
0.471290 0.492317 0.362249
0.726345 0.683101 0.602350
0.825437 0.730861 0.621241
0.528466 0.691951 0.600183
0.527703 0.691432 0.598260
0.531029 0.687190 0.589410
0.519493 0.665705 0.553674
0.453315 0.592065 0.440375
0.260655 0.341466 0.177371
0.641199 0.635950 0.472755
0.812619 0.764462 0.674678
0.616419 0.635218 0.731044
0.622583 0.636530 0.732052
0.654749 0.650690 0.736172
0.677333 0.642115 0.729397
0.714534 0.630121 0.721004
0.735256 0.621393 0.691646
0.818662 0.695705 0.729030
0.879332 0.725032 0.745083
0.620447 0.642084 0.731685
0.626703 0.643641 0.733028
0.655451 0.655299 0.737362
0.680049 0.649683 0.731930
0.715816 0.637446 0.723293
0.736751 0.628382 0.694606
0.819089 0.698421 0.730312
0.879606 0.726467 0.745357
0.613855 0.647120 0.722408
0.620569 0.649165 0.724239
0.642329 0.655146 0.729854
0.679500 0.663874 0.732296
0.713924 0.653834 0.725063
0.738064 0.645533 0.700130
0.817868 0.703975 0.730983
0.878325 0.730190 0.744564
0.601251 0.651240 0.712062
0.609003 0.654505 0.713863
0.632593 0.664088 0.718807
0.667628 0.674617 0.727535
0.709560 0.676997 0.726894
0.738827 0.669764 0.707393
0.813748 0.709529 0.728145
0.873869 0.737270 0.742275
0.583673 0.657649 0.699245
0.591333 0.660273 0.700710
0.616602 0.669581 0.706050
0.656275 0.685634 0.716091
0.705653 0.706203 0.733425
0.746670 0.705196 0.723659
0.809201 0.717708 0.722896
0.870878 0.737148 0.722225
0.556756 0.664912 0.680293
0.564416 0.666896 0.681544
0.592615 0.676173 0.687892
0.636805 0.692256 0.699275
0.690608 0.715480 0.717037
0.752987 0.745632 0.741238
0.786770 0.719478 0.694484
0.860807 0.737148 0.688899
0.521355 0.677241 0.658503
0.529686 0.679438 0.660212
0.559808 0.688563 0.667597
0.619348 0.708675 0.685878
0.691218 0.738949 0.715053
0.669612 0.694423 0.654047
0.768551 0.743954 0.705501
0.846677 0.760464 0.685298
0.611109 0.744808 0.700923
0.613519 0.746181 0.701686
0.640040 0.755673 0.711788
0.664942 0.761624 0.715663
0.663447 0.745876 0.689357
0.590784 0.672938 0.575097
0.609155 0.627436 0.497200
0.830411 0.790829 0.723262
0.723140 0.738613 0.821103
0.726864 0.739742 0.822263
0.742763 0.745785 0.824186
0.759701 0.745418 0.821958
0.779202 0.738277 0.816709
0.808469 0.728725 0.810208
0.819394 0.722774 0.785367
0.886595 0.792966 0.827543
0.720394 0.737789 0.817960
0.724056 0.738857 0.819089
0.738338 0.743587 0.821439
0.758083 0.745998 0.820645
0.776974 0.738460 0.815030
0.805753 0.728420 0.808133
0.817197 0.722164 0.783444
0.885344 0.792081 0.825986
0.719203 0.743069 0.815274
0.722164 0.743557 0.815946
0.732631 0.745296 0.818296
0.758572 0.754177 0.821805
0.776516 0.746700 0.816251
0.804929 0.737423 0.809995
0.819394 0.732113 0.788022
0.887449 0.800229 0.830777
0.713405 0.747829 0.809598
0.716365 0.748867 0.810208
0.726741 0.751675 0.812406
0.747280 0.756527 0.818296
0.776944 0.761746 0.819913
0.804685 0.753872 0.814755
0.823209 0.748592 0.795895
0.888792 0.806577 0.833158
0.700954 0.748409 0.799039
0.703578 0.749081 0.799374
0.714137 0.752560 0.801755
0.734157 0.760220 0.807675
0.764889 0.769986 0.817716
0.800504 0.771786 0.817960
0.824796 0.766201 0.802426
0.888487 0.810025 0.831083
0.685969 0.750973 0.786313
0.689204 0.752132 0.787198
0.700618 0.756374 0.790433
0.721187 0.764462 0.796963
0.751675 0.776822 0.807218
0.795743 0.795102 0.823941
0.831571 0.795346 0.816831
0.886687 0.811307 0.822507
0.669123 0.756374 0.772183
0.672908 0.757931 0.773526
0.684504 0.762356 0.776974
0.705013 0.770413 0.783474
0.735622 0.782528 0.793149
0.780362 0.801816 0.809049
0.837613 0.829709 0.832761
0.873259 0.808438 0.790402
0.655421 0.774258 0.766873
0.658015 0.775174 0.767483
0.670497 0.780758 0.772122
0.688685 0.787991 0.777127
0.722927 0.801663 0.787869
0.784970 0.828428 0.813901
0.742428 0.770993 0.730190
0.858640 0.834714 0.806088
0.811215 0.819608 0.884977
0.813260 0.820218 0.885435
0.820768 0.822751 0.885985
0.834287 0.827237 0.886656
0.843748 0.823575 0.884611
0.858244 0.818997 0.882231
0.879973 0.814603 0.880400
0.887602 0.815061 0.867033
0.809598 0.819120 0.883879
0.811643 0.819760 0.884337
0.818570 0.821805 0.885161
0.833433 0.827481 0.886137
0.842893 0.823880 0.884123
0.857450 0.819364 0.881834
0.879179 0.814847 0.879973
0.887419 0.815702 0.867094
0.806882 0.820310 0.882078
0.808682 0.820737 0.882444
0.814328 0.821622 0.883177
0.830747 0.828763 0.885832
0.842741 0.827878 0.884703
0.856718 0.823209 0.882292
0.878447 0.819089 0.880705
0.888029 0.820066 0.868803
0.802121 0.823148 0.879759
0.804166 0.823697 0.880247
0.810239 0.824796 0.881254
0.822507 0.828061 0.883909
0.842954 0.835386 0.886320
0.856718 0.831388 0.884337
0.878141 0.827726 0.883116
0.889311 0.827756 0.872038
0.794858 0.824277 0.875731
0.796872 0.825071 0.876310
0.802487 0.826841 0.877501
0.813443 0.830686 0.880308
0.832395 0.835904 0.884703
0.855528 0.841459 0.886687
0.877104 0.839048 0.886137
0.890990 0.838346 0.876432
0.785702 0.826535 0.870573
0.787045 0.826810 0.870726
0.792325 0.828244 0.871733
0.803128 0.831785 0.874418
0.820676 0.838407 0.879423
0.848783 0.849546 0.888090
0.877684 0.856321 0.891814
0.894072 0.853941 0.883452
0.775570 0.831357 0.865019
0.776974 0.831724 0.865263
0.782406 0.833249 0.866361
0.793606 0.837034 0.869322
0.811612 0.843656 0.874388
0.838285 0.854795 0.882750
0.873655 0.871244 0.895079
0.897154 0.872679 0.891417
0.769039 0.840208 0.860502
0.768521 0.840024 0.860136
0.771145 0.841093 0.860594
0.783749 0.845914 0.864378
0.803159 0.853300 0.870146
0.828092 0.862303 0.876646
0.862791 0.876677 0.887144
0.902037 0.897032 0.902434
