data/fiter_cube/67355442/1023285/file.cube
# Created by Adobe Lightroom plugin Export LUT (1.17.0)
# www.johnrellis.com/lightroom/exportlut.htm
# Preset: 日系A通透明亮[云集]-2 复古
# Color profile: C:\Program Files (x86)\Common Files\Adobe\Color\Profiles\Recommended\AdobeRGB1998.icc
LUT_3D_SIZE 8
DOMAIN_MIN 0.000000 0.000000 0.000000
DOMAIN_MAX 0.903226 0.903226 0.903226
0.000000 0.000000 0.000000
0.081880 0.038544 0.024811
0.289952 0.000000 0.030610
0.571160 0.000000 0.000000
0.780575 0.000000 0.000000
0.917021 0.135042 0.000000
0.994202 0.295933 0.000000
1.000000 0.425605 0.180240
0.000000 0.073426 0.063752
0.067079 0.082918 0.054597
0.265507 0.082124 0.033783
0.545525 0.000000 0.000000
0.767391 0.000000 0.000000
0.904326 0.183810 0.000000
0.987427 0.312688 0.000000
1.000000 0.434791 0.167788
0.000000 0.178927 0.109621
0.000000 0.194461 0.106325
0.226902 0.228000 0.074769
0.507469 0.242069 0.000000
0.750088 0.268650 0.000000
0.894163 0.324102 0.000000
0.984894 0.410986 0.000000
1.000000 0.496712 0.166506
0.000000 0.353460 0.185672
0.000000 0.364324 0.183169
0.145754 0.394446 0.154604
0.489021 0.456153 0.109743
0.738979 0.471595 0.059388
0.877958 0.485115 0.079377
0.970489 0.531395 0.153109
1.000000 0.587488 0.239231
0.000000 0.549523 0.308324
0.000000 0.558129 0.307774
0.062409 0.585504 0.308843
0.376532 0.606348 0.268833
0.691066 0.653498 0.229892
0.852659 0.642512 0.223056
0.944518 0.650294 0.251469
1.000000 0.688838 0.341192
0.000000 0.724025 0.447791
0.000000 0.733242 0.452918
0.000000 0.743771 0.456397
0.393927 0.755428 0.468818
0.583246 0.758511 0.428077
0.820768 0.789609 0.413001
0.929442 0.782742 0.428260
0.989563 0.787320 0.471260
0.000000 0.860044 0.579370
0.000000 0.862058 0.581048
0.000000 0.862913 0.587243
0.415015 0.861051 0.613611
0.590417 0.859495 0.601099
0.750088 0.861295 0.600519
0.901640 0.875456 0.599878
0.970581 0.868467 0.618952
0.000000 0.947021 0.699184
0.000000 0.947448 0.698878
0.000000 0.946807 0.704494
0.483864 0.937804 0.734432
0.683955 0.924987 0.762387
0.766079 0.924559 0.748745
0.865629 0.928496 0.755825
0.953887 0.935393 0.757717
0.000000 0.027344 0.082979
0.084443 0.020600 0.089662
0.277256 0.000000 0.087526
0.548913 0.000000 0.075959
0.767910 0.000000 0.002319
0.901366 0.164004 0.000000
0.985229 0.303441 0.060456
1.000000 0.420203 0.164401
0.000000 0.077058 0.090425
0.068086 0.090578 0.098177
0.261692 0.098421 0.099184
0.535576 0.021607 0.082155
0.759518 0.084413 0.023957
0.894133 0.207980 0.000000
0.979706 0.322423 0.069917
1.000000 0.429053 0.151705
0.000000 0.182101 0.135164
0.000000 0.200107 0.141146
0.231815 0.232547 0.125338
0.501335 0.248936 0.103365
0.738247 0.276402 0.076997
0.882414 0.329412 0.080598
0.974273 0.409552 0.126833
1.000000 0.495399 0.200076
0.000000 0.351690 0.212375
0.000000 0.364446 0.215274
0.176699 0.397742 0.201816
0.474678 0.443397 0.167025
0.713161 0.454688 0.138735
0.859983 0.473030 0.148501
0.959350 0.522881 0.196872
1.000000 0.584619 0.271000
0.000000 0.550774 0.337407
0.000000 0.557549 0.336675
0.095430 0.580804 0.337591
0.379187 0.598291 0.300389
0.677638 0.641016 0.268833
0.841154 0.634211 0.262028
0.937865 0.646998 0.287266
1.000000 0.687800 0.367407
0.000000 0.718471 0.464179
0.000000 0.722347 0.464668
0.000000 0.733333 0.468116
0.404364 0.746761 0.491005
0.580896 0.752193 0.449897
0.816129 0.786923 0.442908
0.924804 0.781552 0.454170
0.985809 0.786130 0.488594
0.000000 0.852720 0.584344
0.000000 0.852781 0.584009
0.000000 0.855100 0.590692
0.408026 0.855833 0.617029
0.591058 0.856291 0.610681
0.746517 0.857786 0.609613
0.897032 0.872007 0.607965
0.967010 0.865568 0.623590
0.000000 0.944427 0.701595
0.000000 0.945312 0.702022
0.000000 0.944884 0.707790
0.477028 0.936400 0.736599
0.689937 0.926818 0.771145
0.770230 0.925170 0.757809
0.864958 0.927794 0.761166
0.952331 0.934447 0.761532
0.000000 0.061463 0.173953
0.025360 0.057679 0.190768
0.302770 0.000000 0.206943
0.570977 0.000000 0.187839
0.776364 0.086213 0.222354
0.900206 0.263493 0.254337
0.981079 0.379004 0.285924
1.000000 0.476417 0.325658
0.000000 0.100130 0.174868
0.046876 0.107942 0.194217
0.286473 0.065156 0.213626
0.554162 0.000000 0.204959
0.764523 0.174380 0.231785
0.893187 0.289677 0.257237
0.976745 0.393561 0.287144
1.000000 0.488136 0.329870
0.000000 0.189792 0.207492
0.000000 0.205539 0.215946
0.246647 0.250034 0.242771
0.518212 0.276280 0.249546
0.746090 0.320562 0.262699
0.881804 0.383215 0.282536
0.968780 0.461128 0.314794
1.000000 0.539483 0.359533
0.000000 0.361303 0.296239
0.000000 0.377752 0.307347
0.218875 0.413703 0.325719
0.487037 0.459052 0.315465
0.711513 0.473884 0.303502
0.859953 0.508202 0.326665
0.954681 0.561639 0.364080
1.000000 0.620081 0.414038
0.000000 0.557794 0.417609
0.000000 0.566949 0.422583
0.145968 0.591333 0.435431
0.419593 0.616876 0.423438
0.680964 0.651514 0.413001
0.833677 0.647517 0.401740
0.931792 0.668177 0.423407
0.996887 0.709316 0.482612
0.000000 0.721859 0.526177
0.000000 0.726101 0.529046
0.000000 0.735714 0.536370
0.420417 0.746242 0.552941
0.595453 0.750759 0.533989
0.808133 0.785977 0.536980
0.914916 0.785977 0.542748
0.978698 0.795163 0.566552
0.000000 0.855436 0.630304
0.000000 0.855802 0.631373
0.000000 0.856352 0.636194
0.420264 0.855039 0.655177
0.618463 0.854887 0.664942
0.750118 0.856840 0.657771
0.894102 0.874296 0.664668
0.963256 0.871305 0.678126
0.000000 0.944701 0.726436
0.000000 0.944854 0.725002
0.000000 0.944060 0.728725
0.470283 0.936400 0.754208
0.685695 0.926757 0.783230
0.777676 0.925200 0.779568
0.866239 0.927947 0.783658
0.950896 0.935698 0.786801
0.000000 0.084047 0.323613
0.000000 0.083955 0.345892
0.260716 0.000000 0.418189
0.572015 0.000000 0.411505
0.778378 0.000000 0.379248
0.891966 0.317327 0.442206
0.964660 0.458167 0.487984
1.000000 0.548791 0.516991
0.000000 0.129793 0.326024
0.000000 0.132418 0.350347
0.252323 0.104738 0.417212
0.563500 0.000000 0.419257
0.771359 0.029236 0.393103
0.884398 0.366491 0.463081
0.961273 0.472694 0.491768
1.000000 0.557000 0.517754
0.000000 0.214725 0.338506
0.000000 0.225406 0.346777
0.226078 0.259556 0.401038
0.533562 0.244907 0.444221
0.748806 0.329107 0.444282
0.872557 0.457404 0.496345
0.955901 0.541131 0.525505
1.000000 0.603601 0.542596
0.000000 0.350958 0.401129
0.000000 0.362463 0.408789
0.199161 0.402472 0.438025
0.483162 0.469642 0.491188
0.706233 0.508904 0.505516
0.847715 0.555688 0.522820
0.940368 0.611322 0.545861
0.999756 0.665064 0.572412
0.000000 0.554345 0.516747
0.000000 0.563561 0.522698
0.130953 0.594598 0.545373
0.464698 0.627436 0.571008
0.675624 0.659541 0.571557
0.818173 0.664668 0.557183
0.921508 0.701045 0.583490
0.985840 0.737697 0.614008
0.000000 0.730831 0.618677
0.000000 0.738582 0.624994
0.000000 0.745357 0.629328
0.446693 0.754238 0.642481
0.630823 0.764309 0.644404
0.803281 0.791348 0.649714
0.904112 0.794736 0.646509
0.970306 0.807767 0.661616
0.000000 0.856992 0.694789
0.000000 0.858274 0.696437
0.000000 0.860044 0.701656
0.432532 0.859098 0.713497
0.650965 0.857359 0.734524
0.758053 0.857877 0.722377
0.889677 0.876768 0.731624
0.957183 0.876066 0.737423
0.000000 0.946807 0.770321
0.000000 0.947570 0.769833
0.000000 0.946654 0.769467
0.435584 0.938537 0.780240
0.672480 0.928099 0.802243
0.787594 0.925780 0.809659
0.867277 0.927855 0.813016
0.948882 0.937163 0.818601
0.000000 0.119112 0.509545
0.000000 0.119417 0.526482
0.181765 0.089540 0.580041
0.524590 0.000000 0.634668
0.763363 0.000000 0.604273
0.889036 0.192355 0.568200
0.957855 0.459236 0.611109
0.992798 0.650935 0.699153
0.000000 0.160708 0.508324
0.000000 0.162417 0.527367
0.185428 0.151583 0.579004
0.520409 0.000000 0.640467
0.757229 0.000000 0.608576
0.884459 0.259220 0.578119
0.954314 0.487770 0.622126
0.991852 0.656977 0.700130
0.000000 0.243778 0.484840
0.000000 0.251865 0.494057
0.186709 0.277104 0.563195
0.494850 0.276921 0.647089
0.735592 0.270390 0.623041
0.866209 0.406043 0.606592
0.941222 0.569757 0.655543
0.988678 0.673426 0.699367
0.000000 0.363317 0.535180
0.000000 0.371191 0.539788
0.172030 0.398627 0.557580
0.447547 0.459022 0.618647
0.702724 0.486488 0.651942
0.841703 0.571618 0.657008
0.925353 0.662654 0.693568
0.985687 0.703731 0.698848
0.000000 0.519921 0.598230
0.000000 0.527703 0.602502
0.105653 0.552819 0.615961
0.433173 0.595727 0.641688
0.658930 0.655238 0.680568
0.810880 0.687007 0.689723
0.911192 0.722957 0.701015
0.976104 0.756252 0.713466
0.000000 0.699519 0.675929
0.000000 0.707515 0.681392
0.000000 0.720974 0.689570
0.424842 0.741207 0.706813
0.637537 0.759731 0.722286
0.791165 0.788235 0.730282
0.891814 0.795743 0.723690
0.963287 0.818418 0.743862
0.000000 0.850462 0.756252
0.000000 0.851530 0.757382
0.000000 0.855070 0.762722
0.424720 0.856413 0.769345
0.628809 0.856626 0.774807
0.765896 0.859709 0.777920
0.883146 0.876555 0.786587
0.950713 0.877623 0.785519
0.000000 0.945037 0.815702
0.000000 0.945434 0.814878
0.000000 0.943145 0.814389
0.404120 0.938933 0.818082
0.625879 0.930755 0.822690
0.797665 0.924132 0.844083
0.864897 0.926055 0.840360
0.945800 0.937407 0.847623
0.000000 0.167575 0.679744
0.000000 0.167727 0.688502
0.120211 0.156771 0.715694
0.465705 0.076112 0.764767
0.729244 0.000000 0.778958
0.875517 0.119448 0.737819
0.953277 0.402075 0.718563
0.994263 0.612238 0.751461
0.000000 0.201175 0.673335
0.000000 0.201846 0.681636
0.130343 0.198184 0.710689
0.457710 0.163027 0.758541
0.721859 0.101320 0.777340
0.870390 0.200809 0.739010
0.949706 0.430640 0.722591
0.992065 0.625208 0.755001
0.000000 0.285466 0.652888
0.000000 0.290257 0.664118
0.159030 0.305974 0.701411
0.444831 0.315099 0.749477
0.708156 0.322118 0.782773
0.858366 0.366339 0.750668
0.940063 0.521904 0.740383
0.985657 0.671778 0.770321
0.000000 0.388708 0.663874
0.000000 0.392523 0.664424
0.146548 0.408118 0.669764
0.432166 0.467170 0.729641
0.689387 0.518853 0.792782
0.840940 0.540459 0.771328
0.927123 0.636561 0.767147
0.976623 0.737850 0.794614
0.000000 0.521172 0.699672
0.000000 0.526024 0.701106
0.098695 0.542321 0.706203
0.396368 0.571618 0.716152
0.625422 0.635248 0.756649
0.812772 0.670008 0.783597
0.909026 0.734951 0.789792
0.965332 0.796109 0.815640
0.000000 0.664881 0.738460
0.000000 0.670253 0.740902
0.000000 0.683742 0.745602
0.396582 0.706172 0.754513
0.608453 0.737484 0.769680
0.782284 0.787594 0.801572
0.890715 0.812314 0.811063
0.959197 0.833310 0.818631
0.000000 0.818997 0.794217
0.000000 0.823636 0.797208
0.000000 0.835080 0.804898
0.390387 0.848112 0.815793
0.615961 0.855283 0.824582
0.773831 0.863066 0.833249
0.879545 0.878721 0.839689
0.946593 0.881498 0.834440
0.000000 0.941955 0.857206
0.000000 0.941497 0.857145
0.000000 0.939696 0.857511
0.394018 0.936339 0.859983
0.609613 0.931334 0.861967
0.766537 0.926390 0.864439
0.868315 0.927672 0.872465
0.943816 0.938903 0.879942
0.000000 0.233066 0.807614
0.000000 0.233890 0.812589
0.165011 0.230045 0.826017
0.445472 0.212528 0.848600
0.694881 0.181613 0.876097
0.865812 0.237766 0.869291
0.943175 0.364019 0.828428
0.991699 0.562524 0.817288
0.000000 0.259281 0.801541
0.000000 0.260410 0.806516
0.166995 0.259068 0.820493
0.439094 0.248692 0.843290
0.686030 0.233555 0.871550
0.859098 0.276402 0.866453
0.938781 0.383948 0.826810
0.989105 0.568994 0.816037
0.000000 0.333623 0.790829
0.000000 0.337438 0.796048
0.189853 0.348058 0.812253
0.435309 0.355932 0.835966
0.671260 0.370642 0.864988
0.848020 0.407935 0.867185
0.931975 0.480751 0.834409
0.984344 0.627008 0.826444
0.000000 0.421149 0.776333
0.000000 0.421668 0.774990
0.142641 0.436133 0.787625
0.425879 0.480018 0.820523
0.646296 0.516747 0.853239
0.831022 0.557610 0.869993
0.921599 0.596979 0.845212
0.976715 0.700710 0.839994
0.000000 0.539910 0.796231
0.000000 0.540948 0.795224
0.057130 0.546136 0.793515
0.350317 0.555779 0.791958
0.595026 0.618891 0.827665
0.802304 0.677302 0.870573
0.905516 0.696925 0.853086
0.966796 0.772641 0.854429
0.000000 0.672084 0.819547
0.000000 0.674250 0.819577
0.000000 0.681300 0.819638
0.357122 0.693568 0.820310
0.552453 0.709987 0.821195
0.745602 0.760067 0.847257
0.890318 0.797513 0.867765
0.956939 0.842374 0.874632
0.000000 0.798306 0.844266
0.000000 0.800473 0.844877
0.000000 0.805661 0.845670
0.368963 0.813962 0.847440
0.569757 0.824155 0.850248
0.736751 0.841032 0.858335
0.870939 0.875212 0.881254
0.946838 0.891539 0.888365
0.000000 0.910460 0.878416
0.000000 0.911162 0.878691
0.000000 0.914824 0.881376
0.339666 0.920500 0.886961
0.570581 0.926818 0.895048
0.750179 0.925689 0.898924
0.867369 0.929351 0.904936
0.942229 0.940764 0.912444
0.000000 0.340154 0.903532
0.154330 0.340307 0.905211
0.314275 0.336950 0.909300
0.492500 0.332738 0.917754
0.678859 0.332189 0.929015
0.844480 0.366766 0.937560
0.947326 0.450965 0.927184
0.987671 0.548577 0.890471
0.055116 0.360784 0.900694
0.161776 0.361395 0.902373
0.315831 0.359258 0.906889
0.490120 0.356573 0.915251
0.674952 0.359411 0.926848
0.841093 0.393591 0.936461
0.944610 0.468177 0.926604
0.985931 0.559380 0.890440
0.000000 0.416693 0.893858
0.162875 0.421332 0.895567
0.319554 0.427070 0.900145
0.489265 0.434668 0.910216
0.667048 0.446204 0.922026
0.832700 0.480323 0.934783
0.938079 0.533349 0.927428
0.981476 0.605982 0.893370
0.000000 0.481270 0.882719
0.000000 0.485267 0.884581
0.269322 0.499550 0.889769
0.477516 0.532128 0.900206
0.648981 0.551873 0.913664
0.813748 0.587304 0.929381
0.925292 0.623835 0.927764
0.975036 0.675410 0.899168
0.000000 0.584222 0.884764
0.000000 0.584924 0.884642
0.164401 0.583001 0.882414
0.361639 0.582696 0.883055
0.603937 0.637354 0.899474
0.777066 0.673854 0.918730
0.906371 0.714046 0.927581
0.966888 0.751247 0.907134
0.000000 0.701289 0.894652
0.000000 0.701106 0.893919
0.116213 0.700954 0.892027
0.344823 0.701015 0.889220
0.512474 0.699611 0.885130
0.724819 0.748165 0.902586
0.886931 0.804929 0.930755
0.958282 0.823362 0.917784
0.000000 0.811612 0.906249
0.000000 0.811826 0.905882
0.026184 0.812833 0.904875
0.351812 0.815763 0.903746
0.531518 0.819242 0.902251
0.684840 0.823484 0.900786
0.842863 0.854948 0.914916
0.948089 0.883452 0.928496
0.000000 0.899779 0.919524
0.000000 0.899901 0.919402
0.000000 0.900969 0.919585
0.367041 0.903136 0.920470
0.557855 0.904906 0.921263
0.714717 0.907652 0.922271
0.840574 0.916320 0.926055
0.937591 0.939544 0.941650
