data/fiter_cube/67355442/1023285/file.cube
# Created by Adobe Lightroom plugin Export LUT (1.17.0)
# www.johnrellis.com/lightroom/exportlut.htm
# Preset: 日系A通透明亮[云集]-2 复古
# Color profile: C:\Program Files (x86)\Common Files\Adobe\Color\Profiles\Recommended\AdobeRGB1998.icc
LUT_3D_SIZE 5
DOMAIN_MIN 0.000000 0.000000 0.000000
DOMAIN_MAX 0.903226 0.903226 0.903226
0.000000 0.000000 0.000000
0.226017 0.000000 0.036072
0.691066 0.000000 0.000000
0.940551 0.185092 0.000000
1.000000 0.425605 0.180240
0.000000 0.145541 0.096193
0.175784 0.184115 0.070832
0.651881 0.201633 0.000000
0.926604 0.313298 0.000000
1.000000 0.482612 0.173892
0.000000 0.448096 0.239322
0.000000 0.480354 0.236210
0.607538 0.568688 0.159335
0.887724 0.562432 0.149233
1.000000 0.637415 0.287449
0.000000 0.765194 0.484962
0.000000 0.775753 0.489448
0.478126 0.789151 0.480537
0.845579 0.815518 0.462989
0.984649 0.809598 0.509636
0.000000 0.947021 0.699184
0.000000 0.948180 0.699977
0.588067 0.929290 0.743252
0.790005 0.923949 0.750423
0.953887 0.935393 0.757717
0.000000 0.054627 0.145235
0.236637 0.000000 0.168856
0.677882 0.000000 0.169650
0.922362 0.263096 0.202304
1.000000 0.454261 0.271397
0.000000 0.155154 0.171511
0.192416 0.202701 0.195987
0.650568 0.243259 0.200320
0.911467 0.357305 0.227054
1.000000 0.509483 0.304936
0.000000 0.455268 0.328038
0.086610 0.488808 0.343511
0.591455 0.557305 0.314305
0.873594 0.571679 0.312993
1.000000 0.658656 0.414038
0.000000 0.765866 0.543847
0.000000 0.775479 0.551781
0.522545 0.788327 0.567926
0.838163 0.814939 0.552087
0.976959 0.815061 0.578637
0.000000 0.946715 0.722225
0.000000 0.947631 0.722896
0.595087 0.931762 0.764920
0.798642 0.925170 0.775601
0.952361 0.936614 0.783322
0.000000 0.100343 0.417365
0.129976 0.078279 0.480964
0.682612 0.000000 0.518486
0.914000 0.310979 0.503197
1.000000 0.601221 0.616480
0.000000 0.205234 0.402289
0.140444 0.230045 0.471138
0.659937 0.181582 0.538994
0.896178 0.449042 0.555077
1.000000 0.628107 0.622553
0.000000 0.436988 0.505760
0.000000 0.468360 0.525475
0.581476 0.571191 0.598413
0.856321 0.639002 0.621118
0.987121 0.715358 0.651575
0.000000 0.759396 0.672541
0.000000 0.769375 0.680934
0.553735 0.785061 0.702205
0.824308 0.816587 0.710506
0.961883 0.825925 0.709407
0.000000 0.945006 0.791165
0.000000 0.945830 0.790921
0.539849 0.934112 0.801633
0.808347 0.924926 0.823392
0.946777 0.936614 0.831418
0.000000 0.179934 0.710719
0.000000 0.176333 0.735317
0.600793 0.000000 0.808713
0.894682 0.193332 0.762753
0.993469 0.599054 0.765927
0.000000 0.271733 0.694179
0.000000 0.282170 0.724117
0.579156 0.283574 0.798154
0.882475 0.351232 0.770260
0.986847 0.643153 0.776547
0.000000 0.452155 0.702602
0.000000 0.464729 0.705104
0.521782 0.543511 0.756985
0.847440 0.603815 0.790890
0.970611 0.757168 0.811368
0.000000 0.702663 0.770474
0.000000 0.711635 0.772091
0.498451 0.744930 0.784085
0.807126 0.812741 0.824216
0.955077 0.847593 0.836667
0.000000 0.940063 0.866880
0.000000 0.939147 0.867277
0.507103 0.933501 0.870695
0.796780 0.926970 0.875700
0.943145 0.939147 0.887724
0.000000 0.340154 0.903532
0.272435 0.337987 0.907897
0.585687 0.331212 0.923125
0.874876 0.386358 0.935790
0.987671 0.548577 0.890471
0.079408 0.403449 0.896666
0.284154 0.408911 0.901518
0.579858 0.415503 0.917601
0.865537 0.469368 0.933654
0.983032 0.593500 0.892821
0.000000 0.527764 0.880247
0.110353 0.526116 0.879545
0.541650 0.583551 0.898924
0.833616 0.641444 0.928435
0.971008 0.712367 0.902586
0.000000 0.732723 0.898589
0.000000 0.733211 0.896941
0.440314 0.735256 0.892363
0.755123 0.776089 0.904326
0.955718 0.838682 0.920165
0.000000 0.899779 0.919524
0.000000 0.900603 0.919463
0.469947 0.904295 0.921111
0.749447 0.909056 0.922789
0.937591 0.939544 0.941650
