data/fiter_cube/67355442/1023285/file.cube
# Created by Adobe Lightroom plugin Export LUT (1.17.0)
# www.johnrellis.com/lightroom/exportlut.htm
# Preset: 日系A通透明亮[云集]-2 复古
# Color profile: C:\Program Files (x86)\Common Files\Adobe\Color\Profiles\Recommended\AdobeRGB1998.icc
LUT_3D_SIZE 32
DOMAIN_MIN 0.0 0.0 0.0
DOMAIN_MAX 1.0 1.0 1.0
0.000000 0.000000 0.000000
0.009155 0.004211 0.003754
0.021088 0.009186 0.006256
0.051606 0.022370 0.014099
0.081880 0.038544 0.024811
0.119570 0.041962 0.033082
0.168978 0.021790 0.036622
0.226017 0.000000 0.036072
0.289952 0.000000 0.030610
0.358679 0.000000 0.017792
0.430365 0.000000 0.000000
0.502068 0.000000 0.000000
0.571160 0.000000 0.000000
0.635462 0.000000 0.000000
0.691066 0.000000 0.000000
0.739101 0.000000 0.000000
0.780575 0.000000 0.000000
0.822995 0.000000 0.000000
0.858854 0.000000 0.000000
0.889921 0.055512 0.000000
0.917021 0.135042 0.000000
0.940551 0.185092 0.000000
0.960876 0.225711 0.000000
0.978576 0.262272 0.000000
0.994202 0.295933 0.000000
1.000000 0.328466 0.000000
1.000000 0.360601 0.090517
1.000000 0.392889 0.136355
1.000000 0.425605 0.180240
1.000000 0.459022 0.225315
1.000000 0.492805 0.272282
1.000000 0.527031 0.322454
0.000000 0.012757 0.008728
0.005310 0.016449 0.007172
0.018799 0.021210 0.008606
0.049470 0.033417 0.013275
0.080323 0.048371 0.024109
0.117342 0.051759 0.032471
0.166171 0.036194 0.036072
0.222629 0.000000 0.035523
0.285801 0.000000 0.029206
0.354406 0.000000 0.016449
0.425666 0.000000 0.000000
0.497322 0.000000 0.000000
0.566278 0.000000 0.000000
0.630793 0.000000 0.000000
0.686915 0.000000 0.000000
0.735348 0.000000 0.000000
0.777096 0.000000 0.000000
0.819303 0.000000 0.000000
0.854978 0.000000 0.000000
0.886137 0.064759 0.000000
0.913512 0.136385 0.000000
0.937469 0.184421 0.000000
0.958160 0.224613 0.000000
0.976226 0.260960 0.000000
0.992187 0.294377 0.000000
1.000000 0.326696 0.000000
1.000000 0.358740 0.084047
1.000000 0.391211 0.131746
1.000000 0.423957 0.175692
1.000000 0.457313 0.220951
1.000000 0.491279 0.268620
1.000000 0.525444 0.318547
0.000000 0.029328 0.020447
0.001556 0.033051 0.019989
0.013519 0.035828 0.017273
0.045045 0.047761 0.021942
0.077882 0.058808 0.027497
0.114687 0.061067 0.031586
0.162539 0.053956 0.035187
0.218631 0.022065 0.034638
0.281590 0.000000 0.028199
0.349645 0.000000 0.015656
0.420905 0.000000 0.000000
0.492775 0.000000 0.000000
0.562097 0.000000 0.000000
0.626917 0.000000 0.000000
0.683406 0.000000 0.000000
0.732387 0.000000 0.000000
0.774441 0.000000 0.000000
0.816709 0.000000 0.000000
0.852354 0.000000 0.000000
0.883635 0.082124 0.000000
0.911315 0.143374 0.000000
0.935576 0.188724 0.000000
0.956512 0.227970 0.000000
0.974792 0.262882 0.000000
0.990906 0.295933 0.000000
1.000000 0.327886 0.000000
1.000000 0.359747 0.079713
1.000000 0.391882 0.128389
1.000000 0.424384 0.173007
1.000000 0.457740 0.218784
1.000000 0.491493 0.266331
1.000000 0.525536 0.316564
0.000000 0.056489 0.045136
0.000000 0.058961 0.047669
0.006134 0.060273 0.044160
0.036164 0.063508 0.039460
0.074556 0.069612 0.039521
0.110079 0.072663 0.040436
0.157443 0.071473 0.039429
0.212802 0.064118 0.035187
0.275029 0.032380 0.025238
0.343145 0.000000 0.012207
0.414069 0.000000 0.000000
0.485756 0.000000 0.000000
0.555230 0.000000 0.000000
0.620478 0.000000 0.000000
0.678035 0.000000 0.000000
0.727565 0.000000 0.000000
0.771023 0.000000 0.000000
0.812863 0.000000 0.000000
0.848173 0.007477 0.000000
0.879454 0.111391 0.000000
0.907378 0.158968 0.000000
0.931975 0.198978 0.000000
0.953521 0.235599 0.000000
0.972442 0.269535 0.000000
0.989258 0.301946 0.000000
1.000000 0.333593 0.000000
1.000000 0.364965 0.075471
1.000000 0.396887 0.126436
1.000000 0.428962 0.171878
1.000000 0.461494 0.217411
1.000000 0.494575 0.265263
1.000000 0.527733 0.314855
0.000000 0.073426 0.063752
0.000000 0.074464 0.063600
0.000000 0.076570 0.063294
0.020111 0.078401 0.060273
0.067079 0.082918 0.054597
0.104677 0.089387 0.052003
0.149142 0.091463 0.048768
0.203708 0.089570 0.043946
0.265507 0.082124 0.033783
0.332738 0.066560 0.019440
0.403479 0.014984 0.000000
0.475471 0.000000 0.000000
0.545525 0.000000 0.000000
0.611810 0.000000 0.000000
0.670802 0.000000 0.000000
0.721736 0.000000 0.000000
0.767391 0.000000 0.000000
0.809049 0.037598 0.000000
0.844755 0.105959 0.000000
0.876249 0.147189 0.000000
0.904326 0.183810 0.000000
0.929137 0.218387 0.000000
0.950958 0.251164 0.000000
0.970275 0.282292 0.000000
0.987427 0.312688 0.000000
1.000000 0.342992 0.000000
1.000000 0.373327 0.066560
1.000000 0.403815 0.121675
1.000000 0.434791 0.167788
1.000000 0.466621 0.214298
1.000000 0.498787 0.262333
1.000000 0.531579 0.312596
0.000000 0.091188 0.073823
0.000000 0.092103 0.073732
0.000000 0.094301 0.073396
0.008515 0.099001 0.071626
0.050263 0.101472 0.067506
0.092653 0.109529 0.062287
0.144961 0.116335 0.058503
0.195743 0.117403 0.052979
0.255283 0.115938 0.043763
0.322576 0.111177 0.027558
0.393469 0.102296 0.004883
0.465583 0.089662 0.000000
0.536065 0.075044 0.000000
0.603388 0.062745 0.000000
0.663569 0.061341 0.000000
0.715724 0.075593 0.000000
0.763516 0.100160 0.000000
0.805234 0.128206 0.000000
0.841245 0.156619 0.000000
0.873289 0.185733 0.000000
0.901884 0.215213 0.000000
0.927245 0.244663 0.000000
0.963775 0.300267 0.000000
0.981323 0.327245 0.000000
0.996796 0.353307 0.000000
1.000000 0.379889 0.000000
1.000000 0.406744 0.095247
1.000000 0.434150 0.143252
1.000000 0.462348 0.187900
1.000000 0.491432 0.233799
1.000000 0.520928 0.280827
1.000000 0.550713 0.329198
0.000000 0.116915 0.084901
0.000000 0.117586 0.084810
0.000000 0.119936 0.084474
0.000000 0.125307 0.083284
0.023499 0.130770 0.076509
0.076570 0.135958 0.073884
0.132357 0.145693 0.066346
0.197482 0.153475 0.060426
0.255528 0.153567 0.051728
0.318944 0.152865 0.036225
0.391089 0.151278 0.012879
0.464149 0.148257 0.000000
0.535393 0.145174 0.000000
0.602869 0.144503 0.000000
0.663050 0.146944 0.000000
0.715663 0.154849 0.000000
0.765072 0.170230 0.000000
0.806821 0.188235 0.000000
0.843107 0.208652 0.000000
0.875853 0.231907 0.000000
0.905425 0.257847 0.000000
0.931823 0.285222 0.000000
0.954925 0.313329 0.000000
0.974975 0.340826 0.000000
0.992340 0.367285 0.000000
1.000000 0.392370 0.000000
1.000000 0.418250 0.081453
1.000000 0.444465 0.134920
1.000000 0.471260 0.181003
1.000000 0.499001 0.227604
1.000000 0.527428 0.275212
1.000000 0.556359 0.324743
0.000000 0.145541 0.096193
0.000000 0.146426 0.096101
0.000000 0.148714 0.095735
0.000000 0.153750 0.094636
0.002350 0.161563 0.092927
0.058839 0.165560 0.084810
0.108858 0.173251 0.080140
0.175784 0.184115 0.070832
0.250645 0.193149 0.061799
0.313603 0.193729 0.049226
0.378454 0.193912 0.027253
0.449592 0.194491 0.000000
0.521477 0.195590 0.000000
0.589990 0.197757 0.000000
0.651881 0.201633 0.000000
0.708827 0.209689 0.000000
0.757687 0.220737 0.000000
0.799466 0.233616 0.000000
0.836179 0.249241 0.000000
0.869474 0.267857 0.000000
0.899626 0.289433 0.000000
0.926604 0.313298 0.000000
0.950225 0.338018 0.000000
0.970733 0.362951 0.000000
0.988525 0.387243 0.000000
1.000000 0.410620 0.000610
1.000000 0.433143 0.073671
1.000000 0.457069 0.124086
1.000000 0.482612 0.173892
1.000000 0.508904 0.221408
1.000000 0.536248 0.270268
1.000000 0.563958 0.320195
0.000000 0.178927 0.109621
0.000000 0.180056 0.109194
0.000000 0.182376 0.108797
0.000000 0.187106 0.107759
0.000000 0.194461 0.106325
0.017395 0.202426 0.098146
0.090211 0.205264 0.094148
0.149996 0.215946 0.087373
0.226902 0.228000 0.074769
0.310277 0.239353 0.062135
0.376226 0.240024 0.044465
0.441688 0.240482 0.013581
0.507469 0.242069 0.000000
0.577050 0.245945 0.000000
0.642542 0.252171 0.000000
0.700954 0.259983 0.000000
0.750088 0.268650 0.000000
0.792203 0.278508 0.000000
0.829435 0.290654 0.000000
0.863432 0.305882 0.000000
0.894163 0.324102 0.000000
0.921721 0.344457 0.000000
0.945769 0.366461 0.000000
0.966735 0.388769 0.000000
0.984894 0.410986 0.000000
1.000000 0.432288 0.061036
1.000000 0.453376 0.096345
1.000000 0.473976 0.124544
1.000000 0.496712 0.166506
1.000000 0.521447 0.215488
1.000000 0.547112 0.265202
1.000000 0.573449 0.315740
0.000000 0.216281 0.124147
0.000000 0.217777 0.124056
0.000000 0.219944 0.123659
0.000000 0.224369 0.122683
0.000000 0.231296 0.121492
0.000000 0.240146 0.119844
0.070100 0.245975 0.106600
0.129641 0.248814 0.104494
0.198764 0.262974 0.094667
0.282963 0.275975 0.079316
0.372686 0.289006 0.062226
0.439002 0.289616 0.037995
0.503136 0.290288 0.001129
0.565728 0.292790 0.000000
0.632898 0.300389 0.000000
0.692134 0.307927 0.000000
0.742519 0.315373 0.000000
0.785611 0.323186 0.000000
0.823667 0.333349 0.000000
0.858091 0.345892 0.000000
0.889067 0.360937 0.000000
0.916594 0.377966 0.000000
0.940734 0.396368 0.000000
0.961791 0.415717 0.000000
0.980224 0.435279 0.047272
0.996368 0.454871 0.088014
1.000000 0.474403 0.115846
1.000000 0.494087 0.142916
1.000000 0.513878 0.168521
1.000000 0.535851 0.209232
1.000000 0.560327 0.260777
1.000000 0.585473 0.312779
0.000000 0.256809 0.140902
0.000000 0.258183 0.140475
0.000000 0.260319 0.140261
0.000000 0.264500 0.139467
0.000000 0.271000 0.138460
0.000000 0.279637 0.137301
0.063844 0.289128 0.132540
0.113924 0.292790 0.119234
0.177066 0.298650 0.115023
0.253788 0.313725 0.103182
0.343481 0.327672 0.084901
0.437079 0.342504 0.063783
0.503593 0.343725 0.034699
0.568292 0.346807 0.000000
0.627039 0.349767 0.000000
0.680537 0.353277 0.000000
0.732082 0.359472 0.000000
0.776028 0.366094 0.000000
0.815061 0.373785 0.000000
0.850370 0.384283 0.000000
0.882261 0.397070 0.000000
0.910613 0.411872 0.000000
0.935485 0.428412 0.000000
0.957092 0.445624 0.050752
0.975982 0.463264 0.085878
0.992493 0.480842 0.113161
1.000000 0.498634 0.138094
1.000000 0.516655 0.162387
1.000000 0.534966 0.187625
1.000000 0.553277 0.212406
1.000000 0.574426 0.255039
1.000000 0.598138 0.308507
0.000000 0.300938 0.160220
0.000000 0.302434 0.160098
0.000000 0.304173 0.159609
0.000000 0.308080 0.159152
0.000000 0.314275 0.158267
0.000000 0.322118 0.157290
0.005066 0.331914 0.156130
0.090639 0.339818 0.136049
0.161624 0.342565 0.133639
0.230228 0.351507 0.126925
0.313085 0.367529 0.113375
0.408209 0.384222 0.092714
0.529229 0.421027 0.072572
0.594903 0.422919 0.051453
0.651789 0.423285 0.014435
0.700496 0.422797 0.000000
0.742428 0.422156 0.000000
0.784390 0.426032 0.000000
0.822538 0.431922 0.000000
0.856840 0.439887 0.000000
0.887480 0.449958 0.019226
0.914397 0.461921 0.063752
0.937896 0.474861 0.085481
0.958465 0.488869 0.108675
0.976562 0.503410 0.130129
0.992462 0.518395 0.152132
1.000000 0.533654 0.174105
1.000000 0.549218 0.196414
1.000000 0.565209 0.219516
1.000000 0.581384 0.243198
1.000000 0.597436 0.267369
1.000000 0.617151 0.312322
0.000000 0.353460 0.185672
0.000000 0.354681 0.185428
0.000000 0.356115 0.184909
0.000000 0.359228 0.184176
0.000000 0.364324 0.183169
0.000000 0.371099 0.182071
0.000000 0.379583 0.180667
0.104677 0.389532 0.179355
0.145754 0.394446 0.154604
0.215030 0.397314 0.151644
0.293126 0.413062 0.144350
0.386603 0.434974 0.130709
0.489021 0.456153 0.109743
0.590051 0.478279 0.089693
0.648066 0.477272 0.078157
0.697139 0.474739 0.068116
0.738979 0.471595 0.059388
0.775418 0.469154 0.047730
0.810575 0.470405 0.047761
0.846189 0.476753 0.064515
0.877958 0.485115 0.079377
0.906004 0.495155 0.095064
0.930419 0.506310 0.113680
0.951781 0.518517 0.132998
0.970489 0.531395 0.153109
0.986999 0.544701 0.173251
1.000000 0.558465 0.194736
1.000000 0.572808 0.216526
1.000000 0.587488 0.239231
1.000000 0.602716 0.263279
1.000000 0.617792 0.287053
1.000000 0.632441 0.310918
0.000000 0.400153 0.210727
0.000000 0.401343 0.210513
0.000000 0.402655 0.210239
0.000000 0.405585 0.209445
0.000000 0.410040 0.208469
0.000000 0.416144 0.207675
0.000000 0.423957 0.206485
0.065553 0.433234 0.205264
0.140780 0.442023 0.189120
0.201572 0.448798 0.176242
0.272892 0.454200 0.174533
0.358404 0.474434 0.165347
0.453010 0.495338 0.151308
0.552300 0.515129 0.130770
0.644343 0.533257 0.117250
0.693812 0.528008 0.109529
0.735134 0.521874 0.104402
0.771481 0.516808 0.099947
0.804532 0.513939 0.097383
0.835233 0.513817 0.097902
0.867918 0.520226 0.108400
0.897185 0.528893 0.123262
0.922698 0.538659 0.139528
0.944976 0.549248 0.157259
0.964416 0.560601 0.176211
0.981506 0.572534 0.196048
0.996674 0.584924 0.216800
1.000000 0.597803 0.238315
1.000000 0.611505 0.261723
1.000000 0.625605 0.285618
1.000000 0.639826 0.310033
1.000000 0.653712 0.334722
0.000000 0.448096 0.239322
0.000000 0.449195 0.239109
0.000000 0.450294 0.238895
0.000000 0.452888 0.238193
0.000000 0.456886 0.237400
0.000000 0.462470 0.236393
0.000000 0.470192 0.235752
0.000000 0.480354 0.236210
0.144961 0.491798 0.237125
0.183902 0.500511 0.204501
0.260685 0.505180 0.203128
0.333989 0.512200 0.200748
0.421942 0.532708 0.191135
0.514702 0.551873 0.177890
0.607538 0.568688 0.159335
0.689662 0.581872 0.150973
0.731930 0.573724 0.145937
0.768063 0.565667 0.141726
0.800961 0.560296 0.139223
0.831601 0.557702 0.138735
0.859953 0.557946 0.140688
0.887724 0.562432 0.149233
0.914336 0.570733 0.164218
0.937591 0.580011 0.181460
0.957855 0.589990 0.200168
0.975708 0.600732 0.219760
0.991547 0.612207 0.240696
1.000000 0.624445 0.263371
1.000000 0.637415 0.287449
1.000000 0.650935 0.312566
1.000000 0.664515 0.338384
1.000000 0.677729 0.364172
0.000000 0.497658 0.271733
0.000000 0.499031 0.271702
0.000000 0.500420 0.271672
0.000000 0.503563 0.271885
0.000000 0.508293 0.271794
0.000000 0.514580 0.271702
0.000000 0.522301 0.271916
0.000000 0.531426 0.272404
0.116365 0.541619 0.273411
0.204105 0.551812 0.266850
0.247257 0.557244 0.237003
0.320897 0.560204 0.235569
0.395087 0.568353 0.231449
0.480812 0.585229 0.221561
0.567559 0.600397 0.208743
0.652613 0.613855 0.192660
0.726467 0.623621 0.188235
0.764187 0.614740 0.184024
0.797452 0.606989 0.180911
0.828305 0.602625 0.180758
0.856901 0.600977 0.182101
0.883085 0.601770 0.186069
0.906798 0.604639 0.192020
0.930816 0.612512 0.208194
0.951873 0.621363 0.227268
0.970306 0.631006 0.247349
0.986664 0.641199 0.268406
1.000000 0.652277 0.290959
1.000000 0.663966 0.315282
1.000000 0.676051 0.340368
1.000000 0.688319 0.366155
1.000000 0.700313 0.392035
0.000000 0.549523 0.308324
0.000000 0.550378 0.308171
0.000000 0.551568 0.307988
0.000000 0.554040 0.307897
0.000000 0.558129 0.307774
0.000000 0.563226 0.307439
0.000000 0.569726 0.307591
0.000000 0.577264 0.307927
0.062409 0.585504 0.308843
0.196078 0.594354 0.310857
0.242283 0.601923 0.281682
0.306859 0.604730 0.270268
0.376532 0.606348 0.268833
0.451423 0.615961 0.263767
0.532860 0.630091 0.255009
0.612970 0.642451 0.243534
0.691066 0.653498 0.229892
0.758968 0.661799 0.228367
0.793515 0.653315 0.224704
0.824277 0.646479 0.222293
0.852659 0.642512 0.223056
0.878813 0.641077 0.225193
0.902434 0.641871 0.230686
0.923949 0.644495 0.237888
0.944518 0.650294 0.251469
0.963775 0.658869 0.271763
0.980774 0.668147 0.293736
0.995789 0.678218 0.316594
1.000000 0.688838 0.341192
1.000000 0.700038 0.367010
1.000000 0.711360 0.393744
1.000000 0.722560 0.420722
0.000000 0.598444 0.344884
0.000000 0.599695 0.345006
0.000000 0.615686 0.356878
0.000000 0.617670 0.356695
0.000000 0.620661 0.356176
0.000000 0.624414 0.355718
0.000000 0.629206 0.355505
0.000000 0.634607 0.355779
0.000000 0.640742 0.356817
0.185794 0.647272 0.359167
0.280919 0.653895 0.363378
0.305272 0.658198 0.319707
0.375158 0.658106 0.317906
0.439948 0.657496 0.315129
0.513115 0.667414 0.309392
0.588220 0.678340 0.301274
0.662135 0.688350 0.291325
0.733150 0.697566 0.279088
0.794949 0.704463 0.280003
0.825620 0.696040 0.276402
0.852964 0.689387 0.274174
0.878141 0.685359 0.275029
0.901122 0.683589 0.278325
0.921935 0.683772 0.283940
0.940764 0.685298 0.291081
0.957977 0.688502 0.301183
0.975097 0.695827 0.321569
0.990356 0.704036 0.343542
1.000000 0.713283 0.368109
1.000000 0.723232 0.393957
1.000000 0.733547 0.421180
1.000000 0.743740 0.448798
0.000000 0.647303 0.383520
0.000000 0.649866 0.385046
0.000000 0.652644 0.386572
0.000000 0.656123 0.387945
0.000000 0.659846 0.388556
0.000000 0.663630 0.388891
0.000000 0.667567 0.388983
0.000000 0.671931 0.389258
0.000000 0.676844 0.390539
0.160586 0.681910 0.393042
0.265019 0.687160 0.397375
0.321782 0.691859 0.381689
0.364080 0.693507 0.355993
0.427893 0.692592 0.353735
0.487922 0.691859 0.350744
0.558648 0.702113 0.344549
0.628840 0.711604 0.337591
0.697230 0.720424 0.328618
0.762966 0.728908 0.318791
0.820218 0.735653 0.322362
0.848112 0.728023 0.319158
0.873350 0.722560 0.318944
0.896391 0.719112 0.321019
0.917296 0.717708 0.325078
0.936187 0.717678 0.331609
0.953491 0.719295 0.340124
0.969329 0.722560 0.351690
0.984497 0.728664 0.370581
0.998566 0.736843 0.395239
1.000000 0.745785 0.421668
1.000000 0.755032 0.449287
1.000000 0.764401 0.477516
0.000000 0.686976 0.416205
0.000000 0.689296 0.417700
0.000000 0.691737 0.419257
0.000000 0.694575 0.420233
0.000000 0.697749 0.421210
0.000000 0.700740 0.421485
0.000000 0.703822 0.421698
0.000000 0.707301 0.422156
0.000000 0.711116 0.423804
0.134066 0.715145 0.426673
0.251164 0.719203 0.431464
0.339269 0.723018 0.438422
0.362371 0.726802 0.400610
0.420233 0.726131 0.394263
0.478218 0.724727 0.391394
0.536248 0.726070 0.387976
0.602350 0.735042 0.382818
0.667689 0.743343 0.376684
0.731136 0.751247 0.369360
0.791501 0.758907 0.361761
0.843626 0.764950 0.366918
0.868925 0.758206 0.365332
0.891905 0.753506 0.366064
0.912688 0.750454 0.368994
0.931579 0.748959 0.373999
0.948852 0.748989 0.381262
0.964691 0.750607 0.391180
0.979278 0.753902 0.404578
0.992828 0.758968 0.421546
1.000000 0.766812 0.448249
1.000000 0.775204 0.476112
1.000000 0.783688 0.504479
0.000000 0.724025 0.447791
0.000000 0.726009 0.449287
0.000000 0.728115 0.450813
0.000000 0.730678 0.452094
0.000000 0.733242 0.452918
0.000000 0.735714 0.453254
0.000000 0.738155 0.453773
0.000000 0.740810 0.454658
0.000000 0.743771 0.456397
0.103914 0.746822 0.459541
0.238376 0.749966 0.464302
0.329808 0.752834 0.471199
0.393927 0.755428 0.468818
0.416907 0.757656 0.435157
0.473182 0.756283 0.432990
0.526268 0.754757 0.430549
0.583246 0.758511 0.428077
0.645624 0.766964 0.424750
0.706722 0.774838 0.421302
0.765713 0.782376 0.417182
0.820768 0.789609 0.413001
0.867216 0.794919 0.421149
0.890227 0.789151 0.421210
0.910796 0.785245 0.423713
0.929442 0.782742 0.428260
0.946441 0.781643 0.434546
0.962005 0.781949 0.443732
0.976379 0.783871 0.455879
0.989563 0.787320 0.471260
1.000000 0.792172 0.489601
1.000000 0.798672 0.514153
1.000000 0.805936 0.541711
0.000000 0.765194 0.484962
0.000000 0.766262 0.485542
0.000000 0.767178 0.486152
0.000000 0.768521 0.486671
0.000000 0.770077 0.487068
0.000000 0.771695 0.487495
0.000000 0.773587 0.488197
0.000000 0.775753 0.489448
0.000000 0.778164 0.491890
0.079316 0.780636 0.495552
0.233860 0.783047 0.501122
0.328862 0.785061 0.508476
0.409186 0.786618 0.518303
0.441413 0.788998 0.497169
0.478126 0.789151 0.480537
0.528588 0.787472 0.478279
0.576654 0.785794 0.476173
0.631464 0.790768 0.474128
0.688594 0.797604 0.472175
0.744198 0.803952 0.469398
0.796902 0.809842 0.466499
0.845579 0.815518 0.462989
0.885954 0.819150 0.470405
0.906218 0.813352 0.470436
0.924651 0.809598 0.472786
0.941466 0.807401 0.477974
0.957031 0.806638 0.485542
0.971405 0.807401 0.495979
0.984649 0.809598 0.509636
0.996765 0.813138 0.526268
1.000000 0.817746 0.545525
1.000000 0.823087 0.566888
0.000000 0.798032 0.515404
0.000000 0.798947 0.516014
0.000000 0.799893 0.516686
0.000000 0.800961 0.517296
0.000000 0.802152 0.517815
0.000000 0.803342 0.518364
0.000000 0.804654 0.519219
0.000000 0.806058 0.520531
0.000000 0.807645 0.523217
0.023377 0.809262 0.527031
0.227695 0.810758 0.532525
0.325048 0.811978 0.539971
0.406409 0.812741 0.549676
0.476570 0.813199 0.559838
0.484077 0.816007 0.522728
0.531640 0.814511 0.521111
0.577417 0.812955 0.519554
0.621363 0.811429 0.518029
0.674311 0.817288 0.517418
0.726650 0.823056 0.516594
0.776913 0.828367 0.515709
0.824063 0.833371 0.514061
0.867216 0.838285 0.512230
0.902617 0.841154 0.520012
0.919371 0.833555 0.514855
0.936126 0.830381 0.518059
0.951690 0.828702 0.524010
0.966064 0.828458 0.532921
0.979370 0.829557 0.544884
0.991608 0.832029 0.559655
1.000000 0.835599 0.577050
1.000000 0.839963 0.596735
0.000000 0.833188 0.550591
0.000000 0.833982 0.551171
0.000000 0.834592 0.551751
0.000000 0.835203 0.552026
0.000000 0.835752 0.552361
0.000000 0.836301 0.552941
0.000000 0.836790 0.553765
0.000000 0.837247 0.554955
0.000000 0.837705 0.557214
0.014588 0.838102 0.560845
0.229160 0.838285 0.565789
0.327276 0.838224 0.572778
0.408728 0.837827 0.581903
0.480415 0.837095 0.592798
0.517906 0.837675 0.584222
0.537743 0.838285 0.560937
0.580072 0.836240 0.558923
0.621057 0.834409 0.557031
0.662898 0.834134 0.556268
0.711849 0.839292 0.556481
0.759518 0.844144 0.556847
0.804654 0.848631 0.556878
0.846372 0.852842 0.556146
0.884520 0.856779 0.554620
0.915740 0.858579 0.560723
0.931914 0.853025 0.560601
0.947173 0.850340 0.564538
0.961395 0.848997 0.571160
0.974609 0.849058 0.580835
0.986847 0.850431 0.593622
0.998016 0.852964 0.609308
1.000000 0.856413 0.627192
0.000000 0.860044 0.579370
0.000000 0.860716 0.580011
0.000000 0.861265 0.580438
0.000000 0.861753 0.580652
0.000000 0.862058 0.581048
0.000000 0.862394 0.581720
0.000000 0.862638 0.582910
0.000000 0.862791 0.584527
0.000000 0.862913 0.587243
0.024933 0.862882 0.591424
0.233951 0.862547 0.596796
0.333288 0.861967 0.604181
0.415015 0.861051 0.613611
0.485969 0.859861 0.624292
0.547570 0.858701 0.635248
0.559960 0.860349 0.610803
0.590417 0.859495 0.601099
0.628717 0.857755 0.599878
0.666194 0.856199 0.599268
0.706111 0.857145 0.599542
0.750088 0.861295 0.600519
0.792233 0.865141 0.601221
0.831632 0.868742 0.601617
0.868009 0.872160 0.601129
0.901640 0.875456 0.599878
0.929137 0.876585 0.605463
0.943511 0.871275 0.605890
0.957519 0.869169 0.610956
0.970581 0.868467 0.618952
0.982757 0.868986 0.629999
0.993866 0.870634 0.643732
1.000000 0.873167 0.660029
0.000000 0.885527 0.609674
0.000000 0.885985 0.610132
0.000000 0.886259 0.610315
0.000000 0.886503 0.610163
0.000000 0.886687 0.609644
0.000000 0.886625 0.610193
0.000000 0.886442 0.611505
0.000000 0.886137 0.613397
0.000000 0.885740 0.616419
0.065766 0.885222 0.620661
0.243076 0.884367 0.626368
0.341680 0.883238 0.633936
0.423285 0.881773 0.643336
0.493141 0.880125 0.653559
0.553643 0.878508 0.663905
0.594110 0.877897 0.664210
0.602228 0.879454 0.639094
0.637659 0.877684 0.638239
0.672419 0.876097 0.637720
0.706203 0.874723 0.637781
0.743893 0.876524 0.638849
0.782986 0.879881 0.640131
0.819883 0.882994 0.640925
0.854337 0.885985 0.641382
0.886442 0.888853 0.641199
0.916228 0.891600 0.640436
0.940703 0.892393 0.645136
0.953704 0.887297 0.645930
0.966369 0.885496 0.651820
0.978424 0.885252 0.661006
0.989502 0.886107 0.673091
0.999512 0.887938 0.687892
0.000000 0.907195 0.637781
0.000000 0.907469 0.637995
0.000000 0.907683 0.638209
0.000000 0.907927 0.638178
0.000000 0.908263 0.637903
0.000000 0.908782 0.637873
0.000000 0.908843 0.640223
0.000000 0.908782 0.643458
0.000000 0.908598 0.647883
0.129427 0.908141 0.653773
0.271916 0.907256 0.661036
0.367956 0.905974 0.669886
0.447517 0.904265 0.680018
0.515221 0.902434 0.690272
0.573999 0.900542 0.700313
0.625025 0.898802 0.710018
0.643061 0.899443 0.697993
0.660273 0.899687 0.684932
0.691493 0.898161 0.684810
0.721828 0.896818 0.685023
0.751156 0.895659 0.685603
0.785000 0.897856 0.687129
0.818051 0.900420 0.688228
0.849271 0.902922 0.689235
0.878599 0.905272 0.689754
0.906188 0.907622 0.689754
0.932128 0.909850 0.689357
0.953368 0.910124 0.693355
0.964721 0.905303 0.694667
0.975769 0.903655 0.700710
0.986450 0.903716 0.711055
0.996124 0.904692 0.723873
0.000000 0.930297 0.672023
0.000000 0.930480 0.672175
0.000000 0.930510 0.672084
0.000000 0.930632 0.671839
0.000000 0.930785 0.671565
0.000000 0.931029 0.671229
0.000000 0.931243 0.671412
0.000000 0.930510 0.674434
0.000000 0.929442 0.678523
0.175265 0.928069 0.683955
0.297826 0.926238 0.690669
0.388525 0.924041 0.698848
0.463996 0.921660 0.707759
0.528862 0.919219 0.716976
