data/fiter_cube/65184230/1022642/file.cube
# Created by Adobe Lightroom plugin Export LUT (1.17.0)
# www.johnrellis.com/lightroom/exportlut.htm
# Preset: ins网红旅拍风景人像_01 云集
# Color profile: C:\Program Files (x86)\Common Files\Adobe\Color\Profiles\Recommended\AdobeRGB1998.icc
LUT_3D_SIZE 8
DOMAIN_MIN 0.000000 0.000000 0.000000
DOMAIN_MAX 0.903226 0.903226 0.903226
0.000000 0.000000 0.000000
0.218570 0.000000 0.000000
0.441627 0.000000 0.000000
0.648707 0.000000 0.000000
0.812619 0.000000 0.000000
0.925750 0.000000 0.000000
1.000000 0.000000 0.000000
1.000000 0.000000 0.000000
0.000000 0.186862 0.018128
0.222446 0.163302 0.000000
0.423438 0.145266 0.000000
0.634211 0.122072 0.000000
0.804959 0.069368 0.000000
0.922423 0.000000 0.000000
1.000000 0.000000 0.000000
1.000000 0.000000 0.000000
0.000000 0.398322 0.000000
0.191745 0.392370 0.000000
0.438453 0.320012 0.000000
0.582055 0.285222 0.000000
0.770535 0.274144 0.000000
0.904204 0.243351 0.000000
1.000000 0.203586 0.000000
1.000000 0.147005 0.000000
0.000000 0.613489 0.000000
0.179446 0.610376 0.006531
0.457282 0.584314 0.000000
0.641199 0.468360 0.000000
0.753262 0.416632 0.000000
0.871824 0.381659 0.000000
0.989410 0.350958 0.000000
1.000000 0.308782 0.000000
0.000000 0.778500 0.059998
0.163149 0.775967 0.093629
0.404242 0.764736 0.143740
0.660609 0.723720 0.000000
0.799802 0.585016 0.000000
0.884886 0.522606 0.000000
0.972717 0.474891 0.000000
1.000000 0.436774 0.000000
0.000000 0.887541 0.152773
0.168795 0.884947 0.166384
0.371649 0.878233 0.210941
0.591485 0.857755 0.178958
0.811826 0.821317 0.000000
0.916533 0.671992 0.000000
0.989105 0.608270 0.000000
1.000000 0.557214 0.000000
0.070710 0.967315 0.219516
0.188510 0.965637 0.229496
0.358221 0.960327 0.263584
0.529107 0.950225 0.302159
0.732662 0.929473 0.215213
0.933715 0.900816 0.000000
1.000000 0.745174 0.000000
1.000000 0.678553 0.000000
0.129885 1.000000 0.274876
0.206424 1.000000 0.285100
0.352514 1.000000 0.319310
0.506493 1.000000 0.377081
0.666743 1.000000 0.381781
0.842100 0.986633 0.312322
1.000000 0.963622 0.199893
1.000000 0.798795 0.132662
0.000000 0.124788 0.200443
0.201785 0.000000 0.177493
0.446754 0.000000 0.138643
0.650599 0.000000 0.112337
0.813535 0.000000 0.061494
0.926665 0.000000 0.000000
1.000000 0.000000 0.000000
1.000000 0.000000 0.000000
0.000000 0.200107 0.180453
0.212406 0.185885 0.160281
0.425422 0.167025 0.135683
0.636164 0.139712 0.100984
0.805081 0.094728 0.029603
0.922545 0.000000 0.000000
1.000000 0.000000 0.000000
1.000000 0.000000 0.000000
0.075288 0.401160 0.199649
0.207736 0.397192 0.175387
0.435584 0.330053 0.129763
0.583612 0.291051 0.051698
0.772946 0.278630 0.000000
0.905455 0.248508 0.000000
1.000000 0.210361 0.000000
1.000000 0.156985 0.000000
0.000000 0.616052 0.184176
0.196292 0.613092 0.175509
0.454261 0.589715 0.161959
0.641993 0.475441 0.067903
0.753109 0.419379 0.000000
0.875059 0.384619 0.000000
0.991363 0.353735 0.000000
1.000000 0.312047 0.000000
0.000000 0.779080 0.181033
0.181308 0.776913 0.190372
0.404547 0.767758 0.228641
0.658717 0.727443 0.129946
0.799954 0.589776 0.000000
0.884184 0.524712 0.000000
0.972442 0.475593 0.000000
1.000000 0.438422 0.000000
0.000000 0.888182 0.220737
0.194247 0.886229 0.231174
0.383612 0.879484 0.265476
0.592065 0.859983 0.245792
0.809812 0.823392 0.116976
0.915587 0.674952 0.000000
0.988403 0.610346 0.000000
1.000000 0.558312 0.000000
0.134066 0.967742 0.269749
0.217441 0.966308 0.278355
0.373297 0.960845 0.307500
0.535821 0.950958 0.349310
0.732357 0.930510 0.269322
0.931518 0.902159 0.119539
1.000000 0.747646 0.000000
1.000000 0.679500 0.000000
0.168093 1.000000 0.308202
0.227543 1.000000 0.314549
0.362280 1.000000 0.341650
0.509697 1.000000 0.387915
0.665095 1.000000 0.382055
0.840848 0.986816 0.312993
1.000000 0.963989 0.201724
1.000000 0.799313 0.134310
0.000000 0.319036 0.485756
0.000000 0.118715 0.429511
0.411078 0.011292 0.351110
0.657038 0.000000 0.322576
0.821225 0.000000 0.278508
0.925200 0.048981 0.257481
1.000000 0.000000 0.234165
1.000000 0.000000 0.208316
0.000000 0.378302 0.456611
0.129732 0.305913 0.413245
0.415259 0.200656 0.341161
0.657343 0.177462 0.310307
0.811673 0.157321 0.274510
0.921263 0.148409 0.252201
1.000000 0.111177 0.229984
1.000000 0.000000 0.204593
0.000000 0.415930 0.370184
0.167300 0.401129 0.354406
0.417121 0.363958 0.312444
0.603784 0.328191 0.272313
0.779110 0.303624 0.248386
0.905089 0.276982 0.229526
1.000000 0.245426 0.211856
1.000000 0.202579 0.188479
0.011444 0.616602 0.391119
0.238956 0.609979 0.380957
0.425605 0.601404 0.348882
0.631586 0.493416 0.273808
0.738521 0.424445 0.206271
0.875669 0.397040 0.186526
0.989776 0.367742 0.175631
1.000000 0.328832 0.155215
0.224613 0.773922 0.407691
0.260349 0.773800 0.381384
0.418555 0.767971 0.367773
0.643183 0.734218 0.323461
0.791684 0.601831 0.246189
0.875273 0.530571 0.175265
0.970825 0.481544 0.105135
1.000000 0.446052 0.083436
0.258824 0.884123 0.407446
0.286717 0.883757 0.390997
0.418585 0.878660 0.393317
0.594751 0.863676 0.401221
0.799405 0.828122 0.310124
0.910216 0.685725 0.230289
0.984070 0.617639 0.148135
1.000000 0.562371 0.000000
0.304967 0.963195 0.430457
0.323217 0.962951 0.419776
0.419593 0.959197 0.421576
0.565209 0.950011 0.461372
0.731655 0.932311 0.408362
0.921386 0.904936 0.304662
1.000000 0.756924 0.221927
1.000000 0.685695 0.099214
0.335058 1.000000 0.456092
0.343359 1.000000 0.445838
0.414008 1.000000 0.443000
0.544671 1.000000 0.479622
0.678462 1.000000 0.490669
0.836820 0.987304 0.407568
1.000000 0.965240 0.276219
1.000000 0.800565 0.144167
0.000000 0.494423 0.752377
0.000000 0.399634 0.717617
0.347387 0.142519 0.587762
0.616236 0.073274 0.525109
0.807309 0.101045 0.479927
0.926482 0.219516 0.445960
1.000000 0.271885 0.432624
1.000000 0.256931 0.409857
0.000000 0.564080 0.742672
0.000000 0.491981 0.709529
0.353796 0.247929 0.584375
0.617121 0.199283 0.517906
0.805844 0.210910 0.475502
0.924376 0.284215 0.450446
1.000000 0.291539 0.428595
1.000000 0.268040 0.403967
0.000000 0.617884 0.679988
0.000000 0.602869 0.667292
0.406561 0.486702 0.587060
0.619745 0.385779 0.496773
0.798734 0.392767 0.468544
0.907897 0.366217 0.431800
0.998749 0.343511 0.408820
1.000000 0.310674 0.385138
0.000000 0.637751 0.567895
0.000000 0.626032 0.555688
0.387671 0.600244 0.521172
0.609613 0.533562 0.459998
0.743404 0.470253 0.399847
0.880034 0.445899 0.385626
0.987488 0.418250 0.372625
1.000000 0.385229 0.357153
0.000000 0.778286 0.552941
0.211887 0.775509 0.548730
0.468605 0.759426 0.549554
0.623926 0.745235 0.522026
0.775326 0.629053 0.425940
0.858457 0.545647 0.343633
0.969665 0.505760 0.317632
1.000000 0.474525 0.314672
0.317021 0.880888 0.563287
0.385931 0.876921 0.569604
0.493019 0.872038 0.560388
0.616510 0.865354 0.567926
0.780087 0.834958 0.500008
0.897368 0.707668 0.405982
0.974517 0.633204 0.326085
1.000000 0.572259 0.253330
0.473823 0.953552 0.614282
0.484596 0.953277 0.607233
0.517235 0.952758 0.582544
0.606531 0.947539 0.582513
0.736690 0.934142 0.575189
0.901793 0.909453 0.486702
0.997772 0.776669 0.397131
1.000000 0.701625 0.306310
0.518730 1.000000 0.635798
0.522942 1.000000 0.629389
0.534661 1.000000 0.604822
0.590723 1.000000 0.591180
0.705501 0.999359 0.626673
0.832731 0.987549 0.564141
0.999054 0.968048 0.459998
1.000000 0.817502 0.347906
0.000000 0.587793 0.890227
0.000000 0.545800 0.876707
0.000000 0.295628 0.830320
0.545708 0.155154 0.688594
0.770077 0.153384 0.660517
0.905516 0.243595 0.605982
0.995178 0.356085 0.587518
1.000000 0.469154 0.611231
0.000000 0.639887 0.887114
0.000000 0.603662 0.874083
0.000000 0.407294 0.826474
0.549187 0.235966 0.687800
0.769863 0.235477 0.656458
0.903868 0.301457 0.606561
0.993072 0.394202 0.593194
1.000000 0.494484 0.619226
0.000000 0.730709 0.869078
0.000000 0.728450 0.865385
0.423438 0.652583 0.823728
0.564446 0.413428 0.689448
0.768368 0.405463 0.645197
0.897795 0.444221 0.613519
0.986023 0.500847 0.615045
1.000000 0.537285 0.624872
0.000000 0.775509 0.811490
0.000000 0.769802 0.806088
0.444556 0.747341 0.783810
0.611749 0.634180 0.699886
0.762753 0.581842 0.636194
0.884520 0.579980 0.620539
0.977295 0.555779 0.598718
1.000000 0.528099 0.578149
0.000000 0.800046 0.716335
0.000000 0.792905 0.709621
0.360021 0.764096 0.684199
0.613947 0.743099 0.666590
0.750118 0.674586 0.604181
0.848264 0.598322 0.531762
0.966461 0.577508 0.527855
1.000000 0.554711 0.523125
0.134890 0.884916 0.679408
0.256016 0.882933 0.679133
0.469581 0.874754 0.683925
0.658137 0.858824 0.698390
0.762387 0.847959 0.675319
0.877501 0.744442 0.578027
0.958404 0.659907 0.484169
1.000000 0.613397 0.455787
0.380560 0.960998 0.682795
0.433906 0.958221 0.688869
0.570886 0.948974 0.711421
0.675471 0.941741 0.719173
0.749630 0.938201 0.715145
0.876951 0.917113 0.655116
0.980865 0.808865 0.566217
1.000000 0.730770 0.473671
0.535790 1.000000 0.720882
0.567590 1.000000 0.729213
0.657343 1.000000 0.756191
0.690700 1.000000 0.740139
0.729641 0.998749 0.716548
0.831296 0.988251 0.708827
0.971160 0.972137 0.629480
1.000000 0.847166 0.528893
0.000000 0.640772 0.963165
0.000000 0.622004 0.958190
0.000000 0.517296 0.940429
0.408392 0.342290 0.892088
0.697475 0.221012 0.802914
0.878111 0.269627 0.763424
0.978119 0.374090 0.716243
1.000000 0.483833 0.708278
0.000000 0.679500 0.962493
0.000000 0.663691 0.957671
0.093660 0.583673 0.938506
0.430213 0.402747 0.891936
0.700191 0.278874 0.801297
0.877440 0.321813 0.761929
0.976593 0.409949 0.718685
1.000000 0.508019 0.713436
0.000000 0.781888 0.959167
0.000000 0.779782 0.956786
0.443244 0.738949 0.935851
0.512596 0.568322 0.891203
0.708003 0.422492 0.793942
0.873686 0.453651 0.757321
0.970764 0.510246 0.727718
1.000000 0.578180 0.729580
0.000000 0.831022 0.935454
0.184665 0.833005 0.933959
0.530938 0.841123 0.928252
0.691432 0.791409 0.894499
0.719661 0.584833 0.781582
0.866606 0.600336 0.754269
0.962219 0.627680 0.743038
1.000000 0.668452 0.753994
0.000000 0.880278 0.895293
0.220066 0.878111 0.893187
0.489662 0.869749 0.885222
0.678340 0.851438 0.868437
0.752163 0.758267 0.801724
0.860990 0.725216 0.758358
0.954376 0.727077 0.757259
1.000000 0.719203 0.752895
0.000000 0.911406 0.824125
0.170291 0.906920 0.821256
0.402777 0.890745 0.811032
0.580316 0.862181 0.791440
0.756741 0.847379 0.788235
0.850889 0.788479 0.732662
0.939239 0.722835 0.672450
1.000000 0.712947 0.681910
0.219181 0.963561 0.780301
0.298283 0.961669 0.781064
0.472267 0.955138 0.786435
0.645228 0.945495 0.799069
0.789639 0.932403 0.820645
0.859464 0.927825 0.801999
0.957641 0.848356 0.721035
1.000000 0.774685 0.639765
0.411841 1.000000 0.774441
0.454047 1.000000 0.779019
0.571771 1.000000 0.795346
0.705653 1.000000 0.821500
0.808347 0.990753 0.843809
0.843809 0.989014 0.824582
0.942809 0.976806 0.779385
1.000000 0.887114 0.698848
0.000000 0.669947 1.000000
0.000000 0.663874 1.000000
0.000000 0.635676 0.994537
0.228946 0.479591 0.982483
0.603479 0.398688 0.942412
0.819944 0.318914 0.897032
0.957885 0.391577 0.849516
1.000000 0.496742 0.810239
0.000000 0.695155 1.000000
0.000000 0.689662 0.999481
0.230381 0.678004 0.990082
0.320989 0.533410 0.977722
0.605982 0.431922 0.936858
0.812772 0.341711 0.887541
0.949737 0.402228 0.840726
1.000000 0.497292 0.804074
0.000000 0.778836 1.000000
0.000000 0.775570 0.998413
0.417517 0.772366 0.988678
0.546105 0.699275 0.973205
0.646357 0.563500 0.936370
0.817472 0.456764 0.883879
0.948638 0.506004 0.843259
1.000000 0.579614 0.817990
0.000000 0.843656 0.993164
0.069123 0.848905 0.992004
0.525383 0.870085 0.988128
0.717159 0.854795 0.973846
0.719142 0.726741 0.941924
0.828000 0.602350 0.882048
0.946807 0.631769 0.849668
1.000000 0.675349 0.835111
0.000000 0.893919 0.975525
0.203159 0.894987 0.974273
0.505394 0.901030 0.971283
0.717830 0.911833 0.969177
0.823850 0.883757 0.950652
0.822202 0.712154 0.868803
0.935912 0.727810 0.846952
1.000000 0.763790 0.851469
0.000000 0.946746 0.949248
0.243839 0.945556 0.948608
0.480415 0.941497 0.946349
0.670344 0.935821 0.943664
0.807340 0.927398 0.938994
0.860685 0.868559 0.901061
0.935637 0.834012 0.862303
1.000000 0.847654 0.872526
0.078431 0.988434 0.902098
0.226871 0.986297 0.902007
0.422797 0.976776 0.899626
0.590814 0.961669 0.895445
0.717830 0.938842 0.884245
0.855619 0.927398 0.885649
0.930083 0.885588 0.847013
1.000000 0.839384 0.808621
0.171633 1.000000 0.857664
0.257939 1.000000 0.858488
0.440192 1.000000 0.864561
0.612970 1.000000 0.873991
0.762997 0.997009 0.888762
0.880980 0.984894 0.910430
0.928771 0.981384 0.900816
1.000000 0.927367 0.837949
0.000000 0.675044 1.000000
0.000000 0.671687 1.000000
0.000000 0.683406 1.000000
0.259861 0.602319 1.000000
0.470954 0.501427 1.000000
0.710414 0.413092 0.975738
0.899443 0.387366 0.958312
1.000000 0.480964 0.913603
0.000000 0.691676 1.000000
0.000000 0.688899 1.000000
0.000000 0.699855 1.000000
0.340948 0.638148 1.000000
0.488380 0.530907 1.000000
0.711208 0.439094 0.973480
0.896574 0.404547 0.954742
1.000000 0.494301 0.911711
0.000000 0.745663 1.000000
0.000000 0.743496 1.000000
0.142672 0.751461 1.000000
0.539818 0.751339 1.000000
0.564385 0.634485 0.997406
0.725093 0.535424 0.971374
0.895933 0.483711 0.951080
1.000000 0.560723 0.913054
0.000000 0.807340 1.000000
0.000000 0.810697 1.000000
0.131228 0.826505 1.000000
0.636042 0.845029 1.000000
0.695888 0.781399 0.993500
0.758022 0.672541 0.972656
0.898131 0.597009 0.949279
1.000000 0.657374 0.918639
0.000000 0.859312 1.000000
0.000000 0.860533 1.000000
0.000000 0.868742 1.000000
0.564813 0.893553 1.000000
0.801907 0.902281 0.992859
0.800961 0.802365 0.976196
0.897459 0.706233 0.946319
0.995361 0.745022 0.921447
0.000000 0.921294 0.997559
0.000000 0.921111 0.997101
0.000000 0.922576 0.995544
0.543847 0.929595 0.993439
0.774441 0.942901 0.992248
0.901457 0.942046 0.986023
0.904845 0.822171 0.949798
0.989746 0.834653 0.929046
0.000000 0.990204 0.985107
0.000000 0.989044 0.984771
0.209079 0.985229 0.983886
0.551263 0.980072 0.983124
0.760861 0.976074 0.983215
0.892241 0.974029 0.983337
0.942596 0.952148 0.971771
0.982513 0.907591 0.936065
0.000000 1.000000 0.955230
0.000000 1.000000 0.954803
0.214420 1.000000 0.953979
0.503166 1.000000 0.953979
0.690120 1.000000 0.953948
0.817350 0.991455 0.952483
0.917693 0.978058 0.951904
0.978607 0.955535 0.936187
