data/fiter_cube/65184230/1022642/file.cube
# Created by Adobe Lightroom plugin Export LUT (1.17.0)
# www.johnrellis.com/lightroom/exportlut.htm
# Preset: ins网红旅拍风景人像_01 云集
# Color profile: C:\Program Files (x86)\Common Files\Adobe\Color\Profiles\Recommended\AdobeRGB1998.icc
LUT_3D_SIZE 32
DOMAIN_MIN 0.0 0.0 0.0
DOMAIN_MAX 1.0 1.0 1.0
0.000000 0.000000 0.000000
0.059327 0.000000 0.000000
0.089418 0.000000 0.000885
0.148104 0.000000 0.000000
0.218570 0.000000 0.000000
0.280674 0.000000 0.000000
0.336767 0.000000 0.000000
0.389593 0.000000 0.000000
0.441627 0.000000 0.000000
0.493843 0.000000 0.000000
0.547204 0.000000 0.000000
0.599176 0.000000 0.000000
0.648707 0.000000 0.000000
0.695674 0.000000 0.000000
0.738857 0.000000 0.000000
0.777493 0.000000 0.000000
0.812619 0.000000 0.000000
0.844663 0.000000 0.000000
0.873442 0.000000 0.000000
0.900328 0.000000 0.000000
0.925750 0.000000 0.000000
0.949920 0.000000 0.000000
0.972900 0.000000 0.000000
0.994690 0.000000 0.000000
1.000000 0.000000 0.000000
1.000000 0.000000 0.000000
1.000000 0.000000 0.000000
1.000000 0.000000 0.000000
1.000000 0.000000 0.000000
1.000000 0.000000 0.000000
1.000000 0.000000 0.000000
1.000000 0.000000 0.000000
0.000000 0.047120 0.007050
0.060883 0.036805 0.000610
0.090883 0.032715 0.000000
0.148653 0.033967 0.000000
0.217838 0.021729 0.000000
0.279118 0.000000 0.000000
0.335332 0.000000 0.000000
0.388037 0.000000 0.000000
0.440009 0.000000 0.000000
0.492409 0.000000 0.000000
0.545953 0.000000 0.000000
0.598108 0.000000 0.000000
0.647700 0.000000 0.000000
0.694881 0.000000 0.000000
0.738491 0.000000 0.000000
0.777127 0.000000 0.000000
0.812436 0.000000 0.000000
0.844572 0.000000 0.000000
0.873442 0.000000 0.000000
0.900420 0.000000 0.000000
0.925872 0.000000 0.000000
0.950042 0.000000 0.000000
0.973083 0.000000 0.000000
0.994873 0.000000 0.000000
1.000000 0.000000 0.000000
1.000000 0.000000 0.000000
1.000000 0.000000 0.000000
1.000000 0.000000 0.000000
1.000000 0.000000 0.000000
1.000000 0.000000 0.000000
1.000000 0.000000 0.000000
1.000000 0.000000 0.000000
0.000000 0.078523 0.010986
0.056489 0.077760 0.008392
0.093080 0.069490 0.003204
0.149569 0.074769 0.000000
0.216617 0.075349 0.000000
0.277562 0.068360 0.000000
0.332921 0.054902 0.000000
0.385626 0.022919 0.000000
0.437598 0.000000 0.000000
0.490028 0.000000 0.000000
0.543481 0.000000 0.000000
0.595880 0.000000 0.000000
0.645747 0.000000 0.000000
0.693416 0.000000 0.000000
0.737087 0.000000 0.000000
0.776059 0.000000 0.000000
0.811551 0.000000 0.000000
0.843809 0.000000 0.000000
0.872862 0.000000 0.000000
0.899901 0.000000 0.000000
0.925505 0.000000 0.000000
0.949828 0.000000 0.000000
0.972839 0.000000 0.000000
0.994720 0.000000 0.000000
1.000000 0.000000 0.000000
1.000000 0.000000 0.000000
1.000000 0.000000 0.000000
1.000000 0.000000 0.000000
1.000000 0.000000 0.000000
1.000000 0.000000 0.000000
1.000000 0.000000 0.000000
1.000000 0.000000 0.000000
0.000000 0.127321 0.019867
0.050629 0.126070 0.017639
0.098329 0.126467 0.012634
0.155795 0.115206 0.000000
0.216983 0.118624 0.000000
0.272740 0.115602 0.000000
0.327337 0.110292 0.000000
0.379858 0.103456 0.000000
0.431861 0.094881 0.000000
0.484260 0.085084 0.000000
0.537926 0.072786 0.000000
0.590784 0.057740 0.000000
0.640955 0.023957 0.000000
0.689448 0.000000 0.000000
0.733639 0.000000 0.000000
0.773129 0.000000 0.000000
0.809201 0.000000 0.000000
0.841825 0.000000 0.000000
0.871275 0.000000 0.000000
0.898619 0.000000 0.000000
0.924559 0.000000 0.000000
0.949035 0.000000 0.000000
0.972229 0.000000 0.000000
0.994202 0.000000 0.000000
1.000000 0.000000 0.000000
1.000000 0.000000 0.000000
1.000000 0.000000 0.000000
1.000000 0.000000 0.000000
1.000000 0.000000 0.000000
1.000000 0.000000 0.000000
1.000000 0.000000 0.000000
1.000000 0.000000 0.000000
0.000000 0.186862 0.018128
0.026581 0.185946 0.007111
0.087892 0.184054 0.018250
0.162570 0.183810 0.000000
0.222446 0.163302 0.000000
0.276219 0.161379 0.000000
0.319554 0.153597 0.000000
0.371557 0.149813 0.000000
0.423438 0.145266 0.000000
0.475593 0.140749 0.000000
0.529320 0.135286 0.000000
0.582635 0.130190 0.000000
0.634211 0.122072 0.000000
0.683345 0.112703 0.000000
0.727993 0.100893 0.000000
0.768215 0.087129 0.000000
0.804959 0.069368 0.000000
0.838193 0.032380 0.000000
0.868193 0.000000 0.000000
0.896147 0.000000 0.000000
0.922423 0.000000 0.000000
0.947326 0.000000 0.000000
0.970886 0.000000 0.000000
0.993072 0.000000 0.000000
1.000000 0.000000 0.000000
1.000000 0.000000 0.000000
1.000000 0.000000 0.000000
1.000000 0.000000 0.000000
1.000000 0.000000 0.000000
1.000000 0.000000 0.000000
1.000000 0.000000 0.000000
1.000000 0.000000 0.000000
0.000000 0.243137 0.000000
0.000000 0.242283 0.000000
0.078340 0.240757 0.000000
0.150637 0.238499 0.000000
0.228000 0.234806 0.000000
0.281163 0.205600 0.000000
0.329686 0.201083 0.000000
0.368109 0.191897 0.000000
0.411444 0.186007 0.000000
0.463691 0.183810 0.000000
0.517327 0.181582 0.000000
0.571801 0.178378 0.000000
0.624109 0.173861 0.000000
0.674372 0.167788 0.000000
0.719844 0.160311 0.000000
0.761318 0.151522 0.000000
0.798978 0.141817 0.000000
0.833036 0.130800 0.000000
0.863798 0.118715 0.000000
0.892363 0.105684 0.000000
0.919249 0.089967 0.000000
0.944671 0.069581 0.000000
0.965545 0.021729 0.000000
0.988464 0.000000 0.000000
1.000000 0.000000 0.000000
1.000000 0.000000 0.000000
1.000000 0.000000 0.000000
1.000000 0.000000 0.000000
1.000000 0.000000 0.000000
1.000000 0.000000 0.000000
1.000000 0.000000 0.000000
1.000000 0.000000 0.000000
0.000000 0.294530 0.000000
0.000000 0.293584 0.000000
0.063050 0.292393 0.000000
0.133272 0.289830 0.000000
0.216251 0.286015 0.000000
0.288731 0.279820 0.000000
0.333501 0.243473 0.000000
0.378698 0.238132 0.000000
0.414832 0.228428 0.000000
0.449989 0.219730 0.000000
0.501091 0.218296 0.000000
0.555932 0.217563 0.000000
0.609339 0.215488 0.000000
0.660029 0.211734 0.000000
0.707576 0.206455 0.000000
0.750759 0.199771 0.000000
0.789914 0.192142 0.000000
0.825315 0.183383 0.000000
0.857115 0.173861 0.000000
0.886534 0.163912 0.000000
0.914061 0.153017 0.000000
0.939910 0.141329 0.000000
0.964172 0.128389 0.000000
0.987121 0.113466 0.000000
1.000000 0.095949 0.000000
1.000000 0.072969 0.000000
1.000000 0.016236 0.000000
1.000000 0.000000 0.000000
1.000000 0.000000 0.000000
1.000000 0.000000 0.000000
1.000000 0.000000 0.000000
1.000000 0.000000 0.000000
0.000000 0.346044 0.000000
0.000000 0.345373 0.000000
0.029908 0.344488 0.000000
0.126680 0.342290 0.000000
0.204837 0.338537 0.000000
0.280522 0.332494 0.000000
0.348821 0.324224 0.000000
0.385840 0.281621 0.000000
0.429450 0.275883 0.000000
0.464485 0.265934 0.000000
0.499214 0.257053 0.000000
0.540734 0.251987 0.000000
0.594720 0.251774 0.000000
0.646479 0.250004 0.000000
0.695735 0.246769 0.000000
0.740475 0.241794 0.000000
0.781216 0.235294 0.000000
0.817838 0.227787 0.000000
0.850767 0.219577 0.000000
0.881224 0.210697 0.000000
0.909606 0.201266 0.000000
0.936278 0.191257 0.000000
0.961242 0.180667 0.000000
0.984741 0.169223 0.000000
1.000000 0.156741 0.000000
1.000000 0.143313 0.000000
1.000000 0.127871 0.000000
1.000000 0.107454 0.000000
1.000000 0.078737 0.000000
1.000000 0.002075 0.000000
1.000000 0.000000 0.000000
1.000000 0.000000 0.000000
0.000000 0.398322 0.000000
0.000000 0.397650 0.000000
0.000000 0.396979 0.000000
0.122316 0.395117 0.000000
0.191745 0.392370 0.000000
0.271794 0.386450 0.000000
0.342779 0.378637 0.000000
0.403021 0.364416 0.000000
0.438453 0.320012 0.000000
0.480995 0.314092 0.000000
0.515587 0.303929 0.000000
0.549157 0.294194 0.000000
0.582055 0.285222 0.000000
0.630549 0.283665 0.000000
0.681361 0.282475 0.000000
0.728084 0.279179 0.000000
0.770535 0.274144 0.000000
0.808835 0.267582 0.000000
0.843046 0.260014 0.000000
0.874754 0.251987 0.000000
0.904204 0.243351 0.000000
0.931792 0.233982 0.000000
0.957549 0.224430 0.000000
0.981689 0.214359 0.000000
1.000000 0.203586 0.000000
1.000000 0.191928 0.000000
1.000000 0.179599 0.000000
1.000000 0.164828 0.000000
1.000000 0.147005 0.000000
1.000000 0.126833 0.000000
1.000000 0.102266 0.000000
1.000000 0.068635 0.000000
0.000000 0.451820 0.000000
0.000000 0.451392 0.000000
0.000000 0.450843 0.000000
0.118776 0.449439 0.000000
0.186374 0.447456 0.000519
0.263493 0.442390 0.000000
0.337346 0.434760 0.000000
0.404883 0.425025 0.000000
0.454841 0.402197 0.000000
0.491676 0.359014 0.000000
0.532952 0.352361 0.000000
0.565881 0.341192 0.000000
0.597681 0.330541 0.000000
0.628931 0.320714 0.000000
0.665156 0.313848 0.000000
0.714046 0.312505 0.000000
0.758236 0.309056 0.000000
0.798062 0.303716 0.000000
0.833799 0.297093 0.000000
0.866941 0.289677 0.000000
0.897795 0.281682 0.000000
0.926482 0.273136 0.000000
0.953277 0.264042 0.000000
0.978241 0.254490 0.000000
1.000000 0.244450 0.000000
1.000000 0.233860 0.000000
1.000000 0.222751 0.000000
1.000000 0.209781 0.000000
1.000000 0.195041 0.000000
1.000000 0.179355 0.000000
1.000000 0.161990 0.000000
1.000000 0.142947 0.000000
0.000000 0.507866 0.000000
0.000000 0.507439 0.000000
0.000000 0.506889 0.000000
0.113771 0.505730 0.000000
0.185519 0.503899 0.000000
0.253483 0.500542 0.027588
0.332006 0.493080 0.000000
0.402136 0.483711 0.000000
0.466560 0.471870 0.000000
0.506126 0.439124 0.000000
0.544457 0.397559 0.000000
0.583612 0.389532 0.000000
0.614435 0.377234 0.000000
0.644648 0.365667 0.000000
0.674556 0.355077 0.000000
0.703761 0.345068 0.000000
0.744564 0.340826 0.000000
0.786191 0.336889 0.000000
0.823789 0.331365 0.000000
0.858488 0.324773 0.000000
0.890654 0.317418 0.000000
0.920592 0.309331 0.000000
0.948363 0.300816 0.000000
0.974182 0.291691 0.000000
0.998260 0.282322 0.000000
1.000000 0.272160 0.000000
1.000000 0.261326 0.000000
1.000000 0.249454 0.000000
1.000000 0.236240 0.000000
1.000000 0.222202 0.000000
1.000000 0.207370 0.000000
1.000000 0.191806 0.000000
0.000000 0.563378 0.000000
0.000000 0.563073 0.000000
0.000000 0.562524 0.000000
0.107668 0.561425 0.000000
0.183658 0.559808 0.000000
0.246342 0.557733 0.062684
0.323980 0.550896 0.014801
0.397162 0.541314 0.000000
0.464118 0.529839 0.000000
0.526146 0.516625 0.000000
0.556420 0.475257 0.000000
0.595056 0.434607 0.000000
0.627985 0.422583 0.000000
0.657252 0.409583 0.000000
0.685634 0.397345 0.000000
0.713313 0.385687 0.000000
0.740475 0.374823 0.000000
0.769802 0.365728 0.000000
0.809537 0.361669 0.000000
0.846250 0.356390 0.000000
0.880278 0.350072 0.000000
0.911803 0.342779 0.000000
0.940948 0.334844 0.000000
0.968048 0.326268 0.000000
0.993256 0.317144 0.000000
1.000000 0.307500 0.000000
1.000000 0.297307 0.000000
1.000000 0.286046 0.000000
1.000000 0.273564 0.000000
1.000000 0.260441 0.000000
1.000000 0.246921 0.000000
1.000000 0.232822 0.000000
0.000000 0.613489 0.000000
0.000000 0.613214 0.000000
0.000000 0.612757 0.000000
0.099428 0.611841 0.000000
0.179446 0.610376 0.006531
0.243595 0.608423 0.063844
0.311284 0.604150 0.072938
0.387640 0.595148 0.000000
0.457282 0.584314 0.000000
0.521386 0.571862 0.000000
0.581109 0.557580 0.000000
0.602441 0.507744 0.000000
0.641199 0.468360 0.000000
0.675441 0.457588 0.000000
0.701900 0.442969 0.000000
0.727779 0.429450 0.000000
0.753262 0.416632 0.000000
0.778103 0.404669 0.000000
0.802548 0.393408 0.000000
0.836179 0.386938 0.000000
0.871824 0.381659 0.000000
0.904723 0.375128 0.000000
0.935149 0.367803 0.000000
0.963317 0.359655 0.000000
0.989410 0.350958 0.000000
1.000000 0.341650 0.000000
1.000000 0.331670 0.000000
1.000000 0.320806 0.000000
1.000000 0.308782 0.000000
1.000000 0.296300 0.000000
1.000000 0.283482 0.000000
1.000000 0.269780 0.000000
0.000000 0.662257 0.000000
0.000000 0.661891 0.000000
0.000000 0.661463 0.000000
0.090211 0.660670 0.000000
0.175051 0.659205 0.022095
0.240604 0.657435 0.070680
0.300084 0.654932 0.096559
0.376593 0.647333 0.071229
0.448585 0.637232 0.000000
0.515038 0.625666 0.000000
0.577050 0.612329 0.000000
0.634913 0.597498 0.000000
0.648157 0.540093 0.000000
0.686732 0.501640 0.000000
0.717525 0.489052 0.000000
0.742397 0.473671 0.000000
0.766323 0.459144 0.000000
0.789639 0.445563 0.000000
0.812802 0.432776 0.000000
0.836576 0.421241 0.000000
0.862486 0.411322 0.000000
0.896941 0.405798 0.000000
0.928679 0.399176 0.000000
0.958038 0.391669 0.000000
0.985107 0.383429 0.000000
1.000000 0.374334 0.000000
1.000000 0.364630 0.000000
1.000000 0.353948 0.000000
1.000000 0.342382 0.000000
1.000000 0.330297 0.000000
1.000000 0.317845 0.000000
1.000000 0.304479 0.000000
0.000000 0.705531 0.000000
0.000000 0.705226 0.000000
0.000000 0.704829 0.000000
0.082551 0.704067 0.003662
0.170382 0.702754 0.053437
0.236545 0.701076 0.080629
0.296147 0.698848 0.103914
0.362158 0.693965 0.106477
0.435859 0.684932 0.070893
0.504173 0.674403 0.000000
0.567834 0.662318 0.000000
0.627832 0.648737 0.000000
0.684260 0.633753 0.000000
0.691127 0.570245 0.000000
0.728023 0.531914 0.000000
0.756039 0.517967 0.000000
0.779385 0.502068 0.000000
0.801266 0.486702 0.000000
0.823148 0.472480 0.000000
0.845701 0.459632 0.000000
0.868803 0.447761 0.000000
0.892363 0.436835 0.000000
0.921721 0.429267 0.000000
0.952361 0.422370 0.000000
0.980529 0.414557 0.000000
1.000000 0.405890 0.000000
1.000000 0.396551 0.000000
1.000000 0.386114 0.000000
1.000000 0.374731 0.000000
1.000000 0.362982 0.000000
1.000000 0.350713 0.000000
1.000000 0.337438 0.000000
0.000000 0.744076 0.000000
0.000000 0.743740 0.007568
0.000000 0.743374 0.021576
0.076234 0.742519 0.050874
0.165591 0.741238 0.074495
0.232120 0.739559 0.093904
0.291051 0.737362 0.113252
0.346441 0.734768 0.133761
0.420508 0.726833 0.110842
0.489448 0.717433 0.071565
0.554650 0.706569 0.000000
0.616175 0.694453 0.000000
0.674281 0.681086 0.000000
0.726162 0.663539 0.000000
0.731930 0.598810 0.000000
0.765621 0.559686 0.000000
0.791348 0.544640 0.000000
0.812955 0.528161 0.000000
0.833585 0.512383 0.000000
0.854826 0.498085 0.000000
0.876738 0.485145 0.000000
0.899138 0.473060 0.000000
0.921996 0.461891 0.000000
0.946014 0.451698 0.000000
0.975402 0.444526 0.000000
1.000000 0.436316 0.000000
1.000000 0.427253 0.000000
1.000000 0.417121 0.000000
1.000000 0.406165 0.000000
1.000000 0.394598 0.000000
1.000000 0.382422 0.000000
1.000000 0.369146 0.000000
0.000000 0.778500 0.059998
0.000000 0.778225 0.063325
0.000000 0.777890 0.070008
0.075807 0.777188 0.079408
0.163149 0.775967 0.093629
0.228305 0.774319 0.109346
0.286503 0.772305 0.126772
0.341344 0.769772 0.144259
0.404242 0.764736 0.143740
0.473671 0.756283 0.117525
0.539147 0.746639 0.076844
0.601373 0.735683 0.000000
0.660609 0.723720 0.000000
0.717037 0.710567 0.000000
0.760891 0.686885 0.000000
0.768887 0.624628 0.000000
0.799802 0.585016 0.000000
0.823239 0.569116 0.000000
0.843992 0.552514 0.000000
0.864103 0.536828 0.000000
0.884886 0.522606 0.000000
0.906249 0.509422 0.000000
0.928099 0.497200 0.000000
0.950317 0.485817 0.000000
0.972717 0.474891 0.000000
0.998291 0.465919 0.000000
1.000000 0.457313 0.000000
1.000000 0.447517 0.000000
1.000000 0.436774 0.000000
1.000000 0.425513 0.000000
1.000000 0.413123 0.000000
1.000000 0.399908 0.000000
0.000000 0.809079 0.087892
0.000000 0.808743 0.090394
0.000000 0.806302 0.092287
0.078798 0.805600 0.100343
0.161685 0.804501 0.111086
0.223911 0.803098 0.123934
0.281224 0.801297 0.139284
0.334874 0.799039 0.155184
0.386572 0.796414 0.172122
0.456001 0.789059 0.150851
0.521324 0.780575 0.122927
0.583459 0.771054 0.081331
0.643214 0.760464 0.000000
0.700587 0.748959 0.000000
0.755734 0.736385 0.000000
0.792142 0.707393 0.000000
0.802304 0.647456 0.000000
0.830594 0.607904 0.000000
0.852201 0.591363 0.000000
0.872343 0.574975 0.000000
0.892210 0.559564 0.000000
0.912596 0.545312 0.000000
0.933532 0.532158 0.000000
0.954925 0.519951 0.000000
0.976593 0.508293 0.000000
0.998383 0.497200 0.000000
1.000000 0.486580 0.000000
1.000000 0.477150 0.000000
1.000000 0.466835 0.000000
1.000000 0.455756 0.000000
1.000000 0.443214 0.000000
1.000000 0.429938 0.000000
0.000000 0.836698 0.111238
0.000000 0.836240 0.113100
0.000000 0.835660 0.115633
0.086671 0.834806 0.121370
0.161837 0.833616 0.130343
0.222782 0.832181 0.141573
0.278141 0.830442 0.154421
0.330724 0.828336 0.168826
0.381231 0.825925 0.184604
0.439704 0.821225 0.182681
0.504692 0.813779 0.160128
0.566735 0.805386 0.131319
0.626459 0.796109 0.089754
0.684230 0.785885 0.000000
0.739956 0.774746 0.000000
0.793973 0.762631 0.000000
0.823545 0.728328 0.000000
0.835172 0.670344 0.000000
0.861143 0.630640 0.000000
0.881071 0.613489 0.000000
0.900359 0.597070 0.000000
0.919768 0.581720 0.000000
0.939727 0.567559 0.000000
0.960204 0.554345 0.000000
0.980987 0.541955 0.000000
1.000000 0.530114 0.000000
1.000000 0.518456 0.000000
1.000000 0.506798 0.000000
1.000000 0.496345 0.000000
1.000000 0.485084 0.000000
1.000000 0.472633 0.000000
1.000000 0.459297 0.000000
0.000000 0.863157 0.132815
0.000000 0.862730 0.134340
0.000000 0.862242 0.136538
0.096315 0.861448 0.141176
0.164950 0.860349 0.148592
0.222416 0.859007 0.158236
0.275792 0.857389 0.169802
0.326818 0.855436 0.183108
0.376104 0.853178 0.197726
0.424445 0.850462 0.212253
0.488472 0.843961 0.193179
0.549798 0.836637 0.169863
0.609125 0.828397 0.139895
0.666651 0.819364 0.098573
0.722591 0.809445 0.000000
0.777005 0.798764 0.000000
0.829923 0.787259 0.000000
0.853117 0.747982 0.000000
0.865965 0.691646 0.000000
0.889891 0.652003 0.000000
0.908354 0.634516 0.000000
0.926726 0.618006 0.000000
0.945800 0.602777 0.000000
0.965393 0.588678 0.000000
0.985412 0.575463 0.000000
1.000000 0.562860 0.000000
1.000000 0.550744 0.000000
1.000000 0.538659 0.000000
1.000000 0.526604 0.000000
1.000000 0.513939 0.000000
1.000000 0.501488 0.000000
1.000000 0.488106 0.000000
0.000000 0.887541 0.152773
0.000000 0.887205 0.154055
0.000000 0.886748 0.155917
0.107057 0.886015 0.159884
0.168795 0.884947 0.166384
0.223087 0.883726 0.175296
0.274296 0.882200 0.185550
0.323613 0.880369 0.197452
0.371649 0.878233 0.210941
0.418524 0.875761 0.225925
0.472908 0.871397 0.223484
0.533135 0.864958 0.203311
0.591485 0.857755 0.178958
0.648493 0.849790 0.149020
0.704219 0.841062 0.107271
0.758602 0.831601 0.000000
0.811826 0.821317 0.000000
0.863706 0.810330 0.000000
0.880766 0.766232 0.000000
0.894469 0.711482 0.000000
0.916533 0.671992 0.000000
0.933715 0.654078 0.000000
0.951110 0.637324 0.000000
0.969848 0.622309 0.000000
0.989105 0.608270 0.000000
1.000000 0.595056 0.000000
1.000000 0.582391 0.000000
1.000000 0.570062 0.000000
1.000000 0.557214 0.000000
1.000000 0.543694 0.000000
1.000000 0.529686 0.000000
1.000000 0.516533 0.000000
0.000000 0.909392 0.170443
0.000000 0.909178 0.171847
0.040803 0.908843 0.173342
0.116884 0.908263 0.177188
0.172519 0.907408 0.183047
0.224063 0.906249 0.190951
0.273075 0.904814 0.200717
0.320806 0.903044 0.211582
0.367346 0.900999 0.224002
0.413031 0.898619 0.237827
0.458228 0.895903 0.251804
0.516930 0.890288 0.233829
0.574151 0.883970 0.212558
0.630030 0.877043 0.188022
0.685023 0.869413 0.157046
0.739162 0.861051 0.115450
0.792142 0.852018 0.008576
0.844327 0.842313 0.000000
0.895384 0.831998 0.000000
0.906950 0.783322 0.000000
0.921569 0.730190 0.000000
0.942168 0.691066 0.000000
0.958404 0.673060 0.000000
0.974945 0.656306 0.000000
0.993530 0.641444 0.000000
1.000000 0.627558 0.000000
1.000000 0.614435 0.000000
1.000000 0.601587 0.000000
1.000000 0.587976 0.000000
1.000000 0.574090 0.000000
1.000000 0.560021 0.000000
1.000000 0.545647 0.000000
0.000000 0.930266 0.187900
0.009369 0.930022 0.189090
0.077211 0.929747 0.190646
0.128725 0.929168 0.194217
0.177890 0.928374 0.199619
0.225864 0.927276 0.206790
0.272923 0.925933 0.215579
0.318547 0.924285 0.225742
0.363989 0.922362 0.237888
0.408515 0.920134 0.250950
0.452125 0.917632 0.265141
0.502281 0.913695 0.262974
0.557733 0.908263 0.244572
0.612512 0.902190 0.222477
0.666407 0.895506 0.197238
0.719692 0.888243 0.166140
0.772305 0.880278 0.124300
0.824216 0.871763 0.035615
0.875486 0.862577 0.000000
0.925933 0.852903 0.000000
0.932280 0.800015 0.000000
0.947478 0.748074 0.000000
0.966766 0.709468 0.000000
0.982086 0.691341 0.000000
0.998047 0.674525 0.000000
1.000000 0.659998 0.000000
1.000000 0.646448 0.000000
1.000000 0.632532 0.000000
1.000000 0.618524 0.000000
1.000000 0.604486 0.000000
1.000000 0.590326 0.000000
1.000000 0.576226 0.000000
0.010773 0.949187 0.204257
0.066926 0.948974 0.205112
0.096712 0.948669 0.206546
0.138064 0.948180 0.209476
0.182986 0.947417 0.214633
0.227665 0.946441 0.221195
0.272465 0.945190 0.229709
0.316747 0.943694 0.239322
0.360906 0.941894 0.250492
0.404211 0.939818 0.263371
0.446906 0.937499 0.277195
0.488991 0.934905 0.291081
0.542687 0.930236 0.273838
0.595697 0.925048 0.254765
0.648371 0.919310 0.232517
0.700618 0.913054 0.206302
0.752468 0.906188 0.175082
0.803891 0.898772 0.133822
0.854917 0.890806 0.061158
0.905455 0.882231 0.000000
0.950195 0.868437 0.000000
0.956909 0.816342 0.000000
0.972625 0.765774 0.000000
0.990875 0.727443 0.000000
1.000000 0.709255 0.000000
1.000000 0.692226 0.000000
1.000000 0.677607 0.000000
1.000000 0.663081 0.000000
1.000000 0.648829 0.000000
1.000000 0.634516 0.000000
1.000000 0.620386 0.000000
1.000000 0.606409 0.000000
0.070710 0.967315 0.219516
0.091279 0.967071 0.220615
0.112642 0.966827 0.221805
0.148074 0.966369 0.224979
0.188510 0.965637 0.229496
0.230686 0.964691 0.235935
0.273289 0.963500 0.243961
0.315831 0.962036 0.253056
0.358221 0.960327 0.263584
0.400458 0.958343 0.275700
0.441932 0.956146 0.288945
0.483070 0.953643 0.303044
0.529107 0.950225 0.302159
0.580133 0.945769 0.284733
0.631098 0.940826 0.264530
0.681971 0.935393 0.241581
0.732662 0.929473 0.215213
0.783291 0.923033 0.182620
0.833616 0.916136 0.141299
0.883787 0.908690 0.072450
0.933715 0.900816 0.000000
0.973053 0.882994 0.000000
0.980591 0.831937 0.000000
0.996521 0.782773 0.000000
1.000000 0.745174 0.000000
1.000000 0.726375 0.000000
1.000000 0.708248 0.000000
1.000000 0.693202 0.000000
1.000000 0.678553 0.000000
1.000000 0.664088 0.000000
1.000000 0.649866 0.000000
1.000000 0.636072 0.000000
0.093477 0.984039 0.233982
0.109071 0.983856 0.235050
0.126223 0.983642 0.236362
0.156924 0.983215 0.239200
0.193759 0.982544 0.243656
0.233433 0.981659 0.249607
0.273869 0.980560 0.257206
0.314916 0.979187 0.266117
0.356146 0.977508 0.276310
0.396887 0.975647 0.287694
0.437598 0.973510 0.300420
0.477729 0.971160 0.314122
0.517235 0.968597 0.329046
0.566125 0.964813 0.313085
0.615106 0.960601 0.294835
0.664302 0.955962 0.274388
0.713771 0.950896 0.250584
0.763180 0.945403 0.223819
0.812711 0.939483 0.190860
0.862303 0.933135 0.149050
0.911681 0.926390 0.091981
0.960967 0.919341 0.000000
0.995209 0.897978 0.000000
1.000000 0.847501 0.000000
1.000000 0.798581 0.000000
1.000000 0.760830 0.000000
1.000000 0.741756 0.000000
1.000000 0.723232 0.000000
1.000000 0.707912 0.000000
1.000000 0.693172 0.000000
1.000000 0.678828 0.000000
1.000000 0.665064 0.000000
0.109529 0.999847 0.247562
0.121889 0.999695 0.248386
0.137026 0.999481 0.249424
0.163882 0.999084 0.252232
0.198306 0.998444 0.256413
0.235508 0.997559 0.261967
0.274083 0.996429 0.268864
0.313451 0.995056 0.277317
0.353399 0.993408 0.287083
0.393042 0.991577 0.298009
0.432593 0.989471 0.310185
0.471839 0.987182 0.323430
0.510674 0.984680 0.338140
0.552880 0.981720 0.339269
0.599939 0.978149 0.322240
0.647303 0.974243 0.303166
0.695186 0.969970 0.281773
0.743252 0.965362 0.263096
0.791531 0.960327 0.241520
0.839902 0.955016 0.216922
0.887999 0.948943 0.186130
0.936126 0.942321 0.146792
0.984222 0.935271 0.085573
1.000000 0.910002 0.000000
1.000000 0.860349 0.000000
1.000000 0.811856 0.000000
1.000000 0.774746 0.000000
1.000000 0.755306 0.000000
1.000000 0.736629 0.000000
1.000000 0.721035 0.000000
1.000000 0.706538 0.000000
1.000000 0.692775 0.000000
0.116518 1.000000 0.257755
0.127810 1.000000 0.258640
0.141299 1.000000 0.259892
0.166842 1.000000 0.262455
0.199527 1.000000 0.266758
0.235264 1.000000 0.272129
0.272862 1.000000 0.279210
0.311040 1.000000 0.287449
0.349859 1.000000 0.296757
0.388891 1.000000 0.307622
0.427832 1.000000 0.319646
0.466743 1.000000 0.333593
0.505760 1.000000 0.350500
0.544427 0.997711 0.368688
