data/fiter_cube/65184230/1022642/file.cube
# Created by Adobe Lightroom plugin Export LUT (1.17.0)
# www.johnrellis.com/lightroom/exportlut.htm
# Preset: ins网红旅拍风景人像_01 云集
# Color profile: C:\Program Files (x86)\Common Files\Adobe\Color\Profiles\Recommended\AdobeRGB1998.icc
LUT_3D_SIZE 5
DOMAIN_MIN 0.000000 0.000000 0.000000
DOMAIN_MAX 0.903226 0.903226 0.903226
0.000000 0.000000 0.000000
0.389593 0.000000 0.000000
0.738857 0.000000 0.000000
0.949920 0.000000 0.000000
1.000000 0.000000 0.000000
0.000000 0.346044 0.000000
0.385840 0.281621 0.000000
0.695735 0.246769 0.000000
0.936278 0.191257 0.000000
1.000000 0.078737 0.000000
0.000000 0.705531 0.000000
0.362158 0.693965 0.106477
0.728023 0.531914 0.000000
0.892363 0.436835 0.000000
1.000000 0.374731 0.000000
0.000000 0.909392 0.170443
0.320806 0.903044 0.211582
0.685023 0.869413 0.157046
0.942168 0.691066 0.000000
1.000000 0.587976 0.000000
0.129885 1.000000 0.274876
0.314427 1.000000 0.308659
0.582757 1.000000 0.407568
0.887266 0.981537 0.289952
1.000000 0.798795 0.132662
0.000000 0.268559 0.410468
0.361151 0.000000 0.309270
0.750027 0.000000 0.245151
0.949737 0.000000 0.203555
1.000000 0.000000 0.156832
0.000000 0.362585 0.322698
0.367346 0.320897 0.275700
0.707240 0.273045 0.220493
0.936767 0.223239 0.182956
1.000000 0.144869 0.139010
0.175082 0.702815 0.358282
0.366552 0.698390 0.314611
0.723110 0.547631 0.212375
0.891051 0.442481 0.086091
1.000000 0.383459 0.000000
0.225406 0.906920 0.362585
0.363409 0.902586 0.355505
0.680934 0.873106 0.337316
0.937530 0.700618 0.179812
1.000000 0.592004 0.000000
0.288243 1.000000 0.412451
0.365209 1.000000 0.405463
0.601282 1.000000 0.476967
0.882139 0.982269 0.341466
1.000000 0.799741 0.134432
0.000000 0.548363 0.833341
0.000000 0.250736 0.762936
0.701259 0.103395 0.599145
0.941314 0.259770 0.521447
1.000000 0.400916 0.530632
0.000000 0.674922 0.806973
0.321782 0.579309 0.755673
0.701991 0.342840 0.582116
0.934020 0.414374 0.537926
1.000000 0.409400 0.508904
0.000000 0.728908 0.650446
0.289006 0.695338 0.617609
0.687892 0.609491 0.534813
0.895628 0.519463 0.458991
1.000000 0.471168 0.440406
0.301549 0.905058 0.620630
0.496071 0.894224 0.640345
0.693874 0.882902 0.646174
0.915373 0.741848 0.489754
1.000000 0.615015 0.346807
0.573754 1.000000 0.702785
0.611048 1.000000 0.700801
0.664179 1.000000 0.656641
0.865385 0.984344 0.619532
1.000000 0.830808 0.439002
0.000000 0.650690 0.976501
0.000000 0.589960 0.962554
0.551629 0.324956 0.884794
0.900908 0.301732 0.787015
1.000000 0.488991 0.734157
0.000000 0.759365 0.974426
0.317266 0.730037 0.959533
0.590417 0.490730 0.884642
0.897459 0.435554 0.783444
1.000000 0.561791 0.748501
0.000000 0.864347 0.941283
0.466865 0.868070 0.936553
0.757259 0.820035 0.896483
0.880217 0.660182 0.774166
1.000000 0.716182 0.786252
0.000000 0.933654 0.846555
0.364324 0.920500 0.839536
0.665339 0.880583 0.815549
0.872984 0.814878 0.763363
1.000000 0.748806 0.718135
0.377356 1.000000 0.794064
0.509545 1.000000 0.805844
0.752224 0.996857 0.845701
0.868132 0.986938 0.848295
1.000000 0.897856 0.737667
0.000000 0.675044 1.000000
0.000000 0.675837 1.000000
0.314244 0.529534 1.000000
0.761563 0.372442 0.965759
1.000000 0.480964 0.913603
0.000000 0.729366 1.000000
0.000000 0.731472 1.000000
0.499397 0.661860 1.000000
0.764767 0.467018 0.962066
1.000000 0.543847 0.913390
0.000000 0.831388 1.000000
0.000000 0.838437 1.000000
0.729519 0.875547 0.996704
0.793515 0.697902 0.962829
0.998627 0.700038 0.919463
0.000000 0.938994 0.995392
0.000000 0.938659 0.993988
0.676173 0.946197 0.990906
0.919615 0.949706 0.984619
0.987732 0.852964 0.929992
0.000000 1.000000 0.955230
0.000000 1.000000 0.954162
0.604700 1.000000 0.954009
0.840757 0.987274 0.951324
0.978607 0.955535 0.936187
