data/fiter_cube/52608991/1023023/file.cube
# Created by Adobe Lightroom plugin Export LUT (1.17.0)
# www.johnrellis.com/lightroom/exportlut.htm
# Preset: 大神蓝橙街拍_03 云集
# Color profile: C:\Program Files (x86)\Common Files\Adobe\Color\Profiles\Recommended\AdobeRGB1998.icc
LUT_3D_SIZE 32
DOMAIN_MIN 0.0 0.0 0.0
DOMAIN_MAX 1.0 1.0 1.0
0.109682 0.125032 0.141146
0.109895 0.125002 0.141329
0.116518 0.124025 0.141085
0.132845 0.121492 0.141054
0.152010 0.117617 0.140810
0.172763 0.112673 0.140658
0.196048 0.107179 0.140291
0.222446 0.100893 0.139864
0.253025 0.092409 0.138796
0.287938 0.079500 0.137362
0.327184 0.058198 0.136080
0.370184 0.000000 0.133425
0.416876 0.000000 0.130556
0.465766 0.000000 0.126772
0.516716 0.000000 0.121340
0.569390 0.000000 0.115480
0.620111 0.000000 0.108217
0.667750 0.000000 0.100130
0.712062 0.000000 0.091127
0.754025 0.000000 0.080476
0.793332 0.000000 0.069551
0.829465 0.000000 0.054780
0.867979 0.000000 0.019165
0.899718 0.000000 0.000000
0.926421 0.000000 0.000000
0.949493 0.000000 0.000000
0.970245 0.000000 0.000000
0.988983 0.000000 0.000000
1.000000 0.000000 0.000000
1.000000 0.000000 0.000000
1.000000 0.000000 0.000000
1.000000 0.000000 0.000000
0.109682 0.125032 0.141146
0.110170 0.124971 0.141329
0.116976 0.124178 0.141085
0.133181 0.122072 0.141024
0.151766 0.119600 0.140841
0.171817 0.116060 0.140627
0.194644 0.111910 0.140078
0.220462 0.106538 0.139315
0.250553 0.099245 0.138582
0.285008 0.088106 0.137484
0.323644 0.071626 0.135866
0.366003 0.032074 0.133303
0.411780 0.000000 0.130312
0.460517 0.000000 0.126772
0.510796 0.000000 0.121431
0.562799 0.000000 0.115694
0.613855 0.000000 0.108461
0.661952 0.000000 0.100526
0.706233 0.000000 0.091249
0.748898 0.000000 0.081544
0.788724 0.000000 0.069581
0.825803 0.000000 0.056397
0.863920 0.000000 0.021881
0.895689 0.000000 0.000000
0.922667 0.000000 0.000000
0.946105 0.000000 0.000000
0.967254 0.000000 0.000000
0.986419 0.000000 0.000000
1.000000 0.000000 0.000000
1.000000 0.000000 0.000000
1.000000 0.000000 0.000000
1.000000 0.000000 0.000000
0.110445 0.127687 0.142397
0.111452 0.127108 0.142885
0.117006 0.128359 0.141085
0.132906 0.127596 0.140627
0.150851 0.124971 0.140505
0.170718 0.121706 0.140108
0.192874 0.117830 0.139773
0.218265 0.113252 0.139315
0.248020 0.106600 0.138277
0.281926 0.097536 0.137362
0.319860 0.085298 0.135409
0.361944 0.066468 0.132998
0.407416 0.008942 0.130007
0.455634 0.000000 0.126101
0.505913 0.000000 0.121584
0.557794 0.000000 0.115297
0.608698 0.000000 0.108034
0.657099 0.000000 0.100343
0.702235 0.000000 0.091310
0.745144 0.000000 0.080964
0.785428 0.000000 0.068696
0.823270 0.000000 0.053223
0.861326 0.000000 0.019196
0.893156 0.000000 0.000000
0.920256 0.000000 0.000000
0.943969 0.000000 0.000000
0.965301 0.000000 0.000000
0.984802 0.000000 0.000000
1.000000 0.000000 0.000000
1.000000 0.000000 0.000000
1.000000 0.000000 0.000000
1.000000 0.000000 0.000000
0.112581 0.135409 0.145571
0.115999 0.133791 0.147158
0.118502 0.133608 0.147127
0.132540 0.137240 0.140383
0.148867 0.135897 0.140566
0.168704 0.132296 0.139742
0.190311 0.129000 0.139223
0.215213 0.125399 0.138643
0.244205 0.120424 0.137758
0.277379 0.114260 0.136477
0.314733 0.105623 0.134859
0.356023 0.094301 0.132265
0.400549 0.078218 0.129427
0.448096 0.045441 0.125338
0.498146 0.000000 0.120851
0.549645 0.000000 0.114778
0.600793 0.000000 0.107515
0.649500 0.000000 0.099733
0.695003 0.000000 0.090394
0.738277 0.000000 0.080232
0.779294 0.000000 0.068666
0.818265 0.000000 0.048768
0.856291 0.000000 0.015045
0.888823 0.000000 0.000000
0.916838 0.000000 0.000000
0.941588 0.000000 0.000000
0.963622 0.000000 0.000000
0.983520 0.000000 0.000000
1.000000 0.000000 0.000000
1.000000 0.000000 0.000000
1.000000 0.000000 0.000000
1.000000 0.000000 0.000000
0.117678 0.143557 0.150607
0.121614 0.141421 0.152621
0.122286 0.139101 0.155245
0.130465 0.142916 0.148440
0.147860 0.146578 0.139712
0.163455 0.145571 0.141115
0.185550 0.142916 0.138949
0.209934 0.140078 0.138064
0.237827 0.137087 0.136995
0.269932 0.133577 0.135683
0.306218 0.128511 0.134066
0.346380 0.122591 0.131594
0.390295 0.113985 0.128573
0.437049 0.102480 0.124666
0.486885 0.083192 0.119936
0.538231 0.047578 0.113588
0.590784 0.000000 0.106050
0.640620 0.000000 0.097688
0.687098 0.000000 0.088319
0.731289 0.000000 0.077638
0.773037 0.000000 0.065522
0.813596 0.000000 0.040101
0.851530 0.000000 0.004303
0.884367 0.000000 0.000000
0.912932 0.000000 0.000000
0.938170 0.000000 0.000000
0.960723 0.000000 0.000000
0.981048 0.000000 0.000000
0.999542 0.000000 0.000000
1.000000 0.000000 0.000000
1.000000 0.000000 0.000000
1.000000 0.000000 0.000000
0.123903 0.150820 0.156619
0.126894 0.148745 0.157992
0.128359 0.146334 0.159945
0.130404 0.146212 0.159792
0.143435 0.151858 0.148318
0.163790 0.156680 0.138643
0.181033 0.156344 0.140200
0.202182 0.155612 0.139315
0.231083 0.154025 0.136507
0.262516 0.152468 0.134615
0.297704 0.150637 0.132906
0.336736 0.148165 0.130404
0.379767 0.143984 0.127138
0.426123 0.137911 0.123140
0.475257 0.129061 0.118105
0.526818 0.116213 0.111757
0.579767 0.096681 0.104402
0.630365 0.063996 0.095491
0.678218 0.000000 0.085817
0.723507 0.000000 0.073671
0.766262 0.000000 0.059510
0.809384 0.000000 0.027558
0.871061 0.000000 0.000000
0.902953 0.000000 0.000000
0.929747 0.000000 0.000000
0.952972 0.000000 0.000000
0.973358 0.000000 0.000000
0.991669 0.000000 0.000000
1.000000 0.000000 0.000000
1.000000 0.000000 0.000000
1.000000 0.000000 0.000000
1.000000 0.000000 0.000000
0.130007 0.160342 0.163638
0.132815 0.157809 0.164584
0.134676 0.154879 0.165957
0.133089 0.150851 0.169284
0.143526 0.156741 0.161044
0.159274 0.163149 0.147494
0.183413 0.169772 0.137331
0.203037 0.170413 0.138796
0.223239 0.171054 0.139498
0.256229 0.172091 0.136019
0.293767 0.172488 0.131594
0.333257 0.172366 0.128481
0.376074 0.171572 0.124910
0.422370 0.168917 0.120607
0.471015 0.164553 0.115480
0.521874 0.157931 0.108614
0.574243 0.148074 0.100587
0.625360 0.133669 0.090883
0.673732 0.114199 0.079866
0.720729 0.083192 0.066529
0.766598 0.000000 0.040558
0.813962 0.000000 0.000000
0.855558 0.000000 0.000000
0.890990 0.000000 0.000000
0.920958 0.000000 0.000000
0.946197 0.000000 0.000000
0.967895 0.000000 0.000000
0.987091 0.000000 0.000000
1.000000 0.000000 0.000000
1.000000 0.000000 0.000000
1.000000 0.000000 0.000000
1.000000 0.000000 0.000000
0.135592 0.169528 0.170016
0.138521 0.167147 0.170779
0.140688 0.164492 0.171969
0.140810 0.159213 0.174502
0.144228 0.160189 0.171084
0.157778 0.167300 0.160800
0.175296 0.174258 0.145785
0.202670 0.183078 0.135744
0.224613 0.185061 0.136873
0.245792 0.186526 0.137972
0.276921 0.189212 0.135897
0.316899 0.191836 0.130404
0.360540 0.193637 0.124300
0.406165 0.193942 0.119326
0.454078 0.193393 0.114046
0.504082 0.190951 0.106813
0.556603 0.185885 0.098543
0.608759 0.178286 0.088472
0.658442 0.167086 0.076967
0.706813 0.151888 0.061830
0.756680 0.130892 0.024323
0.803891 0.099550 0.000000
0.845884 0.017304 0.000000
0.882200 0.000000 0.000000
0.913085 0.000000 0.000000
0.939239 0.000000 0.000000
0.961852 0.000000 0.000000
0.981903 0.000000 0.000000
1.000000 0.000000 0.000000
1.000000 0.000000 0.000000
1.000000 0.000000 0.000000
1.000000 0.000000 0.000000
0.142367 0.179629 0.176974
0.144869 0.177584 0.177829
0.147158 0.175113 0.178805
0.149020 0.170108 0.180972
0.145632 0.164370 0.183597
0.158389 0.171298 0.171817
0.174105 0.179202 0.160098
0.193515 0.187045 0.143618
0.224460 0.198337 0.133181
0.248844 0.201663 0.134066
0.271946 0.203830 0.135348
0.298558 0.206760 0.135439
0.340917 0.211551 0.129122
0.387091 0.215061 0.121859
0.436439 0.217227 0.112642
0.486152 0.217868 0.105409
0.538293 0.216770 0.096834
0.591211 0.213626 0.085481
0.642176 0.207492 0.073426
0.693599 0.198520 0.052369
0.745205 0.186587 0.004028
0.793179 0.169070 0.000000
0.836149 0.145174 0.000000
0.873259 0.112337 0.000000
0.905119 0.043732 0.000000
0.932189 0.000000 0.000000
0.955749 0.000000 0.000000
0.976623 0.000000 0.000000
0.995453 0.000000 0.000000
1.000000 0.000000 0.000000
1.000000 0.000000 0.000000
1.000000 0.000000 0.000000
0.149508 0.190585 0.184512
0.151675 0.188937 0.185183
0.154116 0.186374 0.186038
0.156802 0.181369 0.188113
0.155306 0.174868 0.191104
0.159365 0.175814 0.185855
0.174258 0.183444 0.171908
0.191897 0.192264 0.159121
0.214633 0.202274 0.140658
0.248325 0.215274 0.130251
0.274357 0.219455 0.130892
0.299016 0.222019 0.131838
0.325078 0.225223 0.132570
0.364508 0.230594 0.128054
0.413092 0.236088 0.119448
0.464851 0.240024 0.108705
0.519371 0.242222 0.094972
0.573205 0.242679 0.083009
0.626337 0.240665 0.068360
0.681117 0.236454 0.034913
0.733120 0.228794 0.000000
0.781003 0.217502 0.000000
0.824125 0.201633 0.000000
0.861906 0.181552 0.000000
0.894682 0.154940 0.000000
0.923003 0.118441 0.000000
0.947936 0.041901 0.000000
0.970092 0.000000 0.000000
0.990112 0.000000 0.000000
1.000000 0.000000 0.000000
1.000000 0.000000 0.000000
1.000000 0.000000 0.000000
0.156405 0.202396 0.192020
0.158663 0.200595 0.192660
0.161196 0.198062 0.193393
0.164279 0.193240 0.195377
0.164981 0.186557 0.198154
0.160708 0.180331 0.200381
0.174777 0.188357 0.187594
0.191928 0.196872 0.171817
0.212009 0.207126 0.157504
0.239780 0.220584 0.136660
0.274296 0.233768 0.126436
0.302251 0.238712 0.126925
0.327886 0.241703 0.127504
0.354925 0.244968 0.128054
0.388495 0.249546 0.126253
0.438849 0.256687 0.116609
0.492958 0.262272 0.103914
0.549889 0.266575 0.086915
0.608637 0.268894 0.063905
0.663874 0.267948 0.023102
0.716732 0.263981 0.000000
0.766293 0.256321 0.000000
0.810971 0.245518 0.000000
0.850431 0.230686 0.000000
0.884764 0.211765 0.000000
0.914397 0.187716 0.000000
0.940276 0.158206 0.000000
0.963470 0.116426 0.000000
0.984375 0.000458 0.000000
1.000000 0.000000 0.000000
1.000000 0.000000 0.000000
1.000000 0.000000 0.000000
0.164401 0.214694 0.200076
0.166384 0.213169 0.200595
0.168887 0.210788 0.201511
0.172366 0.206119 0.203067
0.174258 0.199222 0.205661
0.171115 0.191409 0.208957
0.175753 0.193118 0.203220
0.192386 0.202152 0.188479
0.211795 0.212009 0.171176
0.234440 0.223789 0.155184
0.267399 0.240909 0.131380
0.302739 0.253971 0.121798
0.342229 0.265934 0.119875
0.370001 0.269169 0.120211
0.398810 0.272465 0.120546
0.428595 0.275731 0.120302
0.482368 0.285161 0.109499
0.544121 0.294285 0.092103
0.605676 0.300298 0.067018
0.664912 0.302678 0.000000
0.719966 0.300999 0.000000
0.768978 0.295933 0.000000
0.812802 0.287419 0.000000
0.851499 0.275334 0.000000
0.885161 0.259617 0.000000
0.914366 0.241001 0.000000
0.940093 0.217990 0.000000
0.963043 0.190036 0.000000
0.983642 0.155337 0.000000
1.000000 0.104524 0.000000
1.000000 0.000000 0.000000
1.000000 0.000000 0.000000
0.173800 0.230411 0.209781
0.175875 0.228702 0.210300
0.178317 0.226230 0.210971
0.181979 0.221500 0.212406
0.184787 0.214298 0.214694
0.183536 0.205600 0.217533
0.177707 0.198550 0.219516
0.193942 0.208011 0.205936
0.213077 0.218326 0.188998
0.235294 0.229984 0.170382
0.260929 0.243534 0.152132
0.300816 0.265568 0.123995
0.337957 0.278813 0.114565
0.370367 0.285374 0.113619
0.401129 0.290105 0.113558
0.434302 0.295598 0.112612
0.467903 0.300450 0.111330
0.513756 0.308049 0.103059
0.575250 0.317723 0.082795
0.635798 0.323919 0.046265
0.693599 0.326299 0.000000
0.747280 0.324437 0.000000
0.793759 0.319036 0.000000
0.834775 0.310063 0.000000
0.870726 0.297642 0.000000
0.901823 0.282414 0.000000
0.929351 0.263767 0.000000
0.953796 0.241855 0.000000
0.975830 0.215854 0.000000
0.995819 0.184329 0.000000
1.000000 0.143496 0.000000
1.000000 0.075532 0.000000
0.182223 0.243870 0.218051
0.184146 0.242252 0.218631
0.186496 0.239933 0.219181
0.190311 0.235233 0.220554
0.193790 0.228153 0.222507
0.194156 0.219486 0.225315
0.188632 0.209934 0.228641
0.194339 0.212253 0.221988
0.212833 0.223026 0.206699
0.234195 0.234501 0.188144
0.258640 0.247623 0.168399
0.286717 0.262730 0.148287
0.332006 0.288518 0.115877
0.371405 0.302312 0.105715
0.407416 0.310704 0.104005
0.439734 0.315709 0.103243
0.472023 0.320043 0.101534
0.504723 0.324041 0.100069
0.540917 0.328618 0.096712
0.602930 0.339055 0.071962
0.662928 0.345739 0.009735
0.719661 0.348272 0.000000
0.771023 0.346471 0.000000
0.816770 0.340490 0.000000
0.855283 0.331121 0.000000
0.888884 0.318547 0.000000
0.918334 0.303014 0.000000
0.944427 0.284764 0.000000
0.967926 0.263493 0.000000
0.989197 0.238560 0.000000
1.000000 0.208957 0.000000
1.000000 0.172427 0.000000
0.190951 0.257908 0.226688
0.192782 0.256382 0.227176
0.195132 0.254215 0.227787
0.199130 0.249424 0.228946
0.202976 0.242496 0.230808
0.204532 0.233738 0.233280
0.201541 0.224186 0.236484
0.194919 0.216495 0.238041
0.212894 0.227207 0.223880
0.233707 0.239109 0.206729
0.257176 0.251865 0.186282
0.284855 0.267399 0.166171
0.316777 0.284947 0.142977
0.370275 0.316503 0.102968
0.408270 0.328099 0.094148
0.443732 0.335393 0.091463
0.475807 0.339818 0.090425
0.507469 0.343328 0.088716
0.540337 0.347021 0.086366
0.574701 0.350774 0.082887
0.629419 0.359472 0.059083
0.688991 0.366400 0.000000
0.744015 0.368719 0.000000
0.793545 0.366766 0.000000
0.837400 0.360388 0.000000
0.874540 0.350591 0.000000
0.906676 0.337743 0.000000
0.935088 0.322545 0.000000
0.960571 0.304265 0.000000
0.983429 0.283513 0.000000
1.000000 0.259403 0.000000
1.000000 0.231083 0.000000
0.200168 0.272374 0.235691
0.202060 0.270878 0.236149
0.204135 0.269017 0.236637
0.208286 0.264500 0.237827
0.212589 0.257694 0.239719
0.215305 0.249149 0.242191
0.214115 0.239353 0.245090
0.207034 0.228946 0.248783
0.214023 0.232425 0.241886
0.234836 0.244907 0.226200
0.258427 0.258488 0.207126
0.285100 0.272984 0.184024
0.314672 0.289921 0.163119
0.348363 0.308324 0.136599
0.406989 0.343267 0.086702
0.442390 0.351659 0.080018
0.477241 0.358251 0.076936
0.509606 0.362371 0.075257
0.542443 0.366217 0.072084
0.576532 0.370245 0.067445
0.611322 0.373877 0.062287
0.657527 0.380163 0.025208
0.716426 0.387121 0.000000
0.770016 0.389441 0.000000
0.817624 0.387060 0.000000
0.859342 0.380255 0.000000
0.895415 0.369696 0.000000
0.925811 0.356603 0.000000
0.952819 0.341070 0.000000
0.976959 0.322728 0.000000
0.998474 0.301732 0.000000
1.000000 0.277867 0.000000
0.210117 0.287907 0.245274
0.211948 0.286259 0.245640
0.214115 0.284428 0.246250
0.218204 0.280095 0.247318
0.222934 0.273472 0.249058
0.226291 0.265293 0.251499
0.226780 0.255772 0.254459
0.222232 0.245090 0.257847
0.215030 0.237125 0.259220
0.235050 0.249516 0.244877
0.258000 0.263157 0.227207
0.283757 0.277775 0.205997
0.312383 0.293675 0.182010
0.344121 0.311772 0.158907
0.379400 0.330877 0.128756
0.442176 0.368414 0.064607
0.475654 0.374670 0.061341
0.510369 0.380743 0.055329
0.543786 0.385199 0.045289
0.577203 0.389075 0.034455
0.611292 0.392706 0.020081
0.645563 0.395727 0.008515
0.682856 0.399237 0.000000
0.740902 0.406226 0.000000
0.792966 0.408209 0.000000
0.838804 0.405432 0.000000
0.878721 0.398352 0.000000
0.913512 0.387457 0.000000
0.943084 0.373938 0.000000
0.969024 0.357946 0.000000
0.992096 0.339605 0.000000
1.000000 0.318456 0.000000
0.221134 0.304540 0.255741
0.222934 0.303136 0.256138
0.229557 0.307652 0.260838
0.233738 0.303105 0.261875
0.238560 0.296452 0.263401
0.242527 0.287938 0.265537
0.243870 0.277501 0.268132
0.240787 0.265995 0.271153
0.231479 0.253910 0.274632
0.239872 0.258335 0.266819
0.262577 0.272221 0.250431
0.288365 0.287358 0.230137
0.316716 0.303288 0.205661
0.347845 0.320806 0.180087
0.381903 0.340093 0.153292
0.419379 0.360143 0.116732
0.486183 0.399420 0.000000
0.519982 0.405035 0.000000
0.554620 0.410285 0.000000
0.587823 0.413886 0.000000
0.620417 0.416693 0.000000
0.653651 0.419379 0.000000
0.686793 0.421332 0.000000
0.719295 0.422797 0.000000
0.770169 0.427375 0.000000
0.818936 0.428077 0.000000
0.861601 0.424018 0.000000
0.898741 0.415961 0.000000
0.931456 0.404486 0.000000
0.960113 0.390204 0.000000
0.984833 0.373846 0.000000
1.000000 0.355108 0.000000
0.233524 0.323217 0.267155
0.235874 0.322667 0.268132
0.238590 0.321630 0.269200
0.243198 0.318303 0.270787
0.248722 0.312383 0.272618
0.253391 0.304173 0.274815
0.255619 0.293950 0.277256
0.254124 0.282597 0.280034
0.247349 0.270237 0.283207
0.239231 0.261631 0.284031
0.261387 0.275578 0.269078
0.286320 0.290593 0.250767
0.313664 0.306401 0.228367
0.343603 0.323064 0.201389
0.375891 0.341711 0.176730
0.411383 0.361517 0.146578
0.452796 0.384161 0.103059
0.518944 0.422126 0.000000
0.553063 0.427466 0.000000
0.586908 0.431983 0.000000
0.619928 0.435340 0.000000
0.652979 0.438117 0.000000
0.686061 0.440497 0.000000
0.718624 0.442054 0.000000
0.750057 0.442634 0.000000
0.793576 0.445136 0.000000
0.840757 0.445350 0.000000
0.881773 0.440925 0.000000
0.917601 0.432532 0.000000
0.949126 0.420691 0.000000
0.976898 0.405615 0.000000
1.000000 0.388891 0.000000
0.244358 0.339178 0.276890
0.246586 0.339025 0.277958
0.249302 0.337896 0.278935
0.253941 0.334783 0.280491
0.259342 0.329015 0.282200
0.264286 0.320867 0.284184
0.267308 0.310979 0.286473
0.267185 0.299443 0.289006
0.262242 0.286839 0.291905
0.251347 0.273869 0.295232
0.260441 0.278965 0.287083
0.284611 0.293980 0.270695
0.311284 0.309789 0.250431
0.340368 0.326360 0.225864
0.371923 0.344305 0.198703
0.405737 0.363745 0.172488
0.442817 0.384375 0.138369
0.489418 0.410376 0.083680
0.554253 0.446357 0.000000
0.587701 0.450904 0.000000
0.620600 0.454536 0.000000
0.653376 0.457465 0.000000
0.686336 0.460029 0.000000
0.718624 0.461738 0.000000
0.749966 0.462409 0.000000
0.780209 0.462165 0.000000
0.816983 0.462776 0.000000
0.862303 0.462287 0.000000
0.901732 0.457252 0.000000
0.936065 0.448341 0.000000
0.966247 0.435981 0.000000
0.992767 0.420417 0.000000
0.255436 0.356054 0.286870
0.257694 0.355779 0.287816
0.260410 0.354803 0.288823
0.264958 0.351751 0.290257
0.270420 0.346105 0.291905
0.275517 0.338231 0.293767
0.279088 0.328161 0.295842
0.279973 0.316777 0.298222
0.276738 0.304082 0.300877
0.268315 0.290806 0.303960
0.259739 0.282017 0.304234
0.283207 0.296941 0.289311
0.309087 0.312779 0.271153
0.337530 0.329595 0.248783
0.368566 0.347082 0.221530
0.401678 0.366644 0.196719
0.438148 0.387701 0.167361
0.478065 0.409918 0.127932
0.531670 0.440711 0.038331
0.595209 0.474556 0.000000
0.629023 0.478859 0.000000
0.662043 0.482033 0.000000
0.694301 0.484352 0.000000
0.727016 0.486305 0.000000
0.758419 0.487129 0.000000
0.788602 0.486915 0.000000
0.817594 0.485847 0.000000
0.848386 0.484504 0.000000
0.891081 0.482643 0.000000
0.927825 0.476295 0.000000
0.959777 0.466346 0.000000
0.987762 0.452918 0.000000
0.270481 0.378027 0.299840
0.272435 0.377111 0.300420
0.274571 0.375708 0.301030
0.278569 0.372045 0.301976
0.283757 0.366094 0.303319
0.288853 0.357916 0.304906
0.292943 0.347936 0.306859
0.294682 0.336645 0.309117
0.293126 0.323949 0.311711
0.286595 0.310369 0.314733
0.273991 0.296330 0.317937
0.284642 0.302373 0.309392
0.310430 0.318669 0.292882
0.338659 0.335760 0.272648
0.369360 0.353674 0.247807
0.402441 0.372900 0.221103
0.437903 0.393866 0.194858
0.476905 0.416266 0.161105
0.519402 0.439796 0.113283
0.577752 0.473640 0.000000
0.635950 0.502464 0.000000
0.667628 0.504875 0.000000
0.698116 0.506126 0.000000
0.727657 0.506432 0.000000
0.758450 0.507103 0.000000
0.788388 0.506920 0.000000
0.817380 0.505974 0.000000
0.845426 0.504265 0.000000
0.872496 0.501915 0.000000
0.912413 0.499062 0.000000
0.947387 0.491920 0.000000
0.977905 0.481147 0.000000
0.283024 0.396643 0.310369
0.284886 0.395850 0.310887
0.287144 0.394476 0.311559
0.291203 0.390875 0.312535
0.296239 0.385199 0.313817
0.301518 0.377050 0.315251
0.305852 0.367071 0.316930
0.308324 0.355535 0.319066
0.307805 0.342687 0.321447
0.303044 0.328893 0.324254
0.292760 0.314549 0.327276
0.284123 0.305699 0.327153
0.309453 0.322118 0.312261
0.337194 0.339452 0.294102
0.367651 0.357671 0.271641
0.400488 0.376776 0.244480
0.435523 0.397986 0.220981
0.473671 0.420478 0.191684
0.515435 0.444404 0.153201
0.560082 0.469093 0.093507
0.621454 0.504753 0.000000
0.674830 0.529107 0.000000
0.705318 0.530297 0.000000
0.734127 0.530205 0.000000
0.756710 0.525872 0.000000
0.786435 0.525780 0.000000
0.815457 0.525017 0.000000
0.843503 0.523430 0.000000
0.870573 0.521202 0.000000
0.896818 0.518334 0.000000
0.932647 0.514580 0.000000
0.966308 0.506889 0.000000
0.299657 0.420783 0.324041
0.301671 0.420142 0.324651
0.303777 0.418860 0.325292
0.307652 0.415015 0.326024
0.312596 0.408850 0.326970
0.317784 0.400549 0.328252
0.322240 0.390265 0.329717
0.325078 0.378210 0.331456
0.325139 0.364721 0.333532
0.321630 0.350469 0.335851
0.312779 0.335149 0.338476
0.297826 0.319524 0.341100
0.309789 0.326635 0.332036
0.337041 0.343877 0.315099
0.366613 0.361944 0.294591
0.398566 0.380774 0.269505
0.432380 0.401251 0.246220
0.469001 0.423224 0.220676
0.509545 0.446906 0.187655
0.553368 0.471901 0.143221
0.598352 0.496407 0.065949
0.661524 0.533257 0.000000
0.709102 0.552483 0.000000
0.737179 0.551751 0.000000
0.763180 0.549676 0.000000
0.787808 0.546593 0.000000
0.816190 0.545617 0.000000
0.843626 0.543786 0.000000
0.870329 0.541375 0.000000
0.896330 0.538445 0.000000
0.921782 0.535241 0.000000
0.954192 0.530724 0.000000
0.313664 0.441321 0.335119
0.315526 0.440833 0.335760
0.317693 0.439521 0.336370
0.321538 0.435767 0.337133
0.326604 0.429572 0.338048
0.331914 0.421607 0.339330
0.336858 0.411414 0.340764
0.340398 0.399634 0.342535
0.341527 0.386297 0.344549
0.339300 0.371923 0.347021
0.332525 0.356573 0.349645
0.320256 0.340734 0.352483
0.311345 0.331853 0.351812
0.338567 0.349645 0.336736
0.368261 0.368231 0.318181
0.400519 0.387762 0.295354
0.434546 0.408606 0.272313
0.470985 0.430945 0.249363
0.510948 0.454963 0.220737
0.554192 0.480140 0.183474
0.598474 0.504875 0.131289
0.642969 0.528557 0.000000
0.705928 0.565148 0.000000
0.747280 0.578698 0.000000
0.773068 0.576074 0.000000
0.796902 0.572351 0.000000
0.819242 0.567681 0.000000
0.846372 0.565728 0.000000
0.872801 0.563226 0.000000
0.898589 0.560204 0.000000
0.923888 0.556878 0.000000
0.948821 0.553521 0.000000
0.330266 0.465339 0.347967
0.332097 0.464607 0.348486
0.334051 0.463020 0.348913
0.337621 0.459174 0.349584
0.342535 0.452918 0.350317
0.347845 0.444800 0.351385
0.352941 0.434516 0.352697
0.356786 0.422614 0.354284
0.358862 0.409155 0.356359
0.357885 0.394842 0.358740
0.352789 0.379187 0.361425
0.342840 0.363287 0.364355
0.326207 0.346685 0.367376
0.340368 0.355352 0.358007
0.370092 0.374456 0.341161
0.402289 0.394415 0.320287
0.436469 0.415473 0.298222
0.472389 0.438025 0.277684
0.511803 0.462196 0.252537
0.554223 0.487465 0.220676
0.597833 0.512474 0.178653
0.641657 0.536370 0.116426
0.684596 0.558587 0.000000
0.746304 0.594232 0.000000
0.781582 0.602228 0.000000
0.805142 0.597925 0.000000
0.827054 0.592706 0.000000
0.847349 0.586694 0.000000
0.872923 0.583703 0.000000
0.898619 0.580621 0.000000
0.923766 0.577295 0.000000
0.948730 0.573877 0.000000
0.347295 0.489876 0.360693
0.348913 0.489021 0.361151
0.350896 0.487495 0.361547
0.354589 0.483650 0.362158
0.359655 0.477790 0.363104
0.365667 0.470130 0.364538
0.371832 0.460945 0.366369
0.377356 0.450111 0.368780
0.381292 0.437934 0.371649
0.382513 0.424323 0.374945
0.380163 0.409583 0.378546
0.372656 0.393744 0.382269
0.359197 0.377142 0.386084
0.350439 0.368566 0.385931
0.381842 0.389380 0.370642
0.415442 0.410803 0.351507
0.450935 0.433112 0.330541
0.487709 0.456580 0.311925
0.527886 0.481788 0.288853
0.569909 0.507225 0.260502
0.612757 0.532158 0.224582
0.655879 0.556054 0.175875
0.697841 0.578027 0.097597
0.738216 0.597864 0.000000
0.795743 0.630426 0.000000
0.824521 0.632288 0.000000
0.845396 0.625666 0.000000
0.864714 0.618372 0.000000
0.882841 0.610681 0.000000
0.906279 0.606226 0.000000
0.930755 0.602350 0.000000
0.955047 0.598474 0.000000
0.373449 0.525963 0.379980
0.374975 0.525048 0.380346
0.376837 0.523339 0.380621
0.380346 0.519371 0.381109
0.385443 0.513176 0.381872
0.391302 0.505028 0.383062
0.397559 0.495094 0.384588
0.403113 0.483680 0.386694
0.407294 0.470588 0.389136
0.409003 0.456123 0.392065
0.407202 0.440345 0.395209
0.401007 0.423621 0.398657
0.389105 0.405982 0.402228
0.370306 0.387701 0.405707
