data/fiter_cube/52608991/1023023/file.cube
# Created by Adobe Lightroom plugin Export LUT (1.17.0)
# www.johnrellis.com/lightroom/exportlut.htm
# Preset: 大神蓝橙街拍_03 云集
# Color profile: C:\Program Files (x86)\Common Files\Adobe\Color\Profiles\Recommended\AdobeRGB1998.icc
LUT_3D_SIZE 5
DOMAIN_MIN 0.000000 0.000000 0.000000
DOMAIN_MAX 0.903226 0.903226 0.903226
0.109682 0.125032 0.141146
0.222446 0.100893 0.139864
0.516716 0.000000 0.121340
0.829465 0.000000 0.054780
1.000000 0.000000 0.000000
0.135592 0.169528 0.170016
0.202670 0.183078 0.135744
0.454078 0.193393 0.114046
0.803891 0.099550 0.000000
1.000000 0.000000 0.000000
0.190951 0.257908 0.226688
0.194919 0.216495 0.238041
0.408270 0.328099 0.094148
0.688991 0.366400 0.000000
0.960571 0.304265 0.000000
0.270481 0.378027 0.299840
0.294682 0.336645 0.309117
0.369360 0.353674 0.247807
0.667628 0.504875 0.000000
0.872496 0.501915 0.000000
0.395819 0.556085 0.396124
0.427771 0.516106 0.403357
0.386786 0.401953 0.415717
0.659480 0.576013 0.271977
0.900145 0.663325 0.000000
0.057465 0.154604 0.280156
0.197757 0.155612 0.246250
0.480690 0.155825 0.160342
0.790738 0.133364 0.000000
0.992706 0.000000 0.000000
0.097902 0.183291 0.278447
0.197971 0.220432 0.245212
0.439002 0.233494 0.167971
0.763668 0.242802 0.000000
0.984161 0.000000 0.000000
0.117769 0.330663 0.327916
0.240238 0.297826 0.282841
0.407477 0.339879 0.168185
0.644221 0.373999 0.043275
0.951568 0.333288 0.000000
0.238437 0.444862 0.351049
0.311009 0.408392 0.341558
0.371496 0.368292 0.312657
0.670222 0.513573 0.000000
0.872496 0.509331 0.000000
0.358160 0.612268 0.417517
0.422400 0.571283 0.421118
0.431159 0.443244 0.442237
0.666041 0.582879 0.282444
0.903716 0.669642 0.000000
0.000000 0.228092 0.517784
0.124361 0.227787 0.500633
0.399878 0.209110 0.444282
0.811246 0.157961 0.409613
0.982910 0.094606 0.000000
0.000000 0.260990 0.512779
0.106630 0.277195 0.497078
0.399176 0.267155 0.442176
0.807279 0.282353 0.413062
0.976013 0.206699 0.000000
0.000000 0.308019 0.512535
0.161318 0.328222 0.494972
0.396765 0.412909 0.433936
0.715938 0.423743 0.364843
0.945556 0.377661 0.000000
0.000000 0.417578 0.584527
0.149325 0.491951 0.563317
0.432959 0.492653 0.453162
0.670802 0.545800 0.311223
0.877531 0.526421 0.000000
0.140810 0.728115 0.634119
0.284367 0.712184 0.590417
0.507927 0.618341 0.496834
0.631769 0.583886 0.429572
0.903197 0.680385 0.000000
0.000000 0.318944 0.718532
0.000000 0.310216 0.713313
0.383185 0.333349 0.688045
0.638666 0.288945 0.636835
0.926238 0.407233 0.614984
0.000000 0.348180 0.713558
0.000000 0.355901 0.707027
0.382605 0.372961 0.682521
0.634516 0.333257 0.632105
0.927123 0.464515 0.624872
0.000000 0.382910 0.708309
0.000000 0.399329 0.700465
0.348363 0.458320 0.673945
0.623011 0.447364 0.618524
0.937072 0.630335 0.674311
0.000000 0.439521 0.711025
0.150881 0.454292 0.702907
0.379248 0.513024 0.679011
0.634028 0.625025 0.618158
0.912810 0.606683 0.535546
0.000000 0.534020 0.772580
0.157839 0.549706 0.772610
0.370886 0.628016 0.768582
0.648768 0.694026 0.617700
0.888548 0.717342 0.400000
0.000000 0.414160 0.854002
0.000000 0.420325 0.851194
0.426520 0.488746 0.840055
0.609277 0.486946 0.823514
0.820127 0.452247 0.796414
0.000000 0.430182 0.850980
0.000000 0.439155 0.848234
0.401343 0.489143 0.838193
0.608087 0.505028 0.819791
0.818448 0.473579 0.794125
0.000000 0.443122 0.851438
0.000000 0.455360 0.848936
0.339239 0.516747 0.837980
0.613764 0.571405 0.817655
0.822751 0.552575 0.795773
0.000000 0.487953 0.858305
0.033112 0.499336 0.855558
0.327092 0.546014 0.848631
0.596185 0.654841 0.832181
0.827878 0.668421 0.796262
0.123568 0.544945 0.865110
0.206241 0.555962 0.862638
0.390997 0.604700 0.856596
0.609857 0.695521 0.839475
0.829038 0.809598 0.790249
