data/fiter_cube/52608991/1023023/file.cube
# Created by Adobe Lightroom plugin Export LUT (1.17.0)
# www.johnrellis.com/lightroom/exportlut.htm
# Preset: 大神蓝橙街拍_03 云集
# Color profile: C:\Program Files (x86)\Common Files\Adobe\Color\Profiles\Recommended\AdobeRGB1998.icc
LUT_3D_SIZE 8
DOMAIN_MIN 0.000000 0.000000 0.000000
DOMAIN_MAX 0.903226 0.903226 0.903226
0.109682 0.125032 0.141146
0.152010 0.117617 0.140810
0.253025 0.092409 0.138796
0.416876 0.000000 0.130556
0.620111 0.000000 0.108217
0.793332 0.000000 0.069551
0.926421 0.000000 0.000000
1.000000 0.000000 0.000000
0.117678 0.143557 0.150607
0.147860 0.146578 0.139712
0.237827 0.137087 0.136995
0.390295 0.113985 0.128573
0.590784 0.000000 0.106050
0.773037 0.000000 0.065522
0.912932 0.000000 0.000000
0.999542 0.000000 0.000000
0.142367 0.179629 0.176974
0.145632 0.164370 0.183597
0.224460 0.198337 0.133181
0.340917 0.211551 0.129122
0.538293 0.216770 0.096834
0.745205 0.186587 0.004028
0.905119 0.043732 0.000000
0.995453 0.000000 0.000000
0.173800 0.230411 0.209781
0.184787 0.214298 0.214694
0.213077 0.218326 0.188998
0.337957 0.278813 0.114565
0.467903 0.300450 0.111330
0.693599 0.326299 0.000000
0.870726 0.297642 0.000000
0.975830 0.215854 0.000000
0.210117 0.287907 0.245274
0.222934 0.273472 0.249058
0.215030 0.237125 0.259220
0.312383 0.293675 0.182010
0.475654 0.374670 0.061341
0.611292 0.392706 0.020081
0.792966 0.408209 0.000000
0.943084 0.373938 0.000000
0.255436 0.356054 0.286870
0.270420 0.346105 0.291905
0.276738 0.304082 0.300877
0.309087 0.312779 0.271153
0.438148 0.387701 0.167361
0.629023 0.478859 0.000000
0.758419 0.487129 0.000000
0.891081 0.482643 0.000000
0.313664 0.441321 0.335119
0.326604 0.429572 0.338048
0.341527 0.386297 0.344549
0.311345 0.331853 0.351812
0.434546 0.408606 0.272313
0.598474 0.504875 0.131289
0.773068 0.576074 0.000000
0.872801 0.563226 0.000000
0.395819 0.556085 0.396124
0.408179 0.544060 0.398169
0.433143 0.503502 0.406134
0.422827 0.439338 0.420966
0.456641 0.448341 0.384680
0.616999 0.551049 0.304997
0.778347 0.637781 0.030549
0.900145 0.663325 0.000000
0.096223 0.134432 0.197177
0.144167 0.135805 0.183474
0.240421 0.135988 0.148531
0.382300 0.140902 0.127535
0.580041 0.092927 0.104402
0.764523 0.000000 0.062379
0.907317 0.000000 0.000000
0.996460 0.000000 0.000000
0.103944 0.145022 0.197726
0.144350 0.163241 0.183474
0.231357 0.163180 0.156435
0.368322 0.168948 0.125948
0.561852 0.149844 0.102663
0.751247 0.003845 0.055879
0.895720 0.000000 0.000000
0.989288 0.000000 0.000000
0.120150 0.207218 0.217624
0.163424 0.197086 0.203067
0.226963 0.209323 0.160708
0.323339 0.220615 0.133730
0.514000 0.237705 0.096895
0.720363 0.223545 0.003754
0.881682 0.143740 0.000000
0.983764 0.000000 0.000000
0.160678 0.255528 0.230381
0.189548 0.242832 0.228733
0.216037 0.227726 0.218021
0.335149 0.280888 0.121706
0.452461 0.299046 0.111543
0.652827 0.325383 0.020142
0.844144 0.307256 0.000000
0.963684 0.231998 0.000000
0.200748 0.315129 0.259068
0.224277 0.299046 0.261479
0.231327 0.253849 0.272526
0.310613 0.296544 0.204349
0.464607 0.369848 0.065400
0.597131 0.389380 0.031830
0.774838 0.407660 0.000000
0.934325 0.377996 0.000000
0.246525 0.374731 0.294804
0.265049 0.361395 0.297673
0.284855 0.318181 0.306065
0.304784 0.312871 0.286717
0.434180 0.385107 0.171481
0.625360 0.478676 0.000000
0.753567 0.487312 0.000000
0.883452 0.482551 0.000000
0.301579 0.452705 0.338018
0.316289 0.438605 0.339330
0.341711 0.395911 0.346105
0.313024 0.334417 0.357763
0.429572 0.406561 0.282597
0.591485 0.499977 0.134188
0.764218 0.571649 0.000000
0.864744 0.559808 0.000000
0.382513 0.565454 0.397162
0.398596 0.554467 0.399725
0.431495 0.514366 0.407630
0.430121 0.449134 0.422248
0.462531 0.455268 0.397314
0.620722 0.554528 0.308385
0.776120 0.636591 0.056153
0.897154 0.662226 0.000000
0.000000 0.163149 0.315068
0.110048 0.164828 0.305669
0.221195 0.162600 0.272374
0.401648 0.126772 0.237797
0.583795 0.159060 0.160037
0.747341 0.196323 0.000000
0.899596 0.006287 0.000000
0.994598 0.000000 0.000000
0.065583 0.177798 0.309453
0.113832 0.185702 0.299779
0.220066 0.184695 0.270909
0.396826 0.165408 0.234775
0.564843 0.193668 0.165011
0.733059 0.223087 0.000000
0.889799 0.124971 0.000000
0.989746 0.000000 0.000000
0.089570 0.198032 0.309850
0.130404 0.207858 0.300694
0.220615 0.243961 0.269963
0.357366 0.246708 0.235111
0.527214 0.263554 0.169680
0.703517 0.289433 0.000000
0.871916 0.242161 0.000000
0.979889 0.063630 0.000000
0.082185 0.243748 0.346136
0.123476 0.279240 0.338201
0.243595 0.287419 0.289586
0.347234 0.309483 0.226993
0.469032 0.319951 0.178256
0.634943 0.351476 0.061219
0.838102 0.347051 0.000000
0.962371 0.274876 0.000000
0.117006 0.379828 0.368902
0.170108 0.373114 0.348943
0.273472 0.338537 0.314488
0.320714 0.323674 0.290043
0.481575 0.392340 0.168399
0.610803 0.408667 0.063783
0.762600 0.423621 0.000000
0.931273 0.397589 0.000000
0.199832 0.436652 0.368078
0.230747 0.430274 0.356085
0.306950 0.393347 0.340734
0.305455 0.326360 0.347265
0.438819 0.401709 0.253758
0.627741 0.487373 0.000000
0.754879 0.497322 0.000000
0.880003 0.492164 0.000000
0.267063 0.517632 0.392157
0.289647 0.509392 0.383124
0.352850 0.465614 0.374640
0.367407 0.389960 0.382879
0.426825 0.415442 0.338720
0.595544 0.507317 0.177951
0.771939 0.582605 0.000000
0.873533 0.570703 0.000000
0.346777 0.620874 0.432441
0.362371 0.611994 0.424262
0.425299 0.569879 0.424659
0.464973 0.501884 0.439002
0.448798 0.452491 0.436011
0.621424 0.557519 0.322393
0.777829 0.640070 0.092317
0.900877 0.668727 0.000000
0.000000 0.203128 0.449073
0.000000 0.195926 0.444953
0.201205 0.203769 0.422553
0.332433 0.191531 0.384466
0.543175 0.146456 0.368444
0.785824 0.094484 0.299229
0.892699 0.154055 0.141482
0.985412 0.000000 0.000000
0.000000 0.221592 0.447547
0.000000 0.222904 0.442329
0.201633 0.224826 0.421363
0.333135 0.211551 0.384466
0.549737 0.179538 0.369482
0.774289 0.163302 0.299046
0.885588 0.189456 0.142397
0.982330 0.000000 0.000000
0.000000 0.239872 0.443519
0.000000 0.246891 0.437263
0.185489 0.271244 0.416785
0.333196 0.269291 0.382940
0.575708 0.272648 0.373693
0.750027 0.281346 0.302434
0.878752 0.276829 0.143008
0.978027 0.190555 0.000000
0.000000 0.269871 0.448157
0.082887 0.276188 0.441688
0.204868 0.302312 0.420691
0.334966 0.355810 0.381262
0.508843 0.364111 0.352148
0.689052 0.368139 0.285954
0.840238 0.363684 0.126253
0.959258 0.314305 0.000000
0.012390 0.314214 0.467109
0.100191 0.321782 0.465888
0.202914 0.361120 0.461524
0.358129 0.401495 0.396490
0.487007 0.428595 0.330266
0.619348 0.428290 0.270787
0.775937 0.439124 0.141085
0.928801 0.419532 0.000000
0.000000 0.473182 0.521386
0.052583 0.492714 0.519310
0.228489 0.511131 0.481819
0.383795 0.450813 0.412421
0.446571 0.435157 0.378180
0.637446 0.511803 0.247074
0.763638 0.510643 0.116426
0.877501 0.504295 0.000000
0.108583 0.604150 0.540917
0.172366 0.598901 0.526543
0.295720 0.576165 0.476783
0.418708 0.513817 0.433448
0.421149 0.430121 0.428534
0.600336 0.530724 0.316258
0.778622 0.596368 0.000000
0.880003 0.581964 0.000000
0.265385 0.694240 0.549767
0.294285 0.688991 0.538201
0.374853 0.665919 0.499428
0.479927 0.604242 0.472419
0.488197 0.496437 0.480995
0.603815 0.560906 0.412421
0.776791 0.645258 0.171054
0.904997 0.677943 0.000000
0.000000 0.253849 0.581598
0.000000 0.247684 0.579339
0.144686 0.254917 0.565423
0.327062 0.249058 0.541009
0.469856 0.227329 0.502190
0.660975 0.191379 0.477607
0.894163 0.270665 0.474861
0.987030 0.179660 0.337987
0.000000 0.272648 0.580285
0.000000 0.271061 0.579278
0.128267 0.265934 0.566613
0.326329 0.266117 0.539818
0.468666 0.245121 0.500694
0.666285 0.219364 0.479927
0.895384 0.306188 0.480934
0.985107 0.198032 0.331426
0.000000 0.293126 0.578210
0.000000 0.299321 0.574487
0.120058 0.312566 0.559991
0.321691 0.316106 0.534203
0.464271 0.298192 0.495827
0.678950 0.298619 0.485084
0.889891 0.377813 0.485054
0.977050 0.244694 0.301091
0.000000 0.315740 0.575372
0.000000 0.320928 0.570642
0.156558 0.342199 0.556176
0.305119 0.381750 0.530602
0.465034 0.378637 0.493141
0.712978 0.426307 0.506828
0.865995 0.422095 0.451575
0.966766 0.309361 0.226780
0.000000 0.347265 0.573999
0.000000 0.352880 0.570367
0.187381 0.373053 0.556237
0.322881 0.413123 0.530236
0.462531 0.472175 0.486305
0.653376 0.484627 0.463020
0.819547 0.468513 0.388983
0.940948 0.409827 0.159182
0.000000 0.383490 0.572015
0.095003 0.390021 0.571740
0.200443 0.412360 0.569268
0.313725 0.455146 0.567071
0.469734 0.506188 0.486091
0.622004 0.540795 0.419989
0.756985 0.527459 0.346410
0.891905 0.507256 0.154147
0.000000 0.475196 0.659815
0.000000 0.497108 0.654749
0.164828 0.564782 0.637568
0.315892 0.643030 0.602564
0.496010 0.561028 0.499397
0.577081 0.545647 0.454139
0.770443 0.613367 0.301671
0.880583 0.586542 0.076387
0.000000 0.714656 0.704738
0.000000 0.724514 0.700649
0.201358 0.746731 0.679316
0.396674 0.717189 0.595911
0.541161 0.635798 0.525444
0.555383 0.546380 0.512718
0.756985 0.655207 0.364050
0.904082 0.685786 0.000000
0.000000 0.310399 0.702358
0.000000 0.307286 0.700496
0.000000 0.295384 0.690120
0.312688 0.322210 0.672938
0.460761 0.305394 0.648096
0.609216 0.275242 0.612970
0.760372 0.249241 0.569055
0.945892 0.427771 0.599420
0.000000 0.323156 0.693416
0.000000 0.319707 0.691157
0.000000 0.308171 0.683131
0.309117 0.332372 0.666896
0.456886 0.316655 0.643519
0.605554 0.288670 0.609674
0.761898 0.269047 0.569879
0.945556 0.445380 0.602777
0.000000 0.345068 0.693446
0.000000 0.349157 0.690394
0.000000 0.358587 0.681422
0.306798 0.373266 0.665858
0.457954 0.362554 0.642054
0.605829 0.337774 0.608515
0.775601 0.340398 0.579278
0.946960 0.511254 0.620905
0.000000 0.365362 0.691432
0.000000 0.369940 0.687953
0.096590 0.389166 0.678950
0.284459 0.423713 0.666896
0.465827 0.437324 0.644373
0.612329 0.416480 0.610956
0.802335 0.460334 0.603754
0.950958 0.610498 0.656764
0.000000 0.389014 0.685908
0.000000 0.394171 0.683680
0.140810 0.412726 0.675532
0.296422 0.448341 0.660975
0.441352 0.499489 0.636378
0.604242 0.497261 0.600732
0.828275 0.590051 0.635065
0.944121 0.578241 0.588190
0.000000 0.419989 0.682673
0.000000 0.425757 0.681758
0.183749 0.443458 0.673945
0.315740 0.476387 0.658991
0.450782 0.526116 0.634150
0.601648 0.595941 0.592798
0.788540 0.616236 0.579553
0.923308 0.561517 0.476143
0.010315 0.465888 0.696895
0.111086 0.471290 0.695857
0.219669 0.487739 0.688380
0.328923 0.522484 0.684962
0.451026 0.575830 0.681910
0.605859 0.629206 0.589899
0.756710 0.657893 0.515496
0.876677 0.613825 0.400916
0.000000 0.536919 0.769039
0.000000 0.541039 0.768612
0.159518 0.556664 0.767758
0.297307 0.637049 0.756741
0.443977 0.762570 0.719600
0.622400 0.678767 0.594934
0.719203 0.668452 0.541497
0.894255 0.707515 0.325780
0.000000 0.359289 0.785275
0.000000 0.359960 0.785885
0.000000 0.359228 0.781491
0.311345 0.397803 0.771969
0.453925 0.396887 0.758175
0.582635 0.379309 0.738369
0.726406 0.347143 0.710536
0.853330 0.339178 0.660822
0.000000 0.366674 0.778500
0.000000 0.366918 0.778927
0.000000 0.365484 0.775051
0.294377 0.394232 0.765164
0.446235 0.398688 0.750515
0.573297 0.379675 0.729610
0.715358 0.346471 0.700587
0.844083 0.333196 0.651942
0.000000 0.388403 0.781613
0.000000 0.393256 0.780179
0.000000 0.401831 0.774533
0.264530 0.408057 0.765621
0.451179 0.433845 0.748898
0.576135 0.416785 0.729152
0.720058 0.390509 0.703548
0.850126 0.384070 0.657008
0.000000 0.407935 0.784085
0.000000 0.411841 0.781643
0.000000 0.427985 0.775296
0.266819 0.457862 0.766659
0.465888 0.494301 0.750301
0.586847 0.481178 0.732601
0.727596 0.459663 0.707973
0.863554 0.472786 0.670893
0.000000 0.424659 0.777676
0.000000 0.427955 0.775113
0.050721 0.442451 0.768978
0.255985 0.472175 0.761166
0.413031 0.519280 0.746914
0.581567 0.540581 0.725338
0.719570 0.521355 0.698329
0.880705 0.587701 0.695613
0.000000 0.450141 0.775418
0.000000 0.454353 0.774289
0.135134 0.469856 0.770108
0.282536 0.499641 0.763516
0.421027 0.546075 0.751553
0.574792 0.612634 0.731624
0.727626 0.615839 0.701015
0.906157 0.726680 0.746609
0.000000 0.485664 0.779263
0.068391 0.490761 0.779110
0.199191 0.506096 0.775326
0.318059 0.535119 0.768612
0.445838 0.578851 0.754757
0.584070 0.638727 0.732357
0.725002 0.708522 0.693080
0.885161 0.728420 0.683345
0.097536 0.529900 0.798215
0.137789 0.533806 0.797330
0.235233 0.551812 0.797299
0.342962 0.580224 0.791409
0.462074 0.624598 0.784482
0.586511 0.685481 0.782162
0.723568 0.737148 0.685451
0.866636 0.761105 0.604028
0.000000 0.414160 0.854002
0.000000 0.416632 0.854032
0.066957 0.422797 0.850126
0.316106 0.452003 0.844877
0.486885 0.497597 0.835599
0.583093 0.489082 0.826078
0.691127 0.477546 0.814206
0.820127 0.452247 0.796414
0.000000 0.418616 0.851133
0.000000 0.420905 0.851164
0.052888 0.426978 0.847929
0.301579 0.449500 0.842405
0.484413 0.500420 0.832914
0.580438 0.491890 0.823514
0.687739 0.478950 0.811093
0.817288 0.453986 0.793484
0.000000 0.430335 0.849699
0.000000 0.435981 0.849058
0.000000 0.444556 0.844877
0.291661 0.464668 0.842435
0.492195 0.524498 0.831724
0.582696 0.513848 0.821530
0.688350 0.501671 0.809567
0.817350 0.479164 0.792813
0.000000 0.436347 0.851591
0.000000 0.442237 0.851347
0.000000 0.460731 0.847562
0.273869 0.492470 0.842649
0.457740 0.531365 0.834195
0.592523 0.556176 0.822873
0.694423 0.545006 0.811307
0.821256 0.525505 0.795132
0.000000 0.452491 0.851621
0.000000 0.456977 0.851743
0.000000 0.469642 0.849241
0.213657 0.494545 0.845914
0.410224 0.549401 0.836301
0.597711 0.604089 0.823026
0.699275 0.596704 0.812314
0.824735 0.583337 0.796628
0.000000 0.477424 0.854582
0.000000 0.480415 0.853452
0.040406 0.492073 0.850553
0.238071 0.515557 0.846830
0.380774 0.557061 0.841642
0.556756 0.630304 0.832639
0.715419 0.669978 0.819638
0.828611 0.652430 0.797726
0.000000 0.514000 0.863401
0.020020 0.517174 0.862516
0.178927 0.529137 0.859831
0.295293 0.553552 0.855863
0.420356 0.593317 0.849149
0.553552 0.648798 0.838743
0.696803 0.718868 0.820706
0.827390 0.723384 0.793057
0.123568 0.544945 0.865110
0.151949 0.547906 0.864195
0.228702 0.560143 0.862058
0.332982 0.586206 0.859037
0.450965 0.626429 0.853178
0.577325 0.680140 0.842924
0.706935 0.744472 0.825620
0.829038 0.809598 0.790249
