data/fiter_cube/96143635/1022811/file.cube
# Created by Adobe Lightroom plugin Export LUT (1.17.0)
# www.johnrellis.com/lightroom/exportlut.htm
# Preset: 高雅通透灰色调人像_04 云集
# Color profile: C:\Program Files (x86)\Common Files\Adobe\Color\Profiles\Recommended\AdobeRGB1998.icc
LUT_3D_SIZE 8
DOMAIN_MIN 0.000000 0.000000 0.000000
DOMAIN_MAX 0.903226 0.903226 0.903226
0.145663 0.163790 0.179477
0.181430 0.165103 0.181888
0.313207 0.155550 0.180545
0.460395 0.131502 0.177157
0.587518 0.097414 0.178256
0.692714 0.063722 0.188235
0.798795 0.001404 0.205783
0.911406 0.000000 0.229801
0.154482 0.179019 0.192721
0.163760 0.179934 0.192447
0.310674 0.193759 0.180301
0.456031 0.178622 0.177432
0.583520 0.154696 0.179355
0.687770 0.133425 0.189853
0.793332 0.116854 0.207156
0.907591 0.111208 0.231022
0.180301 0.235508 0.237308
0.179660 0.229252 0.227115
0.235294 0.241032 0.236759
0.457618 0.284276 0.183597
0.586877 0.266880 0.188205
0.690333 0.247990 0.201541
0.799588 0.236667 0.220340
0.912993 0.232303 0.243320
0.241611 0.323125 0.307347
0.236973 0.314702 0.297002
0.232059 0.299931 0.269688
0.350317 0.341924 0.315465
0.581964 0.385107 0.252811
0.696223 0.370336 0.228702
0.800687 0.355169 0.242741
0.912444 0.348486 0.261326
0.321996 0.415015 0.376440
0.315923 0.407446 0.368261
0.294957 0.380591 0.340032
0.331548 0.390448 0.334600
0.461677 0.438148 0.387182
0.654566 0.472297 0.342290
0.798001 0.469856 0.273442
0.911528 0.463203 0.287175
0.405829 0.500786 0.439216
0.402289 0.496712 0.434394
0.380865 0.473823 0.411170
0.340795 0.430335 0.368658
0.439277 0.480201 0.398199
0.566003 0.529778 0.456764
0.743404 0.570611 0.429786
0.910369 0.573663 0.343297
0.501305 0.585443 0.506401
0.497230 0.581964 0.502068
0.478676 0.566857 0.484199
0.444099 0.537407 0.450843
0.435187 0.525841 0.423407
0.557061 0.575677 0.472328
0.668360 0.620935 0.528893
0.843381 0.672175 0.514092
0.598444 0.686763 0.588708
0.595727 0.683833 0.584894
0.586481 0.673945 0.572107
0.570489 0.656641 0.550103
0.538445 0.623255 0.512871
0.587488 0.651728 0.520623
0.699489 0.702113 0.567834
0.798062 0.738827 0.627222
0.155520 0.176669 0.198428
0.165103 0.177066 0.200229
0.294896 0.156283 0.215763
0.440650 0.121279 0.206302
0.572808 0.099580 0.211093
0.679164 0.090333 0.221958
0.786160 0.082521 0.236759
0.901884 0.079927 0.255924
0.158663 0.182895 0.201938
0.176150 0.195804 0.212100
0.294438 0.188357 0.210208
0.440070 0.173404 0.209384
0.571618 0.156680 0.213565
0.677180 0.146517 0.224277
0.782498 0.137728 0.238041
0.898039 0.133883 0.256535
0.194949 0.250828 0.259037
0.210849 0.253422 0.258915
0.248020 0.258427 0.260227
0.442451 0.284123 0.224735
0.574701 0.269749 0.226505
0.678370 0.254582 0.235904
0.785458 0.244602 0.249088
0.902129 0.241154 0.267063
0.263432 0.337865 0.326085
0.266087 0.333043 0.320073
0.248783 0.307805 0.288487
0.353582 0.348913 0.327276
0.570153 0.386297 0.273930
0.680110 0.370794 0.259007
0.786221 0.357427 0.268193
0.901976 0.352392 0.282780
0.346807 0.429084 0.392645
0.339818 0.421118 0.384283
0.316258 0.393622 0.355749
0.335576 0.392523 0.341802
0.460883 0.440101 0.392645
0.648951 0.474189 0.352728
0.789212 0.471931 0.297490
0.904509 0.466285 0.307591
0.422278 0.508934 0.449531
0.416419 0.502953 0.443244
0.394842 0.480323 0.420294
0.354284 0.437812 0.378485
0.440314 0.480476 0.402289
0.567010 0.532464 0.461707
0.741756 0.573144 0.436347
0.907317 0.575525 0.353277
0.510094 0.588281 0.511864
0.504692 0.583673 0.506645
0.486885 0.569116 0.489357
0.452857 0.540826 0.456855
0.436561 0.523613 0.426093
0.555779 0.574517 0.473854
0.666255 0.620142 0.529931
0.839902 0.670710 0.515221
0.603418 0.688624 0.592706
0.601038 0.686122 0.589288
0.591760 0.676295 0.576471
0.575341 0.658900 0.554162
0.548363 0.630640 0.520684
0.588800 0.653285 0.523125
0.698970 0.702022 0.569329
0.797177 0.738705 0.628382
0.187228 0.222873 0.270787
0.199313 0.221897 0.272740
0.242802 0.228458 0.276005
0.388952 0.242222 0.321904
0.557397 0.168399 0.314549
0.667567 0.132326 0.300175
0.778103 0.151308 0.311864
0.898131 0.160830 0.325872
0.203159 0.242313 0.276829
0.221592 0.249882 0.283024
0.252903 0.249180 0.284916
0.403876 0.246159 0.321355
0.556420 0.187869 0.307042
0.665461 0.173922 0.301061
0.775509 0.185824 0.313024
0.896178 0.191836 0.326757
0.225315 0.269413 0.293645
0.243626 0.279210 0.298833
0.290227 0.307530 0.315801
0.425757 0.285252 0.302861
0.560815 0.279484 0.306798
0.666590 0.277195 0.313634
0.776242 0.275608 0.322484
0.896300 0.275914 0.334112
0.304631 0.375463 0.371283
0.315373 0.378302 0.371038
0.333471 0.371283 0.359686
0.382086 0.382666 0.366064
0.565576 0.406958 0.336095
0.668757 0.391058 0.335851
0.778805 0.382300 0.340124
0.898070 0.378973 0.348302
0.384680 0.465217 0.429938
0.390967 0.462440 0.427131
0.393072 0.445838 0.411017
0.359136 0.410285 0.369818
0.480781 0.464271 0.420966
0.652552 0.493996 0.390356
0.780667 0.490364 0.364141
0.899626 0.486397 0.368353
0.461433 0.538293 0.481270
0.464454 0.535424 0.478645
0.456214 0.518822 0.462104
0.411139 0.475349 0.419135
0.451118 0.489174 0.419287
0.574823 0.544884 0.479622
0.744137 0.586053 0.459358
0.904845 0.593957 0.399176
0.544060 0.611627 0.538750
0.544671 0.608637 0.536004
0.532250 0.593713 0.520165
0.497414 0.564691 0.487282
0.447669 0.523125 0.439307
0.560784 0.579004 0.485145
0.675013 0.631220 0.544182
0.848447 0.683101 0.532006
0.629480 0.706661 0.616266
0.629084 0.704158 0.613428
0.618158 0.693202 0.599115
0.600671 0.675776 0.575860
0.570306 0.645289 0.539178
0.588037 0.653712 0.527825
0.701717 0.706172 0.577813
0.803067 0.746944 0.640345
0.266667 0.308263 0.364660
0.276646 0.308202 0.366491
0.306523 0.306249 0.364691
0.352331 0.310796 0.364294
0.458808 0.376226 0.408728
0.636439 0.307683 0.421363
0.760983 0.264744 0.412207
0.885863 0.232059 0.406073
0.286259 0.328710 0.369787
0.299657 0.332219 0.372351
0.319249 0.325170 0.370642
0.359228 0.325200 0.369177
0.471656 0.377691 0.412726
0.640803 0.311589 0.419165
0.759365 0.276646 0.409491
0.885374 0.241459 0.401862
0.309239 0.355138 0.380102
0.322087 0.361028 0.381659
0.354131 0.373053 0.386633
0.382422 0.367132 0.385229
0.513268 0.382269 0.420264
0.648859 0.340398 0.412268
0.765286 0.308659 0.399237
0.890074 0.305486 0.404578
0.346380 0.394171 0.402228
0.358465 0.399603 0.404150
0.390570 0.414374 0.409552
0.429145 0.433448 0.417121
0.547234 0.411475 0.404761
0.650965 0.405402 0.404944
0.764675 0.403479 0.409522
0.890654 0.403326 0.416907
0.455024 0.509575 0.484230
0.459998 0.510155 0.482643
0.470466 0.509361 0.475959
0.465339 0.486030 0.450721
0.509514 0.497658 0.457771
0.656764 0.517693 0.435828
0.769955 0.511559 0.434028
0.893584 0.508537 0.436103
0.517327 0.580591 0.528801
0.522087 0.581598 0.528832
0.527306 0.572015 0.518608
0.514275 0.545892 0.492470
0.469306 0.505303 0.444678
0.591760 0.566644 0.506859
0.754391 0.605463 0.490028
0.899504 0.614008 0.461158
0.579858 0.647547 0.578515
0.581933 0.645899 0.576623
0.585199 0.637873 0.567956
0.571405 0.613306 0.542565
0.514305 0.562829 0.489082
0.568505 0.587030 0.501793
0.687739 0.647608 0.565576
0.859373 0.698054 0.553796
0.658442 0.735134 0.652064
0.659907 0.734005 0.650477
0.661952 0.727993 0.642756
0.649592 0.710201 0.619806
0.613764 0.676448 0.577234
0.588128 0.651331 0.537346
0.703761 0.711330 0.589807
0.811490 0.759060 0.658473
0.369879 0.404364 0.449317
0.378698 0.405982 0.450416
0.391699 0.399207 0.447913
0.419043 0.391638 0.442267
0.464851 0.399420 0.444099
0.553399 0.467170 0.482033
0.700984 0.454597 0.516716
0.870298 0.380102 0.519066
0.382666 0.417609 0.451881
0.392615 0.420447 0.453529
0.403540 0.413397 0.451972
0.426825 0.404181 0.446052
0.468849 0.408911 0.446723
0.555871 0.474525 0.484565
0.705928 0.455360 0.516716
0.874022 0.378729 0.515862
0.404700 0.443671 0.458473
0.413336 0.447425 0.458961
0.436164 0.451911 0.462226
0.450690 0.440650 0.458320
0.481910 0.437537 0.455329
0.562524 0.495888 0.491646
0.721706 0.455512 0.513512
0.873747 0.400946 0.509361
0.435035 0.473793 0.475685
0.443000 0.477119 0.476295
0.465461 0.486458 0.477699
0.490700 0.493507 0.478431
0.507347 0.481788 0.472450
0.603845 0.500114 0.501518
0.746242 0.460456 0.500694
0.880278 0.421424 0.488319
0.477455 0.514092 0.498604
0.484840 0.517052 0.499428
0.504967 0.524773 0.500938
0.527825 0.532799 0.501518
0.543420 0.535180 0.497566
0.639918 0.516991 0.486854
0.755276 0.510369 0.486610
0.885801 0.507500 0.490791
0.575128 0.609430 0.572656
0.581140 0.612451 0.574456
0.590143 0.614527 0.571771
0.591882 0.608820 0.559808
0.566888 0.572992 0.522332
0.609247 0.588281 0.533074
0.766598 0.619043 0.517510
0.894011 0.618647 0.514763
0.630518 0.686549 0.629603
0.632410 0.686488 0.628626
0.637385 0.685512 0.624537
0.638697 0.675166 0.610254
0.612512 0.635462 0.567834
0.566064 0.588586 0.513115
0.700649 0.665095 0.589471
0.873411 0.711696 0.575463
0.692226 0.768002 0.698299
0.693965 0.767178 0.696864
0.698695 0.763699 0.691157
0.703578 0.756558 0.679744
0.684138 0.728450 0.643214
0.623133 0.673091 0.574640
0.699001 0.712856 0.599878
0.819516 0.771878 0.679103
0.476997 0.498909 0.525994
0.484321 0.501244 0.526665
0.487404 0.493202 0.524681
0.506767 0.489937 0.522545
0.528527 0.479103 0.516167
0.565057 0.485908 0.515953
0.646876 0.550347 0.555810
0.787564 0.582574 0.617731
0.482765 0.505241 0.525963
0.489052 0.506920 0.526482
0.495705 0.502312 0.526421
0.511589 0.497261 0.523552
0.531060 0.485542 0.516930
0.566125 0.491096 0.516655
0.647730 0.553796 0.556695
0.791165 0.581018 0.617548
0.503655 0.528466 0.532128
0.508873 0.529747 0.532769
0.525292 0.533501 0.534813
0.532525 0.524407 0.531823
0.545190 0.510826 0.523980
0.574121 0.511376 0.522179
0.654475 0.568139 0.562707
0.807065 0.577325 0.618311
0.526482 0.551781 0.543755
0.531029 0.553582 0.543664
0.545373 0.559533 0.543999
0.564965 0.563653 0.546319
0.570092 0.548821 0.538537
0.590082 0.542870 0.533745
0.668299 0.593011 0.574548
0.837736 0.568231 0.615015
0.552483 0.577752 0.559625
0.557031 0.579797 0.560174
0.570367 0.585443 0.561364
0.587030 0.591485 0.561273
0.599084 0.590082 0.556695
0.607660 0.574762 0.546807
0.707698 0.593957 0.583337
0.875273 0.549157 0.588830
0.585382 0.611963 0.582757
0.590387 0.614527 0.584100
0.603906 0.620600 0.586358
0.622004 0.628046 0.588403
0.637385 0.631983 0.586511
0.641016 0.623774 0.572869
0.755367 0.609400 0.565179
0.889921 0.605982 0.568444
0.675837 0.708583 0.669306
0.681270 0.711910 0.671839
0.697322 0.721340 0.678767
0.718685 0.734066 0.687221
0.716243 0.726955 0.671077
0.670649 0.672053 0.608087
0.722438 0.692226 0.624475
0.896971 0.729152 0.606622
0.741451 0.794125 0.746548
0.743465 0.795010 0.746609
0.749660 0.797848 0.746548
0.757321 0.801328 0.744747
0.758785 0.795926 0.731228
0.729885 0.755184 0.677211
0.685206 0.710506 0.607965
0.833097 0.791867 0.709804
0.576074 0.588708 0.606836
0.580224 0.589746 0.607324
0.583948 0.585534 0.607324
0.594018 0.580224 0.604700
0.609033 0.572290 0.598901
0.627283 0.560082 0.590417
0.661952 0.567651 0.592676
0.760189 0.639796 0.652796
0.582116 0.595544 0.610193
0.586053 0.596399 0.610590
0.592767 0.594659 0.611322
0.600000 0.587396 0.608240
0.614405 0.579339 0.602716
0.632136 0.566705 0.594263
0.666773 0.574090 0.596674
0.765438 0.646571 0.657801
0.590753 0.608240 0.613001
0.594812 0.609430 0.613886
0.608270 0.613153 0.616815
0.613794 0.605615 0.615351
0.625635 0.596612 0.609461
0.640162 0.582238 0.599969
0.671443 0.585931 0.600427
0.768124 0.655512 0.660639
0.603601 0.626581 0.620081
0.607233 0.628260 0.620508
0.619654 0.632807 0.622858
0.638148 0.636164 0.626246
0.643427 0.623835 0.620935
0.652918 0.606744 0.609430
0.679652 0.605158 0.607172
0.775784 0.672724 0.668147
0.626123 0.650233 0.637201
0.630121 0.652369 0.638178
0.641962 0.658106 0.640284
0.656825 0.664057 0.640864
0.674556 0.665614 0.641627
0.676661 0.644770 0.629114
0.697383 0.635950 0.622309
0.791196 0.700832 0.683192
0.654719 0.680354 0.659327
0.658259 0.682124 0.660151
0.669764 0.687800 0.662623
0.685664 0.694972 0.665064
0.701900 0.700710 0.665095
0.711452 0.695644 0.656550
0.717525 0.673182 0.640040
0.836179 0.706447 0.697566
0.688106 0.715602 0.685908
0.691371 0.717159 0.686671
0.703059 0.723354 0.690272
0.720699 0.732692 0.695644
0.742885 0.744472 0.702327
0.762661 0.752621 0.704280
0.755001 0.731807 0.675166
0.891814 0.723995 0.673762
0.765133 0.800137 0.769406
0.769009 0.802640 0.771511
0.780331 0.809567 0.777188
0.801633 0.823880 0.789822
0.831876 0.845365 0.809812
0.837491 0.848051 0.802823
0.794095 0.797452 0.731167
0.854887 0.822538 0.755917
0.692500 0.700771 0.724910
0.696101 0.702022 0.725734
0.702144 0.701472 0.727687
0.706661 0.694759 0.726406
0.719936 0.689723 0.723842
0.737484 0.681605 0.719936
0.760861 0.672541 0.715328
0.796231 0.680049 0.718959
0.695491 0.704829 0.726955
0.699031 0.706050 0.727779
0.707973 0.707851 0.730526
0.711116 0.700343 0.729549
0.723812 0.695003 0.726864
0.740780 0.686671 0.722896
0.763973 0.677272 0.718379
0.799283 0.684718 0.722164
0.700710 0.714382 0.730190
0.704372 0.715694 0.731258
0.717647 0.721096 0.735866
0.722927 0.715724 0.736202
0.733150 0.709194 0.733608
0.748806 0.700557 0.729702
0.769772 0.688808 0.724025
0.804410 0.695369 0.727535
0.704585 0.727108 0.733486
0.708156 0.728298 0.734524
0.721401 0.733425 0.739162
0.741451 0.740352 0.745693
0.748013 0.732174 0.745022
0.760464 0.722011 0.739956
0.777523 0.706294 0.731991
0.811582 0.711513 0.735195
0.718868 0.744503 0.745205
0.721340 0.745663 0.745602
0.730648 0.750576 0.748135
0.744198 0.756588 0.751308
0.771481 0.765927 0.761440
0.778988 0.753658 0.757900
0.792386 0.736141 0.748135
0.823575 0.736019 0.748226
0.738430 0.766201 0.761593
0.741512 0.768032 0.762814
0.751308 0.773617 0.766323
0.765805 0.781430 0.770871
0.783139 0.790005 0.775143
0.806638 0.796506 0.781338
0.811337 0.774594 0.768948
0.837522 0.766629 0.763882
0.761379 0.791623 0.781033
0.764370 0.793454 0.782315
0.774136 0.799191 0.786343
0.789487 0.808042 0.792294
0.809720 0.819699 0.800137
0.831724 0.831785 0.807614
0.850309 0.835843 0.809018
0.862119 0.813657 0.792966
0.788571 0.821256 0.804532
0.791592 0.823087 0.805997
0.801144 0.828824 0.810300
0.816831 0.838071 0.817166
0.838651 0.851530 0.827512
0.865354 0.868772 0.841428
0.893309 0.887144 0.856443
0.895842 0.877226 0.836179
