data/fiter_cube/96143635/1022811/file.cube
# Created by Adobe Lightroom plugin Export LUT (1.17.0)
# www.johnrellis.com/lightroom/exportlut.htm
# Preset: 高雅通透灰色调人像_04 云集
# Color profile: C:\Program Files (x86)\Common Files\Adobe\Color\Profiles\Recommended\AdobeRGB1998.icc
LUT_3D_SIZE 32
DOMAIN_MIN 0.0 0.0 0.0
DOMAIN_MAX 1.0 1.0 1.0
0.145663 0.163790 0.179477
0.148898 0.164034 0.179873
0.153231 0.164401 0.180362
0.162722 0.164920 0.181186
0.181430 0.165103 0.181888
0.208865 0.164309 0.182254
0.241703 0.162203 0.181979
0.276860 0.159396 0.181369
0.313207 0.155550 0.180545
0.350347 0.150668 0.179446
0.387732 0.144594 0.178470
0.424628 0.138338 0.177737
0.460395 0.131502 0.177157
0.494728 0.123568 0.176974
0.527306 0.115602 0.177035
0.558556 0.106538 0.177401
0.587518 0.097414 0.178256
0.613855 0.088808 0.179629
0.638880 0.080751 0.181643
0.665980 0.071656 0.184787
0.692714 0.063722 0.188235
0.719356 0.051392 0.192142
0.745846 0.033082 0.196384
0.772244 0.017304 0.200961
0.798795 0.001404 0.205783
0.825711 0.000000 0.211032
0.853330 0.000000 0.216739
0.881865 0.000000 0.222904
0.911406 0.000000 0.229801
0.941955 0.002960 0.237583
0.973236 0.038178 0.246342
1.000000 0.072236 0.256352
0.146761 0.165347 0.180789
0.147463 0.165530 0.180880
0.153262 0.166415 0.180331
0.162844 0.167178 0.181247
0.181460 0.167819 0.182040
0.208713 0.167483 0.182376
0.241337 0.165927 0.182101
0.276249 0.163424 0.181369
0.312474 0.159792 0.180392
0.349493 0.155337 0.179416
0.386725 0.149752 0.178317
0.423499 0.143740 0.177737
0.459205 0.137179 0.177188
0.493385 0.129854 0.177005
0.525994 0.122255 0.177096
0.557153 0.113771 0.177462
0.586145 0.105226 0.178317
0.612573 0.097169 0.179690
0.637812 0.089693 0.181827
0.664485 0.082155 0.184787
0.690913 0.074647 0.188083
0.717342 0.066529 0.192050
0.743679 0.059022 0.196201
0.770077 0.045045 0.200809
0.796628 0.030030 0.205539
0.823606 0.017762 0.210727
0.851316 0.008515 0.216251
0.879942 0.007721 0.222629
0.909575 0.009400 0.229374
0.940215 0.025360 0.237064
0.971649 0.055940 0.245670
1.000000 0.078279 0.255650
0.148074 0.167636 0.182834
0.148318 0.167910 0.182467
0.150362 0.168032 0.182895
0.162814 0.170138 0.181491
0.181491 0.171420 0.182254
0.208682 0.171847 0.182406
0.240940 0.170962 0.182101
0.275639 0.168795 0.181338
0.311833 0.165591 0.180362
0.348669 0.161318 0.179416
0.385931 0.156497 0.178286
0.422736 0.150820 0.177676
0.458350 0.144381 0.177279
0.492531 0.137423 0.177127
0.525048 0.130648 0.177218
0.556390 0.122377 0.177584
0.585351 0.114656 0.178470
0.611749 0.107057 0.179873
0.637324 0.100313 0.181979
0.663661 0.093507 0.184848
0.689998 0.086824 0.188296
0.716335 0.080201 0.192172
0.742641 0.073396 0.196231
0.768978 0.066926 0.200870
0.795529 0.061250 0.205600
0.822538 0.051942 0.210697
0.850248 0.045777 0.216312
0.878904 0.042603 0.222507
0.908629 0.045014 0.229343
0.939330 0.057313 0.236942
0.970764 0.069917 0.245579
1.000000 0.087312 0.255497
0.151247 0.172335 0.187198
0.151492 0.172427 0.186831
0.151949 0.172671 0.186343
0.155581 0.172946 0.187167
0.178988 0.177859 0.184176
0.208988 0.180972 0.182620
0.241001 0.180972 0.182132
0.275547 0.179782 0.181338
0.311498 0.177310 0.180453
0.348241 0.173556 0.179232
0.385229 0.169284 0.178256
0.421942 0.164523 0.177615
0.457435 0.158877 0.177249
0.491493 0.152987 0.177188
0.524163 0.145998 0.177340
0.555352 0.139193 0.177859
0.584375 0.132082 0.178866
0.610803 0.125338 0.180301
0.636744 0.119203 0.182376
0.662531 0.113466 0.185458
0.688441 0.107729 0.188846
0.714534 0.102480 0.192630
0.740810 0.097444 0.196811
0.767361 0.092378 0.201328
0.794278 0.087922 0.206027
0.821714 0.083772 0.211276
0.849790 0.081025 0.216953
0.878660 0.080232 0.223270
0.908446 0.081392 0.230045
0.939086 0.085328 0.237675
0.970397 0.093263 0.246128
1.000000 0.105837 0.255802
0.154482 0.179019 0.192721
0.154635 0.179019 0.192172
0.154818 0.178897 0.191501
0.157198 0.179385 0.190738
0.163760 0.179934 0.192447
0.198276 0.188235 0.187564
0.240879 0.195438 0.182315
0.274998 0.195407 0.181460
0.310674 0.193759 0.180301
0.347051 0.191165 0.179294
0.384009 0.187442 0.178286
0.420447 0.183413 0.177707
0.456031 0.178622 0.177432
0.490120 0.173159 0.177554
0.522850 0.167361 0.177798
0.554284 0.161196 0.178317
0.583520 0.154696 0.179355
0.610071 0.148775 0.180911
0.636805 0.143069 0.183413
0.662196 0.138003 0.186435
0.687770 0.133425 0.189853
0.713649 0.128908 0.193668
0.739803 0.124544 0.198001
0.766354 0.120668 0.202487
0.793332 0.116854 0.207156
0.820798 0.113893 0.212467
0.848905 0.111757 0.218021
0.877836 0.110506 0.224247
0.907591 0.111208 0.231022
0.938231 0.114015 0.238499
0.969543 0.119600 0.246860
1.000000 0.129213 0.256504
0.158358 0.188266 0.199954
0.158572 0.188022 0.199344
0.158694 0.187778 0.198398
0.158968 0.187076 0.196506
0.165133 0.188815 0.196445
0.175601 0.189792 0.199161
0.220127 0.201297 0.192691
0.273411 0.211917 0.182925
0.310552 0.213870 0.180545
0.346777 0.212039 0.179507
0.383490 0.209293 0.178500
0.419898 0.205905 0.178134
0.455268 0.201633 0.177890
0.489509 0.196902 0.178012
0.522271 0.191592 0.178408
0.553765 0.186099 0.179202
0.583032 0.180301 0.180484
0.610437 0.174746 0.182223
0.637140 0.169833 0.184848
0.662379 0.165103 0.188113
0.687861 0.160739 0.191684
0.713832 0.156619 0.195590
0.752804 0.155306 0.202945
0.779385 0.152316 0.207858
0.806027 0.149813 0.212955
0.833005 0.147768 0.218357
0.860502 0.146578 0.224125
0.888701 0.146212 0.230411
0.917693 0.147219 0.237156
0.947570 0.149783 0.244694
0.977966 0.154726 0.253086
1.000000 0.162905 0.262669
0.163577 0.201633 0.210330
0.163760 0.201205 0.209354
0.163912 0.200534 0.208103
0.164248 0.199435 0.205753
0.165438 0.199527 0.202304
0.177707 0.202426 0.204501
0.192691 0.204105 0.209018
0.245365 0.218082 0.200992
0.303166 0.229862 0.187808
0.350103 0.237064 0.180148
0.386755 0.234836 0.179324
0.423316 0.231937 0.178805
0.458625 0.228153 0.178927
0.492622 0.223667 0.179080
0.525109 0.218631 0.179660
0.556085 0.213474 0.180636
0.584924 0.207950 0.182132
0.613855 0.202976 0.184390
0.640223 0.198276 0.187411
0.665797 0.193790 0.190951
0.692073 0.189944 0.194888
0.719203 0.186313 0.199222
0.746853 0.183383 0.204013
0.774777 0.180697 0.209079
0.802731 0.178561 0.214481
0.830533 0.176577 0.220066
0.858457 0.175357 0.225925
0.886809 0.174960 0.232090
0.915984 0.175387 0.238712
0.945830 0.177493 0.246098
0.976226 0.181064 0.254215
1.000000 0.187778 0.263615
0.170779 0.217105 0.222660
0.170687 0.216648 0.221561
0.170748 0.215854 0.220218
0.170748 0.214267 0.217319
0.170779 0.211856 0.213138
0.176761 0.214359 0.211032
0.193942 0.218540 0.214817
0.212436 0.221073 0.221622
0.269596 0.236576 0.213291
0.330083 0.248753 0.196414
0.385931 0.258579 0.182193
0.422461 0.258762 0.180606
0.457801 0.255436 0.180606
0.491707 0.251347 0.180941
0.524132 0.246647 0.181674
0.555169 0.241581 0.182712
0.585504 0.236790 0.184512
0.614099 0.231815 0.187076
0.639734 0.227146 0.190066
0.664942 0.222599 0.193790
0.690913 0.218662 0.197787
0.717739 0.215213 0.202121
0.745174 0.212192 0.206790
0.772915 0.209598 0.211856
0.800809 0.207401 0.217014
0.828580 0.205600 0.222477
0.856535 0.204318 0.228183
0.885008 0.203494 0.234104
0.914244 0.203861 0.240665
0.944152 0.205264 0.247868
0.974640 0.208377 0.255894
1.000000 0.213840 0.265171
0.180301 0.235508 0.237308
0.180301 0.234897 0.236240
0.180331 0.233890 0.234745
0.180087 0.232029 0.231632
0.179660 0.229252 0.227115
0.179690 0.226688 0.221714
0.192752 0.231968 0.222751
0.213596 0.237705 0.228031
0.235294 0.241032 0.236759
0.294926 0.257694 0.229587
0.357366 0.270207 0.210483
0.415473 0.279728 0.191806
0.457618 0.284276 0.183597
0.491493 0.280308 0.184085
0.523766 0.275883 0.184878
0.555901 0.271427 0.186130
0.586877 0.266880 0.188205
0.614618 0.261814 0.190677
0.639704 0.256657 0.194003
0.664576 0.252049 0.197543
0.690333 0.247990 0.201541
0.717006 0.244419 0.205661
0.744228 0.241459 0.210330
0.771817 0.238804 0.215213
0.799588 0.236667 0.220340
0.827329 0.234714 0.225650
0.855283 0.233371 0.231205
0.883757 0.232425 0.237003
0.912993 0.232303 0.243320
0.942901 0.233463 0.250340
0.973358 0.236027 0.258244
1.000000 0.240635 0.267277
0.192355 0.255680 0.253574
0.192142 0.254887 0.252445
0.191806 0.253941 0.250919
0.191409 0.251774 0.247715
0.190646 0.248508 0.242832
0.189425 0.244297 0.236759
0.192203 0.245396 0.231327
0.211856 0.251560 0.236423
0.236301 0.258762 0.243107
0.259983 0.262730 0.253758
0.321050 0.280522 0.248478
0.384558 0.293126 0.228336
0.442481 0.301884 0.207584
0.490883 0.307561 0.190280
0.524956 0.306279 0.189609
0.558282 0.302403 0.191043
0.588464 0.297734 0.192874
0.615625 0.292302 0.195682
0.640314 0.286839 0.198947
0.664973 0.281895 0.202518
0.690425 0.277592 0.206302
0.716518 0.273838 0.210361
0.743191 0.270603 0.214633
0.770291 0.267735 0.219272
0.797696 0.265324 0.224125
0.825376 0.263340 0.229282
0.853452 0.261784 0.234501
0.882139 0.260868 0.240177
0.911620 0.260777 0.246464
0.941833 0.261723 0.253361
0.972503 0.264042 0.261204
1.000000 0.268223 0.270085
0.206271 0.276616 0.270420
0.206088 0.275883 0.269383
0.205753 0.274784 0.267826
0.204959 0.272557 0.264744
0.203616 0.269139 0.259770
0.201968 0.264652 0.253666
0.199832 0.258946 0.246189
0.210605 0.265202 0.244999
0.233829 0.272648 0.251713
0.261082 0.281346 0.259800
0.286351 0.285924 0.272099
0.348058 0.304692 0.269261
0.411536 0.317144 0.248814
0.470588 0.326207 0.227512
0.523796 0.331884 0.204318
0.559686 0.333898 0.197452
0.589105 0.328618 0.199222
0.615625 0.322850 0.201816
0.640040 0.316960 0.204837
0.664576 0.311711 0.208103
0.689815 0.307195 0.211887
0.715877 0.303166 0.215732
0.742519 0.299840 0.219944
0.769558 0.297002 0.224308
0.796902 0.294499 0.229007
0.824491 0.292363 0.233707
0.852445 0.290593 0.238804
0.881041 0.289647 0.244236
0.910460 0.289281 0.250187
0.940612 0.289952 0.256779
0.971313 0.291966 0.264347
1.000000 0.295659 0.273106
0.222446 0.298619 0.288121
0.222110 0.297826 0.287114
0.221714 0.296788 0.285618
0.220615 0.294438 0.282567
0.219059 0.290929 0.277806
0.216831 0.286137 0.271611
0.213993 0.280217 0.264042
0.214359 0.278111 0.257206
0.232090 0.286412 0.260441
0.257877 0.295140 0.268345
0.287663 0.305089 0.277592
0.315068 0.311284 0.291936
0.385473 0.337163 0.295903
0.450690 0.350378 0.276066
0.508598 0.358160 0.253941
0.560174 0.361975 0.229343
0.598627 0.363043 0.211460
0.624323 0.358282 0.212070
0.648127 0.351690 0.214969
0.672572 0.345892 0.217990
0.697597 0.340856 0.221347
0.723171 0.336553 0.224918
0.749203 0.332738 0.228641
0.775662 0.329473 0.232761
0.802457 0.326574 0.237003
0.829587 0.324254 0.241459
0.857145 0.322332 0.246250
0.885283 0.321019 0.251316
0.914183 0.320500 0.256840
0.943847 0.320897 0.263188
0.973968 0.322667 0.270451
1.000000 0.325872 0.278996
0.241611 0.323125 0.307347
0.241215 0.322362 0.306401
0.240543 0.321141 0.304845
0.239200 0.318578 0.301762
0.236973 0.314702 0.297002
0.234073 0.309606 0.290745
0.230686 0.303227 0.283055
0.226474 0.295750 0.274144
0.232059 0.299931 0.269688
0.256229 0.309300 0.277287
0.286198 0.321019 0.287480
0.320134 0.333989 0.298955
0.350317 0.341924 0.315465
0.413916 0.363073 0.317754
0.477485 0.375677 0.298283
0.533654 0.382727 0.276860
0.581964 0.385107 0.252811
0.622461 0.383612 0.226474
0.647059 0.381781 0.223239
0.671321 0.375647 0.225742
0.696223 0.370336 0.228702
0.721706 0.365667 0.231815
0.747585 0.361730 0.235325
0.773953 0.358160 0.238895
0.800687 0.355169 0.242741
0.827756 0.352605 0.246830
0.855314 0.350561 0.251225
0.883482 0.349218 0.256046
0.912444 0.348486 0.261326
0.942168 0.348852 0.267460
0.972412 0.350286 0.274388
1.000000 0.353216 0.282628
0.259953 0.345281 0.324437
0.259312 0.344488 0.323461
0.258701 0.343297 0.322087
0.257206 0.340856 0.319249
0.254612 0.336919 0.314672
0.251408 0.331731 0.308598
0.247501 0.325353 0.301183
0.243198 0.318212 0.292821
0.239719 0.311650 0.284062
0.255192 0.322820 0.285893
0.283299 0.334081 0.295506
0.315068 0.346715 0.306279
0.350286 0.360357 0.318273
0.380591 0.368078 0.335119
0.441291 0.388312 0.338903
0.502770 0.400122 0.319799
0.556146 0.406012 0.298772
0.600763 0.407050 0.276036
0.639429 0.404791 0.250767
0.669978 0.403723 0.235935
0.695033 0.399634 0.237003
0.720516 0.394842 0.239719
0.746395 0.390631 0.242771
0.772793 0.387060 0.245914
0.799527 0.383917 0.249363
0.826596 0.381262 0.253117
0.854154 0.379004 0.257145
0.882353 0.377569 0.261631
0.911345 0.376776 0.266575
0.941131 0.376959 0.272374
0.971435 0.378363 0.279149
1.000000 0.381079 0.287144
0.279179 0.367926 0.341527
0.278813 0.367285 0.340764
0.277989 0.366186 0.339483
0.276585 0.363928 0.336889
0.274235 0.360357 0.332799
0.271000 0.355596 0.327245
0.266972 0.349615 0.320439
0.261997 0.342199 0.312169
0.256291 0.333593 0.302586
0.258762 0.334142 0.296941
0.280278 0.345800 0.302434
0.310216 0.358038 0.312840
0.343450 0.371374 0.324254
0.379522 0.385504 0.336522
0.409400 0.392981 0.353735
0.467109 0.412238 0.358618
0.526452 0.423499 0.340185
0.576165 0.428229 0.320073
0.618311 0.428412 0.298528
0.657130 0.426490 0.274723
0.693477 0.424292 0.250706
0.719478 0.423743 0.248203
0.745327 0.419379 0.250645
0.771664 0.415656 0.253513
0.798428 0.412390 0.256596
0.825650 0.409705 0.260014
0.853483 0.407599 0.263798
0.882017 0.406287 0.268193
0.911376 0.405676 0.272923
0.941466 0.406043 0.278599
0.972076 0.407538 0.285344
1.000000 0.410254 0.293339
0.301030 0.392462 0.359777
0.300572 0.391791 0.359014
0.299870 0.390753 0.357855
0.298222 0.388434 0.355291
0.295415 0.384863 0.351324
0.291875 0.379980 0.345983
0.287480 0.373907 0.339361
0.282109 0.366583 0.331426
0.275761 0.357733 0.321904
0.268376 0.347539 0.311223
0.278721 0.356939 0.309789
0.306218 0.368811 0.319066
0.337316 0.381506 0.329778
0.371191 0.394995 0.341344
0.407263 0.409033 0.353552
0.436103 0.416022 0.370855
0.491005 0.434607 0.376898
0.547753 0.445350 0.359472
0.594842 0.449622 0.340703
0.636164 0.450202 0.320745
0.676051 0.449195 0.298314
0.715145 0.446998 0.272465
0.745266 0.447578 0.261051
0.771847 0.444770 0.262303
0.798703 0.441535 0.265049
0.826047 0.438880 0.268132
0.853941 0.436713 0.271519
0.882536 0.435370 0.275486
0.911833 0.434791 0.280095
0.941772 0.435035 0.285344
0.972137 0.436225 0.291661
1.000000 0.438697 0.299229
0.321996 0.415015 0.376440
0.321324 0.414313 0.375555
0.320531 0.413245 0.374517
0.318730 0.410986 0.372076
0.315923 0.407446 0.368261
0.312169 0.402655 0.363195
0.307439 0.396612 0.356817
0.301762 0.389258 0.349065
0.294957 0.380591 0.340032
0.287236 0.370459 0.329625
0.284276 0.365332 0.321202
0.302007 0.378058 0.324254
0.331548 0.390448 0.334600
0.363561 0.403693 0.345708
0.397894 0.417395 0.357488
0.433783 0.431403 0.369726
0.461677 0.438148 0.387182
0.514214 0.456397 0.394690
0.568048 0.466651 0.378363
0.612909 0.470832 0.361059
0.654566 0.472297 0.342290
0.695308 0.472053 0.321141
0.735042 0.470436 0.296635
0.770596 0.469184 0.275425
0.798001 0.469856 0.273442
0.825406 0.467170 0.276219
0.853422 0.465126 0.279271
0.882109 0.463783 0.282933
0.911528 0.463203 0.287175
0.941558 0.463539 0.292302
0.971984 0.464729 0.298192
1.000000 0.467140 0.305669
0.342748 0.436774 0.392340
0.342229 0.436133 0.391669
0.346563 0.440406 0.394507
0.344640 0.438117 0.392126
0.341619 0.434546 0.388403
0.337438 0.429755 0.383459
0.332280 0.423651 0.377142
0.325994 0.416114 0.369512
0.318700 0.407385 0.360571
0.310369 0.397223 0.350347
0.300877 0.385534 0.338750
0.306615 0.389654 0.335210
0.329870 0.402564 0.341619
0.360662 0.415412 0.352392
0.393378 0.428870 0.363775
0.427863 0.442664 0.375677
0.463722 0.456916 0.388220
0.491066 0.463569 0.405829
0.540398 0.480995 0.414679
0.590723 0.490394 0.399390
0.634363 0.494881 0.383093
0.676753 0.497200 0.365209
0.718105 0.497719 0.345037
0.758297 0.496529 0.321935
0.797391 0.493629 0.294072
0.826352 0.495674 0.286473
0.853910 0.494026 0.288090
0.882231 0.492348 0.291051
0.911376 0.491615 0.294743
0.941283 0.491829 0.299413
0.971649 0.492958 0.305058
1.000000 0.495125 0.312139
0.364813 0.459327 0.408881
0.365026 0.459358 0.408698
0.364843 0.459113 0.408209
0.363684 0.457649 0.406500
0.361151 0.454810 0.403418
0.357336 0.450477 0.398962
0.352239 0.444739 0.393042
0.346014 0.437629 0.385901
0.338781 0.429297 0.377447
0.330419 0.419654 0.367803
0.320745 0.408423 0.356695
0.311131 0.396826 0.344945
0.326116 0.410437 0.346502
0.354589 0.423072 0.356207
0.385931 0.436225 0.367163
0.418952 0.449866 0.378790
0.453498 0.463966 0.390875
0.488228 0.477577 0.403571
0.515831 0.484962 0.421546
0.561456 0.501518 0.432044
0.609186 0.510643 0.417792
0.653559 0.516381 0.402502
0.696773 0.519982 0.385779
0.738766 0.521599 0.366979
0.779477 0.521202 0.345190
0.819211 0.518975 0.319036
0.853483 0.518669 0.300664
0.882170 0.520592 0.299504
0.911315 0.519890 0.302892
0.941222 0.520012 0.307134
0.971466 0.521141 0.312413
1.000000 0.523217 0.319127
0.385168 0.479866 0.423896
0.385321 0.479896 0.423774
0.385168 0.479683 0.423316
0.383978 0.478279 0.421698
0.381476 0.475593 0.418738
0.377783 0.471473 0.414527
0.372808 0.466011 0.408972
0.366735 0.459358 0.402228
0.359533 0.451453 0.394293
0.351171 0.442206 0.385107
0.341711 0.431647 0.374670
0.330938 0.419440 0.362829
0.330846 0.417762 0.356451
0.350103 0.431342 0.360449
0.380285 0.444312 0.371069
0.412024 0.457679 0.382422
0.445350 0.471595 0.394171
0.479866 0.485939 0.406439
0.513664 0.499153 0.419501
0.540337 0.506493 0.437995
0.582208 0.522423 0.450172
0.628870 0.531884 0.436744
0.674159 0.538842 0.422339
0.717922 0.543603 0.406592
0.760403 0.546166 0.388830
0.801663 0.546685 0.368231
0.842039 0.545281 0.343755
0.881437 0.542412 0.314885
0.911040 0.547295 0.311681
0.940826 0.547906 0.315038
0.971038 0.548943 0.319890
1.000000 0.550896 0.326299
0.405829 0.500786 0.439216
0.405951 0.500816 0.439094
0.405798 0.500603 0.438666
0.404669 0.499336 0.437171
0.402289 0.496712 0.434394
0.398688 0.492836 0.430396
0.393896 0.487709 0.425177
0.388006 0.481331 0.418799
0.380865 0.473823 0.411170
0.372778 0.465003 0.402502
0.363409 0.454994 0.392554
0.352819 0.443427 0.381292
0.340795 0.430335 0.368658
0.351629 0.439338 0.368261
0.375738 0.452827 0.375341
0.406775 0.466194 0.386481
0.439277 0.480201 0.398199
0.473213 0.494759 0.410498
0.507958 0.509453 0.423407
0.540307 0.521965 0.437385
0.566003 0.529778 0.456764
0.605280 0.545708 0.470680
0.652461 0.556237 0.457984
0.698726 0.564630 0.444648
0.743404 0.570611 0.429786
0.786557 0.574395 0.413092
0.828550 0.576135 0.393805
0.869749 0.575982 0.371160
0.910369 0.573663 0.343297
0.944274 0.575769 0.329412
0.974273 0.579797 0.330694
1.000000 0.581567 0.336797
0.429847 0.524285 0.456825
0.429664 0.524010 0.456458
0.429145 0.523491 0.455818
0.427649 0.521965 0.454139
0.425025 0.519463 0.451362
0.421454 0.515709 0.447456
0.416785 0.510918 0.442451
0.411078 0.505058 0.436469
0.404395 0.498024 0.429328
0.396551 0.489754 0.421057
0.387671 0.480354 0.411749
0.377325 0.469459 0.401068
0.365545 0.457069 0.389105
0.358892 0.449287 0.379400
0.375433 0.463539 0.381933
0.404486 0.476967 0.392157
0.436103 0.490730 0.403601
0.469032 0.504997 0.415656
0.502556 0.519158 0.428321
0.536187 0.533135 0.441688
0.565942 0.544335 0.456123
0.590051 0.551934 0.475288
0.628229 0.567834 0.489448
0.674952 0.578729 0.477272
0.721462 0.588251 0.464942
0.766415 0.595453 0.451240
0.810086 0.600458 0.435645
0.852811 0.603540 0.417670
0.894713 0.604669 0.396643
0.935760 0.603479 0.370855
0.973785 0.601892 0.345129
1.000000 0.608789 0.344976
0.452125 0.544518 0.472541
0.451911 0.544335 0.472236
0.451484 0.543908 0.471656
0.450019 0.542596 0.470130
0.447608 0.540276 0.467536
0.444007 0.537011 0.463935
0.439368 0.532738 0.459236
0.433814 0.527489 0.453559
0.427283 0.521080 0.446876
0.419715 0.513634 0.439094
0.411048 0.504875 0.430243
0.401251 0.494636 0.420172
0.390021 0.483040 0.408820
0.377356 0.469886 0.396216
0.382086 0.472938 0.392737
0.402380 0.487373 0.397467
0.433204 0.501030 0.408789
0.465339 0.514916 0.420661
0.498085 0.528710 0.433265
0.530877 0.542290 0.446540
0.563012 0.555657 0.460456
0.590478 0.565942 0.474922
0.615015 0.574426 0.493507
0.653071 0.590570 0.508080
0.697414 0.600275 0.495155
0.744259 0.611078 0.483955
0.789670 0.619745 0.471687
0.833951 0.626429 0.457801
0.877226 0.631189 0.441749
0.919677 0.633753 0.422431
0.960937 0.633875 0.398840
1.000000 0.630732 0.369055
0.478096 0.566278 0.490303
0.477974 0.566155 0.490120
0.477485 0.565728 0.489540
0.476020 0.564477 0.488045
0.473365 0.562341 0.485542
0.469764 0.559380 0.482063
0.465156 0.555505 0.477638
0.459510 0.550683 0.472236
0.452918 0.544915 0.465766
0.445350 0.538109 0.458381
0.436652 0.530175 0.449836
0.427008 0.520989 0.440223
0.416114 0.510277 0.429450
0.403815 0.497871 0.417395
0.390234 0.483925 0.404089
0.406867 0.498116 0.406958
0.431556 0.511894 0.414405
0.462593 0.525017 0.425940
0.494362 0.538109 0.438270
0.526390 0.551232 0.451392
0.557824 0.564141 0.465064
0.588525 0.577234 0.478676
0.614984 0.587427 0.492592
0.639857 0.596216 0.510246
0.676967 0.611872 0.525200
0.722316 0.623102 0.513451
0.769528 0.635096 0.503380
0.815305 0.645167 0.492409
0.859922 0.653407 0.480171
0.903563 0.659907 0.466102
0.945983 0.664424 0.449592
0.986664 0.666163 0.429206
0.501305 0.585443 0.506401
0.501213 0.585412 0.506218
0.500816 0.585046 0.505730
0.499519 0.583917 0.504387
0.497230 0.581964 0.502068
0.494026 0.579309 0.498970
0.489906 0.575921 0.494972
0.484779 0.571801 0.490028
0.478676 0.566857 0.484199
0.471534 0.561089 0.477455
0.463478 0.554345 0.469642
0.454353 0.546502 0.460792
0.444099 0.537407 0.450843
0.432441 0.526848 0.439673
0.419623 0.514611 0.427222
0.417731 0.511742 0.420325
0.435187 0.525841 0.423407
0.464393 0.538476 0.434028
0.495460 0.550896 0.446265
0.526574 0.563256 0.459174
0.557061 0.575677 0.472328
0.587213 0.588708 0.485451
0.617426 0.602258 0.498360
0.643214 0.612055 0.511406
0.668360 0.620935 0.528893
0.704402 0.636530 0.545464
0.749050 0.647608 0.533349
0.796902 0.660731 0.524010
0.843381 0.672175 0.514092
0.888579 0.682063 0.503410
0.932372 0.690364 0.491554
0.974243 0.696773 0.478065
0.524987 0.607019 0.524163
0.524865 0.606897 0.523919
0.524437 0.606439 0.523369
0.523186 0.605280 0.521996
0.521080 0.603357 0.519829
0.518273 0.600732 0.516808
0.514580 0.597375 0.512993
0.510094 0.593378 0.508415
0.504784 0.588769 0.503075
0.498634 0.583581 0.496925
0.491463 0.577691 0.489876
0.483192 0.571099 0.481941
0.473671 0.563531 0.472816
0.462837 0.554711 0.462562
0.450843 0.544457 0.451148
0.437476 0.532647 0.438453
0.447944 0.540215 0.438117
0.468635 0.553033 0.443427
0.498878 0.564599 0.455451
0.528832 0.576257 0.467903
0.558434 0.588556 0.480507
0.587884 0.601495 0.492988
0.617456 0.614862 0.505303
0.647517 0.628534 0.517357
0.672480 0.637690 0.530480
0.697383 0.646418 0.548638
0.732052 0.661830 0.566949
0.776120 0.672908 0.554681
0.823972 0.686824 0.545953
0.871061 0.699672 0.537255
0.916594 0.711055 0.528038
0.960143 0.720760 0.518059
0.547326 0.629969 0.542535
0.547204 0.629755 0.542229
0.546838 0.629328 0.541741
0.545800 0.628290 0.540520
0.544213 0.626551 0.538506
0.541985 0.624323 0.535943
0.539361 0.621576 0.532769
0.536156 0.618341 0.528923
0.532311 0.614588 0.524376
0.527855 0.610224 0.519219
0.522515 0.605219 0.513268
0.516258 0.599573 0.506432
0.508904 0.593072 0.498726
0.500175 0.585748 0.489906
0.489906 0.577508 0.479896
0.478004 0.568170 0.468513
0.470161 0.561639 0.458808
0.487770 0.573724 0.462684
0.511803 0.585229 0.470924
0.540246 0.596826 0.482612
0.568566 0.609094 0.494362
0.596979 0.622004 0.506035
0.625757 0.635187 0.517601
0.655177 0.648554 0.529595
0.685084 0.661982 0.542077
0.708827 0.670069 0.555779
0.732967 0.678462 0.574731
0.765743 0.693324 0.594781
0.809201 0.704463 0.582361
0.856657 0.719051 0.574395
0.903899 0.733425 0.567468
0.948882 0.746273 0.560449
0.573419 0.658930 0.565698
0.573266 0.658747 0.565393
0.572869 0.658289 0.564874
0.571893 0.657221 0.563622
0.570367 0.655543 0.561669
0.568292 0.653346 0.559075
0.565850 0.650629 0.555871
0.562951 0.647395 0.552087
0.559503 0.643702 0.547662
0.555627 0.639429 0.542657
0.551141 0.634516 0.536950
0.545892 0.629023 0.530541
0.539757 0.622889 0.523369
0.532708 0.615930 0.515312
