data/fiter_cube/96143635/1022811/file.cube
# Created by Adobe Lightroom plugin Export LUT (1.17.0)
# www.johnrellis.com/lightroom/exportlut.htm
# Preset: 高雅通透灰色调人像_04 云集
# Color profile: C:\Program Files (x86)\Common Files\Adobe\Color\Profiles\Recommended\AdobeRGB1998.icc
LUT_3D_SIZE 5
DOMAIN_MIN 0.000000 0.000000 0.000000
DOMAIN_MAX 0.903226 0.903226 0.903226
0.145663 0.163790 0.179477
0.276860 0.159396 0.181369
0.527306 0.115602 0.177035
0.719356 0.051392 0.192142
0.911406 0.000000 0.229801
0.170779 0.217105 0.222660
0.212436 0.221073 0.221622
0.524132 0.246647 0.181674
0.717739 0.215213 0.202121
0.914244 0.203861 0.240665
0.279179 0.367926 0.341527
0.261997 0.342199 0.312169
0.409400 0.392981 0.353735
0.719478 0.423743 0.248203
0.911376 0.405676 0.272923
0.429847 0.524285 0.456825
0.411078 0.505058 0.436469
0.375433 0.463539 0.381933
0.590051 0.551934 0.475288
0.894713 0.604669 0.396643
0.598444 0.686763 0.588708
0.589380 0.676997 0.576165
0.553246 0.638178 0.530510
0.614618 0.664240 0.531701
0.798062 0.738827 0.627222
0.174929 0.206455 0.247593
0.218173 0.210910 0.253330
0.496407 0.155947 0.288487
0.695216 0.125521 0.281254
0.897093 0.140597 0.305821
0.201938 0.242252 0.266789
0.257542 0.276555 0.288701
0.496803 0.248722 0.277684
0.695399 0.242771 0.291691
0.897948 0.241886 0.313512
0.330877 0.411566 0.389227
0.344121 0.398444 0.375280
0.423804 0.414527 0.383490
0.698634 0.437385 0.329808
0.901671 0.427008 0.341131
0.476967 0.551873 0.489265
0.468086 0.537346 0.474037
0.395087 0.467353 0.401892
0.597131 0.563256 0.491829
0.895689 0.616724 0.424201
0.625696 0.703944 0.611902
0.615564 0.693690 0.598413
0.580133 0.657740 0.553033
0.617212 0.667811 0.538964
0.803799 0.746914 0.639033
0.318029 0.357061 0.408942
0.340459 0.353582 0.408484
0.409064 0.354711 0.405035
0.627680 0.398322 0.467903
0.880339 0.305089 0.462745
0.351751 0.394507 0.417670
0.381231 0.402380 0.421454
0.428229 0.392462 0.417762
0.645594 0.403906 0.466224
0.882139 0.333196 0.455024
0.413825 0.457343 0.453040
0.440681 0.468238 0.455940
0.489967 0.487495 0.459358
0.671382 0.462165 0.447028
0.887694 0.459205 0.455695
0.561944 0.614740 0.563989
0.567651 0.612390 0.558709
0.553002 0.573419 0.517723
0.621912 0.595239 0.532433
0.896300 0.642084 0.493812
0.673274 0.749508 0.672358
0.678309 0.746334 0.667323
0.665553 0.718227 0.630274
0.606592 0.662898 0.548669
0.813901 0.763699 0.666743
0.501305 0.519890 0.542351
0.509880 0.517571 0.542535
0.537316 0.508873 0.537774
0.586633 0.506462 0.532189
0.760159 0.621881 0.627985
0.519860 0.540764 0.547265
0.536095 0.545129 0.549737
0.551843 0.530938 0.543572
0.592065 0.522789 0.535973
0.774044 0.617243 0.630335
0.554589 0.578820 0.566033
0.567773 0.584588 0.567163
0.596094 0.590845 0.567132
0.617029 0.570306 0.554589
0.830442 0.600763 0.632013
0.611780 0.638239 0.607752
0.624079 0.643549 0.609613
0.655146 0.656825 0.613855
0.666896 0.647791 0.594537
0.888548 0.631067 0.589532
0.754269 0.800046 0.759060
0.761746 0.804227 0.760372
0.776669 0.812131 0.758633
0.744747 0.764828 0.689204
0.836820 0.797543 0.718746
0.692500 0.700771 0.724910
0.701961 0.703090 0.727718
0.712703 0.692470 0.725185
0.742428 0.678798 0.718563
0.796231 0.680049 0.718959
0.698848 0.711086 0.728756
0.711360 0.715877 0.732662
0.723629 0.707607 0.732662
0.750668 0.693050 0.725917
0.802090 0.691310 0.725093
0.710750 0.735439 0.738430
0.719966 0.740322 0.740810
0.756741 0.753353 0.753841
0.773648 0.734524 0.747738
0.817472 0.723140 0.741512
0.742641 0.771115 0.764950
0.752377 0.776730 0.768612
0.778927 0.791165 0.777218
0.816648 0.805417 0.787381
0.843290 0.777462 0.770565
0.788571 0.821256 0.804532
0.798184 0.827024 0.809018
0.826963 0.844236 0.821805
0.872496 0.873442 0.845274
0.895842 0.877226 0.836179
