data/fiter_cube/52608991/1023021/file.cube
# Created by Adobe Lightroom plugin Export LUT (1.17.0)
# www.johnrellis.com/lightroom/exportlut.htm
# Preset: 大神蓝橙街拍_01 云集
# Color profile: C:\Program Files (x86)\Common Files\Adobe\Color\Profiles\Recommended\AdobeRGB1998.icc
LUT_3D_SIZE 8
DOMAIN_MIN 0.000000 0.000000 0.000000
DOMAIN_MAX 0.903226 0.903226 0.903226
0.091798 0.100252 0.105776
0.163729 0.092317 0.106508
0.291630 0.099886 0.106630
0.435096 0.118959 0.102541
0.592981 0.145876 0.090700
0.763577 0.174228 0.067872
0.893736 0.193301 0.064271
0.991455 0.207156 0.106630
0.110170 0.132509 0.121614
0.164004 0.146334 0.105013
0.286503 0.154360 0.108522
0.427619 0.167666 0.103578
0.584527 0.187472 0.090913
0.750149 0.208713 0.068666
0.884001 0.222141 0.063905
0.986511 0.231632 0.105745
0.163363 0.198795 0.168429
0.168002 0.181155 0.187869
0.293095 0.242496 0.102113
0.432105 0.269108 0.106569
0.594018 0.286412 0.090028
0.757687 0.301518 0.066682
0.895476 0.308934 0.072328
0.992859 0.308812 0.121584
0.227512 0.278782 0.225559
0.239200 0.264164 0.237644
0.280583 0.277928 0.223758
0.453223 0.360540 0.102846
0.626184 0.400793 0.092378
0.775051 0.417273 0.072297
0.897612 0.413306 0.089601
0.991028 0.404028 0.140108
0.295964 0.360571 0.283085
0.307317 0.349493 0.292088
0.302892 0.317113 0.321996
0.425666 0.392493 0.250095
0.622950 0.481788 0.081636
0.771756 0.505455 0.074647
0.892454 0.518456 0.113649
0.987793 0.505669 0.167666
0.374365 0.452674 0.343786
0.388098 0.446998 0.353552
0.398291 0.414832 0.376745
0.434821 0.428138 0.370520
0.594903 0.519921 0.263371
0.783444 0.597101 0.000000
0.899718 0.602319 0.066468
0.989014 0.606622 0.195956
0.476692 0.570855 0.416876
0.487404 0.563317 0.423743
0.502953 0.531426 0.443000
0.480751 0.484199 0.476905
0.615167 0.571557 0.413092
0.773312 0.654261 0.270787
0.910369 0.691432 0.000000
0.990661 0.678157 0.129732
0.611231 0.710109 0.521904
0.620081 0.703426 0.527367
0.642939 0.681910 0.547570
0.652461 0.647700 0.584314
0.674983 0.650996 0.576440
0.812863 0.734676 0.487617
0.925475 0.774746 0.296605
1.000000 0.771328 0.000000
0.072602 0.104219 0.171450
0.147494 0.110445 0.169100
0.278447 0.123659 0.150149
0.420020 0.153201 0.141817
0.577386 0.180392 0.116976
0.740841 0.210849 0.070375
0.877684 0.218936 0.063020
0.982147 0.220768 0.102052
0.065949 0.147158 0.175509
0.150240 0.163027 0.171115
0.276402 0.171450 0.162295
0.418921 0.186679 0.146120
0.575280 0.209171 0.121584
0.735683 0.235416 0.075532
0.870817 0.242344 0.062806
0.976959 0.242069 0.101808
0.127474 0.231724 0.187228
0.193057 0.222416 0.206455
0.286412 0.250584 0.166720
0.422766 0.271550 0.163607
0.580987 0.289006 0.137240
0.740291 0.308263 0.096315
0.876738 0.316503 0.069215
0.981811 0.312749 0.114473
0.208286 0.303624 0.228214
0.246586 0.292485 0.250004
0.279240 0.284398 0.257298
0.439338 0.357336 0.159884
0.596460 0.389044 0.158877
0.747616 0.406806 0.131716
0.878233 0.411994 0.083192
0.980529 0.403510 0.132113
0.293217 0.384222 0.293034
0.310979 0.371557 0.301091
0.321843 0.335698 0.328801
0.417426 0.391241 0.274662
0.605554 0.473854 0.145510
0.756313 0.499519 0.144533
0.882444 0.515648 0.140871
0.981567 0.504814 0.162539
0.369726 0.467323 0.348272
0.383276 0.457465 0.354986
0.402777 0.425025 0.377356
0.426520 0.424445 0.382849
0.586450 0.517296 0.286076
0.777615 0.596155 0.122866
0.894499 0.601923 0.140047
0.985077 0.604791 0.190219
0.466621 0.577020 0.415595
0.476783 0.566674 0.420386
0.499397 0.536156 0.439918
0.488014 0.490578 0.474922
0.606500 0.567407 0.424537
0.765316 0.650935 0.291569
0.902708 0.688167 0.085603
0.985016 0.674800 0.126223
0.601190 0.713924 0.518761
0.612299 0.708248 0.525078
0.639429 0.687007 0.545464
0.654871 0.652857 0.582269
0.678859 0.657160 0.593317
0.812619 0.738003 0.504723
0.922545 0.775265 0.318029
1.000000 0.770291 0.000000
0.000000 0.138460 0.290837
0.098665 0.147585 0.291722
0.258366 0.153323 0.286625
0.413184 0.155673 0.265568
0.578851 0.166110 0.242954
0.743771 0.205203 0.230350
0.881315 0.231968 0.198459
0.985595 0.249973 0.143130
0.000000 0.177523 0.292699
0.115328 0.184421 0.291417
0.259098 0.191745 0.286687
0.410376 0.192782 0.266270
0.574609 0.206729 0.248966
0.738277 0.232731 0.231937
0.876463 0.253941 0.199374
0.982910 0.268772 0.145571
0.008270 0.249516 0.301335
0.127871 0.256382 0.299443
0.263645 0.279271 0.288914
0.412604 0.286473 0.279545
0.581781 0.299138 0.265202
0.742458 0.312322 0.242893
0.877501 0.323674 0.211368
0.982300 0.329381 0.161318
0.000000 0.372229 0.342351
0.144961 0.367803 0.325750
0.308476 0.341375 0.319982
0.434150 0.380041 0.279026
0.593835 0.408606 0.286992
0.749508 0.416449 0.263584
0.880919 0.419532 0.233677
0.982788 0.415808 0.190311
0.203372 0.442542 0.325780
0.245029 0.438911 0.322179
0.363989 0.412665 0.358740
0.418250 0.411292 0.358343
0.607233 0.492714 0.267185
0.755062 0.514458 0.274876
0.881010 0.523766 0.265202
0.981506 0.513390 0.228672
0.295995 0.524468 0.345800
0.334752 0.519738 0.357305
0.427283 0.490547 0.401434
0.427619 0.435584 0.435676
0.580560 0.527855 0.360601
0.769009 0.603204 0.252201
0.888243 0.610498 0.266514
0.983276 0.615625 0.275761
0.422705 0.630976 0.416999
0.454078 0.624323 0.432166
0.514122 0.593469 0.459541
0.534813 0.540642 0.491310
0.597162 0.570764 0.474464
0.760342 0.659571 0.365209
0.901396 0.698207 0.236088
0.985901 0.686915 0.256809
0.574670 0.749660 0.524437
0.594842 0.743282 0.535454
0.635859 0.720333 0.553552
0.674739 0.687282 0.590784
0.663203 0.650996 0.626062
0.803861 0.741146 0.551110
0.917998 0.783047 0.391485
1.000000 0.778134 0.213596
0.000000 0.183352 0.417670
0.000000 0.181003 0.419928
0.220798 0.201816 0.417609
0.387793 0.197208 0.410193
0.561486 0.193698 0.393591
0.728084 0.181582 0.364080
0.868040 0.220645 0.341650
0.977142 0.248447 0.310887
0.000000 0.217838 0.422400
0.000000 0.219608 0.422370
0.227665 0.233280 0.419409
0.389868 0.226078 0.411475
0.561883 0.224155 0.393866
0.725887 0.214481 0.363531
0.865690 0.248264 0.343725
0.976196 0.266697 0.310216
0.000000 0.279454 0.426184
0.020142 0.283543 0.425238
0.229435 0.298741 0.420172
0.394537 0.303838 0.413855
0.565942 0.307591 0.396490
0.733364 0.315923 0.378241
0.875456 0.335119 0.361120
0.980621 0.335027 0.321599
0.000000 0.365118 0.436561
0.048463 0.369329 0.435676
0.238224 0.384833 0.431159
0.402594 0.412787 0.417273
0.571099 0.420722 0.409552
0.733852 0.427588 0.395148
0.871977 0.430701 0.372839
0.978820 0.425360 0.338048
0.000000 0.505608 0.490242
0.000000 0.511864 0.491676
0.235935 0.517144 0.469795
0.450202 0.477638 0.445930
0.594751 0.521050 0.406012
0.745327 0.545342 0.421027
0.875853 0.541894 0.399420
0.977905 0.528222 0.365423
0.123629 0.609796 0.487129
0.196139 0.610529 0.480751
0.337591 0.593957 0.451820
0.505882 0.550561 0.479225
0.576257 0.552087 0.472816
0.762844 0.626581 0.391211
0.881529 0.635309 0.409308
0.977569 0.636378 0.406348
0.300633 0.699245 0.480995
0.333654 0.696407 0.476844
0.429450 0.683009 0.469856
0.579339 0.638666 0.527092
0.583185 0.577417 0.560204
0.753170 0.677974 0.475013
0.895079 0.715846 0.374609
0.980468 0.707027 0.392676
0.464027 0.804685 0.527214
0.487282 0.801480 0.528862
0.576593 0.784939 0.555383
0.682551 0.748165 0.607172
0.705196 0.694942 0.646601
0.785061 0.742397 0.620050
0.906767 0.795621 0.497841
1.000000 0.792447 0.355749
0.000000 0.237430 0.554772
0.000000 0.234989 0.556054
0.161532 0.253635 0.554284
0.357092 0.254490 0.550439
0.538048 0.243076 0.543297
0.710140 0.243107 0.521080
0.854398 0.264714 0.494423
0.964202 0.329381 0.481636
0.000000 0.264195 0.556970
0.000000 0.265354 0.558556
0.153597 0.269596 0.556970
0.360052 0.278172 0.551781
0.538415 0.266484 0.543084
0.710628 0.268376 0.521324
0.854398 0.288914 0.495857
0.963806 0.346990 0.483650
0.000000 0.322942 0.560754
0.000000 0.326024 0.560571
0.174014 0.333257 0.559106
0.367071 0.346349 0.552728
0.538903 0.334844 0.542107
0.707393 0.339147 0.519066
0.851652 0.356512 0.497871
0.962585 0.387549 0.481514
0.000000 0.398016 0.568109
0.000000 0.400458 0.567071
0.193851 0.411170 0.564324
0.372412 0.433326 0.557336
0.546166 0.434791 0.545159
0.711849 0.441993 0.524163
0.853605 0.454902 0.508446
0.966705 0.449653 0.477119
0.000000 0.490242 0.577234
0.000000 0.493263 0.576562
0.202609 0.503227 0.572290
0.379675 0.522942 0.563806
0.551354 0.550164 0.544610
0.717189 0.556847 0.536858
0.857237 0.558526 0.521630
0.966766 0.547112 0.491402
0.000000 0.616144 0.610651
0.000000 0.621149 0.612146
0.144930 0.637873 0.615534
0.357336 0.658930 0.603815
0.586572 0.604120 0.561334
0.735531 0.650721 0.528527
0.863554 0.673487 0.555169
0.966552 0.661250 0.530755
0.000000 0.773220 0.668086
0.000000 0.769955 0.658656
0.252110 0.758816 0.626307
0.459205 0.735744 0.579339
0.646448 0.680842 0.599084
0.722042 0.685389 0.590600
0.877562 0.738491 0.512261
0.966918 0.737606 0.532341
0.289952 0.853727 0.641749
0.327459 0.850767 0.636133
0.434485 0.839780 0.619409
0.577783 0.821775 0.610620
0.727657 0.772702 0.661280
0.744228 0.726589 0.692714
0.884245 0.806455 0.609552
0.987915 0.812467 0.494759
0.000000 0.296361 0.695552
0.000000 0.294804 0.695766
0.000000 0.288487 0.696162
0.332647 0.327825 0.692500
0.503441 0.314336 0.684993
0.685725 0.301305 0.674220
0.838560 0.332494 0.644373
0.951232 0.402502 0.624506
0.000000 0.315099 0.692561
0.000000 0.315770 0.692683
0.000000 0.310246 0.692622
0.333837 0.344244 0.688380
0.501823 0.331304 0.681575
0.683406 0.319066 0.671748
0.836912 0.349371 0.643397
0.949981 0.415839 0.624811
0.000000 0.370367 0.699092
0.000000 0.370794 0.698238
0.000000 0.376043 0.696437
0.342504 0.399664 0.692042
0.509300 0.392615 0.683833
0.686610 0.381048 0.673243
0.837400 0.410315 0.645686
0.948974 0.465827 0.630610
0.000000 0.436835 0.703151
0.000000 0.438300 0.701808
0.115419 0.447211 0.699977
0.344854 0.469642 0.699580
0.529900 0.490059 0.691432
0.696742 0.478340 0.679927
0.841001 0.503868 0.653925
0.949279 0.541009 0.642084
0.000000 0.514488 0.703944
0.000000 0.516808 0.703639
0.131716 0.525566 0.701930
0.348547 0.543908 0.698360
0.531914 0.575586 0.689448
0.695491 0.576806 0.675166
0.837278 0.593317 0.654963
0.947051 0.613397 0.646571
0.000000 0.604303 0.707576
0.000000 0.607813 0.708278
0.150362 0.616449 0.706294
0.354040 0.632746 0.701472
0.530938 0.657343 0.691615
0.700557 0.688746 0.674922
0.842924 0.698512 0.672175
0.952239 0.695491 0.655879
0.000000 0.729702 0.741176
0.000000 0.734279 0.742855
0.081666 0.747219 0.745357
0.325689 0.770809 0.749599
0.515648 0.798734 0.743496
0.733120 0.739620 0.692500
0.855558 0.775662 0.663447
0.950835 0.790005 0.686244
0.000000 0.895628 0.830381
0.000000 0.898100 0.830442
0.000000 0.901122 0.813260
0.388281 0.886595 0.765377
0.612421 0.858915 0.711910
0.782254 0.805264 0.727230
0.851591 0.813260 0.721401
0.968536 0.844297 0.645991
0.000000 0.349096 0.809171
0.000000 0.350622 0.810422
0.000000 0.352392 0.810178
0.309728 0.401556 0.807401
0.484230 0.408484 0.802487
0.634333 0.394720 0.795773
0.804501 0.393469 0.786831
0.929808 0.464302 0.756069
0.000000 0.361578 0.805356
0.000000 0.364263 0.806394
0.000000 0.366461 0.806332
0.299138 0.404547 0.803311
0.482612 0.418341 0.797848
0.630365 0.403388 0.790585
0.798978 0.399878 0.781155
0.925383 0.465644 0.751095
0.000000 0.404334 0.809598
0.000000 0.406317 0.809354
0.000000 0.415625 0.807980
0.278202 0.428779 0.805783
0.496773 0.468299 0.798306
0.637354 0.454475 0.791501
0.802792 0.453590 0.783902
0.927855 0.514641 0.757137
0.000000 0.462257 0.813901
0.000000 0.463691 0.812802
0.000000 0.471565 0.810880
0.308415 0.497261 0.808957
0.528099 0.549126 0.801328
0.654261 0.537377 0.795560
0.809079 0.533776 0.788235
0.929320 0.580499 0.763180
0.000000 0.529015 0.812650
0.000000 0.530266 0.811582
0.000000 0.536858 0.809567
0.291173 0.553063 0.807736
0.502831 0.593225 0.802670
0.666865 0.621363 0.793210
0.807980 0.612940 0.784756
0.928130 0.650660 0.766323
0.000000 0.608392 0.814939
0.000000 0.610346 0.814694
0.000000 0.617853 0.813748
0.305150 0.633539 0.812345
0.499825 0.661982 0.808408
0.683253 0.708461 0.801541
0.816342 0.712917 0.789822
0.929625 0.732387 0.775357
0.000000 0.698817 0.821469
0.000000 0.701472 0.821805
0.027222 0.709041 0.820798
0.325505 0.724086 0.818936
0.512810 0.747280 0.813535
0.682429 0.777554 0.804990
0.820371 0.805600 0.790280
0.933501 0.813199 0.787259
0.000000 0.808621 0.844144
0.000000 0.811490 0.844633
0.000000 0.824155 0.849088
0.299290 0.843412 0.852750
0.493324 0.869810 0.856352
0.665461 0.900633 0.856321
0.845518 0.848264 0.805020
0.944671 0.877867 0.781765
0.000000 0.401617 0.901793
0.000000 0.405554 0.902159
0.000000 0.416815 0.900877
0.289982 0.457191 0.899168
0.519615 0.525963 0.894316
0.633265 0.522942 0.891569
0.754269 0.515343 0.888609
0.897398 0.531304 0.883268
0.000000 0.409461 0.900175
0.000000 0.414282 0.900481
0.000000 0.426062 0.899565
0.279667 0.459052 0.897765
0.522423 0.534569 0.892576
0.633906 0.530694 0.889860
0.753109 0.521691 0.886564
0.895964 0.536461 0.881468
0.000000 0.435218 0.899901
0.000000 0.439277 0.899870
0.000000 0.455177 0.898009
0.286625 0.486427 0.898100
0.541894 0.571344 0.891814
0.643336 0.564874 0.888548
0.757015 0.555108 0.885496
0.896300 0.567346 0.881193
0.000000 0.471351 0.901793
0.000000 0.474983 0.902007
0.000000 0.488777 0.900603
0.283604 0.526299 0.898741
0.514519 0.585504 0.894530
0.663081 0.622187 0.889342
0.766812 0.611688 0.886625
0.898985 0.619074 0.883055
0.000000 0.530083 0.902647
0.000000 0.531914 0.903044
0.000000 0.537224 0.902190
0.156863 0.550225 0.901335
0.481117 0.613214 0.896269
0.682704 0.685054 0.889036
0.777157 0.676509 0.886992
0.902525 0.682856 0.885435
0.000000 0.601099 0.904814
0.000000 0.602136 0.904173
0.000000 0.606806 0.902800
0.162966 0.618402 0.901396
0.420966 0.646479 0.899474
0.655573 0.716609 0.895720
0.798581 0.757595 0.892576
0.907378 0.755215 0.889006
0.000000 0.682307 0.910094
0.000000 0.683619 0.909667
0.000000 0.688930 0.908568
0.203861 0.701808 0.907561
0.445411 0.728084 0.905486
0.641962 0.769558 0.902617
0.805875 0.821653 0.898955
0.909575 0.825772 0.889494
0.000000 0.772122 0.918395
0.000000 0.773739 0.918151
0.000000 0.780362 0.917784
0.263096 0.794034 0.916686
0.480354 0.816739 0.914061
0.659419 0.846586 0.909758
0.803189 0.877836 0.904051
0.913909 0.903044 0.892180
