data/fiter_cube/52608991/1023021/file.cube
# Created by Adobe Lightroom plugin Export LUT (1.17.0)
# www.johnrellis.com/lightroom/exportlut.htm
# Preset: 大神蓝橙街拍_01 云集
# Color profile: C:\Program Files (x86)\Common Files\Adobe\Color\Profiles\Recommended\AdobeRGB1998.icc
LUT_3D_SIZE 5
DOMAIN_MIN 0.000000 0.000000 0.000000
DOMAIN_MAX 0.903226 0.903226 0.903226
0.091798 0.100252 0.105776
0.258701 0.097322 0.106813
0.512779 0.132570 0.097932
0.800992 0.179812 0.063386
0.991455 0.207156 0.106630
0.149020 0.180514 0.155734
0.260197 0.217380 0.099428
0.508965 0.250523 0.099184
0.797482 0.279942 0.062562
0.994598 0.288334 0.119173
0.260044 0.317784 0.253391
0.265660 0.280552 0.286687
0.541863 0.423987 0.094911
0.805203 0.470344 0.081910
0.988800 0.454047 0.152041
0.399969 0.482338 0.362615
0.422827 0.452125 0.385321
0.515862 0.486275 0.361364
0.819303 0.623377 0.000000
0.989227 0.623774 0.182925
0.611231 0.710109 0.521904
0.636866 0.688594 0.540826
0.620691 0.612757 0.594598
0.843687 0.749294 0.454017
1.000000 0.771328 0.000000
0.000000 0.127932 0.258091
0.228336 0.141634 0.255741
0.493477 0.157504 0.218112
0.775937 0.212131 0.183749
0.981994 0.246281 0.105196
0.046967 0.222904 0.269017
0.233402 0.248997 0.258762
0.494575 0.263584 0.236973
0.777127 0.291691 0.194553
0.982544 0.310643 0.114382
0.181735 0.385199 0.289006
0.316106 0.360967 0.318364
0.518456 0.426734 0.239750
0.785489 0.467750 0.236088
0.984375 0.463203 0.171603
0.362585 0.540734 0.367987
0.442145 0.513512 0.407294
0.510185 0.494270 0.419623
0.812161 0.629877 0.217533
0.986053 0.630060 0.241428
0.595666 0.744045 0.532830
0.634821 0.722072 0.550500
0.664912 0.655085 0.611109
0.839628 0.757412 0.509545
1.000000 0.777951 0.181247
0.000000 0.209751 0.485664
0.140993 0.224704 0.485725
0.461341 0.220157 0.475959
0.758816 0.213962 0.437812
0.971954 0.278141 0.396429
0.000000 0.284367 0.491646
0.155215 0.292760 0.488716
0.465949 0.297826 0.478431
0.757198 0.298711 0.438758
0.973266 0.333745 0.398199
0.000000 0.427375 0.506706
0.176974 0.438209 0.502220
0.475166 0.480079 0.479927
0.763577 0.492348 0.463050
0.973724 0.484047 0.415991
0.000000 0.675471 0.588128
0.218418 0.661402 0.551202
0.562097 0.597650 0.530083
0.790127 0.662715 0.456672
0.970062 0.671260 0.475044
0.395087 0.826596 0.571344
0.483131 0.816709 0.566491
0.703548 0.759213 0.632563
0.802243 0.758175 0.635828
0.994629 0.799680 0.420142
0.000000 0.308293 0.722774
0.000000 0.304326 0.724178
0.411688 0.341650 0.718471
0.716487 0.318730 0.702480
0.945403 0.415869 0.656306
0.000000 0.362341 0.724086
0.000000 0.366949 0.723537
0.420600 0.397559 0.716732
0.715358 0.375433 0.700282
0.942412 0.458259 0.657710
0.000000 0.476204 0.727413
0.000000 0.483192 0.725643
0.424231 0.519036 0.718013
0.715541 0.523491 0.696193
0.940612 0.579858 0.669795
0.000000 0.632563 0.740627
0.000000 0.638819 0.737301
0.436286 0.668421 0.729397
0.733120 0.719844 0.704982
0.946227 0.725368 0.689052
0.000000 0.876219 0.834287
0.000000 0.886046 0.835966
0.449378 0.893248 0.794064
0.799222 0.816556 0.747616
0.962524 0.852323 0.681147
0.000000 0.401617 0.901793
0.000000 0.412665 0.901183
0.440650 0.508537 0.896330
0.662989 0.521843 0.890929
0.897398 0.531304 0.883268
0.000000 0.428138 0.900633
0.000000 0.443641 0.899748
0.423407 0.517937 0.895750
0.668757 0.553002 0.888457
0.896818 0.559472 0.881987
0.000000 0.498604 0.902129
0.000000 0.503380 0.901366
0.385962 0.566308 0.896544
0.692012 0.646784 0.886656
0.900175 0.648585 0.883635
0.000000 0.622095 0.907561
0.000000 0.626581 0.906188
0.316747 0.651545 0.903380
0.695918 0.743404 0.896056
0.907652 0.772030 0.888853
0.000000 0.772122 0.918395
0.000000 0.778256 0.917998
0.378943 0.804379 0.915618
0.698726 0.854520 0.908507
0.913909 0.903044 0.892180
