data/fiter_cube/52608991/1023021/file.cube
# Created by Adobe Lightroom plugin Export LUT (1.17.0)
# www.johnrellis.com/lightroom/exportlut.htm
# Preset: 大神蓝橙街拍_01 云集
# Color profile: C:\Program Files (x86)\Common Files\Adobe\Color\Profiles\Recommended\AdobeRGB1998.icc
LUT_3D_SIZE 32
DOMAIN_MIN 0.0 0.0 0.0
DOMAIN_MAX 1.0 1.0 1.0
0.091798 0.100252 0.105776
0.091798 0.100252 0.105776
0.103059 0.098695 0.105867
0.131777 0.093477 0.106081
0.163729 0.092317 0.106508
0.195041 0.093019 0.106508
0.226658 0.094850 0.106966
0.258701 0.097322 0.106813
0.291630 0.099886 0.106630
0.325444 0.103822 0.106081
0.360845 0.107698 0.105135
0.397375 0.112642 0.104402
0.435096 0.118959 0.102541
0.473671 0.125521 0.100313
0.512779 0.132570 0.097932
0.552728 0.139010 0.094606
0.592981 0.145876 0.090700
0.633326 0.152743 0.085908
0.679133 0.160678 0.079652
0.722774 0.167697 0.073335
0.763577 0.174228 0.067872
0.800992 0.179812 0.063386
0.834775 0.185061 0.060426
0.865537 0.189395 0.061677
0.893736 0.193301 0.064271
0.919921 0.196567 0.071595
0.944793 0.199985 0.080568
0.968566 0.203525 0.092958
0.991455 0.207156 0.106630
1.000000 0.212039 0.123171
1.000000 0.218082 0.142031
1.000000 0.226261 0.163394
0.091798 0.100252 0.105776
0.091798 0.100252 0.105776
0.104219 0.098756 0.105592
0.131655 0.100069 0.106508
0.163180 0.100710 0.106813
0.194430 0.101411 0.107057
0.225864 0.102693 0.106905
0.257664 0.104616 0.106996
0.290318 0.107210 0.106844
0.324010 0.110536 0.106111
0.359136 0.114443 0.105196
0.395544 0.119265 0.104494
0.432837 0.124788 0.102754
0.471199 0.131197 0.100587
0.510094 0.137484 0.098085
0.549767 0.144289 0.094789
0.589929 0.150668 0.090730
0.630060 0.157351 0.086091
0.675257 0.164523 0.080232
0.718135 0.171725 0.073945
0.758694 0.177676 0.067750
0.796109 0.183169 0.062959
0.830198 0.187625 0.060639
0.861265 0.192386 0.060761
0.889921 0.195560 0.063844
0.916503 0.199222 0.070253
0.941772 0.201938 0.079713
0.965911 0.205478 0.091524
0.989166 0.208988 0.105348
1.000000 0.213596 0.121492
1.000000 0.219425 0.140291
1.000000 0.227237 0.161746
0.093111 0.103853 0.107271
0.095003 0.104036 0.108553
0.104860 0.107057 0.106050
0.131472 0.109804 0.107088
0.162539 0.110750 0.107362
0.193759 0.111879 0.107332
0.224918 0.112245 0.107271
0.256565 0.113893 0.106966
0.289220 0.116091 0.106844
0.322759 0.119265 0.106355
0.357824 0.122774 0.105257
0.393957 0.127474 0.104555
0.431342 0.132479 0.102846
0.469673 0.138552 0.100710
0.508568 0.144961 0.097932
0.548180 0.150668 0.095033
0.588067 0.157382 0.091249
0.628473 0.163210 0.086122
0.673213 0.170291 0.080110
0.715663 0.176822 0.074128
0.756222 0.182437 0.068055
0.793698 0.187686 0.063355
0.827878 0.192294 0.061402
0.859129 0.196170 0.060853
0.887907 0.199557 0.063813
0.914702 0.202548 0.069551
0.940185 0.205600 0.078920
0.964477 0.208835 0.091157
0.987915 0.212131 0.104982
1.000000 0.216648 0.121157
1.000000 0.222080 0.139528
1.000000 0.229648 0.161135
0.099886 0.117403 0.112947
0.104128 0.115846 0.115877
0.108797 0.116670 0.116518
0.133822 0.125643 0.105745
0.162112 0.129244 0.108339
0.193027 0.129702 0.108370
0.224216 0.130068 0.108095
0.255802 0.131502 0.107790
0.288243 0.132906 0.107301
0.321752 0.135531 0.106844
0.356786 0.138796 0.105959
0.392798 0.142855 0.104829
0.429908 0.147799 0.103151
0.467964 0.152956 0.101106
0.506767 0.158358 0.098146
0.546197 0.164065 0.095247
0.586114 0.169986 0.091005
0.627344 0.175448 0.086519
0.670680 0.182132 0.080049
0.712062 0.188052 0.074250
0.752010 0.192935 0.068666
0.789364 0.197482 0.063966
0.823972 0.201755 0.060578
0.855985 0.205539 0.061402
0.885710 0.208499 0.063874
0.913390 0.211521 0.069825
0.939422 0.214023 0.079683
0.964111 0.217075 0.091371
0.987640 0.220157 0.105623
1.000000 0.224033 0.121981
1.000000 0.229099 0.139956
1.000000 0.235904 0.161196
0.110170 0.132509 0.121614
0.115236 0.129580 0.125521
0.116152 0.126314 0.130648
0.131930 0.135286 0.120027
0.164004 0.146334 0.105013
0.192752 0.150179 0.108766
0.222446 0.152132 0.109926
0.254154 0.152895 0.109468
0.286503 0.154360 0.108522
0.319860 0.156710 0.107881
0.354589 0.159548 0.106844
0.390539 0.163272 0.105257
0.427619 0.167666 0.103578
0.465705 0.172213 0.101320
0.504601 0.177523 0.098573
0.544244 0.182620 0.094881
0.584527 0.187472 0.090913
0.627100 0.193118 0.086183
0.669947 0.198947 0.080201
0.710842 0.203586 0.074861
0.750149 0.208713 0.068666
0.787289 0.212680 0.064210
0.821836 0.216098 0.061097
0.854063 0.219272 0.061524
0.884001 0.222141 0.063905
0.911925 0.224247 0.071077
0.938170 0.226658 0.079683
0.962921 0.228885 0.091768
0.986511 0.231632 0.105745
1.000000 0.234806 0.122347
1.000000 0.239200 0.140658
1.000000 0.245548 0.161654
0.122835 0.146395 0.131777
0.126589 0.143435 0.134890
0.128420 0.140230 0.139284
0.133242 0.142123 0.139315
0.157412 0.154543 0.120912
0.194247 0.168368 0.103792
0.224887 0.172793 0.107912
0.253483 0.176913 0.111086
0.285801 0.178439 0.110353
0.319005 0.180362 0.109102
0.353704 0.183078 0.107576
0.389746 0.186648 0.105715
0.426703 0.190829 0.104005
0.464942 0.194980 0.101717
0.503838 0.199374 0.098543
0.543694 0.203983 0.095552
0.584070 0.208865 0.090944
0.627985 0.214542 0.085389
0.670314 0.219486 0.079866
0.711086 0.223880 0.074403
0.750484 0.228305 0.067811
0.787778 0.231907 0.063569
0.849332 0.242496 0.061646
0.879149 0.244816 0.064332
0.906340 0.246403 0.070985
0.931548 0.248112 0.078706
0.955169 0.249485 0.090120
0.977600 0.250980 0.102785
0.999084 0.253117 0.117464
1.000000 0.255955 0.133822
1.000000 0.259953 0.152529
1.000000 0.265690 0.173556
0.136110 0.163577 0.144045
0.139620 0.161257 0.146670
0.142184 0.157900 0.150393
0.140169 0.151858 0.158022
0.159304 0.163699 0.144045
0.187320 0.177371 0.120485
0.228519 0.193912 0.101778
0.261143 0.199252 0.105867
0.290929 0.203616 0.109163
0.323857 0.207797 0.110506
0.359106 0.211032 0.108492
0.395758 0.214176 0.106722
0.433112 0.217899 0.104158
0.471412 0.221775 0.101686
0.510216 0.225742 0.098360
0.549615 0.229862 0.094820
0.590845 0.234379 0.089998
0.636225 0.239933 0.084535
0.678798 0.244724 0.078462
0.720485 0.249210 0.072786
0.761440 0.253483 0.066407
0.800595 0.257237 0.061646
0.837125 0.260349 0.061585
0.870573 0.263127 0.063722
0.900725 0.264897 0.069978
0.927672 0.266056 0.079500
0.952178 0.267185 0.090700
0.975067 0.268376 0.103456
0.996857 0.269627 0.117922
1.000000 0.271794 0.134646
1.000000 0.274968 0.152987
1.000000 0.279789 0.174014
0.149020 0.180514 0.155734
0.152102 0.178073 0.158022
0.154940 0.175448 0.161105
0.156039 0.169162 0.167636
0.160769 0.170809 0.167391
0.186099 0.185428 0.148104
0.216342 0.199527 0.120821
0.260197 0.217380 0.099428
0.293858 0.223911 0.102327
0.325231 0.228794 0.105928
0.358312 0.235599 0.109316
0.394629 0.239475 0.107607
0.431952 0.243168 0.105440
0.470253 0.246952 0.102449
0.508965 0.250523 0.099184
0.548241 0.254459 0.094881
0.592035 0.259678 0.089967
0.635828 0.264561 0.084321
0.677272 0.268742 0.078340
0.718227 0.272801 0.071901
0.758694 0.276707 0.066499
0.797482 0.279942 0.062562
0.833829 0.282658 0.061891
0.867247 0.284611 0.064424
0.897490 0.285771 0.071504
0.924590 0.286595 0.080903
0.949371 0.287083 0.091737
0.972564 0.287480 0.104433
0.994598 0.288334 0.119173
1.000000 0.289586 0.135653
1.000000 0.292119 0.154604
1.000000 0.296300 0.175418
0.163363 0.198795 0.168429
0.165988 0.196536 0.170382
0.168917 0.194034 0.173220
0.171817 0.188724 0.178927
0.168002 0.181155 0.187869
0.187381 0.193729 0.174624
0.215183 0.208988 0.153017
0.246921 0.223575 0.123354
0.293095 0.242496 0.102113
0.328740 0.249729 0.101839
0.361395 0.255436 0.102724
0.395850 0.262333 0.105379
0.432105 0.269108 0.106569
0.470375 0.272740 0.103578
0.509056 0.276707 0.099886
0.550225 0.281254 0.095399
0.594018 0.286412 0.090028
0.636652 0.290959 0.083680
0.677272 0.294774 0.078248
0.717739 0.298131 0.072114
0.757687 0.301518 0.066682
0.796109 0.304295 0.063081
0.832090 0.306584 0.063172
0.865293 0.308202 0.065492
0.895476 0.308934 0.072328
0.922637 0.309056 0.082155
0.947509 0.308934 0.093812
0.970733 0.308598 0.106874
0.992859 0.308812 0.121584
1.000000 0.309545 0.138125
1.000000 0.311345 0.156832
1.000000 0.314580 0.177554
0.178286 0.217777 0.182010
0.180850 0.215640 0.183719
0.183444 0.213107 0.186099
0.186984 0.208225 0.191135
0.186923 0.201175 0.199161
0.190341 0.201755 0.199557
0.216007 0.217655 0.181308
0.245762 0.233371 0.157137
0.280125 0.249332 0.124544
0.327123 0.268254 0.104036
0.364324 0.276097 0.103212
0.398230 0.282200 0.103639
0.433814 0.289372 0.103517
0.470680 0.297459 0.102998
0.510765 0.303471 0.100496
0.553948 0.309087 0.095552
0.597406 0.314244 0.089723
0.639551 0.318486 0.083680
0.679835 0.322026 0.077882
0.719539 0.325109 0.072297
0.758419 0.328008 0.067018
0.795468 0.330022 0.064515
0.830320 0.331365 0.063569
0.862547 0.332189 0.067964
0.892271 0.332341 0.074067
0.919463 0.332006 0.084199
0.944701 0.331304 0.095399
0.968383 0.330846 0.108583
0.990936 0.330419 0.124239
1.000000 0.330816 0.141207
1.000000 0.332036 0.160189
1.000000 0.334874 0.181521
0.193088 0.236667 0.195377
0.195468 0.235080 0.196994
0.198245 0.232639 0.199222
0.202213 0.227787 0.203769
0.204013 0.220890 0.210849
0.198611 0.213077 0.219944
0.218326 0.225834 0.207828
0.246159 0.242283 0.187686
0.277562 0.258366 0.160983
0.316930 0.277409 0.124392
0.363226 0.294896 0.104921
0.401953 0.303471 0.103395
0.436805 0.309667 0.103914
0.474708 0.317876 0.102724
0.515129 0.327611 0.100587
0.556451 0.336584 0.097139
0.599084 0.341772 0.090272
0.640284 0.345892 0.084413
0.680079 0.348943 0.078889
0.719234 0.351720 0.073274
0.757717 0.354314 0.068330
0.794553 0.356176 0.065553
0.829252 0.357336 0.066041
0.861418 0.357763 0.070192
0.890990 0.357366 0.078065
0.918029 0.356451 0.087404
0.943145 0.355261 0.098482
0.966766 0.354131 0.112123
0.989227 0.353246 0.127443
1.000000 0.353033 0.144411
1.000000 0.353735 0.163455
1.000000 0.355871 0.184878
0.208988 0.255955 0.209384
0.211093 0.254429 0.210666
0.213565 0.252476 0.212802
0.217838 0.247990 0.216922
0.220768 0.241703 0.223362
0.219089 0.233951 0.231693
0.221561 0.234073 0.232853
0.248020 0.251011 0.215549
0.277958 0.267918 0.193271
0.311162 0.284367 0.163668
0.355200 0.306554 0.122866
0.401373 0.322881 0.104952
0.457374 0.342596 0.101289
0.498848 0.351843 0.100587
0.540856 0.361486 0.099001
0.583520 0.371344 0.096223
0.625605 0.380865 0.093690
0.665644 0.385840 0.083650
0.703822 0.387884 0.077089
0.741451 0.389593 0.071809
0.777432 0.390661 0.069276
0.811460 0.391058 0.068635
0.843351 0.390539 0.071870
0.873045 0.389624 0.077577
0.900572 0.388067 0.085420
0.926024 0.386175 0.096162
0.949767 0.384070 0.107637
0.972168 0.382025 0.121706
0.993561 0.380346 0.136233
1.000000 0.379370 0.153506
1.000000 0.379370 0.172549
1.000000 0.380804 0.194003
0.227512 0.278782 0.225559
0.229465 0.277195 0.226780
0.231785 0.275181 0.228458
0.235569 0.270603 0.232120
0.239200 0.264164 0.237644
0.239445 0.256352 0.245182
0.232731 0.247501 0.254276
0.251957 0.260410 0.242893
0.280583 0.277928 0.223758
0.312810 0.295567 0.199008
0.348638 0.313420 0.167117
0.402197 0.342016 0.119814
0.453223 0.360540 0.102846
0.500755 0.373541 0.098482
0.542809 0.382727 0.097475
0.584924 0.392004 0.094972
0.626184 0.400793 0.092378
0.665064 0.408515 0.089937
0.702510 0.414649 0.085786
0.739498 0.416388 0.075502
0.775051 0.417273 0.072297
0.808865 0.417304 0.072114
0.840482 0.416693 0.075135
0.870115 0.415106 0.081666
0.897612 0.413306 0.089601
0.923095 0.410925 0.099641
0.946899 0.408423 0.111757
0.969451 0.406104 0.125002
0.991028 0.404028 0.140108
1.000000 0.402564 0.157504
1.000000 0.402106 0.176364
1.000000 0.402991 0.198032
0.243473 0.298100 0.239292
0.245365 0.296605 0.240513
0.247440 0.294774 0.241978
0.251194 0.290745 0.245304
0.255070 0.284428 0.250340
0.256748 0.276921 0.257115
0.253391 0.268132 0.265568
0.254734 0.267765 0.267277
0.281956 0.285435 0.250675
0.313207 0.304143 0.230442
0.349187 0.324163 0.204593
0.389410 0.344579 0.169619
0.448219 0.376501 0.115267
0.497932 0.392645 0.099458
0.544884 0.404761 0.094392
0.586542 0.413367 0.092195
0.626459 0.421057 0.089845
0.664576 0.427955 0.088899
0.701411 0.434577 0.086732
0.737881 0.441444 0.086061
0.773220 0.443915 0.076417
0.806912 0.443824 0.076051
0.838499 0.442939 0.079438
0.868101 0.441444 0.085389
0.895567 0.439185 0.094301
0.921080 0.436561 0.104707
0.945006 0.433722 0.116609
0.967620 0.430915 0.130037
0.989258 0.428504 0.145235
1.000000 0.426612 0.162264
1.000000 0.425788 0.181796
1.000000 0.426307 0.203647
0.260044 0.317784 0.253391
0.261662 0.316686 0.254429
0.263523 0.314763 0.255863
0.267308 0.310735 0.258732
0.271336 0.304967 0.263432
0.273777 0.297459 0.269566
0.272740 0.289189 0.277165
0.265660 0.280552 0.286687
0.285374 0.294072 0.277287
0.315831 0.313481 0.260197
0.350011 0.333593 0.238193
0.388190 0.354284 0.209598
0.430152 0.375219 0.171237
0.493874 0.410193 0.107362
0.541863 0.423987 0.094911
0.587793 0.435218 0.088136
0.627802 0.442390 0.086519
0.664973 0.448463 0.085725
0.701350 0.454322 0.084810
0.737270 0.460395 0.083680
0.772000 0.466316 0.083467
0.805203 0.470344 0.081910
0.836606 0.469306 0.084352
0.866087 0.467475 0.090517
0.893584 0.465156 0.099550
0.919371 0.462348 0.109895
0.943633 0.459358 0.122560
0.966735 0.456550 0.136568
0.988800 0.454047 0.152041
1.000000 0.452125 0.170169
1.000000 0.451240 0.189944
1.000000 0.451606 0.212589
0.277104 0.338323 0.267613
0.278813 0.337285 0.268803
0.280766 0.335698 0.270115
0.284581 0.332372 0.273136
0.289158 0.327245 0.277714
0.292943 0.320592 0.283909
0.293950 0.312871 0.291356
0.289860 0.304204 0.300359
0.290654 0.303624 0.303288
0.319799 0.323033 0.288273
0.352422 0.343145 0.269017
0.388495 0.363928 0.245090
0.427893 0.384649 0.213748
0.470466 0.405402 0.171572
0.538323 0.442786 0.096254
0.583124 0.453376 0.088350
0.627008 0.462959 0.082185
0.665248 0.469276 0.080964
0.701625 0.474739 0.080659
0.737728 0.480507 0.079683
0.772549 0.486061 0.079133
0.805814 0.491341 0.080629
0.837034 0.496101 0.088136
0.866423 0.495033 0.097749
0.893889 0.492409 0.106264
0.919646 0.489448 0.117281
0.943877 0.486091 0.130037
0.966888 0.483009 0.144167
0.988800 0.480201 0.160586
1.000000 0.477882 0.177890
1.000000 0.476448 0.197940
1.000000 0.476295 0.220584
0.295964 0.360571 0.283085
0.297429 0.359686 0.283970
0.299199 0.357916 0.285222
0.302739 0.354559 0.287846
0.307317 0.349493 0.292088
0.311284 0.342870 0.297551
0.313237 0.335241 0.304448
0.311192 0.326390 0.312596
0.302892 0.317113 0.321996
0.322271 0.330358 0.313207
0.353429 0.350591 0.296788
0.387884 0.371313 0.276036
0.425666 0.392493 0.250095
0.466529 0.413642 0.216342
0.510033 0.434455 0.169863
0.580163 0.472877 0.087892
0.622950 0.481788 0.081636
0.664454 0.489754 0.074983
0.701778 0.495430 0.073884
0.737270 0.500450 0.074128
0.771756 0.505455 0.074647
0.804715 0.510063 0.075013
0.835843 0.514244 0.077119
0.865080 0.518151 0.093507
0.892454 0.518456 0.113649
0.918273 0.515373 0.124025
0.942626 0.512078 0.137087
0.965759 0.508782 0.151431
0.987793 0.505669 0.167666
1.000000 0.503197 0.185977
1.000000 0.501610 0.206271
1.000000 0.501213 0.229374
0.314855 0.382910 0.298253
0.316320 0.382238 0.299199
0.325292 0.388861 0.306096
0.328740 0.385443 0.308568
0.333227 0.380255 0.312474
0.337255 0.373480 0.317479
0.339818 0.365240 0.323796
0.339025 0.355962 0.331365
0.333196 0.346136 0.340002
0.332433 0.344335 0.343450
0.362860 0.364782 0.328252
0.396582 0.385931 0.309941
0.433234 0.407477 0.286900
0.473121 0.429175 0.257908
0.515465 0.450660 0.220401
0.560357 0.471687 0.168582
0.631678 0.510002 0.078370
0.671717 0.516655 0.071992
0.710262 0.522423 0.065888
0.745571 0.526726 0.066468
0.778500 0.530114 0.067689
0.810361 0.533532 0.070893
0.840574 0.536645 0.074586
0.868894 0.539330 0.078676
0.894957 0.541588 0.105562
0.919310 0.543023 0.133700
0.942748 0.538811 0.146059
0.965179 0.534936 0.159762
0.986847 0.531456 0.176089
1.000000 0.528649 0.194064
1.000000 0.526665 0.214633
1.000000 0.525994 0.238132
0.336065 0.407660 0.314763
0.338170 0.407965 0.316472
0.340917 0.407538 0.318303
0.345281 0.405554 0.321416
0.350317 0.401251 0.325475
0.354925 0.395178 0.330480
0.358190 0.387366 0.336492
0.358618 0.378149 0.343481
0.355108 0.368322 0.351659
0.345342 0.357916 0.360723
0.364569 0.371069 0.352605
0.396948 0.392187 0.336278
0.432074 0.413794 0.316350
0.470222 0.435706 0.291508
0.511101 0.457618 0.260410
0.554314 0.479225 0.219944
0.602899 0.502647 0.162295
0.669093 0.536645 0.065736
0.707393 0.542077 0.059602
0.743801 0.546685 0.052369
0.777432 0.550134 0.056336
0.809293 0.553124 0.062226
0.839628 0.555840 0.065217
0.868040 0.558129 0.070954
0.894469 0.559930 0.079408
0.919005 0.561669 0.118166
0.941985 0.563684 0.150851
0.964324 0.560784 0.168429
0.985962 0.557092 0.184817
1.000000 0.554131 0.203311
1.000000 0.551904 0.224094
1.000000 0.551049 0.247929
0.354711 0.429603 0.329137
0.356939 0.429908 0.330724
0.359716 0.429572 0.332525
0.363745 0.427619 0.335332
0.368719 0.423713 0.339300
0.373419 0.417639 0.344030
0.377020 0.410010 0.349615
0.378485 0.400946 0.356146
0.376623 0.391211 0.363836
0.369757 0.380804 0.372442
0.367468 0.377905 0.376196
0.398779 0.399115 0.361761
0.432929 0.420935 0.343908
0.469856 0.443061 0.322332
0.509422 0.465370 0.295598
0.551537 0.487709 0.262058
0.595544 0.509361 0.218143
0.646235 0.534234 0.154391
0.707332 0.563897 0.035767
0.743496 0.568017 0.024994
0.777310 0.571160 0.025147
0.809018 0.573602 0.039704
0.839322 0.575860 0.052033
0.867765 0.577661 0.061677
0.894224 0.578943 0.070069
0.918853 0.579980 0.095094
0.941802 0.581323 0.134707
0.963592 0.583215 0.168856
0.984741 0.582574 0.193759
1.000000 0.579309 0.212161
1.000000 0.576867 0.233433
1.000000 0.575830 0.257877
0.374365 0.452674 0.343786
0.376593 0.452949 0.345342
0.379278 0.452583 0.347082
0.383276 0.450843 0.349859
0.388098 0.446998 0.353552
0.392889 0.441077 0.358007
0.396796 0.433692 0.363195
0.398901 0.424811 0.369451
0.398291 0.414832 0.376745
0.393591 0.404334 0.384894
0.383001 0.393530 0.393927
0.401648 0.406287 0.386542
0.434821 0.428138 0.370520
0.470771 0.450690 0.351476
0.509697 0.473671 0.327916
0.551110 0.496834 0.299290
0.594903 0.519921 0.263371
0.639124 0.541497 0.216556
0.692439 0.568139 0.145602
0.749172 0.594110 0.000000
0.783444 0.597101 0.000000
0.815213 0.598962 0.002655
0.844755 0.600183 0.027924
0.873228 0.601495 0.052003
0.899718 0.602319 0.066468
0.924346 0.602686 0.076112
0.947173 0.603326 0.120150
0.968658 0.604517 0.159762
0.989014 0.606622 0.195956
1.000000 0.608301 0.228336
1.000000 0.605646 0.250248
1.000000 0.604334 0.275456
0.399969 0.482338 0.362615
0.401587 0.481941 0.363653
0.403479 0.481209 0.364874
0.406744 0.478614 0.367071
0.411170 0.474372 0.370306
0.415778 0.468269 0.374365
0.419867 0.460853 0.379339
0.422827 0.452125 0.385321
0.423499 0.442512 0.392432
0.420508 0.432044 0.400488
0.412879 0.421210 0.409552
0.409308 0.417395 0.413886
0.442115 0.439673 0.399603
0.477668 0.462776 0.382422
0.515862 0.486275 0.361364
0.557031 0.510338 0.335821
0.599786 0.533837 0.304692
0.642878 0.555962 0.265934
0.685817 0.576135 0.215000
0.739040 0.602655 0.134798
0.788602 0.622827 0.000000
0.819303 0.623377 0.000000
0.847349 0.622950 0.000000
0.873320 0.622004 0.018372
0.899504 0.622065 0.048493
0.924132 0.621912 0.064454
0.947234 0.621851 0.094759
0.968811 0.622431 0.142672
0.989227 0.623774 0.182925
1.000000 0.626368 0.221927
1.000000 0.630610 0.261204
1.000000 0.629114 0.286717
0.422461 0.508446 0.378698
0.424140 0.508080 0.379736
0.426032 0.507500 0.381018
0.429419 0.505058 0.383124
0.433631 0.500816 0.386236
0.438178 0.494850 0.390021
0.442451 0.487465 0.394781
0.445655 0.478737 0.400458
0.447150 0.469001 0.407233
0.445716 0.458564 0.414954
0.439948 0.447425 0.423560
0.428382 0.435920 0.432929
0.447028 0.448676 0.426184
0.482277 0.472236 0.410529
0.520104 0.496376 0.391669
0.560662 0.521050 0.368963
0.602625 0.545190 0.341711
0.645106 0.568109 0.308507
0.687465 0.589258 0.267338
0.729000 0.608209 0.212314
0.780972 0.633875 0.121920
0.824674 0.649226 0.000000
0.852628 0.648096 0.000000
0.878050 0.646052 0.000000
0.898070 0.641199 0.000946
0.922667 0.640497 0.035279
0.946075 0.639918 0.062531
0.967864 0.639857 0.120119
0.988434 0.640558 0.166751
1.000000 0.642359 0.208621
1.000000 0.645747 0.249973
1.000000 0.651362 0.293736
0.451362 0.541741 0.399115
0.453223 0.541680 0.400275
0.455024 0.540948 0.401465
0.457984 0.538262 0.403357
0.461982 0.533684 0.406104
0.466194 0.527611 0.409613
0.470375 0.519768 0.413947
0.473762 0.510643 0.419196
0.475441 0.500420 0.425422
0.474586 0.489296 0.432563
0.470008 0.477424 0.440467
0.460517 0.465278 0.449348
0.454841 0.459907 0.454261
0.489235 0.483345 0.439490
0.526055 0.507408 0.422034
0.565209 0.531914 0.401007
0.605493 0.555749 0.376349
0.646357 0.578576 0.347051
0.687739 0.600275 0.311559
0.728542 0.620020 0.267369
0.767666 0.636957 0.208438
0.817685 0.661311 0.104891
0.855772 0.671962 0.000000
0.880613 0.668910 0.000000
0.902953 0.665126 0.000000
0.923400 0.661036 0.000000
0.946502 0.659602 0.027710
0.968261 0.658564 0.091493
0.988647 0.658473 0.148684
1.000000 0.659449 0.194949
1.000000 0.661952 0.239231
1.000000 0.666468 0.284672
0.476692 0.570855 0.416876
0.478492 0.570794 0.418006
0.480415 0.570092 0.419226
0.483436 0.567620 0.421057
0.487404 0.563317 0.423743
0.491829 0.557336 0.427161
0.496437 0.550011 0.431556
0.500328 0.541283 0.436713
0.502953 0.531426 0.443000
0.503471 0.520653 0.450202
0.500633 0.508904 0.458259
0.493599 0.496742 0.467231
0.480751 0.484199 0.476905
0.499428 0.496986 0.470405
0.536492 0.521996 0.454475
0.575280 0.547112 0.435584
0.615167 0.571557 0.413092
0.655360 0.594873 0.386755
0.695674 0.616968 0.355657
0.735378 0.637018 0.317967
0.773312 0.654261 0.270787
0.809232 0.668452 0.206455
0.855924 0.690242 0.085054
0.888304 0.696254 0.000000
0.910369 0.691432 0.000000
0.930297 0.686183 0.000000
0.948455 0.680842 0.000000
0.970306 0.678950 0.041779
0.990661 0.678157 0.129732
1.000000 0.678401 0.182254
1.000000 0.680018 0.230167
1.000000 0.683558 0.277836
0.505699 0.603052 0.437781
0.507347 0.602808 0.438849
0.508965 0.601862 0.439796
0.511711 0.599268 0.441382
0.515404 0.595087 0.443793
0.519799 0.589227 0.447059
0.524437 0.582116 0.451087
0.528832 0.573724 0.456184
0.532280 0.564263 0.462287
0.533928 0.553887 0.469306
0.532860 0.542504 0.477424
0.527977 0.530449 0.486549
0.517876 0.517845 0.496345
0.510979 0.511681 0.502495
0.547967 0.537194 0.487739
0.586206 0.562615 0.470253
0.624994 0.587152 0.449714
0.664271 0.610742 0.425879
0.703609 0.633051 0.397772
0.741939 0.653193 0.364630
0.778775 0.670680 0.324346
0.813657 0.685267 0.273777
0.846159 0.696498 0.203311
0.889433 0.715785 0.043854
0.917144 0.717800 0.000000
0.936828 0.711604 0.000000
0.954772 0.705318 0.000000
0.971160 0.698970 0.000000
0.991119 0.696986 0.101625
1.000000 0.696498 0.164645
1.000000 0.697078 0.216495
1.000000 0.699580 0.267277
0.535149 0.634730 0.459754
0.536553 0.634363 0.460578
0.538170 0.633356 0.461524
0.540887 0.631159 0.463172
0.544915 0.627436 0.465797
0.550072 0.622644 0.469490
0.555932 0.616938 0.474250
0.561944 0.610193 0.480262
0.567590 0.602716 0.487495
0.571954 0.594263 0.495857
0.574060 0.584894 0.505211
0.572656 0.574670 0.515526
0.566644 0.563653 0.526665
0.554070 0.551446 0.538018
0.573297 0.564935 0.532891
0.611261 0.590845 0.516838
0.649531 0.615778 0.497810
0.687922 0.639582 0.475563
0.725551 0.661524 0.449866
0.761959 0.681147 0.420020
0.796750 0.698085 0.384344
0.829709 0.712093 0.340703
0.860441 0.722805 0.285100
0.889738 0.730983 0.207340
0.927977 0.746029 0.000000
0.951080 0.744015 0.000000
0.968292 0.736233 0.000000
0.984009 0.728542 0.000000
0.998108 0.721492 0.078462
1.000000 0.719051 0.153628
1.000000 0.718654 0.211337
1.000000 0.719997 0.265141
0.576074 0.676265 0.492164
0.577295 0.675898 0.492958
0.578607 0.674861 0.493690
0.581201 0.672511 0.495216
0.584985 0.668879 0.497566
0.589746 0.664057 0.500877
0.595239 0.658167 0.505333
0.601007 0.651362 0.510765
0.606439 0.643671 0.517479
0.610895 0.635126 0.525261
0.613245 0.625666 0.533837
0.612848 0.615290 0.543359
0.608515 0.604242 0.553582
0.598871 0.592279 0.564355
