data/fiter_cube/69180065/1023048/file.cube
# Created by Adobe Lightroom plugin Export LUT (1.17.0)
# www.johnrellis.com/lightroom/exportlut.htm
# Preset: 室内文艺胶片_01 云集
# Color profile: C:\Program Files (x86)\Common Files\Adobe\Color\Profiles\Recommended\AdobeRGB1998.icc
LUT_3D_SIZE 5
DOMAIN_MIN 0.000000 0.000000 0.000000
DOMAIN_MAX 0.903226 0.903226 0.903226
0.104891 0.130770 0.119966
0.174044 0.149416 0.127413
0.368933 0.185092 0.135317
0.682826 0.253880 0.143435
0.921355 0.402441 0.205814
0.118563 0.173068 0.130678
0.168307 0.187472 0.137209
0.350713 0.227390 0.142550
0.663813 0.300114 0.150546
0.920409 0.444984 0.220157
0.148226 0.286534 0.151858
0.191745 0.299474 0.181460
0.364752 0.359380 0.176242
0.628901 0.423163 0.172793
0.897642 0.543786 0.245121
0.194827 0.508171 0.179446
0.257359 0.525261 0.228824
0.363989 0.556054 0.289677
0.652399 0.614954 0.258000
0.883146 0.682979 0.321202
0.319341 0.786984 0.270939
0.391302 0.790005 0.337987
0.550286 0.791684 0.479408
0.682063 0.810666 0.521874
0.900877 0.828855 0.523491
0.114199 0.146029 0.159396
0.167849 0.161440 0.164675
0.378088 0.194858 0.189853
0.669276 0.261967 0.212222
0.913237 0.409552 0.274266
0.116640 0.192508 0.169497
0.175692 0.201236 0.184970
0.366918 0.240879 0.197726
0.657191 0.306096 0.216098
0.909087 0.445045 0.281895
0.146090 0.297246 0.161013
0.204013 0.316594 0.205356
0.362036 0.361608 0.227176
0.620203 0.422492 0.229252
0.894865 0.549462 0.307591
0.192416 0.516991 0.192660
0.258640 0.534356 0.244633
0.393286 0.567437 0.339574
0.653285 0.619776 0.317144
0.879942 0.686122 0.370397
0.304753 0.788937 0.271763
0.378546 0.791928 0.337957
0.581140 0.799680 0.524437
0.692012 0.814084 0.562158
0.900481 0.831479 0.560845
0.118441 0.173587 0.261601
0.184146 0.186496 0.273014
0.352728 0.231815 0.304051
0.691524 0.286198 0.377447
0.915221 0.488106 0.486976
0.121828 0.214939 0.277714
0.180240 0.224674 0.296605
0.362249 0.274327 0.326360
0.692927 0.339849 0.398749
0.912779 0.511070 0.486091
0.088655 0.353033 0.312230
0.165682 0.366186 0.330236
0.389380 0.407630 0.399084
0.665888 0.471534 0.422858
0.899718 0.586938 0.485481
0.156649 0.538781 0.226291
0.224887 0.552544 0.263096
0.438270 0.594995 0.434668
0.661799 0.642298 0.478248
0.873716 0.696529 0.494881
0.257511 0.794766 0.284947
0.331121 0.799252 0.339910
0.537499 0.806119 0.508995
0.708217 0.814481 0.641047
0.892180 0.832334 0.637781
0.077272 0.216464 0.442023
0.181674 0.229587 0.455512
0.392035 0.259525 0.490608
0.629664 0.365942 0.533013
0.892027 0.578607 0.660761
0.056184 0.249607 0.451728
0.162875 0.260441 0.470527
0.390539 0.297887 0.503685
0.630213 0.403601 0.544671
0.890654 0.596704 0.666560
0.000000 0.379156 0.484016
0.118807 0.380804 0.494301
0.359777 0.407172 0.542718
0.637049 0.511711 0.584619
0.894774 0.661433 0.693172
0.000000 0.601953 0.536828
0.000000 0.607568 0.545739
0.351720 0.631983 0.584833
0.677699 0.681575 0.671107
0.887694 0.737758 0.695186
0.165560 0.799832 0.457435
0.257115 0.805783 0.468696
0.475044 0.822660 0.515190
0.728237 0.824277 0.703578
0.885710 0.839200 0.747890
0.000000 0.303868 0.704707
0.217594 0.321263 0.709285
0.455726 0.353460 0.722896
0.716152 0.438788 0.745571
0.860960 0.627588 0.764523
0.000000 0.319951 0.703182
0.164431 0.337957 0.709987
0.442084 0.379919 0.724483
0.707668 0.461280 0.745937
0.859983 0.642664 0.768276
0.000000 0.424109 0.707057
0.000000 0.411048 0.707271
0.356207 0.444953 0.731807
0.681605 0.530907 0.754543
0.862913 0.696651 0.787198
0.000000 0.657038 0.746120
0.000000 0.650019 0.745937
0.230503 0.626246 0.750027
0.603906 0.636469 0.776608
0.870176 0.772824 0.819364
0.000000 0.857542 0.775326
0.000000 0.857084 0.777951
0.337102 0.857115 0.792355
0.629877 0.847410 0.813504
0.887999 0.855650 0.868620
