data/fiter_cube/69180065/1023048/file.cube
# Created by Adobe Lightroom plugin Export LUT (1.17.0)
# www.johnrellis.com/lightroom/exportlut.htm
# Preset: 室内文艺胶片_01 云集
# Color profile: C:\Program Files (x86)\Common Files\Adobe\Color\Profiles\Recommended\AdobeRGB1998.icc
LUT_3D_SIZE 8
DOMAIN_MIN 0.000000 0.000000 0.000000
DOMAIN_MAX 0.903226 0.903226 0.903226
0.104891 0.130770 0.119966
0.131441 0.138521 0.123384
0.192905 0.153323 0.128603
0.298039 0.173007 0.133181
0.447547 0.198550 0.136904
0.638392 0.239994 0.141329
0.799985 0.303990 0.156741
0.921355 0.402441 0.205814
0.110597 0.147982 0.124514
0.129183 0.152987 0.127779
0.187716 0.165164 0.130800
0.288304 0.184909 0.135348
0.435645 0.211765 0.139040
0.616663 0.250309 0.142580
0.784329 0.310460 0.156008
0.914427 0.406592 0.203372
0.121950 0.184115 0.133150
0.135409 0.188327 0.142275
0.185458 0.202609 0.141268
0.280735 0.225223 0.143313
0.428565 0.257877 0.146548
0.609491 0.299718 0.150271
0.789578 0.364172 0.167697
0.916930 0.454261 0.221408
0.138827 0.246281 0.145418
0.153658 0.250553 0.156161
0.182071 0.260777 0.169802
0.292638 0.296300 0.163272
0.441779 0.335882 0.162173
0.601068 0.375677 0.163302
0.774350 0.432898 0.181674
0.906188 0.511742 0.237034
0.159152 0.336431 0.158694
0.174655 0.341833 0.169833
0.221012 0.358709 0.201480
0.276829 0.382818 0.208560
0.436805 0.422583 0.190616
0.593744 0.457740 0.187259
0.744381 0.504967 0.196933
0.889494 0.579767 0.255741
0.185458 0.464668 0.174105
0.204593 0.475532 0.188296
0.266819 0.491981 0.238254
0.318639 0.508629 0.263218
0.420233 0.536126 0.261509
0.608209 0.575433 0.238529
0.759640 0.609491 0.252598
0.883604 0.662684 0.303929
0.228153 0.628962 0.200168
0.249546 0.633783 0.217624
0.317449 0.642512 0.276127
0.401221 0.656214 0.342351
0.453559 0.668086 0.361669
0.596796 0.694728 0.353613
0.773068 0.721431 0.338140
0.882750 0.742580 0.382910
0.319341 0.786984 0.270939
0.340948 0.787747 0.291020
0.414771 0.791226 0.360235
0.535943 0.796963 0.476417
0.577173 0.795804 0.492470
0.648035 0.807004 0.521508
0.783780 0.819638 0.523125
0.900877 0.828855 0.523491
0.109712 0.138094 0.136538
0.128786 0.143374 0.137026
0.191745 0.157717 0.144625
0.293950 0.179721 0.152682
0.442176 0.204410 0.157809
0.616663 0.239933 0.163485
0.782376 0.299687 0.177768
0.911650 0.396063 0.221958
0.109468 0.154910 0.138888
0.131258 0.157504 0.143801
0.189181 0.171176 0.148531
0.289494 0.191257 0.154086
0.435798 0.217258 0.159121
0.605798 0.252079 0.164065
0.770657 0.307591 0.177096
0.904356 0.399603 0.219028
0.122957 0.187533 0.137301
0.141360 0.193637 0.151217
0.187869 0.206882 0.157534
0.280522 0.228641 0.159731
0.423102 0.258824 0.164370
0.595178 0.297002 0.169741
0.768154 0.353918 0.185061
0.904906 0.443305 0.232639
0.140200 0.247868 0.149874
0.156344 0.253239 0.161715
0.191684 0.265293 0.183444
0.286931 0.292851 0.177829
0.419409 0.324437 0.176516
0.575586 0.362554 0.178897
0.751339 0.418433 0.195193
0.894255 0.499702 0.245670
0.161715 0.340459 0.164401
0.176669 0.344762 0.175174
0.229160 0.360815 0.214725
0.275364 0.378332 0.221683
0.424933 0.413458 0.204318
0.579309 0.449012 0.202029
0.731838 0.497078 0.210819
0.882139 0.572778 0.266514
0.185428 0.461311 0.178683
0.202182 0.466133 0.191226
0.261418 0.482307 0.238132
0.320989 0.502159 0.272923
0.416632 0.531060 0.274754
0.604395 0.573114 0.255070
0.754208 0.606409 0.267643
0.877928 0.657862 0.312413
0.222477 0.618372 0.200534
0.241337 0.619776 0.215732
0.307774 0.630579 0.271855
0.400916 0.648676 0.348852
0.454841 0.663539 0.369635
0.590967 0.689326 0.362951
0.764218 0.714687 0.345068
0.875517 0.735958 0.383856
0.308598 0.781460 0.265385
0.331334 0.783322 0.285985
0.405829 0.787625 0.355047
0.527703 0.794339 0.470924
0.591150 0.800809 0.511070
0.653193 0.808774 0.535576
0.782162 0.818845 0.530816
0.897917 0.827115 0.527123
0.115541 0.149081 0.170260
0.134951 0.153353 0.172396
0.186069 0.169528 0.177707
0.306279 0.182345 0.194278
0.472389 0.211093 0.214206
0.640650 0.256504 0.231846
0.798642 0.322576 0.255222
0.917906 0.422278 0.302220
0.119142 0.164431 0.175509
0.136843 0.168276 0.180026
0.188083 0.182437 0.183932
0.306462 0.196201 0.199863
0.462043 0.227207 0.215976
0.629938 0.268101 0.230900
0.789914 0.330510 0.252995
0.913756 0.427955 0.300298
0.117586 0.209018 0.183413
0.136049 0.212406 0.188449
0.196139 0.221042 0.204440
0.300481 0.243259 0.212222
0.452583 0.275151 0.223423
0.619776 0.313756 0.235538
0.781613 0.371984 0.257816
0.908354 0.461677 0.306249
0.136110 0.260838 0.159426
0.152560 0.267369 0.169497
0.212619 0.285252 0.216800
0.302220 0.311894 0.231113
0.434699 0.340887 0.231327
0.600732 0.381109 0.242954
0.768338 0.437507 0.267033
0.900298 0.518486 0.318944
0.154452 0.352544 0.170718
0.173068 0.359045 0.184451
0.235599 0.378851 0.233768
0.301732 0.400732 0.277256
0.443030 0.434119 0.264408
0.590143 0.463569 0.262150
0.741878 0.510307 0.274846
0.886290 0.585260 0.332555
0.179141 0.472389 0.187594
0.199100 0.478401 0.202579
0.262974 0.494881 0.253300
0.351812 0.517021 0.323003
0.426337 0.540002 0.330297
0.606012 0.578790 0.313420
0.752529 0.611231 0.324407
0.877958 0.665339 0.367010
0.217197 0.629572 0.212436
0.238376 0.631891 0.229068
0.306126 0.640345 0.284581
0.418860 0.656764 0.383642
0.479896 0.670192 0.414282
0.597589 0.694789 0.415381
0.768795 0.722591 0.403052
0.879118 0.746029 0.441077
0.294438 0.785031 0.267369
0.314183 0.785092 0.284062
0.389532 0.788388 0.351202
0.517296 0.796841 0.469551
0.608392 0.801877 0.542412
0.662287 0.809934 0.569604
0.784390 0.820706 0.567041
0.897673 0.829801 0.564691
0.118654 0.164034 0.224643
0.139681 0.169253 0.228885
0.200931 0.181186 0.238376
0.284062 0.207492 0.250797
0.460365 0.226413 0.286625
0.658503 0.259922 0.325444
0.805478 0.347295 0.363897
0.915892 0.451820 0.410712
0.122286 0.178958 0.232944
0.140719 0.183078 0.238437
0.203616 0.194888 0.246555
0.287663 0.220188 0.258030
0.462776 0.240757 0.292821
0.656275 0.282628 0.334661
0.800259 0.357366 0.363195
0.913817 0.457313 0.408484
0.120607 0.221683 0.244266
0.137758 0.223636 0.249180
0.198642 0.232792 0.266850
0.297734 0.261692 0.280980
0.474952 0.288121 0.314855
0.650874 0.340764 0.348058
0.803037 0.409552 0.378820
0.913695 0.496284 0.419898
0.109621 0.296117 0.260288
0.129427 0.300206 0.265751
0.195041 0.314275 0.285771
0.315587 0.336584 0.324346
0.463600 0.367407 0.335668
0.625147 0.406226 0.350652
0.782254 0.462623 0.376715
0.904173 0.544213 0.424750
0.142519 0.367742 0.223270
0.160983 0.374182 0.228489
0.225132 0.399054 0.248844
0.340948 0.431495 0.344182
0.462135 0.461555 0.363897
0.602960 0.486122 0.358526
0.762112 0.536278 0.382300
0.891905 0.607050 0.434028
0.159426 0.495979 0.199954
0.183047 0.505882 0.216739
0.254948 0.520378 0.270512
0.370397 0.545464 0.366125
0.459724 0.567681 0.426978
0.620233 0.600275 0.411780
0.757290 0.627008 0.415442
0.877440 0.676234 0.446021
0.195773 0.642573 0.225101
0.219913 0.646662 0.242252
0.295079 0.658198 0.299779
0.412512 0.674708 0.397345
0.530816 0.690913 0.492653
0.614740 0.709102 0.500023
0.772519 0.732540 0.486152
0.878721 0.754360 0.511376
0.279423 0.795560 0.283513
0.301579 0.796902 0.300725
0.370550 0.799313 0.356023
0.489784 0.802762 0.458625
0.636530 0.805386 0.591699
0.686397 0.812650 0.614343
0.786160 0.823178 0.618708
0.895995 0.833036 0.616541
0.115297 0.184024 0.304173
0.139834 0.189731 0.309209
0.205112 0.199741 0.319799
0.309331 0.217807 0.340154
0.428107 0.260655 0.364446
0.623163 0.307408 0.415656
0.802884 0.379431 0.472206
0.913664 0.533989 0.567102
0.113924 0.195438 0.311070
0.137331 0.201114 0.318090
0.206516 0.212802 0.328832
0.311650 0.230594 0.347601
0.429755 0.273747 0.370153
0.624720 0.321508 0.421942
0.803586 0.393469 0.478065
0.912657 0.538903 0.566033
0.115267 0.235691 0.322881
0.133303 0.236790 0.327825
0.197604 0.248905 0.349920
0.314153 0.271794 0.368627
0.435157 0.316411 0.389166
0.625574 0.363073 0.437934
0.802426 0.437598 0.495644
0.908110 0.551019 0.557946
0.091676 0.312047 0.346746
0.116091 0.314092 0.351324
0.186221 0.321324 0.368505
0.307317 0.341802 0.404211
0.451179 0.390082 0.427985
0.640131 0.436988 0.473304
0.797971 0.509331 0.518791
0.905119 0.578607 0.547173
0.011078 0.415839 0.370062
0.084443 0.419959 0.375311
0.178561 0.432929 0.393164
0.304967 0.455665 0.427619
0.470222 0.485481 0.478767
0.627466 0.517906 0.488380
0.777554 0.563653 0.506981
0.895018 0.627344 0.542138
0.130648 0.488197 0.316686
0.153902 0.494575 0.321904
0.225132 0.514092 0.340520
0.339757 0.549615 0.377234
0.486519 0.580163 0.487282
0.621790 0.614130 0.514183
0.756497 0.639063 0.510674
0.882200 0.691768 0.548302
0.164370 0.653986 0.259800
0.189731 0.657618 0.264256
0.261021 0.667170 0.308751
0.379919 0.682246 0.398230
0.526665 0.699336 0.515953
0.625055 0.716426 0.583154
0.770108 0.739040 0.569329
0.874540 0.758633 0.580011
0.235874 0.798886 0.292058
0.259434 0.799466 0.307195
0.332250 0.801724 0.358495
0.449775 0.809079 0.449195
0.589014 0.810575 0.562402
0.709743 0.814359 0.661616
0.783169 0.824033 0.672480
0.890715 0.834195 0.667811
0.089693 0.210056 0.414679
0.128145 0.216678 0.420020
0.207065 0.225711 0.430762
0.321569 0.241917 0.451057
0.461585 0.269749 0.480323
0.592248 0.341527 0.500664
0.772061 0.448432 0.568994
0.899077 0.569451 0.644404
0.076265 0.216434 0.415503
0.118929 0.223789 0.421241
0.205173 0.236393 0.433631
0.318791 0.252354 0.452003
0.459602 0.280735 0.480690
0.590112 0.351812 0.502495
0.770626 0.456672 0.571283
0.898314 0.574609 0.645808
0.078920 0.257267 0.428595
0.105043 0.258396 0.433661
0.189639 0.270268 0.453742
0.318853 0.292973 0.473060
0.467659 0.324529 0.497383
0.596429 0.395361 0.520348
0.774044 0.492927 0.586938
0.898863 0.599756 0.656489
0.000031 0.329839 0.449622
0.079469 0.329808 0.452461
0.168917 0.331518 0.465522
0.302983 0.357794 0.504875
0.475380 0.399786 0.531945
0.612940 0.470954 0.555993
0.784482 0.553246 0.615808
0.902159 0.641535 0.675471
0.000000 0.437568 0.478248
0.000000 0.439399 0.482063
0.145205 0.445411 0.494759
0.279088 0.454475 0.517845
0.450202 0.480110 0.557519
0.618585 0.547021 0.586481
0.789853 0.610651 0.637476
0.898955 0.685451 0.687007
0.000000 0.559014 0.499031
0.000000 0.563439 0.504082
0.124117 0.573358 0.517662
0.281437 0.589166 0.541405
0.445502 0.609766 0.576989
0.638697 0.645624 0.635676
0.781704 0.677760 0.647089
0.890745 0.720180 0.669551
0.074372 0.646204 0.449348
0.122499 0.651575 0.454597
0.221744 0.665156 0.469154
0.346990 0.687556 0.496223
0.500420 0.716243 0.539208
0.661280 0.736263 0.648951
0.775967 0.755367 0.670161
0.875242 0.770443 0.666896
0.190921 0.802609 0.406561
0.217441 0.803891 0.409705
0.297246 0.808957 0.422065
0.412909 0.817594 0.458045
0.547936 0.819791 0.555566
0.698024 0.820188 0.673274
0.786160 0.827054 0.737972
0.886961 0.838224 0.731868
0.000000 0.244388 0.550072
0.098726 0.253056 0.556176
0.209354 0.261692 0.563928
0.337652 0.277256 0.578393
0.486458 0.303716 0.597589
0.635248 0.353582 0.627863
0.743191 0.465095 0.636866
0.873136 0.615473 0.710292
0.000000 0.247532 0.546502
0.067842 0.255863 0.552178
0.203769 0.269963 0.562097
0.331701 0.285069 0.575189
0.479408 0.311009 0.593835
0.627680 0.358953 0.622827
0.735988 0.465614 0.632227
0.869169 0.611322 0.705409
0.000000 0.283879 0.555383
0.000000 0.284489 0.559442
0.173953 0.297826 0.573480
0.324407 0.320928 0.587732
0.476753 0.348272 0.604669
0.630396 0.398718 0.632136
0.741573 0.502647 0.646632
0.873136 0.638392 0.719081
0.000000 0.349157 0.567681
0.000000 0.346929 0.568139
0.119570 0.346471 0.577295
0.290562 0.372259 0.605707
0.468940 0.409949 0.624475
0.636835 0.464485 0.649989
0.750698 0.560235 0.670069
0.877440 0.673579 0.735836
0.000000 0.454475 0.588617
0.000000 0.452918 0.589014
0.054658 0.449195 0.593652
0.231998 0.442206 0.604730
0.422400 0.472206 0.637995
0.621973 0.530419 0.663844
0.751461 0.616419 0.688777
0.880888 0.710262 0.751980
0.000000 0.589044 0.618738
0.000000 0.589380 0.620508
0.000000 0.590417 0.626551
0.220523 0.591608 0.638331
0.389044 0.590814 0.655238
0.597742 0.619684 0.693233
0.766781 0.696712 0.726497
0.889189 0.757046 0.775875
0.000000 0.717800 0.638575
0.000000 0.719875 0.641474
0.000000 0.723812 0.648737
0.239811 0.730434 0.662348
0.417517 0.736965 0.682033
0.601831 0.748013 0.714229
0.784054 0.774044 0.768093
0.885283 0.793973 0.777829
0.000000 0.790341 0.588159
0.000000 0.791043 0.589654
0.208377 0.798062 0.600366
0.347753 0.808377 0.618250
0.500237 0.818814 0.645014
0.665614 0.829801 0.688167
0.804044 0.834226 0.780728
0.884886 0.844755 0.800259
0.000000 0.303868 0.704707
0.124880 0.313237 0.707576
0.247898 0.324010 0.710292
0.382696 0.340856 0.717952
0.531060 0.369543 0.728176
0.680812 0.420813 0.741390
0.792599 0.504356 0.759915
0.860960 0.627588 0.764523
0.000000 0.304601 0.702113
0.079011 0.313787 0.705043
0.240085 0.331151 0.709346
0.375982 0.347265 0.716152
0.525383 0.375647 0.726589
0.676234 0.426032 0.739925
0.790066 0.506920 0.758846
0.859312 0.629114 0.763790
0.000000 0.328832 0.701534
0.000000 0.329747 0.703975
0.188144 0.346990 0.709499
0.360204 0.375952 0.720882
0.515221 0.404059 0.730220
0.668757 0.451911 0.742275
0.790738 0.528954 0.764004
0.859342 0.646723 0.769039
0.000000 0.378393 0.702083
0.000000 0.379431 0.704921
0.000000 0.382025 0.711391
0.301854 0.409461 0.726253
0.491859 0.449348 0.737392
0.657588 0.496712 0.750271
0.790555 0.569818 0.772061
0.861784 0.678401 0.780514
0.000000 0.482979 0.715969
0.000000 0.480964 0.717220
0.000000 0.469093 0.717647
0.157656 0.447944 0.721035
0.418555 0.489754 0.742123
0.626398 0.544701 0.756649
0.783627 0.616480 0.778134
0.865141 0.718349 0.795956
0.000000 0.617426 0.736812
0.000000 0.614740 0.736355
0.000000 0.606317 0.736202
0.111910 0.591241 0.738033
0.314061 0.567407 0.742672
0.562768 0.602808 0.768124
0.774624 0.680934 0.793881
0.869566 0.762661 0.815000
0.000000 0.759548 0.763424
0.000000 0.758267 0.763394
0.000000 0.754269 0.764065
0.107027 0.748806 0.767483
0.337987 0.739895 0.773312
0.521813 0.727474 0.783322
0.737850 0.744442 0.809262
0.874357 0.805936 0.836149
0.000000 0.857542 0.775326
0.000000 0.857206 0.775845
0.000000 0.857176 0.779232
0.244205 0.857633 0.787259
0.420874 0.855009 0.796933
0.588067 0.849058 0.809384
0.751736 0.843809 0.829465
0.887999 0.855650 0.868620
