data/fiter_cube/69180065/1023048/file.cube
# Created by Adobe Lightroom plugin Export LUT (1.17.0)
# www.johnrellis.com/lightroom/exportlut.htm
# Preset: 室内文艺胶片_01 云集
# Color profile: C:\Program Files (x86)\Common Files\Adobe\Color\Profiles\Recommended\AdobeRGB1998.icc
LUT_3D_SIZE 32
DOMAIN_MIN 0.0 0.0 0.0
DOMAIN_MAX 1.0 1.0 1.0
0.104891 0.130770 0.119966
0.108248 0.131655 0.120180
0.112642 0.132937 0.120760
0.121096 0.135256 0.121889
0.131441 0.138521 0.123384
0.143771 0.142123 0.124941
0.157870 0.145724 0.126345
0.174044 0.149416 0.127413
0.192905 0.153323 0.128603
0.214298 0.157717 0.129702
0.239048 0.162264 0.130983
0.266911 0.167422 0.132174
0.298039 0.173007 0.133181
0.332250 0.178866 0.134279
0.368933 0.185092 0.135317
0.407416 0.191653 0.136202
0.447547 0.198550 0.136904
0.495796 0.207523 0.137667
0.544671 0.217166 0.138643
0.592187 0.227939 0.139712
0.638392 0.239994 0.141329
0.682826 0.253880 0.143435
0.724605 0.268833 0.146456
0.763607 0.285557 0.150912
0.799985 0.303990 0.156741
0.833890 0.324559 0.164401
0.865599 0.347662 0.174655
0.894835 0.373602 0.188205
0.921355 0.402441 0.205814
0.945220 0.434699 0.228397
0.966491 0.470405 0.256992
0.985046 0.509514 0.292515
0.105501 0.132937 0.120333
0.107973 0.133730 0.120790
0.112398 0.135012 0.121157
0.120851 0.137453 0.122255
0.131258 0.140475 0.123751
0.143252 0.143740 0.125338
0.157137 0.147036 0.126619
0.173373 0.150668 0.127687
0.191928 0.154452 0.128908
0.213046 0.158907 0.130007
0.237430 0.163577 0.131106
0.264988 0.168551 0.132143
0.295933 0.174075 0.133364
0.329778 0.179995 0.134524
0.365972 0.186069 0.135439
0.404059 0.192752 0.136385
0.443763 0.199588 0.137179
0.491341 0.208286 0.137942
0.538964 0.217716 0.138857
0.585870 0.228031 0.139803
0.631617 0.239994 0.141115
0.676143 0.253239 0.143069
0.718257 0.267918 0.146059
0.757748 0.284367 0.150240
0.794583 0.302586 0.155581
0.829221 0.322789 0.163027
0.861601 0.345678 0.172854
0.891478 0.371344 0.186313
0.918608 0.400214 0.203677
0.942992 0.432410 0.226047
0.964660 0.467872 0.254032
0.983612 0.506767 0.289067
0.106142 0.135805 0.121035
0.107942 0.136446 0.122072
0.112459 0.137697 0.122042
0.120485 0.139956 0.122957
0.130739 0.142794 0.124514
0.142855 0.145815 0.125887
0.156649 0.148928 0.126986
0.172519 0.152255 0.128084
0.190890 0.156069 0.129122
0.212039 0.160342 0.130251
0.236118 0.165072 0.131350
0.263493 0.170199 0.132570
0.294072 0.175723 0.133639
0.327764 0.181704 0.134646
0.363775 0.187869 0.135744
0.401892 0.194339 0.136721
0.441291 0.201328 0.137545
0.488441 0.210025 0.138216
0.535485 0.219303 0.139101
0.581933 0.229648 0.139986
0.627832 0.241154 0.141360
0.672450 0.254154 0.143221
0.714717 0.268833 0.146212
0.754452 0.285008 0.149844
0.791653 0.303014 0.155337
0.826474 0.323033 0.162539
0.859281 0.345678 0.172519
0.889525 0.371252 0.185641
0.917052 0.400000 0.202731
0.941711 0.432074 0.224918
0.963592 0.467414 0.252659
0.982727 0.506188 0.287755
0.107881 0.141787 0.122347
0.110933 0.142367 0.124666
0.112276 0.142885 0.125154
0.120180 0.144778 0.124788
0.130343 0.147372 0.125917
0.142214 0.149996 0.126802
0.155764 0.152926 0.127718
0.171420 0.156222 0.128817
0.189639 0.159792 0.129885
0.210605 0.163882 0.130831
0.234501 0.168734 0.131930
0.261631 0.173739 0.133150
0.291752 0.179294 0.134249
0.325139 0.185336 0.135592
0.360937 0.191562 0.136385
0.398688 0.198276 0.137362
0.437995 0.205386 0.138003
0.484596 0.213993 0.138949
0.530358 0.223026 0.139559
0.575830 0.233066 0.140505
0.621180 0.244083 0.141756
0.665675 0.256962 0.143435
0.708583 0.271183 0.146242
0.749416 0.287358 0.149874
0.787961 0.305486 0.155398
0.824094 0.325658 0.162875
0.857755 0.348699 0.172732
0.888609 0.374334 0.186007
0.916350 0.403021 0.203433
0.941039 0.434730 0.225376
0.962890 0.469429 0.252964
0.981964 0.507469 0.287144
0.110597 0.147982 0.124514
0.113100 0.148623 0.126589
0.115206 0.149142 0.127962
0.118318 0.150362 0.128298
0.129183 0.152987 0.127779
0.141573 0.155764 0.128206
0.154513 0.158663 0.128969
0.169711 0.161776 0.129732
0.187716 0.165164 0.130800
0.208377 0.169345 0.131899
0.231693 0.174075 0.132876
0.258396 0.179232 0.134096
0.288304 0.184909 0.135348
0.321202 0.191135 0.136355
0.356909 0.197543 0.137301
0.394690 0.204288 0.138277
0.435645 0.211765 0.139040
0.481300 0.220462 0.139895
0.526757 0.229587 0.140688
0.571832 0.239475 0.141390
0.616663 0.250309 0.142580
0.661128 0.262852 0.144442
0.704158 0.276829 0.146975
0.745327 0.292760 0.150698
0.784329 0.310460 0.156008
0.821042 0.330602 0.163333
0.855161 0.353246 0.173312
0.886412 0.378393 0.186435
0.914427 0.406592 0.203372
0.939391 0.437903 0.225589
0.961456 0.472267 0.252811
0.980743 0.509941 0.287175
0.113008 0.155032 0.126497
0.115053 0.155520 0.128054
0.117952 0.156069 0.130068
0.120363 0.157137 0.131136
0.126375 0.159121 0.131319
0.139803 0.162448 0.130434
0.154482 0.165682 0.130861
0.169070 0.168765 0.131441
0.186007 0.172335 0.132357
0.206241 0.176455 0.133272
0.229526 0.181247 0.134371
0.255985 0.186557 0.135592
0.285374 0.192447 0.136812
0.318151 0.198734 0.137972
0.353491 0.205356 0.138735
0.391333 0.212314 0.139834
0.433570 0.220371 0.140505
0.478462 0.229191 0.141238
0.523491 0.238499 0.142000
0.568994 0.248417 0.142794
0.614191 0.259556 0.143984
0.659144 0.271977 0.145693
0.737484 0.301732 0.152621
0.776242 0.318669 0.158175
0.812131 0.337194 0.165133
0.845274 0.357549 0.174472
0.875547 0.380072 0.186191
0.902983 0.405097 0.201175
0.927672 0.432837 0.220127
0.949859 0.463416 0.243778
0.969482 0.496712 0.272770
0.986572 0.532860 0.307805
0.115572 0.163729 0.128603
0.117617 0.164340 0.129915
0.120180 0.165011 0.131716
0.124025 0.166232 0.134279
0.126955 0.167575 0.135073
0.136843 0.170596 0.134676
0.153750 0.174502 0.133577
0.171481 0.178775 0.134035
0.188449 0.182315 0.134707
0.207706 0.186679 0.135592
0.230900 0.191775 0.136599
0.257786 0.197177 0.137697
0.287602 0.203342 0.138766
0.320439 0.209812 0.139834
0.355901 0.216617 0.140597
0.393286 0.223728 0.141604
0.437964 0.232975 0.142275
0.483314 0.242161 0.143191
0.529229 0.251926 0.143954
0.576135 0.262730 0.144991
0.623835 0.274907 0.146304
0.671962 0.289128 0.148714
0.718624 0.305211 0.152255
0.762417 0.323217 0.157473
0.802579 0.342718 0.165072
0.838315 0.363714 0.174350
0.870268 0.386419 0.186191
0.898741 0.410956 0.201053
0.924224 0.438087 0.219760
0.946807 0.467903 0.243137
0.966888 0.500572 0.271611
0.984375 0.536034 0.306706
0.118563 0.173068 0.130678
0.120272 0.173678 0.131991
0.122621 0.174197 0.133608
0.127565 0.175723 0.137362
0.130770 0.177066 0.138308
0.135409 0.179019 0.139284
0.148836 0.182803 0.138338
0.168307 0.187472 0.137209
0.188724 0.192386 0.137697
0.208011 0.196475 0.138216
0.229496 0.201602 0.138918
0.253941 0.207279 0.139712
0.283330 0.213474 0.140780
0.315709 0.220279 0.141787
0.350713 0.227390 0.142550
0.390051 0.235416 0.143557
0.433051 0.244541 0.144350
0.477058 0.253727 0.145052
0.522179 0.263432 0.145907
0.568444 0.274144 0.146548
0.615961 0.286351 0.148196
0.663813 0.300114 0.150546
0.710628 0.315892 0.153750
0.754818 0.333165 0.159060
0.795468 0.352087 0.165896
0.832090 0.372412 0.174929
0.864836 0.394415 0.186557
0.894194 0.418463 0.201480
0.920409 0.444984 0.220157
0.943633 0.474220 0.243259
0.964202 0.506218 0.271794
0.982147 0.541039 0.306340
0.121950 0.184115 0.133150
0.123445 0.184573 0.134279
0.125612 0.185306 0.135988
0.130312 0.186618 0.139376
0.135409 0.188327 0.142275
0.139284 0.189944 0.143404
0.147250 0.192905 0.143832
0.163180 0.197299 0.142672
0.185458 0.202609 0.141268
0.208896 0.208469 0.141543
0.230625 0.213413 0.142184
0.254490 0.218997 0.142794
0.280735 0.225223 0.143313
0.311376 0.232181 0.144045
0.346532 0.239597 0.145022
0.386816 0.248814 0.145693
0.428565 0.257877 0.146548
0.471534 0.267094 0.147189
0.516075 0.276890 0.148013
0.562127 0.287694 0.148806
0.609491 0.299718 0.150271
0.657282 0.313390 0.152560
0.704097 0.328771 0.155856
0.748501 0.345647 0.160800
0.789578 0.364172 0.167697
0.826780 0.383734 0.176699
0.860227 0.405097 0.188113
0.890196 0.428443 0.202731
0.916930 0.454261 0.221408
0.940642 0.482643 0.244541
0.961608 0.513756 0.272618
0.979889 0.547753 0.307195
0.125643 0.196689 0.136110
0.127077 0.197238 0.137179
0.129061 0.197818 0.138552
0.133791 0.199130 0.141848
0.140597 0.201175 0.146761
0.144411 0.202762 0.147982
0.148989 0.204685 0.149142
0.161166 0.208682 0.148806
0.179934 0.213748 0.147433
0.204959 0.219791 0.145724
0.231449 0.226688 0.145815
0.255619 0.232029 0.146395
0.281834 0.238376 0.146822
0.310155 0.245029 0.147036
0.343755 0.253819 0.147372
0.383307 0.263188 0.148318
0.424750 0.272618 0.148898
0.467628 0.282322 0.149813
0.511955 0.292363 0.150423
0.557794 0.303258 0.151400
0.604334 0.315129 0.152773
0.650843 0.328344 0.154757
0.696803 0.342870 0.158114
0.740566 0.358770 0.162753
0.781582 0.376287 0.169345
0.819364 0.395300 0.178073
0.853880 0.416114 0.189334
0.885039 0.439033 0.204257
0.912932 0.464637 0.223026
0.937560 0.492775 0.246281
0.959197 0.523613 0.275151
0.978058 0.557275 0.310155
0.129549 0.210544 0.138857
0.130922 0.210941 0.139895
0.133028 0.211551 0.141238
0.137362 0.212985 0.144411
0.144564 0.215122 0.149630
0.150332 0.217166 0.152804
0.154940 0.219120 0.154177
0.160922 0.221805 0.155550
0.177737 0.226932 0.154269
0.199435 0.232700 0.152621
0.227573 0.239536 0.150576
0.257237 0.247440 0.150423
0.283726 0.253422 0.150668
0.314397 0.261448 0.151003
0.346899 0.269902 0.151186
0.380682 0.278416 0.151369
0.418616 0.287541 0.151644
0.460731 0.297307 0.152285
0.504601 0.307591 0.152987
0.550225 0.318639 0.153933
0.596735 0.330785 0.155306
0.643580 0.343877 0.157321
0.689815 0.358404 0.160616
0.734005 0.374182 0.165225
0.775509 0.391302 0.171695
0.813840 0.409674 0.180453
0.848814 0.429755 0.191745
0.880491 0.451972 0.206363
0.908934 0.476509 0.225010
0.934051 0.503716 0.248112
0.956237 0.533745 0.277165
0.975494 0.566644 0.312474
0.133669 0.226108 0.141939
0.135195 0.226658 0.142916
0.137148 0.227329 0.144350
0.141512 0.228641 0.147463
0.148440 0.230900 0.152529
0.157107 0.233555 0.158389
0.161807 0.235477 0.159701
0.167269 0.237980 0.161288
0.177249 0.241917 0.161868
0.197055 0.247868 0.160433
0.222019 0.254368 0.158328
0.253361 0.262150 0.155825
0.300267 0.281468 0.157321
0.334081 0.290593 0.157534
0.368963 0.299474 0.157565
0.404578 0.308293 0.157473
0.440772 0.317052 0.157137
0.477211 0.325902 0.156924
0.521416 0.336461 0.157412
0.566644 0.347662 0.158602
0.612360 0.359594 0.160464
0.657801 0.372503 0.163149
0.701808 0.386358 0.166995
0.744045 0.401434 0.172305
0.783780 0.417792 0.179385
0.820615 0.435462 0.188968
0.854185 0.454780 0.201083
0.884520 0.475807 0.216251
0.911650 0.499214 0.235569
0.935882 0.525017 0.259190
0.957214 0.553491 0.288731
0.975891 0.584863 0.324315
0.138827 0.246281 0.145418
0.140291 0.246769 0.146395
0.142336 0.247379 0.147951
0.146670 0.248631 0.151095
0.153658 0.250553 0.156161
0.163455 0.253208 0.163302
0.169833 0.255436 0.166415
0.175448 0.257816 0.167910
0.182071 0.260777 0.169802
0.197360 0.266484 0.169467
0.221225 0.273777 0.167453
0.252720 0.284092 0.165835
0.292638 0.296300 0.163272
0.334874 0.309636 0.162631
0.370245 0.318730 0.162600
0.405859 0.327489 0.162509
0.441779 0.335882 0.162173
0.477668 0.344244 0.161593
0.514458 0.353185 0.161105
0.555352 0.363500 0.161410
0.601068 0.375677 0.163302
0.646601 0.388495 0.165805
0.691127 0.402228 0.169497
0.733913 0.416968 0.174411
0.774350 0.432898 0.181674
0.812009 0.449989 0.190829
0.846616 0.468727 0.202792
0.878019 0.489174 0.217868
0.906188 0.511742 0.237034
0.931304 0.536950 0.261173
0.953429 0.564721 0.290410
0.972778 0.595422 0.326543
0.143404 0.265415 0.148562
0.144961 0.265843 0.149660
0.146914 0.266392 0.151156
0.151247 0.267613 0.154208
0.158297 0.269505 0.159152
0.168032 0.272251 0.166201
0.177615 0.275303 0.172854
0.183291 0.277653 0.174380
0.189853 0.280583 0.176150
0.197696 0.284703 0.178500
0.220829 0.294011 0.177493
0.249973 0.304356 0.175692
0.285161 0.314977 0.173190
0.328069 0.327367 0.169650
0.371954 0.340032 0.168612
0.407568 0.348425 0.168093
0.442817 0.356146 0.167514
0.478340 0.363989 0.167117
0.514672 0.372442 0.166567
0.551995 0.381689 0.166140
0.590326 0.392126 0.166140
0.635492 0.405066 0.168551
0.680629 0.418952 0.172030
0.724269 0.433722 0.177279
0.765560 0.449500 0.184115
0.804135 0.466285 0.193423
0.839780 0.484535 0.205570
0.872190 0.504417 0.220768
0.901305 0.526421 0.240177
0.927184 0.550927 0.264195
0.950011 0.577996 0.294133
0.969970 0.607904 0.330724
0.148226 0.286534 0.151858
0.149874 0.286992 0.152926
0.151827 0.287419 0.154269
0.156222 0.288701 0.157504
0.163302 0.290623 0.162387
0.172732 0.293339 0.169528
0.184970 0.297032 0.178744
0.191745 0.299474 0.181460
0.199130 0.303746 0.183658
0.207645 0.308751 0.186404
0.221164 0.315648 0.188022
0.248478 0.325780 0.186313
0.281132 0.336553 0.183810
0.319463 0.347234 0.180850
0.364752 0.359380 0.176242
0.409125 0.370947 0.174685
0.444984 0.378729 0.173861
0.480018 0.385870 0.173281
0.516045 0.393774 0.172641
0.552880 0.402472 0.172396
0.590631 0.412238 0.172457
0.628901 0.423163 0.172793
0.669642 0.435737 0.174990
0.714015 0.450629 0.180301
0.756313 0.466316 0.187289
0.796109 0.483284 0.196323
0.833219 0.501549 0.208743
0.867185 0.521660 0.224857
0.897642 0.543786 0.245121
0.924559 0.568383 0.270451
0.948211 0.595361 0.301823
0.968627 0.625055 0.340459
0.153536 0.309636 0.155123
0.155001 0.310307 0.156252
0.156832 0.310704 0.157687
0.161501 0.312200 0.160769
0.168551 0.314397 0.165866
0.178531 0.318120 0.173220
0.191287 0.322972 0.182895
0.202792 0.327642 0.190463
0.210483 0.331640 0.192752
0.218936 0.336248 0.195285
0.228611 0.341558 0.198245
0.248386 0.349767 0.198459
0.278691 0.359594 0.195804
0.314031 0.369604 0.192538
0.353948 0.379278 0.188479
0.400549 0.390539 0.183200
0.445289 0.401343 0.180819
0.481758 0.409094 0.180148
0.517876 0.416724 0.179568
0.554986 0.425269 0.179446
0.592828 0.434974 0.179599
0.631250 0.445594 0.180270
0.669673 0.457404 0.181796
0.707607 0.470283 0.184207
0.749447 0.485817 0.190890
0.790402 0.502800 0.200809
0.828489 0.521019 0.213626
0.863218 0.540887 0.230198
0.894377 0.562463 0.251347
0.921691 0.586084 0.276921
0.945525 0.611841 0.308721
0.966186 0.640192 0.347662
0.159152 0.336431 0.158694
0.160769 0.336980 0.159792
0.162844 0.337743 0.161379
0.167361 0.339330 0.164462
0.174655 0.341833 0.169833
0.184695 0.345251 0.177340
0.197482 0.349645 0.186984
0.213626 0.355077 0.199313
0.221012 0.358709 0.201480
0.229496 0.362951 0.204074
0.239231 0.367926 0.207065
0.249699 0.373449 0.210361
0.276829 0.382818 0.208560
0.310033 0.392737 0.205417
0.347539 0.402380 0.201419
0.388922 0.411566 0.196506
0.436805 0.422583 0.190616
0.482490 0.432929 0.187930
0.519615 0.440955 0.187228
0.556329 0.448737 0.187045
0.593744 0.457740 0.187259
0.631647 0.467872 0.188266
0.669612 0.479011 0.189883
0.707362 0.491463 0.192782
0.744381 0.504967 0.196933
0.781704 0.520409 0.204044
0.821134 0.538750 0.217197
0.857176 0.558465 0.234348
0.889494 0.579767 0.255741
0.917754 0.602930 0.282383
0.942412 0.628199 0.315190
0.963653 0.655787 0.355138
0.165316 0.365850 0.162448
0.166873 0.366613 0.163729
0.171664 0.377813 0.166781
0.176455 0.379431 0.170321
0.184512 0.381903 0.176120
0.195102 0.385138 0.184054
0.208530 0.389319 0.194430
0.225254 0.394293 0.207553
0.238224 0.398810 0.215518
0.247044 0.402594 0.218173
0.256962 0.407141 0.221164
0.267796 0.412116 0.224613
0.282933 0.418097 0.226871
0.315282 0.427497 0.223392
0.351385 0.436805 0.219120
0.391455 0.445808 0.214145
0.435218 0.454444 0.208438
0.484962 0.465339 0.201114
0.530694 0.474128 0.198520
0.567468 0.481483 0.198245
0.603601 0.488838 0.198367
0.640528 0.497749 0.199680
0.677546 0.507805 0.201602
0.713863 0.518914 0.204685
0.749142 0.530816 0.209201
0.783474 0.544182 0.215396
0.816739 0.558984 0.223850
0.851499 0.576989 0.238956
0.884398 0.597375 0.260807
0.913512 0.619776 0.287694
0.938872 0.644282 0.321080
0.960693 0.670832 0.362036
0.172488 0.399695 0.166812
0.174380 0.401923 0.168093
0.177127 0.404242 0.170047
0.182406 0.407172 0.173953
0.190494 0.410651 0.179812
0.201419 0.414191 0.188113
0.215061 0.418311 0.198581
0.231632 0.423041 0.211765
0.250156 0.428534 0.226200
0.258885 0.431983 0.228672
0.268681 0.436042 0.231510
0.279545 0.440650 0.234958
0.291081 0.445380 0.238499
0.313085 0.452461 0.238407
0.347295 0.461646 0.234287
0.385290 0.470527 0.229374
0.426978 0.479316 0.223789
0.471626 0.487648 0.217533
0.522332 0.498451 0.210208
0.567590 0.506462 0.207919
0.604425 0.513909 0.208438
0.641169 0.522301 0.209995
0.678035 0.531853 0.212284
0.714351 0.542412 0.215549
0.749538 0.553765 0.220554
0.783810 0.566461 0.227115
0.816922 0.580560 0.236149
0.848661 0.596612 0.248386
0.879088 0.615076 0.265446
0.909178 0.636927 0.293339
0.935332 0.660639 0.327642
0.957794 0.686275 0.369482
0.178714 0.431098 0.170382
0.180850 0.433326 0.171817
0.183597 0.435737 0.173922
0.188907 0.438697 0.177890
0.197330 0.442023 0.184024
0.208255 0.445411 0.192264
0.222141 0.449287 0.203159
0.238956 0.453773 0.216464
0.258946 0.459327 0.232853
0.272129 0.463539 0.240452
0.282017 0.467506 0.243473
0.292760 0.471778 0.246677
0.304417 0.476326 0.250309
0.316625 0.481056 0.254215
0.346014 0.489296 0.251591
0.382300 0.497993 0.246769
0.421973 0.506462 0.241489
0.464759 0.514824 0.235630
0.510521 0.522942 0.229129
0.561791 0.533776 0.221683
0.606439 0.540887 0.219821
0.642939 0.548425 0.221439
0.679591 0.557366 0.224216
0.715602 0.567132 0.228153
0.750454 0.577783 0.233249
0.784360 0.589471 0.240238
0.816983 0.602594 0.249363
0.848295 0.617578 0.262089
0.877867 0.634668 0.278904
0.905211 0.653986 0.301061
0.931212 0.676356 0.333410
0.954437 0.700984 0.376410
0.185458 0.464668 0.174105
0.187533 0.466896 0.175570
0.190585 0.469306 0.177829
0.196078 0.472175 0.181949
0.204593 0.475532 0.188296
0.215915 0.478859 0.197024
0.229923 0.482551 0.207889
0.246677 0.486793 0.221439
0.266819 0.491981 0.238254
0.286473 0.497108 0.253422
0.296300 0.500603 0.256260
0.307195 0.504509 0.259648
0.318639 0.508629 0.263218
0.330938 0.513054 0.267247
0.346319 0.518181 0.270481
0.381537 0.527092 0.266178
0.420233 0.536126 0.261509
0.462318 0.545190 0.256229
0.507530 0.554437 0.250858
0.555444 0.563714 0.244907
0.608209 0.575433 0.238529
0.653040 0.582544 0.238071
0.688685 0.590021 0.241337
0.724788 0.599390 0.246433
0.759640 0.609491 0.252598
0.792966 0.620508 0.261051
0.824918 0.632807 0.271519
0.855222 0.646815 0.285740
0.883604 0.662684 0.303929
0.909667 0.680568 0.327459
0.933410 0.700526 0.357366
0.954681 0.722683 0.396033
0.194827 0.508171 0.179446
0.196933 0.509514 0.181033
0.199588 0.510887 0.182956
0.205234 0.512688 0.187289
0.213993 0.515038 0.194003
0.225254 0.517754 0.202945
0.239689 0.521111 0.214450
0.257359 0.525261 0.228824
0.278019 0.530175 0.246098
0.302281 0.536004 0.266850
0.315496 0.540063 0.273747
0.326757 0.543938 0.277379
0.338506 0.547845 0.281254
0.350866 0.551873 0.285344
0.363989 0.556054 0.289677
0.386664 0.562219 0.290684
0.423896 0.570642 0.286107
0.464271 0.579156 0.281163
0.507408 0.587640 0.275853
0.553368 0.596124 0.270420
0.600946 0.604425 0.264286
0.652399 0.614954 0.258000
0.694209 0.619837 0.258152
0.726741 0.625483 0.262058
0.760769 0.634211 0.268528
0.793637 0.644221 0.277256
0.825284 0.655512 0.288121
0.855222 0.668330 0.302647
0.883146 0.682979 0.321202
0.908812 0.699458 0.345159
0.932189 0.717891 0.375708
0.953124 0.738125 0.414069
0.203616 0.545739 0.184451
0.205661 0.547143 0.186038
0.208591 0.548516 0.188205
0.214542 0.550317 0.192782
0.223239 0.552422 0.199741
0.234958 0.554803 0.209049
0.249729 0.557702 0.221164
0.267460 0.561089 0.235874
0.288518 0.565515 0.253696
0.312688 0.570611 0.274693
0.333379 0.575433 0.290684
0.344396 0.578820 0.294408
0.356237 0.582422 0.298192
0.368933 0.586236 0.302678
0.381994 0.590204 0.307286
0.395819 0.594537 0.312200
0.426337 0.601831 0.310643
0.465309 0.610224 0.306126
0.507073 0.618677 0.301823
0.551354 0.627039 0.297032
0.597650 0.635340 0.291936
0.645106 0.643305 0.286442
0.695491 0.653346 0.281163
0.735012 0.657038 0.282872
0.760372 0.657435 0.284367
0.792782 0.666194 0.292821
0.824094 0.676417 0.304204
0.853758 0.688106 0.318700
0.881376 0.701411 0.337652
0.906889 0.716579 0.361791
0.930236 0.733669 0.392828
0.951080 0.752193 0.431159
0.216281 0.591058 0.192447
0.218814 0.592584 0.194217
0.221653 0.593683 0.196628
0.227726 0.594934 0.201389
0.236790 0.596429 0.208774
0.248936 0.598138 0.218875
0.263981 0.600153 0.231388
0.282017 0.602686 0.246738
0.303197 0.605707 0.264927
0.327214 0.609552 0.286168
0.354314 0.613886 0.310430
0.365881 0.616480 0.315038
0.377234 0.619135 0.318761
0.389441 0.621942 0.322850
0.401770 0.624720 0.326757
0.414984 0.627802 0.331395
0.429480 0.631495 0.336156
0.466163 0.638788 0.331609
0.506035 0.646601 0.327611
0.548577 0.654597 0.323461
0.593164 0.662684 0.319280
0.638972 0.670405 0.314733
0.685023 0.677668 0.310033
0.732692 0.686183 0.305394
0.768704 0.688014 0.307256
0.795041 0.690791 0.312902
0.825345 0.699458 0.324254
0.854093 0.709468 0.338659
0.880949 0.721096 0.357519
0.905943 0.734585 0.381689
0.928832 0.749874 0.412726
0.949554 0.766537 0.450446
0.228153 0.628962 0.200168
0.230747 0.630304 0.202060
0.233982 0.631312 0.204776
0.240116 0.632563 0.209873
0.249546 0.633783 0.217624
0.261906 0.635370 0.228061
0.277379 0.637263 0.241215
0.295842 0.639612 0.257145
0.317449 0.642512 0.276127
0.341924 0.646052 0.298100
0.369329 0.650050 0.322911
0.389685 0.653498 0.338323
0.401221 0.656214 0.342351
0.413458 0.659022 0.346654
0.426276 0.661799 0.351293
0.439612 0.664820 0.356298
0.453559 0.668086 0.361669
0.475654 0.672877 0.364294
0.513603 0.680049 0.360571
0.554284 0.687465 0.357122
0.596796 0.694728 0.353613
0.640711 0.701747 0.350195
0.684871 0.708248 0.346258
0.728542 0.714260 0.341833
0.773068 0.721431 0.338140
0.805570 0.721981 0.341253
0.828763 0.723751 0.348089
0.856626 0.732326 0.363348
0.882750 0.742580 0.382910
0.907012 0.754482 0.407904
0.929259 0.767819 0.438544
0.949493 0.782559 0.476173
0.244144 0.669398 0.211154
0.246769 0.670436 0.213382
0.249851 0.670985 0.215824
0.255924 0.671748 0.221134
0.265415 0.672480 0.229252
0.277775 0.673487 0.239841
0.293400 0.674830 0.253483
0.312016 0.676661 0.269871
0.333867 0.678981 0.289403
0.358648 0.681941 0.311833
0.386236 0.685267 0.337285
0.415473 0.689052 0.364050
0.427039 0.691524 0.368292
0.439399 0.694118 0.373053
0.452033 0.696651 0.377661
0.465217 0.699214 0.382818
0.479042 0.702022 0.388281
0.493629 0.705318 0.394598
0.522698 0.710842 0.395056
0.561120 0.717372 0.391821
0.601495 0.723903 0.389014
0.643122 0.730159 0.386419
0.685145 0.736019 0.383520
0.726986 0.741329 0.380285
0.767849 0.746151 0.376532
0.808713 0.752041 0.373968
0.837675 0.751644 0.378332
0.857877 0.752834 0.386755
0.882719 0.760891 0.405737
0.906462 0.771054 0.430121
0.928222 0.782589 0.460151
0.948089 0.795743 0.496986
0.262058 0.707088 0.224338
0.264622 0.707759 0.226444
0.267857 0.708309 0.229160
0.274022 0.708919 0.234623
0.283787 0.709865 0.243198
0.296910 0.711299 0.254826
0.313725 0.713405 0.269718
0.333745 0.716060 0.287755
0.357366 0.719326 0.309392
0.384009 0.723049 0.333959
0.413703 0.726986 0.361761
0.445960 0.730953 0.392187
0.466773 0.734401 0.407904
0.479988 0.737331 0.413825
0.493385 0.739956 0.419654
0.506889 0.742397 0.425483
0.520867 0.744869 0.431617
0.535241 0.747616 0.438209
0.550622 0.750820 0.445777
0.585687 0.756161 0.444007
0.623102 0.761379 0.441810
0.661738 0.766354 0.439857
0.700679 0.770901 0.437720
0.739467 0.774990 0.435645
0.777371 0.778592 0.433204
0.813809 0.781918 0.430701
0.849454 0.786160 0.429603
0.873564 0.784970 0.435737
0.890349 0.785641 0.445991
0.911254 0.792599 0.467903
0.931701 0.802243 0.497444
0.950347 0.813474 0.533745
0.291966 0.752651 0.248295
0.294285 0.753048 0.250523
0.297368 0.753231 0.253269
0.303655 0.753475 0.258824
0.313329 0.753841 0.267552
0.326482 0.754452 0.279484
0.342931 0.755489 0.294621
0.362707 0.756832 0.312810
0.385809 0.758541 0.334356
0.412116 0.760525 0.359106
0.441047 0.762661 0.386450
0.472847 0.764828 0.416815
0.501946 0.766873 0.443549
0.514000 0.768826 0.448737
