data/fiter_cube/27130762/1023399/file.cube
# Created by Adobe Lightroom plugin Export LUT (1.17.0)
# www.johnrellis.com/lightroom/exportlut.htm
# Preset: 森系文艺人像美食静物_03 云集
# Color profile: C:\Program Files (x86)\Common Files\Adobe\Color\Profiles\Recommended\AdobeRGB1998.icc
LUT_3D_SIZE 32
DOMAIN_MIN 0.0 0.0 0.0
DOMAIN_MAX 1.0 1.0 1.0
0.002380 0.005341 0.003815
0.005524 0.008270 0.005676
0.011444 0.011963 0.006287
0.029053 0.020630 0.010529
0.060365 0.035340 0.014832
0.081025 0.047303 0.019837
0.107454 0.054688 0.024811
0.142702 0.053803 0.029297
0.183352 0.047730 0.032258
0.226413 0.034089 0.035645
0.270970 0.023163 0.037293
0.315892 0.019074 0.040253
0.361364 0.031800 0.043427
0.407691 0.061738 0.051667
0.454932 0.084627 0.061158
0.502586 0.111086 0.070405
0.549828 0.138735 0.081422
0.599054 0.170962 0.094392
0.650446 0.207828 0.109712
0.697627 0.244083 0.125826
0.741573 0.280797 0.142947
0.782284 0.317479 0.160800
0.818814 0.352331 0.179751
0.851286 0.385840 0.200320
0.880308 0.418097 0.221866
0.906432 0.449561 0.245975
0.930327 0.481025 0.272313
0.952148 0.512810 0.302342
0.971923 0.545342 0.336645
0.989746 0.578515 0.375708
1.000000 0.612726 0.419776
1.000000 0.648127 0.469154
0.002258 0.011109 0.006592
0.005829 0.014038 0.006287
0.011322 0.017731 0.009064
0.028626 0.028809 0.013123
0.060243 0.042298 0.017517
0.080873 0.053437 0.022431
0.107729 0.059236 0.026398
0.142672 0.059327 0.030793
0.183139 0.055848 0.034699
0.226078 0.047364 0.037873
0.270512 0.038270 0.039490
0.315129 0.037690 0.042359
0.360418 0.052918 0.046387
0.406500 0.070802 0.054780
0.453437 0.092164 0.062806
0.500877 0.116579 0.072236
0.547967 0.143587 0.082979
0.597192 0.174746 0.095735
0.647547 0.209812 0.110231
0.694148 0.245029 0.126375
0.737942 0.280980 0.142977
0.778744 0.316686 0.160189
0.815488 0.351537 0.179110
0.848264 0.384894 0.199344
0.877623 0.416907 0.220645
0.904173 0.448585 0.244450
0.928405 0.480079 0.270878
0.950469 0.511925 0.300969
0.970520 0.544274 0.334997
0.988586 0.577417 0.373816
1.000000 0.611719 0.417884
1.000000 0.647028 0.467018
0.001617 0.019287 0.010285
0.003723 0.024872 0.008698
0.010925 0.027131 0.010468
0.027802 0.038209 0.016693
0.059937 0.050507 0.021118
0.080995 0.060029 0.025910
0.108034 0.063783 0.029755
0.143038 0.064759 0.033936
0.183688 0.062867 0.037720
0.226383 0.059388 0.040742
0.270603 0.056916 0.041993
0.315373 0.059144 0.045502
0.360449 0.067811 0.049439
0.406561 0.082277 0.058167
0.453254 0.101320 0.065797
0.500633 0.124117 0.074708
0.547601 0.150637 0.085542
0.596979 0.180941 0.098024
0.646448 0.214511 0.112856
0.692836 0.249027 0.128084
0.736538 0.284184 0.144076
0.777279 0.319280 0.161471
0.814237 0.353765 0.179995
0.846983 0.386481 0.200198
0.876432 0.418372 0.221683
0.903105 0.449683 0.245060
0.927367 0.481056 0.271550
0.949615 0.512688 0.301305
0.969787 0.545006 0.335363
0.987945 0.578241 0.374182
1.000000 0.612299 0.417975
1.000000 0.647486 0.467140
0.001740 0.041230 0.019318
0.004761 0.046571 0.019867
0.008270 0.051575 0.017090
0.028138 0.054292 0.020600
0.059663 0.062684 0.028077
0.081758 0.069093 0.033600
0.109651 0.072816 0.037232
0.145632 0.074983 0.040803
0.185794 0.075654 0.043977
0.228794 0.075380 0.047120
0.272557 0.076967 0.048280
0.317082 0.080446 0.051240
0.362066 0.089631 0.057343
0.407996 0.103273 0.063447
0.454505 0.120150 0.071168
0.501793 0.141451 0.080323
0.548577 0.165774 0.091279
0.597833 0.194522 0.103700
0.646326 0.226047 0.117372
0.691676 0.258671 0.132418
0.734615 0.292058 0.147738
0.775051 0.325658 0.165011
0.812192 0.359319 0.183200
0.845548 0.391882 0.203220
0.875547 0.423560 0.224704
0.902708 0.455055 0.248478
0.927276 0.486213 0.275334
0.949584 0.517754 0.305547
0.969726 0.549828 0.339574
0.987701 0.582330 0.378210
1.000000 0.615808 0.421607
1.000000 0.650263 0.470100
0.002197 0.062562 0.032990
0.005219 0.064698 0.033539
0.008026 0.068360 0.031556
0.021820 0.072480 0.025879
0.058259 0.073671 0.033204
0.080598 0.079774 0.041840
0.110628 0.086946 0.047944
0.148287 0.091981 0.051209
0.189029 0.094881 0.052766
0.231601 0.097597 0.055177
0.275334 0.101137 0.057191
0.319524 0.107515 0.060548
0.364355 0.116670 0.065431
0.410040 0.129488 0.071748
0.457130 0.145815 0.079744
0.504326 0.165286 0.089418
0.551110 0.187961 0.100526
0.601221 0.215640 0.113008
0.648829 0.244999 0.126162
0.693446 0.275334 0.140291
0.735775 0.306798 0.155306
0.775723 0.339055 0.171786
0.812375 0.371130 0.189548
0.845609 0.402472 0.209384
0.875395 0.433234 0.231113
0.902434 0.463539 0.254795
0.927001 0.494209 0.281193
0.949157 0.524926 0.311254
0.969116 0.556268 0.345281
0.987030 0.588251 0.383703
1.000000 0.621027 0.426886
1.000000 0.654994 0.475105
0.001801 0.076661 0.049409
0.004517 0.079011 0.049683
0.008240 0.081910 0.049805
0.013519 0.088808 0.037751
0.049653 0.093477 0.036347
0.077699 0.094728 0.047120
0.108522 0.102754 0.054688
0.147890 0.111604 0.059144
0.194156 0.120760 0.062562
0.236851 0.125429 0.064057
0.280491 0.131136 0.066377
0.324651 0.138552 0.070436
0.369299 0.148653 0.076570
0.415076 0.160922 0.083772
0.461982 0.176394 0.092439
0.509239 0.194919 0.102235
0.557061 0.216281 0.113100
0.606989 0.242618 0.125246
0.653590 0.269810 0.137881
0.697597 0.298192 0.151736
0.739498 0.328099 0.166445
0.779080 0.358404 0.182528
0.836698 0.411414 0.215396
0.866575 0.440162 0.236027
0.893370 0.468086 0.258152
0.917388 0.496010 0.282567
0.939147 0.524102 0.309545
0.958862 0.552453 0.339971
0.976684 0.581567 0.374243
0.992737 0.611597 0.412726
1.000000 0.642512 0.455390
1.000000 0.674464 0.502434
0.001373 0.095125 0.062745
0.003571 0.097780 0.062776
0.006653 0.101106 0.062715
0.017853 0.108705 0.060975
0.029969 0.118868 0.046448
0.071534 0.125216 0.047089
0.105592 0.125612 0.058839
0.147433 0.134981 0.064332
0.193912 0.146090 0.068635
0.244144 0.158145 0.075319
0.293004 0.169406 0.082124
0.337560 0.177554 0.087068
0.382452 0.187961 0.094301
0.428504 0.200259 0.102327
0.475288 0.215152 0.110506
0.521477 0.232212 0.120119
0.571191 0.254032 0.131167
0.620783 0.278874 0.142947
0.666682 0.304479 0.155428
0.710658 0.332036 0.169039
0.753048 0.361578 0.184665
0.793271 0.391760 0.201999
0.829953 0.422461 0.221744
0.862425 0.451911 0.243137
0.890959 0.480690 0.266606
0.915862 0.508324 0.291630
0.937896 0.535821 0.319341
0.957610 0.563470 0.349828
0.975372 0.591577 0.383856
0.991272 0.620569 0.421637
1.000000 0.650538 0.463661
1.000000 0.681666 0.510124
0.000000 0.118044 0.071687
0.000000 0.120272 0.072053
0.002228 0.123964 0.071839
0.011444 0.131563 0.071260
0.013825 0.144045 0.060700
0.052796 0.153628 0.052613
0.096773 0.160708 0.055634
0.139132 0.159640 0.066407
0.186831 0.169436 0.075196
0.236088 0.182315 0.083070
0.288151 0.197024 0.093416
0.342382 0.214725 0.106508
0.389471 0.226627 0.115023
0.435645 0.238926 0.122072
0.482307 0.253056 0.130495
0.529686 0.269688 0.139284
0.579767 0.291020 0.149783
0.627344 0.313024 0.160555
0.671839 0.336584 0.171847
0.714534 0.361486 0.184939
0.755795 0.388220 0.199680
0.795041 0.416175 0.216526
0.830777 0.443977 0.235721
0.862455 0.471168 0.256779
0.890501 0.498085 0.279759
0.915129 0.524468 0.304631
0.936919 0.550683 0.331884
0.956451 0.577020 0.362158
0.974029 0.604120 0.395941
0.989776 0.631830 0.433356
1.000000 0.660883 0.475074
1.000000 0.691005 0.520928
0.000000 0.146487 0.083528
0.000000 0.148775 0.083742
0.000000 0.152224 0.084047
0.001282 0.159487 0.083650
0.019165 0.170993 0.081056
0.021729 0.185519 0.063478
0.075227 0.193027 0.058381
0.130587 0.199191 0.064210
0.177737 0.196323 0.077974
0.227817 0.206455 0.091493
0.279149 0.221744 0.102937
0.332830 0.239200 0.116823
0.389105 0.260044 0.131960
0.445411 0.281224 0.146639
0.491981 0.294682 0.153658
0.541955 0.312444 0.162631
0.590295 0.331609 0.171969
0.636347 0.351843 0.181521
0.679255 0.372595 0.192111
0.720699 0.395087 0.204349
0.760769 0.419196 0.218509
0.798764 0.444526 0.234897
0.833280 0.469673 0.253452
0.864073 0.495003 0.274174
0.891295 0.519860 0.296971
0.915312 0.544396 0.321630
0.936614 0.568872 0.348699
0.955718 0.593683 0.378485
0.972930 0.619409 0.411872
0.988403 0.645960 0.448676
1.000000 0.673548 0.489448
1.000000 0.702296 0.534325
0.000000 0.178531 0.098543
0.000000 0.180941 0.098604
0.000000 0.183719 0.098848
0.000000 0.190372 0.098848
0.005951 0.200687 0.097810
0.015961 0.213901 0.084565
0.060853 0.226169 0.070741
0.109834 0.232975 0.067445
0.169467 0.237613 0.077852
0.217807 0.234348 0.095094
0.268833 0.244480 0.112612
0.321477 0.262119 0.126223
0.377111 0.282689 0.142000
0.435920 0.306584 0.158663
0.500267 0.335821 0.177096
0.555688 0.358404 0.189273
0.603388 0.376379 0.197665
0.648157 0.394324 0.206149
0.689570 0.412940 0.216403
0.729458 0.432624 0.227848
0.767849 0.454017 0.241062
0.803677 0.475959 0.256474
0.836210 0.498116 0.274174
0.865446 0.520439 0.294011
0.891569 0.542840 0.315984
0.914885 0.565393 0.340124
0.935821 0.588403 0.367071
0.954681 0.611902 0.396857
0.971710 0.636469 0.430152
0.986969 0.661921 0.466804
1.000000 0.688533 0.507469
1.000000 0.715999 0.551354
0.000000 0.211704 0.116121
0.000000 0.213779 0.116182
0.000000 0.216434 0.116884
0.000000 0.222507 0.116976
0.000000 0.231418 0.117067
0.045655 0.243565 0.114870
0.041932 0.258244 0.090150
0.093843 0.267430 0.081636
0.150515 0.273960 0.082582
0.211246 0.277165 0.096742
0.259373 0.273777 0.116243
0.309972 0.283604 0.135866
0.364660 0.304112 0.151400
0.425269 0.329931 0.169039
0.488869 0.358618 0.187411
0.553094 0.389685 0.206332
0.615839 0.422156 0.225772
0.658778 0.437903 0.233585
0.698817 0.453681 0.242557
0.737240 0.470771 0.253300
0.774228 0.489631 0.266178
0.808530 0.508873 0.281041
0.839872 0.528985 0.298772
0.868040 0.549157 0.318242
0.893217 0.569574 0.340002
0.915618 0.590021 0.363867
0.935790 0.611078 0.390112
0.954040 0.632807 0.419196
0.970489 0.655634 0.451637
0.985351 0.679469 0.487251
0.998444 0.704494 0.527001
1.000000 0.730220 0.569207
0.000000 0.246098 0.136233
0.000000 0.248081 0.136385
0.000000 0.250431 0.137118
0.000000 0.255558 0.137850
0.000000 0.263859 0.138582
0.051423 0.274601 0.137850
0.067445 0.288487 0.123384
0.086488 0.303014 0.103700
0.131350 0.310094 0.094972
0.194888 0.316014 0.102846
0.254643 0.318029 0.119234
0.302159 0.314885 0.139712
0.366674 0.337774 0.168063
0.429664 0.366094 0.186954
0.495033 0.396460 0.205814
0.560754 0.428687 0.225528
0.624475 0.461311 0.246250
0.682399 0.492226 0.268345
0.728450 0.514427 0.285801
0.763668 0.528130 0.295903
0.796567 0.542809 0.308141
0.826932 0.558312 0.322850
0.854337 0.574090 0.339483
0.879149 0.590723 0.358495
0.901640 0.607721 0.379248
0.921965 0.625483 0.402441
0.940276 0.643763 0.427680
0.956939 0.662989 0.455604
0.972045 0.683162 0.486549
0.985748 0.704646 0.520684
0.997986 0.727077 0.557641
1.000000 0.750179 0.597040
0.000000 0.285191 0.160739
0.000000 0.286748 0.161013
0.000000 0.288823 0.161593
0.000000 0.293248 0.162142
0.001923 0.300420 0.162966
0.062501 0.309758 0.163272
0.095583 0.322026 0.161379
0.087861 0.337194 0.131777
0.128450 0.348913 0.121706
0.174563 0.356451 0.112062
0.243992 0.363256 0.127230
0.306157 0.367987 0.146731
0.356786 0.368505 0.169528
0.411749 0.382177 0.193088
0.476051 0.412299 0.212253
0.541588 0.444526 0.232090
0.606165 0.476997 0.252873
0.665248 0.507378 0.274723
0.719051 0.536187 0.298924
0.768185 0.564843 0.326146
0.801633 0.579767 0.340826
0.830442 0.592828 0.354681
0.856687 0.606592 0.370550
0.880430 0.620783 0.388525
0.901915 0.635889 0.408728
0.921477 0.651392 0.430701
0.939269 0.667903 0.454841
0.955383 0.685359 0.482033
0.970031 0.703914 0.511955
0.983429 0.723690 0.544732
0.995483 0.744198 0.579889
1.000000 0.765652 0.617426
0.000000 0.320226 0.183993
0.000000 0.321752 0.184421
0.000000 0.323552 0.184787
0.000000 0.327611 0.185672
0.018982 0.333989 0.186679
0.072145 0.342870 0.187167
0.103273 0.354223 0.186587
0.115999 0.368292 0.172671
0.125368 0.384436 0.147524
0.170108 0.395056 0.138827
0.225742 0.405127 0.136782
0.295811 0.413886 0.152438
0.355749 0.416724 0.172457
0.404852 0.415961 0.195102
0.459144 0.429023 0.217319
0.521477 0.458198 0.237858
0.585595 0.490150 0.258061
0.646113 0.520806 0.279911
0.701717 0.549706 0.303777
0.752834 0.578149 0.330694
0.798032 0.605707 0.361334
0.834531 0.628626 0.390631
0.859434 0.640131 0.405768
0.882200 0.652491 0.422797
0.902770 0.665431 0.441901
0.921477 0.679133 0.463050
0.938537 0.693874 0.486488
0.954070 0.709560 0.512261
0.968292 0.726284 0.540887
0.981323 0.744045 0.571618
0.993133 0.762722 0.604913
1.000000 0.782376 0.640406
0.000000 0.356481 0.208377
0.000000 0.357916 0.208743
0.000000 0.359411 0.209384
0.000000 0.363348 0.210178
0.046204 0.369329 0.210971
0.083345 0.377478 0.212100
0.111391 0.388067 0.212131
0.140902 0.402411 0.210330
0.134676 0.420233 0.180667
0.167605 0.436652 0.166018
0.214908 0.446387 0.157626
0.278141 0.455665 0.161349
0.346929 0.463874 0.177005
0.404852 0.464515 0.197635
0.452125 0.462776 0.219852
0.504753 0.474372 0.241215
0.564599 0.501793 0.262577
0.626398 0.532952 0.284092
0.683467 0.562219 0.308171
0.736416 0.590692 0.335027
0.783963 0.618219 0.365576
0.824765 0.644221 0.399634
0.859129 0.668879 0.435737
0.883726 0.684321 0.460121
0.903441 0.695583 0.478187
0.921477 0.707698 0.498451
0.937926 0.720760 0.521141
0.953033 0.735012 0.546288
0.966979 0.750149 0.573419
0.979736 0.766293 0.602808
0.991333 0.783413 0.634363
1.000000 0.801419 0.668116
0.000000 0.394507 0.234104
0.000000 0.396185 0.234592
0.000000 0.397803 0.235264
0.018524 0.402014 0.236545
0.067262 0.408515 0.238071
0.095064 0.417487 0.239445
0.122621 0.428443 0.240635
0.150210 0.442176 0.239841
0.163668 0.458503 0.225193
0.167391 0.476997 0.195346
0.212436 0.489570 0.185641
0.261112 0.498573 0.176059
0.330144 0.505638 0.186099
0.397406 0.512047 0.201175
0.451911 0.509697 0.221530
0.496803 0.506523 0.243229
0.546105 0.515801 0.264591
0.604456 0.542596 0.287175
0.664210 0.573236 0.311742
0.719417 0.602564 0.339269
0.769650 0.630915 0.370153
0.812985 0.657191 0.404639
0.849424 0.681727 0.441352
0.879911 0.705135 0.479988
0.905058 0.727321 0.519860
0.922210 0.737636 0.538781
0.937987 0.748867 0.559594
0.952483 0.761044 0.582605
0.965820 0.774228 0.607599
0.978027 0.788296 0.634577
0.989166 0.803220 0.663355
0.999329 0.819059 0.693751
0.000000 0.436378 0.262730
0.000000 0.437659 0.262882
0.014160 0.439216 0.263371
0.053956 0.443122 0.264378
0.081025 0.448951 0.265782
0.105806 0.457008 0.266911
0.131868 0.467140 0.267979
0.158419 0.479561 0.267338
0.187045 0.494270 0.264256
0.181582 0.511681 0.233158
0.207370 0.529412 0.211795
0.256382 0.538018 0.203372
0.307866 0.546136 0.194858
0.380926 0.551812 0.209689
0.446326 0.556970 0.224369
0.497505 0.552850 0.245457
0.540185 0.548943 0.267155
0.586755 0.556512 0.288823
0.642695 0.581872 0.313359
0.700160 0.612116 0.341039
0.752773 0.640955 0.372137
0.798642 0.667567 0.406378
0.837461 0.692164 0.443427
0.869993 0.715419 0.482643
0.897002 0.737636 0.523705
0.919646 0.758816 0.564752
0.937255 0.774655 0.596551
0.951263 0.785183 0.617548
0.964202 0.796628 0.640528
0.976104 0.809049 0.665339
0.986999 0.822293 0.691676
0.997009 0.836271 0.719051
0.017182 0.478645 0.291264
0.031983 0.480018 0.291691
0.060853 0.493446 0.300450
0.078889 0.496651 0.301305
0.100038 0.502190 0.302495
0.122347 0.509422 0.303471
0.146670 0.518517 0.304082
0.172488 0.529686 0.303502
0.200351 0.542809 0.301091
0.214542 0.558373 0.284642
0.211612 0.576104 0.247166
0.258335 0.589166 0.236423
0.309422 0.595819 0.227085
0.368963 0.601587 0.224338
0.439582 0.605158 0.239078
0.501427 0.607507 0.254582
0.550103 0.602472 0.275914
0.590661 0.598108 0.297673
0.633631 0.603265 0.320012
0.686030 0.626337 0.347448
0.740230 0.655360 0.378943
0.787900 0.682033 0.413458
0.828428 0.706294 0.450813
0.862181 0.728817 0.490120
0.890105 0.749844 0.530663
0.913512 0.769833 0.571221
0.933288 0.788846 0.610803
0.949950 0.807401 0.650385
0.962676 0.818387 0.673579
0.974212 0.828946 0.695491
0.984894 0.840360 0.718715
0.994781 0.852506 0.742947
0.059754 0.524041 0.323003
0.067018 0.526787 0.324651
0.075746 0.529992 0.326238
0.091463 0.534722 0.328038
0.110201 0.540917 0.329931
0.131807 0.547967 0.331243
0.155581 0.556390 0.332067
0.180636 0.566644 0.331945
0.207584 0.578698 0.329961
0.236942 0.592370 0.325292
0.232883 0.608545 0.292149
0.252750 0.624262 0.264591
0.303288 0.632654 0.255375
0.354803 0.638178 0.245579
0.419287 0.641840 0.248814
0.486702 0.644282 0.263462
0.544640 0.644770 0.280034
0.590570 0.639979 0.301427
0.629572 0.636011 0.324132
0.670039 0.639948 0.347906
0.719478 0.661402 0.377234
0.770718 0.689631 0.412573
0.814298 0.714748 0.450263
0.850675 0.737636 0.490486
0.880797 0.758724 0.531792
0.905943 0.778531 0.572930
0.927001 0.797299 0.613611
0.944793 0.815396 0.653681
0.959930 0.832944 0.692317
0.972625 0.847929 0.724605
0.983062 0.857725 0.744961
0.992767 0.868254 0.766232
0.076051 0.565454 0.352697
0.082887 0.568017 0.354345
0.090394 0.571130 0.355871
0.103304 0.575463 0.357488
0.121675 0.581048 0.359472
0.142000 0.587762 0.360693
0.164645 0.595422 0.361364
0.189487 0.604456 0.361364
0.216312 0.615167 0.360204
0.245274 0.627222 0.356359
0.260868 0.641169 0.339452
0.254093 0.656855 0.297612
0.297795 0.669368 0.283909
0.349889 0.674159 0.275517
0.401160 0.678401 0.265110
0.469184 0.680537 0.275578
0.532769 0.682246 0.290745
0.587091 0.681453 0.308721
0.631037 0.676905 0.331029
0.668452 0.673487 0.354253
0.705989 0.676478 0.378912
0.752163 0.696040 0.410315
0.799191 0.722438 0.449012
0.838376 0.745785 0.490028
0.870726 0.767025 0.532067
0.897734 0.786679 0.573907
0.920287 0.805173 0.615320
0.939239 0.822843 0.655909
0.955322 0.839933 0.694972
0.969146 0.856199 0.731197
0.981079 0.871702 0.764675
0.990967 0.882933 0.787900
0.091402 0.607324 0.383734
0.097139 0.609796 0.385199
0.103914 0.612696 0.386633
0.116487 0.616632 0.388251
0.133516 0.621668 0.389929
0.153964 0.627375 0.391150
0.176089 0.634150 0.391760
0.200473 0.642084 0.391638
0.227115 0.651270 0.390784
0.255833 0.661799 0.388251
0.286809 0.673304 0.383276
0.284520 0.687221 0.350072
0.296818 0.700771 0.316716
0.345892 0.709010 0.306828
0.397223 0.712886 0.297887
0.449317 0.716518 0.289586
0.518547 0.717952 0.305486
0.579370 0.719875 0.321935
0.630945 0.719020 0.342351
0.673579 0.715724 0.366369
0.709957 0.713466 0.391485
0.745235 0.716182 0.418250
0.786740 0.732967 0.451789
0.828855 0.757351 0.494606
0.863462 0.779019 0.538537
0.892119 0.798672 0.581933
0.915892 0.816861 0.624323
0.935729 0.834073 0.665339
0.952544 0.850523 0.704494
0.966949 0.866117 0.740505
0.979309 0.880858 0.773404
0.989929 0.894835 0.803220
0.114443 0.654658 0.420752
0.119203 0.656245 0.421485
0.124514 0.657771 0.422248
0.135805 0.660548 0.423041
0.151675 0.664271 0.424048
0.170687 0.669001 0.424720
0.192538 0.674739 0.425544
0.216800 0.681697 0.425605
0.243290 0.690059 0.425360
0.272343 0.699275 0.423926
0.303502 0.709712 0.420844
0.320989 0.721431 0.404120
0.315312 0.734646 0.363928
0.349279 0.745602 0.343908
0.399329 0.749966 0.335607
0.449165 0.752926 0.326513
0.504753 0.755001 0.325048
0.569482 0.755459 0.341863
0.626215 0.756588 0.359075
0.673793 0.754574 0.380835
0.713344 0.751278 0.405554
0.746853 0.748806 0.430945
0.778042 0.749966 0.457221
0.814206 0.763363 0.490730
0.851652 0.785458 0.535515
0.882597 0.805386 0.579950
0.908324 0.823667 0.623560
0.929656 0.840787 0.665797
0.947662 0.857023 0.705745
0.962982 0.872313 0.742428
0.976135 0.886748 0.775723
0.987427 0.900450 0.805966
0.137270 0.694240 0.453162
0.141543 0.695644 0.453925
0.147005 0.697139 0.454810
0.157137 0.699641 0.455634
0.172061 0.702937 0.456367
0.189975 0.706844 0.457038
0.211063 0.711757 0.457740
0.234623 0.717647 0.457954
0.260899 0.724575 0.457923
0.289403 0.732570 0.457221
0.320287 0.741482 0.455329
0.352758 0.750851 0.451087
0.351110 0.762387 0.419226
0.355932 0.773800 0.382422
0.401007 0.781338 0.371771
0.449622 0.783749 0.364416
0.497078 0.786221 0.355474
0.555322 0.787198 0.361791
0.615595 0.787381 0.379400
0.668513 0.788144 0.397742
0.712459 0.785641 0.421149
0.749172 0.782864 0.446845
0.780362 0.780880 0.472999
0.808377 0.781430 0.500145
0.837613 0.789853 0.528710
0.871366 0.810330 0.574578
0.899321 0.828946 0.619562
0.922515 0.846189 0.663172
0.941955 0.862333 0.704372
0.958434 0.877531 0.742214
0.972595 0.891905 0.776455
0.984710 0.905516 0.807462
0.169741 0.737392 0.490669
0.173648 0.738705 0.491463
0.178775 0.739895 0.492103
0.187778 0.741665 0.492805
0.201450 0.744137 0.493324
0.217960 0.747280 0.493507
0.238102 0.751003 0.493996
0.260655 0.755489 0.494057
0.285618 0.760861 0.493782
0.313115 0.766903 0.493080
0.342901 0.773587 0.491798
0.374151 0.780880 0.489021
0.391760 0.789456 0.473915
0.386358 0.799802 0.436652
0.408911 0.808072 0.412299
0.452705 0.811856 0.402960
0.497963 0.813260 0.395087
0.542168 0.814817 0.386450
0.601648 0.814603 0.399359
0.657404 0.814511 0.417945
0.706325 0.815091 0.437354
0.746548 0.812345 0.462165
0.780331 0.809842 0.487984
0.808499 0.807797 0.514092
0.832975 0.807492 0.540002
0.860349 0.816068 0.570123
0.890593 0.834897 0.616449
0.915526 0.852110 0.661219
0.936309 0.868132 0.703578
0.953979 0.883146 0.742214
0.969085 0.897337 0.777371
0.982055 0.910826 0.809201
0.201389 0.772427 0.522728
0.205173 0.773556 0.523613
0.209995 0.774594 0.524407
0.218387 0.776089 0.524895
0.230838 0.778103 0.525322
0.246983 0.780636 0.525933
0.265843 0.783841 0.526329
0.287907 0.787533 0.526757
0.312383 0.792020 0.527153
0.339361 0.797147 0.527398
0.368261 0.802731 0.527123
0.399207 0.808835 0.526360
0.431678 0.815183 0.524224
0.430579 0.824094 0.496010
0.427100 0.833463 0.457618
0.464240 0.839353 0.446845
0.506584 0.840818 0.439704
0.548730 0.842008 0.432471
0.592004 0.843168 0.426886
0.650019 0.842283 0.445624
0.700740 0.841978 0.464851
0.745205 0.842069 0.484565
0.781308 0.839109 0.510460
0.811460 0.836881 0.536034
0.836667 0.835142 0.561059
0.858152 0.834531 0.585809
0.882597 0.842039 0.614252
0.908873 0.858762 0.660304
0.931243 0.874846 0.704250
0.950103 0.889799 0.744198
0.966186 0.903838 0.780148
0.979919 0.917113 0.812680
0.240696 0.806302 0.556756
0.244114 0.807126 0.557397
0.248142 0.807797 0.557763
0.255741 0.808804 0.558129
0.266667 0.810269 0.558373
0.281315 0.812070 0.558770
0.299046 0.814420 0.559289
0.319738 0.817411 0.559808
0.343389 0.820890 0.560693
0.369299 0.824979 0.561425
0.397162 0.829465 0.562158
0.427222 0.834470 0.562646
0.458900 0.839658 0.562524
0.477119 0.845945 0.551873
0.471778 0.854398 0.519585
0.483955 0.861418 0.493812
0.519341 0.865141 0.484443
0.558526 0.865934 0.478492
0.597314 0.867002 0.472114
0.642145 0.867277 0.473854
0.694636 0.866270 0.493294
0.740352 0.865782 0.512993
0.779812 0.865324 0.533074
0.811917 0.862730 0.557977
0.838743 0.860685 0.582666
0.861204 0.859281 0.606622
0.880064 0.858549 0.630213
0.902525 0.865843 0.657191
0.924865 0.879973 0.700954
0.945220 0.895018 0.742550
0.962463 0.909087 0.779965
0.977173 0.922271 0.813443
0.282383 0.836210 0.589380
0.285222 0.836759 0.589746
0.288823 0.837308 0.590173
0.295933 0.838102 0.590692
0.306645 0.839384 0.591272
0.320928 0.841184 0.592340
0.338811 0.843656 0.593713
0.359899 0.846586 0.595605
0.383825 0.850004 0.598047
0.410224 0.853941 0.600610
0.438788 0.858122 0.603510
0.469093 0.862455 0.606348
0.500008 0.866941 0.608728
0.531243 0.871305 0.610224
0.531395 0.878477 0.588220
0.527214 0.886076 0.556756
0.551598 0.890867 0.544121
0.584710 0.892699 0.537560
0.619593 0.893370 0.532799
0.654200 0.894194 0.527733
0.698421 0.893645 0.536522
0.743923 0.892515 0.555261
0.783413 0.891905 0.573724
0.817197 0.891020 0.593500
0.844877 0.888731 0.617121
0.868132 0.887053 0.640162
0.887694 0.885985 0.662837
0.904204 0.885496 0.684657
0.924163 0.892149 0.709163
0.942748 0.903716 0.747860
0.960845 0.917418 0.786007
0.976196 0.930236 0.819821
0.339788 0.868254 0.629023
0.342229 0.868589 0.629480
0.345251 0.868894 0.629664
0.351385 0.869383 0.630060
0.361059 0.870176 0.630579
0.373663 0.871244 0.631373
0.389746 0.872770 0.632746
0.408545 0.874662 0.634302
0.430335 0.876890 0.636530
0.454444 0.879484 0.639002
0.480385 0.882261 0.641718
0.507439 0.885283 0.644495
0.535393 0.888426 0.647120
0.563989 0.891661 0.649439
