data/fiter_cube/27130762/1023399/file.cube
# Created by Adobe Lightroom plugin Export LUT (1.17.0)
# www.johnrellis.com/lightroom/exportlut.htm
# Preset: 森系文艺人像美食静物_03 云集
# Color profile: C:\Program Files (x86)\Common Files\Adobe\Color\Profiles\Recommended\AdobeRGB1998.icc
LUT_3D_SIZE 8
DOMAIN_MIN 0.000000 0.000000 0.000000
DOMAIN_MAX 0.903226 0.903226 0.903226
0.002380 0.005341 0.003815
0.060365 0.035340 0.014832
0.183352 0.047730 0.032258
0.361364 0.031800 0.043427
0.549828 0.138735 0.081422
0.741573 0.280797 0.142947
0.880308 0.418097 0.221866
0.971923 0.545342 0.336645
0.002197 0.062562 0.032990
0.058259 0.073671 0.033204
0.189029 0.094881 0.052766
0.364355 0.116670 0.065431
0.551110 0.187961 0.100526
0.735775 0.306798 0.155306
0.875395 0.433234 0.231113
0.969116 0.556268 0.345281
0.000000 0.146487 0.083528
0.019165 0.170993 0.081056
0.177737 0.196323 0.077974
0.389105 0.260044 0.131960
0.590295 0.331609 0.171969
0.760769 0.419196 0.218509
0.891295 0.519860 0.296971
0.972930 0.619409 0.411872
0.000000 0.285191 0.160739
0.001923 0.300420 0.162966
0.128450 0.348913 0.121706
0.356786 0.368505 0.169528
0.606165 0.476997 0.252873
0.801633 0.579767 0.340826
0.901915 0.635889 0.408728
0.970031 0.703914 0.511955
0.000000 0.436378 0.262730
0.081025 0.448951 0.265782
0.187045 0.494270 0.264256
0.307866 0.546136 0.194858
0.540185 0.548943 0.267155
0.752773 0.640955 0.372137
0.897002 0.737636 0.523705
0.964202 0.796628 0.640528
0.091402 0.607324 0.383734
0.133516 0.621668 0.389929
0.227115 0.651270 0.390784
0.296818 0.700771 0.316716
0.518547 0.717952 0.305486
0.709957 0.713466 0.391485
0.863462 0.779019 0.538537
0.952544 0.850523 0.704494
0.201389 0.772427 0.522728
0.230838 0.778103 0.525322
0.312383 0.792020 0.527153
0.431678 0.815183 0.524224
0.506584 0.840818 0.439704
0.700740 0.841978 0.464851
0.836667 0.835142 0.561059
0.931243 0.874846 0.704250
0.390570 0.892851 0.662654
0.410498 0.894255 0.664546
0.475959 0.899413 0.671992
0.574365 0.908598 0.685298
0.612970 0.921813 0.640589
0.710964 0.930266 0.618647
0.845121 0.929076 0.670985
0.925902 0.925353 0.748409
0.006775 0.028534 0.054475
0.066133 0.031891 0.064179
0.178683 0.057252 0.073762
0.347814 0.091218 0.100649
0.531609 0.161929 0.135409
0.717067 0.275669 0.180575
0.864500 0.406867 0.244205
0.963745 0.535882 0.346807
0.016358 0.065644 0.063722
0.065522 0.080232 0.076783
0.187411 0.104372 0.091463
0.355291 0.138766 0.115602
0.539269 0.203586 0.150149
0.718624 0.305058 0.192294
0.862058 0.424079 0.253056
0.960967 0.546593 0.354223
0.028595 0.143160 0.107607
0.072480 0.169192 0.121706
0.187961 0.201938 0.122988
0.386847 0.268711 0.178286
0.572137 0.326940 0.205844
0.741543 0.408331 0.244297
0.874907 0.504417 0.308171
0.964538 0.607843 0.414069
0.028382 0.279515 0.185763
0.090517 0.295750 0.193820
0.157504 0.347539 0.169192
0.353185 0.362646 0.199924
0.585016 0.461555 0.273716
0.776822 0.557397 0.346136
0.887053 0.619013 0.408545
0.962951 0.693294 0.509178
0.096498 0.433906 0.284398
0.126894 0.445106 0.287724
0.207828 0.486732 0.289769
0.310613 0.537255 0.225101
0.530907 0.538964 0.285496
0.743343 0.633539 0.387060
0.891203 0.733913 0.534936
0.959991 0.791470 0.640284
0.134218 0.599237 0.395453
0.161837 0.608240 0.398260
0.240818 0.638178 0.402045
0.305394 0.689876 0.339483
0.514427 0.712459 0.324315
0.707637 0.711086 0.408545
0.860746 0.777798 0.551080
0.950256 0.849302 0.709529
0.216129 0.762325 0.526390
0.239872 0.765835 0.526848
0.316533 0.781552 0.530755
0.433112 0.807584 0.532219
0.508293 0.836728 0.455695
0.696925 0.838407 0.475380
0.832151 0.830930 0.565393
0.928008 0.871611 0.704311
0.392096 0.888121 0.664790
0.412757 0.890043 0.667506
0.477546 0.895811 0.675502
0.574823 0.905608 0.689357
0.633295 0.921843 0.664088
0.716457 0.930510 0.633875
0.844450 0.928313 0.677485
0.924498 0.924010 0.750362
0.011810 0.066743 0.127047
0.060792 0.065614 0.146395
0.213901 0.039643 0.165866
0.356115 0.074983 0.168002
0.514488 0.161807 0.208469
0.700557 0.273869 0.259342
0.854887 0.402258 0.315282
0.958465 0.535119 0.405341
0.062440 0.102876 0.136721
0.082948 0.108492 0.158175
0.213657 0.107515 0.180606
0.351659 0.130037 0.182986
0.520226 0.203250 0.224369
0.702480 0.301701 0.269169
0.854063 0.421149 0.324132
0.957153 0.548760 0.414923
0.081544 0.164279 0.170504
0.119020 0.179660 0.183963
0.215793 0.222416 0.222812
0.373236 0.261753 0.245762
0.556878 0.321935 0.278538
0.727230 0.401740 0.315465
0.864225 0.498878 0.371893
0.957641 0.605707 0.463264
0.139132 0.270878 0.237797
0.167819 0.286656 0.251408
0.240146 0.339635 0.283452
0.376532 0.381048 0.288457
0.605646 0.486580 0.368383
0.764828 0.552087 0.411170
0.879026 0.618616 0.467567
0.957458 0.695766 0.554009
0.175051 0.423774 0.331609
0.199435 0.437720 0.341131
0.268467 0.481849 0.363470
0.348669 0.547723 0.329168
0.549065 0.554864 0.365179
0.752682 0.649622 0.468788
0.889921 0.747280 0.602564
0.955016 0.792264 0.669337
0.209049 0.591547 0.438575
0.233005 0.601526 0.445136
0.300267 0.631434 0.459113
0.399359 0.677882 0.457893
0.517082 0.713283 0.394202
0.709407 0.712703 0.469062
0.859922 0.783169 0.602899
0.949371 0.856626 0.745174
0.282261 0.757900 0.563867
0.303258 0.762142 0.566369
0.366522 0.776486 0.572747
0.466194 0.800778 0.579767
0.533623 0.833646 0.523278
0.700435 0.838651 0.529656
0.834775 0.834348 0.610803
0.930114 0.878202 0.738949
0.426703 0.882963 0.688594
0.440589 0.884154 0.689418
0.498054 0.889799 0.696803
0.591150 0.901183 0.713283
0.674128 0.914488 0.714870
0.728298 0.928985 0.673335
0.846159 0.928649 0.705440
0.925566 0.925597 0.770230
0.000000 0.105104 0.247379
0.071901 0.107668 0.263218
0.217929 0.089296 0.310338
0.399298 0.103914 0.312871
0.552392 0.137026 0.305882
0.669734 0.187045 0.306371
0.821897 0.339574 0.366552
0.942596 0.497292 0.450629
0.098573 0.155917 0.260838
0.119020 0.155489 0.273838
0.224918 0.145449 0.315587
0.399908 0.155154 0.323064
0.549828 0.179873 0.314977
0.664485 0.229679 0.319493
0.824033 0.366827 0.378058
0.942748 0.513817 0.459815
0.152163 0.222110 0.270756
0.181003 0.234470 0.280705
0.248142 0.258488 0.323766
0.400702 0.264256 0.353521
0.543236 0.281010 0.343938
0.690425 0.352544 0.374365
0.844053 0.466590 0.434028
0.947509 0.584009 0.510613
0.185885 0.302373 0.313725
0.211917 0.312688 0.322789
0.288945 0.346624 0.352819
0.404913 0.404944 0.405524
0.572412 0.452155 0.430426
0.729580 0.514702 0.464729
0.858061 0.592676 0.516045
0.947723 0.680598 0.590814
0.243992 0.421118 0.387396
0.267216 0.430274 0.396094
0.341802 0.463661 0.427588
0.430793 0.535698 0.473213
0.570825 0.573907 0.475990
0.765805 0.675105 0.580865
0.876707 0.736263 0.642634
0.947936 0.785641 0.697566
0.303929 0.579767 0.494850
0.323980 0.593347 0.506157
0.378454 0.622553 0.527672
0.464302 0.669520 0.553368
0.550835 0.721859 0.521386
0.720851 0.723690 0.563195
0.863981 0.797269 0.680354
0.949889 0.867765 0.791928
0.366552 0.745296 0.611780
0.384100 0.750820 0.616541
0.437812 0.767819 0.629603
0.519310 0.793668 0.645380
0.611139 0.824674 0.644678
0.708278 0.842466 0.608362
0.837858 0.838407 0.671626
0.932036 0.885252 0.780209
0.498085 0.875151 0.729763
0.510124 0.877256 0.731838
0.546166 0.883452 0.736477
0.612299 0.894102 0.746151
0.701228 0.907195 0.760494
0.745907 0.926818 0.728237
0.847318 0.929107 0.743191
0.926696 0.927398 0.797055
0.102052 0.171206 0.379400
0.135592 0.173404 0.391485
0.239200 0.170108 0.429236
0.425238 0.132845 0.485298
0.598962 0.177951 0.482826
0.735866 0.230381 0.465919
0.831876 0.294194 0.455604
0.919036 0.418097 0.492744
0.150607 0.212222 0.388037
0.172274 0.213504 0.399512
0.253300 0.209659 0.434699
0.427832 0.178164 0.492622
0.597620 0.216800 0.488289
0.733700 0.261967 0.471656
0.829831 0.316258 0.460273
0.920348 0.441382 0.503075
0.224826 0.291386 0.388006
0.242008 0.299382 0.402350
0.288396 0.305852 0.443214
0.422248 0.293309 0.502495
0.593103 0.316747 0.506004
0.721920 0.345892 0.486305
0.820127 0.378729 0.473518
0.923522 0.513176 0.536797
0.255344 0.361273 0.418341
0.275822 0.369848 0.425391
0.340887 0.399908 0.451026
0.432227 0.438361 0.509728
0.591852 0.449714 0.541405
0.709377 0.459236 0.518181
0.819974 0.513695 0.534386
0.932189 0.621790 0.598779
0.290806 0.455177 0.468849
0.310307 0.463050 0.475776
0.373510 0.488685 0.498177
0.471778 0.531884 0.536858
0.588922 0.589014 0.588556
0.731716 0.630854 0.611383
0.850065 0.686183 0.647333
0.937133 0.750607 0.699092
0.343572 0.572778 0.539666
0.363165 0.579644 0.546349
0.424903 0.601251 0.567407
0.521386 0.637598 0.603937
0.605158 0.695918 0.641047
0.726650 0.728573 0.649439
0.870390 0.812863 0.753872
0.945098 0.859129 0.806729
0.460792 0.724300 0.655116
0.476692 0.727565 0.659144
0.515923 0.744015 0.673915
0.574456 0.771878 0.695796
0.645930 0.805966 0.713985
0.718471 0.840543 0.693202
0.838926 0.840177 0.729061
0.934905 0.892302 0.820920
0.570214 0.857420 0.764828
0.578210 0.859312 0.766537
0.605188 0.866209 0.772427
0.651850 0.880797 0.784054
0.708095 0.896941 0.792172
0.776120 0.917266 0.793820
0.844022 0.928679 0.779904
0.926543 0.927672 0.823545
0.189456 0.250675 0.535424
0.214176 0.251560 0.544366
0.298253 0.249241 0.574182
0.450935 0.228489 0.625299
0.634607 0.212589 0.661311
0.765743 0.295964 0.640223
0.872740 0.392248 0.629023
0.942596 0.482063 0.633967
0.215183 0.280766 0.536217
0.234470 0.280613 0.544182
0.307042 0.278599 0.573693
0.448005 0.261326 0.622339
0.630762 0.246098 0.661250
0.762417 0.321569 0.641627
0.869810 0.409644 0.631250
0.940520 0.492134 0.635523
0.285039 0.366674 0.543145
0.297826 0.368780 0.553124
0.341558 0.366918 0.581933
0.453071 0.360113 0.627375
0.629267 0.346349 0.673213
0.759579 0.405951 0.654749
0.863554 0.471321 0.644068
0.935607 0.529808 0.644251
0.335729 0.442664 0.545800
0.352270 0.449042 0.550469
0.405035 0.472114 0.574792
0.479103 0.491890 0.633051
0.623468 0.486336 0.690455
0.758480 0.524834 0.681941
0.855070 0.557397 0.666377
0.928313 0.584527 0.656947
0.365515 0.522240 0.582025
0.382238 0.528374 0.587030
0.436957 0.548669 0.603388
0.521447 0.582574 0.630518
0.613306 0.618341 0.681575
0.748257 0.632410 0.706447
0.836362 0.633417 0.680720
0.916838 0.670069 0.688014
0.409033 0.613611 0.627222
0.425910 0.619532 0.632593
0.477028 0.635279 0.646418
0.554803 0.661372 0.669368
0.643915 0.695857 0.700099
0.744411 0.744320 0.744228
0.850553 0.779263 0.765774
0.933562 0.821286 0.796628
0.485145 0.730312 0.701991
0.500969 0.734524 0.706416
0.547784 0.745754 0.718196
0.617670 0.764401 0.737697
0.699336 0.788998 0.763790
0.763333 0.827970 0.788998
0.846006 0.847196 0.793545
0.944121 0.906859 0.870634
0.627253 0.847379 0.797604
0.636347 0.848478 0.799252
0.666621 0.852781 0.805447
0.710872 0.862852 0.817227
0.747799 0.881529 0.830076
0.794553 0.904387 0.840238
0.846983 0.928557 0.829740
0.928466 0.929808 0.856931
0.296849 0.347051 0.697169
0.318151 0.347814 0.703578
0.387213 0.346014 0.721950
0.504692 0.336828 0.752224
0.661006 0.311254 0.788907
0.800107 0.354803 0.800198
0.878904 0.461341 0.765988
0.954376 0.581445 0.769314
0.309911 0.370459 0.694789
0.328771 0.371008 0.700954
0.391699 0.369055 0.719020
0.502373 0.360113 0.748409
0.654902 0.337530 0.785092
0.795102 0.373022 0.797818
0.874968 0.471778 0.764401
0.951446 0.584497 0.767483
0.366491 0.451942 0.697871
0.372656 0.448005 0.703731
0.418891 0.446357 0.720211
0.510430 0.441871 0.748531
0.647669 0.427985 0.783963
0.790616 0.448554 0.802274
0.872709 0.530236 0.773922
0.948943 0.622675 0.777493
0.425177 0.534478 0.686366
0.435218 0.537163 0.691859
0.472511 0.546838 0.713191
0.535607 0.551843 0.746548
0.642420 0.548119 0.782132
0.784085 0.553338 0.811124
0.869352 0.611444 0.789639
0.943969 0.672175 0.789578
0.460975 0.602991 0.701534
0.472816 0.606073 0.703243
0.513603 0.618067 0.710658
0.576226 0.638636 0.725399
0.645838 0.654902 0.772244
0.765835 0.653803 0.815030
0.861479 0.690333 0.804288
0.935637 0.722408 0.799710
0.503593 0.680201 0.733120
0.515038 0.683101 0.735225
0.552636 0.693141 0.742336
0.610254 0.709773 0.754757
0.680476 0.732357 0.771450
0.757961 0.761624 0.809659
0.858213 0.777157 0.828794
0.924773 0.775479 0.810361
0.559594 0.758236 0.769894
0.570123 0.760739 0.772122
0.602625 0.767880 0.778195
0.653254 0.780179 0.788785
0.714961 0.797024 0.803250
0.783444 0.820859 0.824216
0.855283 0.855222 0.855436
0.933104 0.881437 0.872435
0.637690 0.842466 0.822660
0.645289 0.843687 0.823972
0.675288 0.851896 0.832547
0.718318 0.861753 0.842924
0.770779 0.873960 0.855863
0.828000 0.890898 0.873503
0.871550 0.918425 0.889982
0.932341 0.933379 0.895567
0.465919 0.494484 0.836790
0.479561 0.494881 0.839536
0.523186 0.492439 0.847166
0.600916 0.488899 0.861387
0.705776 0.481025 0.879789
0.826261 0.470893 0.900450
0.913725 0.552483 0.899351
0.954772 0.644465 0.865415
0.473548 0.512108 0.834775
0.486183 0.512322 0.837583
0.527642 0.510155 0.845518
0.601556 0.506004 0.859464
0.703761 0.498451 0.878019
0.823178 0.487404 0.899229
0.911376 0.561944 0.898466
0.953429 0.650324 0.865599
0.503624 0.568994 0.831357
0.513207 0.568902 0.833860
0.545525 0.566033 0.841337
0.611048 0.565209 0.856809
0.702419 0.558251 0.875273
0.814939 0.547753 0.896452
0.906279 0.601465 0.898924
0.951141 0.677882 0.869566
0.540948 0.636103 0.821347
0.551293 0.638758 0.824765
0.584161 0.644953 0.835203
0.628229 0.642603 0.851164
0.702510 0.639033 0.870726
0.803494 0.632288 0.893095
0.899016 0.661555 0.901518
0.948638 0.720851 0.877440
0.587488 0.700038 0.815488
0.595697 0.702174 0.816617
0.618555 0.706691 0.820035
0.648402 0.709773 0.836973
0.707027 0.716854 0.861753
0.788205 0.714321 0.886564
0.888273 0.725185 0.904753
0.945769 0.771420 0.888212
0.623651 0.759030 0.833494
0.629572 0.759792 0.833768
0.650141 0.763058 0.835294
0.683986 0.769223 0.838804
0.729305 0.778897 0.844785
0.786099 0.792111 0.878325
0.876738 0.797543 0.910918
0.943206 0.826749 0.902373
0.669947 0.818051 0.855558
0.674891 0.818753 0.855955
0.692134 0.821317 0.857633
0.722164 0.826902 0.861662
0.762112 0.835599 0.867979
0.809537 0.848386 0.877562
0.865232 0.867887 0.904082
0.939757 0.881163 0.918029
0.721065 0.871336 0.880034
0.725216 0.871946 0.880552
0.740444 0.874693 0.882933
0.766995 0.880339 0.887816
0.800381 0.887694 0.894102
0.840177 0.898253 0.903044
0.886137 0.913939 0.916564
0.939330 0.939300 0.939452
