data/fiter_cube/27130762/1023399/file.cube
# Created by Adobe Lightroom plugin Export LUT (1.17.0)
# www.johnrellis.com/lightroom/exportlut.htm
# Preset: 森系文艺人像美食静物_03 云集
# Color profile: C:\Program Files (x86)\Common Files\Adobe\Color\Profiles\Recommended\AdobeRGB1998.icc
LUT_3D_SIZE 5
DOMAIN_MIN 0.000000 0.000000 0.000000
DOMAIN_MAX 0.903226 0.903226 0.903226
0.002380 0.005341 0.003815
0.142702 0.053803 0.029297
0.454932 0.084627 0.061158
0.782284 0.317479 0.160800
0.971923 0.545342 0.336645
0.000000 0.118044 0.071687
0.139132 0.159640 0.066407
0.482307 0.253056 0.130495
0.795041 0.416175 0.216526
0.974029 0.604120 0.395941
0.000000 0.356481 0.208377
0.140902 0.402411 0.210330
0.452125 0.462776 0.219852
0.824765 0.644221 0.399634
0.966979 0.750149 0.573419
0.114443 0.654658 0.420752
0.216800 0.681697 0.425605
0.399329 0.749966 0.335607
0.746853 0.748806 0.430945
0.947662 0.857023 0.705745
0.390570 0.892851 0.662654
0.455543 0.897704 0.669429
0.615320 0.909575 0.681758
0.740658 0.930968 0.618524
0.925902 0.925353 0.748409
0.014099 0.060212 0.101839
0.168093 0.041413 0.132906
0.424445 0.126040 0.169436
0.744167 0.304845 0.249699
0.958465 0.533227 0.385595
0.064302 0.132631 0.136507
0.171054 0.181460 0.180880
0.456916 0.257084 0.226352
0.763088 0.398810 0.292332
0.959686 0.589807 0.433845
0.133547 0.345678 0.268437
0.215763 0.393927 0.295781
0.454108 0.460731 0.298558
0.814389 0.645777 0.472908
0.958831 0.746975 0.603204
0.208286 0.646235 0.464912
0.283360 0.673518 0.478126
0.429175 0.747555 0.421149
0.747677 0.749905 0.488930
0.945769 0.861479 0.736812
0.422522 0.887297 0.685237
0.480995 0.892363 0.692409
0.638239 0.908751 0.714504
0.751369 0.931151 0.660517
0.926848 0.926848 0.768307
0.052338 0.136446 0.312657
0.184207 0.136965 0.354040
0.500389 0.139132 0.396887
0.729671 0.213352 0.375708
0.932403 0.467964 0.475319
0.181369 0.241459 0.323369
0.235050 0.253269 0.367285
0.500389 0.259434 0.422187
0.720089 0.300359 0.395026
0.936492 0.534447 0.512413
0.238743 0.377203 0.390112
0.307469 0.405951 0.415290
0.498878 0.498970 0.498756
0.764248 0.589410 0.550256
0.942138 0.716915 0.648127
0.362676 0.613489 0.547509
0.413672 0.636774 0.567987
0.549645 0.714778 0.619074
0.756527 0.758602 0.629877
0.946227 0.876158 0.810147
0.529992 0.865812 0.746090
0.564141 0.873198 0.753140
0.661067 0.894835 0.768612
0.771756 0.926024 0.750942
0.925750 0.926665 0.808164
0.210025 0.270115 0.572747
0.289189 0.270451 0.600641
0.552056 0.229129 0.682124
0.797543 0.332036 0.673182
0.945281 0.504448 0.669337
0.282017 0.361028 0.580377
0.326207 0.357275 0.605310
0.543481 0.337682 0.681025
0.791775 0.408087 0.681483
0.939330 0.536889 0.674678
0.366247 0.496101 0.588891
0.418067 0.515312 0.603357
0.549645 0.559472 0.675746
0.778378 0.584161 0.713130
0.924743 0.626154 0.691951
0.446906 0.654597 0.667933
0.492012 0.665980 0.677699
0.616876 0.706111 0.712947
0.775509 0.775448 0.775479
0.932067 0.835203 0.815091
0.630213 0.847257 0.804837
0.660517 0.851896 0.811063
0.743496 0.868467 0.831662
0.815946 0.908019 0.853666
0.928893 0.930205 0.865660
0.465919 0.494484 0.836790
0.509026 0.493141 0.844633
0.650568 0.485512 0.870237
0.850126 0.491218 0.900145
0.954772 0.644465 0.865415
0.495460 0.553124 0.833066
0.529870 0.551659 0.840909
0.652583 0.545037 0.866728
0.844114 0.538750 0.899626
0.952117 0.670466 0.868742
0.565698 0.669673 0.814664
0.585107 0.671504 0.823789
0.666926 0.678981 0.855344
0.821408 0.669947 0.895323
0.947021 0.744778 0.882170
0.637201 0.775875 0.840085
0.656458 0.778775 0.841489
0.715785 0.789792 0.848142
0.805753 0.810941 0.883696
0.942168 0.839933 0.905791
0.721065 0.871336 0.880034
0.735439 0.873716 0.882078
0.782834 0.883726 0.890715
0.851041 0.901579 0.905913
0.939330 0.939300 0.939452
