data/fiter_cube/72007313/1022713/file.cube
# Created by Adobe Lightroom plugin Export LUT (1.17.0)
# www.johnrellis.com/lightroom/exportlut.htm
# Preset: 高级电影暗青色_02 云集
# Color profile: C:\Program Files (x86)\Common Files\Adobe\Color\Profiles\Recommended\AdobeRGB1998.icc
LUT_3D_SIZE 5
DOMAIN_MIN 0.000000 0.000000 0.000000
DOMAIN_MAX 0.903226 0.903226 0.903226
0.045930 0.059785 0.054688
0.128206 0.055970 0.066407
0.397589 0.000000 0.084047
0.656336 0.000000 0.139437
0.811490 0.094392 0.264683
0.067018 0.082460 0.074495
0.134707 0.084871 0.071290
0.389410 0.000000 0.084291
0.650324 0.000000 0.136782
0.817990 0.126619 0.273167
0.154940 0.211826 0.176669
0.181735 0.227909 0.168154
0.476020 0.275456 0.115145
0.667536 0.235233 0.178164
0.811215 0.319188 0.297673
0.340276 0.452033 0.365850
0.361334 0.469856 0.368536
0.466133 0.510338 0.314855
0.685267 0.524773 0.247074
0.813077 0.547601 0.380499
0.535973 0.662623 0.570397
0.549706 0.673365 0.577325
0.574304 0.681117 0.563073
0.693446 0.717311 0.512444
0.832303 0.718654 0.511650
0.050202 0.068727 0.082338
0.109224 0.067720 0.082490
0.372686 0.000000 0.082887
0.626795 0.000000 0.126680
0.797421 0.000000 0.247868
0.075105 0.100862 0.098482
0.139223 0.116426 0.106447
0.390784 0.000000 0.091188
0.630976 0.000000 0.136172
0.799008 0.000000 0.249699
0.177890 0.230747 0.208164
0.214054 0.261814 0.222293
0.449042 0.287297 0.140414
0.649653 0.261692 0.171572
0.804715 0.336919 0.295811
0.352789 0.459052 0.384131
0.382818 0.488014 0.399725
0.469306 0.523430 0.358709
0.681575 0.535149 0.248081
0.810605 0.554711 0.381384
0.536309 0.661189 0.574548
0.552331 0.672816 0.584527
0.589807 0.695277 0.592340
0.693019 0.725582 0.541772
0.834440 0.725887 0.519524
0.062287 0.140200 0.183474
0.119936 0.159731 0.213291
0.365972 0.162783 0.243503
0.629297 0.000000 0.205661
0.797482 0.132631 0.255283
0.110658 0.188449 0.216434
0.161318 0.211643 0.241062
0.387854 0.219089 0.268498
0.629664 0.177188 0.227573
0.799985 0.211704 0.267094
0.209567 0.296574 0.283574
0.258824 0.324956 0.306126
0.438941 0.380133 0.329412
0.640803 0.374884 0.291691
0.803403 0.388373 0.308446
0.378820 0.470558 0.419287
0.402594 0.493172 0.436713
0.476722 0.556329 0.465980
0.662593 0.573449 0.395270
0.807675 0.573449 0.387884
0.538354 0.655726 0.584588
0.552667 0.667720 0.595697
0.593378 0.702602 0.621393
0.670710 0.729274 0.590692
0.827024 0.732753 0.528679
0.114656 0.257206 0.325719
0.163180 0.276677 0.344823
0.379522 0.350622 0.444099
0.584955 0.378424 0.446204
0.778836 0.384436 0.427893
0.160067 0.296391 0.347082
0.199619 0.312902 0.362493
0.388525 0.385809 0.451423
0.586175 0.406897 0.454749
0.775174 0.414740 0.437873
0.242496 0.384192 0.391180
0.279149 0.403143 0.406073
0.407111 0.472297 0.470863
0.595575 0.487709 0.484016
0.778195 0.503899 0.473396
0.375586 0.515160 0.472084
0.401984 0.528222 0.483040
0.490517 0.581384 0.530571
0.627008 0.625208 0.555505
0.793027 0.613367 0.516136
0.545006 0.663264 0.604669
0.559106 0.670619 0.613092
0.599512 0.700313 0.644282
0.655909 0.746578 0.676814
0.811185 0.758358 0.622675
0.206332 0.415747 0.485481
0.238437 0.424567 0.492897
0.375006 0.480751 0.547967
0.609857 0.584100 0.644312
0.728603 0.609461 0.638636
0.225223 0.433661 0.491615
0.254765 0.441932 0.498695
0.369940 0.485451 0.541009
0.608728 0.595178 0.645777
0.729824 0.618616 0.643000
0.276249 0.492012 0.517113
0.292576 0.494301 0.520073
0.379095 0.521752 0.545159
0.605402 0.631556 0.655940
0.736477 0.649653 0.659907
0.400275 0.598016 0.577478
0.411902 0.600305 0.579706
0.455787 0.612512 0.592218
0.559960 0.654017 0.638636
0.751736 0.703822 0.692531
0.531518 0.691493 0.645258
0.539117 0.693965 0.647700
0.571649 0.709102 0.663294
0.639460 0.744320 0.700618
0.776913 0.801419 0.754116
