data/fiter_cube/72007313/1022713/file.cube
# Created by Adobe Lightroom plugin Export LUT (1.17.0)
# www.johnrellis.com/lightroom/exportlut.htm
# Preset: 高级电影暗青色_02 云集
# Color profile: C:\Program Files (x86)\Common Files\Adobe\Color\Profiles\Recommended\AdobeRGB1998.icc
LUT_3D_SIZE 32
DOMAIN_MIN 0.0 0.0 0.0
DOMAIN_MAX 1.0 1.0 1.0
0.045930 0.059785 0.054688
0.045930 0.059785 0.054688
0.045930 0.059785 0.054688
0.045930 0.059785 0.054688
0.065187 0.058991 0.055787
0.083314 0.059876 0.059480
0.103548 0.059419 0.062989
0.128206 0.055970 0.066407
0.158419 0.040925 0.069245
0.192874 0.010834 0.071839
0.231113 0.000000 0.073762
0.271702 0.000000 0.076081
0.314092 0.000000 0.078309
0.356481 0.000000 0.080842
0.397589 0.000000 0.084047
0.437171 0.000000 0.087831
0.474556 0.000000 0.092195
0.510155 0.000000 0.097292
0.551110 0.000000 0.105196
0.591882 0.000000 0.115053
0.626612 0.000000 0.126711
0.656336 0.000000 0.139437
0.682002 0.000000 0.153323
0.705623 0.000000 0.167849
0.727626 0.000000 0.183291
0.748806 0.000000 0.200076
0.769741 0.000000 0.219089
0.790646 0.000000 0.240208
0.811490 0.094392 0.264683
0.832334 0.181765 0.292638
0.852842 0.248478 0.324315
0.872801 0.309697 0.359625
0.045930 0.059785 0.054688
0.045930 0.059785 0.054688
0.045930 0.059785 0.054688
0.045930 0.059785 0.054688
0.065187 0.058991 0.055787
0.082979 0.059480 0.059541
0.102663 0.059693 0.063020
0.126925 0.056092 0.066072
0.156527 0.042176 0.068971
0.190555 0.013428 0.071595
0.228031 0.000000 0.073640
0.268132 0.000000 0.076051
0.309850 0.000000 0.078004
0.351873 0.000000 0.080690
0.392828 0.000000 0.083955
0.431983 0.000000 0.087282
0.469459 0.000000 0.091737
0.505119 0.000000 0.096437
0.545434 0.000000 0.103944
0.585382 0.000000 0.113527
0.620111 0.000000 0.124361
0.650111 0.000000 0.136660
0.676081 0.000000 0.149905
0.699916 0.000000 0.164187
0.722225 0.000000 0.179507
0.743771 0.000000 0.195895
0.765164 0.000000 0.214542
0.786496 0.000000 0.235691
0.807828 0.070649 0.260105
0.829007 0.169894 0.288029
0.849912 0.239292 0.319554
0.870176 0.301610 0.354620
0.045930 0.059785 0.054688
0.045930 0.059785 0.054688
0.045930 0.059785 0.054688
0.045930 0.059785 0.054688
0.064668 0.059083 0.055818
0.082582 0.059571 0.059541
0.101839 0.059480 0.062623
0.125795 0.056001 0.066133
0.154910 0.044190 0.069032
0.188479 0.014374 0.071412
0.225772 0.000000 0.073426
0.265537 0.000000 0.075563
0.307134 0.000000 0.077913
0.349035 0.000000 0.080659
0.389807 0.000000 0.083375
0.429236 0.000000 0.087007
0.466590 0.000000 0.091005
0.502220 0.000000 0.096345
0.542138 0.000000 0.103212
0.581781 0.000000 0.112367
0.616632 0.000000 0.123018
0.646845 0.000000 0.135317
0.673091 0.000000 0.148165
0.696925 0.000000 0.162448
0.719448 0.000000 0.177462
0.741115 0.000000 0.193912
0.762692 0.000000 0.212406
0.784298 0.000000 0.233371
0.805875 0.048981 0.257633
0.827268 0.164065 0.285710
0.848325 0.234348 0.317174
0.868772 0.297490 0.352056
0.045930 0.059785 0.054688
0.045930 0.059785 0.054688
0.045930 0.059785 0.054688
0.045930 0.059785 0.054688
0.065675 0.058900 0.055787
0.082490 0.060060 0.059937
0.101839 0.059480 0.062623
0.125307 0.056336 0.066163
0.154025 0.044099 0.069093
0.187198 0.016388 0.071443
0.223850 0.000000 0.073182
0.263371 0.000000 0.075715
0.304356 0.000000 0.077821
0.345861 0.000000 0.080323
0.386603 0.000000 0.083406
0.425788 0.000000 0.086824
0.463264 0.000000 0.090608
0.498756 0.000000 0.095735
0.537743 0.000000 0.102632
0.576287 0.000000 0.110780
0.610773 0.000000 0.121218
0.641108 0.000000 0.132448
0.667994 0.000000 0.145632
0.692714 0.000000 0.159579
0.716365 0.000000 0.175082
0.739193 0.000000 0.192294
0.761685 0.000000 0.211307
0.783780 0.000000 0.233036
0.805509 0.045838 0.257359
0.826902 0.162051 0.285069
0.847715 0.232517 0.316045
0.867857 0.294438 0.350378
0.045930 0.059785 0.054688
0.045930 0.059785 0.054688
0.045930 0.059785 0.054688
0.045930 0.059785 0.054688
0.064668 0.059083 0.055818
0.082582 0.059571 0.059541
0.100649 0.059846 0.062654
0.123995 0.056458 0.065827
0.151522 0.046052 0.068818
0.184207 0.018677 0.071260
0.220127 0.000000 0.073060
0.258793 0.000000 0.075380
0.299718 0.000000 0.077516
0.341192 0.000000 0.080110
0.382208 0.000000 0.082918
0.422065 0.000000 0.086091
0.460273 0.000000 0.090394
0.496376 0.000000 0.095247
0.536614 0.000000 0.102296
0.574151 0.000000 0.110445
0.607996 0.000000 0.120302
0.638178 0.000000 0.131350
0.665034 0.000000 0.143954
0.689998 0.000000 0.158114
0.713924 0.000000 0.173617
0.737118 0.000000 0.190463
0.759792 0.000000 0.209720
0.782040 0.000000 0.231174
0.803891 0.006348 0.255406
0.825284 0.156405 0.282719
0.846281 0.227726 0.313725
0.866545 0.290532 0.348028
0.047822 0.062409 0.057496
0.047974 0.061921 0.057588
0.048127 0.061921 0.056764
0.047517 0.061067 0.056092
0.062623 0.061769 0.056306
0.081727 0.060700 0.059480
0.101534 0.059571 0.062654
0.123995 0.056458 0.065827
0.151339 0.046265 0.068818
0.183352 0.020020 0.070954
0.219059 0.000000 0.073121
0.257450 0.000000 0.075135
0.297826 0.000000 0.077363
0.339239 0.000000 0.079957
0.380407 0.000000 0.082795
0.420294 0.000000 0.086000
0.458686 0.000000 0.090333
0.496986 0.000000 0.095430
0.537346 0.000000 0.102205
0.574456 0.000000 0.110414
0.608270 0.000000 0.120241
0.638636 0.000000 0.131655
0.700191 0.000000 0.164675
0.723659 0.000000 0.180545
0.745480 0.000000 0.197421
0.766140 0.000000 0.215518
0.785977 0.000000 0.235294
0.805356 0.039216 0.257023
0.824430 0.152865 0.281559
0.843320 0.218387 0.309209
0.861723 0.275792 0.339422
0.879332 0.329442 0.372137
0.060700 0.073945 0.066926
0.060243 0.073610 0.066987
0.059846 0.073304 0.066621
0.059449 0.072969 0.066285
0.064759 0.074617 0.064820
0.083894 0.074861 0.063752
0.106691 0.073060 0.066621
0.133608 0.066896 0.068849
0.161410 0.054414 0.070497
0.193820 0.019867 0.071870
0.229862 0.000000 0.073732
0.268864 0.000000 0.075959
0.309453 0.000000 0.078035
0.350713 0.000000 0.080812
0.390631 0.000000 0.083589
0.429328 0.000000 0.087007
0.466651 0.000000 0.091279
0.508782 0.000000 0.097230
0.549096 0.000000 0.104585
0.587091 0.000000 0.113710
0.622339 0.000000 0.125154
0.654719 0.000000 0.138888
0.684291 0.000000 0.154665
0.711971 0.000000 0.172213
0.737484 0.000000 0.190921
0.760494 0.000000 0.210208
0.781674 0.000000 0.230838
0.801724 0.000000 0.252873
0.821225 0.140383 0.277440
0.840299 0.208194 0.304509
0.858885 0.267155 0.334508
0.876768 0.321630 0.367041
0.067018 0.082460 0.074495
0.067018 0.082460 0.074495
0.066682 0.082185 0.074189
0.066316 0.081880 0.073854
0.069490 0.082826 0.073701
0.080995 0.087037 0.070832
0.105867 0.087587 0.069490
0.134707 0.084871 0.071290
0.166873 0.076600 0.072877
0.198550 0.062257 0.074342
0.233799 0.017884 0.075898
0.271580 0.000000 0.077485
0.310796 0.000000 0.079805
0.350408 0.000000 0.081819
0.389410 0.000000 0.084291
0.427253 0.000000 0.087678
0.466835 0.000000 0.091829
0.508537 0.000000 0.097627
0.546746 0.000000 0.104402
0.583642 0.000000 0.112917
0.618280 0.000000 0.123537
0.650324 0.000000 0.136782
0.679713 0.000000 0.151949
0.707240 0.000000 0.168978
0.732784 0.000000 0.187320
0.755947 0.000000 0.206149
0.777493 0.000000 0.226505
0.797971 0.000000 0.248569
0.817990 0.126619 0.273167
0.837400 0.198703 0.300145
0.856352 0.259190 0.330083
0.874510 0.314763 0.362737
0.072908 0.092927 0.081575
0.072938 0.092622 0.081605
0.072633 0.092378 0.081331
0.073091 0.092622 0.080995
0.076265 0.093660 0.081117
0.083436 0.096956 0.079011
0.105074 0.102693 0.074983
0.135653 0.102754 0.073182
0.169650 0.098421 0.075074
0.206577 0.088869 0.076936
0.241367 0.072236 0.078706
0.278386 0.027497 0.080629
0.317052 0.000000 0.082185
0.355871 0.000000 0.084749
0.393805 0.000000 0.087404
0.431769 0.000000 0.090333
0.474128 0.000000 0.095369
0.512993 0.000000 0.100710
0.549126 0.000000 0.107668
0.584283 0.000000 0.115541
0.617792 0.000000 0.125399
0.648890 0.000000 0.137881
0.677577 0.000000 0.152102
0.704585 0.000000 0.168032
0.729793 0.000000 0.185458
0.753017 0.000000 0.203647
0.774716 0.000000 0.223667
0.795346 0.000000 0.245701
0.815518 0.115236 0.269718
0.835142 0.191196 0.296849
0.854246 0.252781 0.326726
0.872557 0.308965 0.359106
0.079927 0.104646 0.090486
0.079988 0.104646 0.090211
0.080049 0.104646 0.089937
0.080751 0.105318 0.089570
0.084230 0.106630 0.089631
0.090211 0.109743 0.088045
0.103487 0.114412 0.084840
0.136019 0.121828 0.079133
0.171450 0.120119 0.076936
0.208988 0.114687 0.078737
0.248844 0.104128 0.081086
0.285344 0.086061 0.082918
0.323278 0.056245 0.085054
0.361578 0.000000 0.087495
0.400519 0.000000 0.090700
0.443458 0.000000 0.094972
0.483558 0.000000 0.099977
0.520928 0.000000 0.105653
0.555627 0.000000 0.112428
0.589075 0.000000 0.120577
0.620356 0.000000 0.130282
0.649317 0.000000 0.141665
0.676081 0.000000 0.155123
0.701534 0.000000 0.169528
0.725765 0.000000 0.185885
0.748684 0.000000 0.202701
0.770596 0.000000 0.221195
0.791836 0.000000 0.242008
0.812711 0.101167 0.266361
0.833066 0.184024 0.293736
0.852811 0.248417 0.324224
0.871763 0.306554 0.357671
0.088258 0.118593 0.101442
0.089052 0.119356 0.101839
0.089601 0.120119 0.101503
0.090669 0.120668 0.100710
0.093904 0.121767 0.099794
0.099214 0.124239 0.098665
0.110048 0.129641 0.095216
0.131106 0.135622 0.091615
0.173404 0.144106 0.083070
0.212619 0.140505 0.080812
0.252628 0.133608 0.082795
0.294743 0.122316 0.085786
0.331762 0.104280 0.087922
0.371527 0.079530 0.091035
0.413306 0.015137 0.095247
0.453040 0.000000 0.099428
0.490639 0.000000 0.104585
0.525872 0.000000 0.110353
0.558984 0.000000 0.116884
0.591058 0.000000 0.124880
0.621271 0.000000 0.134737
0.649470 0.000000 0.146304
0.675746 0.000000 0.159182
0.700801 0.000000 0.173526
0.724636 0.000000 0.189334
0.747127 0.000000 0.206210
0.768673 0.000000 0.224216
0.789639 0.061036 0.244266
0.810330 0.135225 0.266758
0.830686 0.189425 0.292332
0.850675 0.241886 0.320958
0.869841 0.300725 0.354101
0.100801 0.136965 0.116091
0.101564 0.137911 0.116762
0.102296 0.138918 0.116457
0.103548 0.139528 0.115541
0.106600 0.140597 0.114534
0.111421 0.141970 0.113039
0.119844 0.147311 0.107637
0.136599 0.153353 0.103151
0.168002 0.162356 0.098116
0.216526 0.169650 0.087770
0.257786 0.164157 0.084871
0.300298 0.156130 0.087190
0.376867 0.161105 0.095491
0.420813 0.147890 0.100862
0.462165 0.131594 0.106203
0.500145 0.111910 0.112428
0.534997 0.087984 0.118593
0.566491 0.053254 0.126070
0.595605 0.000000 0.133730
0.622858 0.000000 0.142580
0.648432 0.000000 0.152926
0.672328 0.000000 0.164523
0.695277 0.000000 0.177462
0.717586 0.009400 0.191867
0.739101 0.079225 0.207095
0.759640 0.115023 0.223819
0.779446 0.146883 0.241733
0.798734 0.179416 0.261479
0.817777 0.213016 0.283391
0.836728 0.248936 0.307988
0.855406 0.286534 0.334905
0.873777 0.325994 0.364691
0.119753 0.163882 0.137972
0.120607 0.164920 0.138338
0.121584 0.165835 0.138399
0.122133 0.166110 0.136690
0.124666 0.166842 0.135042
0.129061 0.167788 0.133303
0.136080 0.171115 0.128511
0.149294 0.177157 0.121218
0.172519 0.183719 0.113405
0.214603 0.196170 0.106233
0.271214 0.204257 0.095674
0.323613 0.202121 0.092226
0.376196 0.198734 0.096193
0.427436 0.194614 0.103731
0.468452 0.184054 0.110018
0.505272 0.172457 0.116793
0.538476 0.159091 0.123659
0.568444 0.145663 0.130678
0.596246 0.133364 0.138247
0.622248 0.123598 0.147158
0.646906 0.119051 0.157229
0.670161 0.119356 0.168734
0.692470 0.126009 0.181064
0.714351 0.137697 0.195010
0.735470 0.153323 0.210269
0.755825 0.172061 0.226505
0.775540 0.193606 0.244083
0.794858 0.217960 0.263584
0.814023 0.245304 0.285100
0.833188 0.276280 0.309728
0.852140 0.309819 0.336828
0.870848 0.345922 0.366735
0.136263 0.186374 0.156161
0.137270 0.187625 0.156863
0.138735 0.188663 0.157290
0.138674 0.189212 0.155245
0.140932 0.189761 0.153536
0.145144 0.190890 0.151705
0.151705 0.192813 0.149233
0.161746 0.198917 0.141573
0.182101 0.207797 0.134096
0.214511 0.218173 0.125826
0.268650 0.234958 0.116182
0.329198 0.242893 0.104555
0.380896 0.240085 0.100618
0.429755 0.236606 0.104891
0.474586 0.232547 0.113527
0.509911 0.223239 0.120699
0.541283 0.212772 0.127687
0.569909 0.202640 0.134737
0.596612 0.193759 0.142947
0.621881 0.187198 0.151369
0.645930 0.184024 0.161807
0.668696 0.184360 0.173251
0.690761 0.188357 0.185519
0.712337 0.196078 0.199741
0.733211 0.206851 0.214725
0.753475 0.220401 0.230594
0.773098 0.237156 0.248325
0.792386 0.256962 0.267735
0.811582 0.280186 0.289494
0.830747 0.307439 0.314305
0.849882 0.337530 0.341436
0.868711 0.370367 0.371679
0.154940 0.211826 0.176669
0.156222 0.213138 0.177371
0.157839 0.214542 0.178042
0.158175 0.216007 0.176669
0.160983 0.217288 0.175723
0.165499 0.219059 0.174441
0.172549 0.221927 0.173312
0.181735 0.227909 0.168154
0.197787 0.236576 0.159854
0.223972 0.246159 0.150637
0.264073 0.258640 0.141482
0.324071 0.276219 0.126467
0.383062 0.282719 0.114534
0.432044 0.279545 0.110597
0.476020 0.275456 0.115145
0.514580 0.270909 0.124331
0.545129 0.262058 0.132174
0.572473 0.252995 0.139284
0.597986 0.245060 0.147677
0.622248 0.239139 0.156344
0.645411 0.236027 0.166781
0.667536 0.235233 0.178164
0.689021 0.237858 0.190616
0.710292 0.243503 0.204257
0.731136 0.252262 0.219150
0.751492 0.264012 0.235966
0.771572 0.278904 0.254124
0.791379 0.297490 0.274937
0.811215 0.319188 0.297673
0.830930 0.344762 0.323735
0.850523 0.373053 0.352148
0.869657 0.403784 0.383520
0.180026 0.245274 0.203433
0.181582 0.246769 0.204074
0.183169 0.248356 0.205020
0.184115 0.250217 0.204074
0.186404 0.251469 0.202731
0.190738 0.253605 0.201785
0.197330 0.256443 0.200687
0.206332 0.261051 0.198123
0.219211 0.269749 0.190127
0.240330 0.279240 0.180514
0.271824 0.289097 0.169162
0.319310 0.304265 0.156497
0.378241 0.318425 0.138003
0.431525 0.321538 0.125826
0.475044 0.316472 0.120943
0.513115 0.310796 0.125429
0.546593 0.306279 0.135561
0.574487 0.298772 0.143526
0.599634 0.291966 0.152590
0.623774 0.287114 0.162203
0.646815 0.284489 0.173007
0.668849 0.284154 0.185061
0.690242 0.286473 0.198154
0.711391 0.291447 0.212284
0.732082 0.299199 0.227817
0.752377 0.309667 0.244938
0.772335 0.322759 0.263920
0.792081 0.338933 0.284672
0.811612 0.358343 0.308019
0.830961 0.380316 0.333654
0.850004 0.404730 0.361791
0.868711 0.431403 0.392401
0.203891 0.277104 0.227878
0.205112 0.278202 0.228641
0.206455 0.279576 0.229191
0.207950 0.281529 0.228763
0.209598 0.282902 0.227207
0.213352 0.284611 0.225956
0.219272 0.287236 0.224765
0.227878 0.290654 0.223423
0.238285 0.298100 0.217197
0.255161 0.307164 0.208164
0.280827 0.317144 0.197177
0.316747 0.327611 0.185275
0.368383 0.344457 0.169284
0.425177 0.356542 0.148775
0.473060 0.357427 0.137789
0.512230 0.351812 0.132906
0.546044 0.346075 0.137453
0.575677 0.341405 0.147707
0.600885 0.335210 0.157168
0.624140 0.329839 0.167056
0.646418 0.326726 0.178225
0.667842 0.325597 0.190219
0.688991 0.327092 0.203525
0.709957 0.331243 0.218143
0.730587 0.337835 0.233860
0.750851 0.347265 0.251743
0.770901 0.359136 0.270970
0.790738 0.373999 0.292485
0.810422 0.391485 0.316228
0.829923 0.411536 0.342168
0.849119 0.434089 0.371130
0.867948 0.458503 0.402014
0.228733 0.309850 0.253178
0.230320 0.311467 0.254246
0.250126 0.336461 0.273075
0.252445 0.338964 0.273503
0.253086 0.340154 0.271092
0.256382 0.341283 0.269474
0.261631 0.343175 0.267796
0.268925 0.345739 0.265812
0.278660 0.350622 0.261570
0.291905 0.359014 0.252018
0.312718 0.368078 0.240726
0.341894 0.377111 0.227695
0.380041 0.386725 0.214817
0.432929 0.402899 0.193118
0.484871 0.411536 0.168460
0.525994 0.410193 0.158114
0.560327 0.403998 0.153414
0.588922 0.396979 0.158053
0.613153 0.390814 0.168917
0.634730 0.384619 0.179873
0.654810 0.379522 0.191257
0.674983 0.377050 0.203220
0.695094 0.377142 0.216922
0.714870 0.379492 0.231510
0.734005 0.383337 0.246769
0.752834 0.389319 0.263340
0.771572 0.397528 0.281376
0.790372 0.408881 0.301854
0.809415 0.423529 0.325200
0.828702 0.441199 0.351263
0.847868 0.461372 0.380133
0.866606 0.483497 0.411017
0.258946 0.348882 0.283482
0.262486 0.353124 0.286625
0.266728 0.358007 0.289830
0.272160 0.363836 0.293523
0.274174 0.367376 0.292638
0.278019 0.369970 0.292119
0.282933 0.371984 0.290837
0.289616 0.374762 0.289281
0.299138 0.378149 0.287755
0.309392 0.385443 0.279515
0.325811 0.393957 0.269078
0.349218 0.402502 0.256962
0.380102 0.410651 0.242588
0.420935 0.421942 0.228641
0.471473 0.435584 0.204898
0.519188 0.442054 0.179843
0.555138 0.439307 0.171481
0.585779 0.432685 0.167391
0.611505 0.425727 0.173007
0.633570 0.420294 0.184878
0.653956 0.415473 0.196719
0.674037 0.412879 0.209384
0.694057 0.412634 0.223545
0.713832 0.414588 0.238712
0.733028 0.417975 0.254490
0.752010 0.423346 0.271519
0.770748 0.430884 0.290318
0.789517 0.440986 0.311498
0.808591 0.454047 0.334936
0.827787 0.469856 0.361273
0.846860 0.488106 0.390234
0.865568 0.508415 0.421363
0.282139 0.378759 0.306950
0.285679 0.382879 0.309972
0.289708 0.387396 0.313115
0.294987 0.393011 0.316777
0.297063 0.397192 0.316320
0.300725 0.399603 0.315923
0.305089 0.401648 0.314733
0.311192 0.404242 0.313420
0.319524 0.407568 0.311955
0.329320 0.412879 0.307713
0.342168 0.420935 0.298039
0.361181 0.429267 0.286900
0.386603 0.437018 0.273503
0.418647 0.444404 0.258366
0.461616 0.457160 0.242161
0.508293 0.467994 0.217777
0.552087 0.472938 0.193454
0.582910 0.468666 0.187686
0.610590 0.461860 0.184695
0.633997 0.455451 0.191073
0.654139 0.450599 0.203952
0.673976 0.447669 0.216831
0.693874 0.447242 0.231632
0.713466 0.448463 0.247227
0.732570 0.451148 0.263554
0.751308 0.455451 0.280613
0.769802 0.461738 0.299870
0.788449 0.470436 0.320867
0.807340 0.481880 0.344335
0.826383 0.496040 0.370855
0.845335 0.512688 0.399847
0.864012 0.531273 0.430854
0.305852 0.409094 0.331029
0.309331 0.413123 0.333806
0.313237 0.417395 0.337011
0.318303 0.422736 0.340490
0.321752 0.427375 0.341650
0.324224 0.429816 0.340612
0.328161 0.431861 0.339605
0.333532 0.434058 0.338293
0.340826 0.437018 0.336736
0.350622 0.440650 0.335546
0.360479 0.447730 0.327123
0.375433 0.455390 0.316564
0.396185 0.462776 0.304173
0.422797 0.469825 0.290105
0.456092 0.477577 0.276219
0.499733 0.491035 0.257298
0.544121 0.500969 0.233463
0.584344 0.505058 0.212161
0.612451 0.501457 0.210422
0.638636 0.496681 0.209995
0.661189 0.492409 0.218387
0.681270 0.490211 0.233280
0.700832 0.489631 0.248875
0.720699 0.491432 0.266026
0.739956 0.494514 0.283787
0.758663 0.498787 0.302708
0.777066 0.504570 0.323003
0.795346 0.512383 0.344915
0.813840 0.522484 0.369085
0.832334 0.534936 0.395605
0.850614 0.549493 0.424445
0.868559 0.566247 0.454871
0.340276 0.452033 0.365850
0.342473 0.454353 0.367498
0.344610 0.456672 0.369085
0.348272 0.459998 0.371130
0.351965 0.463905 0.372534
0.352789 0.465614 0.370306
0.356420 0.467445 0.369360
0.361334 0.469856 0.368536
0.368322 0.473060 0.367651
0.377661 0.477089 0.367102
0.387793 0.483040 0.363531
0.399969 0.490608 0.354070
0.416785 0.497688 0.342809
0.439002 0.504295 0.329961
0.466133 0.510338 0.314855
0.499184 0.517662 0.302251
0.542382 0.530999 0.280522
0.581811 0.537591 0.257115
0.616205 0.538628 0.239445
0.640986 0.534112 0.238865
0.664698 0.528985 0.238468
0.685267 0.524773 0.247074
0.703365 0.522148 0.261509
0.721004 0.520928 0.276432
0.739712 0.522759 0.294255
0.758175 0.526268 0.313268
0.776486 0.531456 0.333867
0.794766 0.538445 0.356023
0.813077 0.547601 0.380499
0.831449 0.558831 0.406958
0.849577 0.572320 0.435523
0.867308 0.588251 0.466224
0.365148 0.482490 0.391333
0.367163 0.484688 0.392889
0.369512 0.487007 0.394659
0.372992 0.490242 0.396796
0.377539 0.494301 0.399268
0.377844 0.496193 0.396735
0.380835 0.497627 0.395727
0.385046 0.499489 0.394568
0.391150 0.502342 0.393866
0.399237 0.505760 0.393225
0.409369 0.509941 0.392737
0.418982 0.516747 0.384802
0.432502 0.523430 0.374609
0.450965 0.529931 0.362890
0.473945 0.535973 0.349645
0.501610 0.541772 0.334417
0.536431 0.551354 0.321935
0.575799 0.561578 0.301274
0.611597 0.566155 0.279545
0.642145 0.565972 0.266484
0.665797 0.562432 0.267094
0.688655 0.558709 0.268711
0.708461 0.555810 0.278508
0.725734 0.554101 0.294041
0.737911 0.546715 0.302129
0.756130 0.549401 0.321111
0.774350 0.553979 0.341955
0.792538 0.560357 0.364385
0.810819 0.568627 0.388708
0.829129 0.579187 0.415595
0.847440 0.592309 0.444678
0.865324 0.607874 0.475502
0.399207 0.522301 0.426276
0.401434 0.524590 0.428046
0.403418 0.526390 0.429572
0.406134 0.528801 0.431098
0.409766 0.531701 0.432807
0.411170 0.533806 0.431586
0.412543 0.534600 0.429419
0.415595 0.535546 0.427802
0.420020 0.537011 0.426123
0.426154 0.539147 0.424628
0.434150 0.541711 0.423224
0.442634 0.545739 0.418677
0.452583 0.551202 0.408728
0.466529 0.556420 0.397406
0.484596 0.561059 0.384253
0.506920 0.565423 0.369360
0.533745 0.570123 0.354559
0.567376 0.578454 0.339849
0.602899 0.585779 0.319860
0.635889 0.588922 0.299565
0.664210 0.588861 0.292271
0.687068 0.586267 0.293858
0.708705 0.583032 0.296391
0.726894 0.579889 0.306126
0.742397 0.577539 0.320348
0.757137 0.575647 0.334691
0.774777 0.579065 0.354894
0.792386 0.584161 0.376745
0.810208 0.591363 0.400732
0.828244 0.600885 0.426947
0.846281 0.613214 0.455940
0.864012 0.628168 0.487007
0.423133 0.549462 0.451087
0.425238 0.551537 0.452888
0.427131 0.553307 0.454322
0.429725 0.555444 0.455848
0.433143 0.558190 0.457588
0.436225 0.560998 0.458320
0.436683 0.562188 0.455695
0.439704 0.563378 0.454505
0.443915 0.565118 0.453376
0.449775 0.567468 0.452644
0.457099 0.570245 0.451850
0.466346 0.573693 0.451392
0.474525 0.578882 0.443610
0.485817 0.584070 0.433845
0.500603 0.588739 0.422370
0.519371 0.593133 0.409583
0.542046 0.597284 0.395117
0.568444 0.602014 0.383368
0.601190 0.610010 0.368017
0.633936 0.615595 0.349615
0.665126 0.618433 0.331945
0.691096 0.618067 0.328191
0.712428 0.615717 0.330846
0.732631 0.612573 0.333715
0.749386 0.609674 0.343664
0.763760 0.607446 0.357916
0.777493 0.605829 0.371923
0.794797 0.610437 0.394141
0.812406 0.617212 0.418555
0.830167 0.626246 0.444862
0.847898 0.637812 0.473518
0.865263 0.651942 0.504326
0.450324 0.579278 0.479652
0.452033 0.580804 0.481056
0.453315 0.581903 0.481971
0.455390 0.583398 0.483009
0.458137 0.585382 0.484199
0.461799 0.587915 0.485756
0.461585 0.589166 0.482918
0.464088 0.590051 0.481788
0.467750 0.591577 0.480903
0.472786 0.593683 0.480201
0.479316 0.596307 0.479774
0.487587 0.599634 0.479896
0.495979 0.603632 0.476783
0.504662 0.608515 0.468330
0.516381 0.612909 0.458320
0.531456 0.616968 0.446967
0.550286 0.620783 0.434150
0.572839 0.624659 0.420172
0.597955 0.628687 0.411017
0.630274 0.636713 0.394995
0.661555 0.641779 0.377905
0.691341 0.644373 0.364141
0.714839 0.643671 0.362860
0.734859 0.641321 0.366064
0.753719 0.638270 0.369482
0.769162 0.635492 0.379736
0.782620 0.633753 0.394110
0.795468 0.632441 0.407996
0.812345 0.638025 0.431312
0.829862 0.646448 0.457588
0.847227 0.657252 0.485908
0.864408 0.670466 0.515923
0.475013 0.604486 0.505638
0.476265 0.605524 0.506645
0.477485 0.606500 0.507500
0.479500 0.607874 0.508629
0.482551 0.609979 0.510338
0.486763 0.613031 0.512749
0.489998 0.616205 0.513756
0.492866 0.618952 0.513817
0.498054 0.622217 0.515251
0.504417 0.626032 0.517144
0.511864 0.630243 0.519127
0.520500 0.634730 0.521324
0.529961 0.639094 0.523156
0.537743 0.644251 0.518364
0.547204 0.649012 0.510918
0.559014 0.653040 0.501640
0.573999 0.656825 0.490974
0.592462 0.660487 0.479133
0.614496 0.664393 0.466926
0.639826 0.669673 0.458900
0.670649 0.676997 0.444526
0.700038 0.681270 0.429206
0.727535 0.683101 0.418860
0.748348 0.681727 0.419654
0.766506 0.679133 0.423102
0.783597 0.675868 0.426886
0.797635 0.673365 0.437140
0.809873 0.671839 0.450721
0.821622 0.671077 0.464393
0.837278 0.677272 0.487953
0.853819 0.686610 0.514427
0.870024 0.697993 0.541863
0.511986 0.639704 0.544518
0.512871 0.640375 0.545190
0.513603 0.640925 0.545647
0.515007 0.641810 0.546319
0.517174 0.643214 0.547448
0.520348 0.645319 0.549035
0.524224 0.648066 0.551080
0.525048 0.649744 0.549493
0.528435 0.651698 0.549828
0.532830 0.654108 0.550469
0.538170 0.656825 0.551232
0.544518 0.659907 0.552178
0.551873 0.663142 0.553033
0.559075 0.666621 0.551537
