data/fiter_cube/72007313/1022713/file.cube
# Created by Adobe Lightroom plugin Export LUT (1.17.0)
# www.johnrellis.com/lightroom/exportlut.htm
# Preset: 高级电影暗青色_02 云集
# Color profile: C:\Program Files (x86)\Common Files\Adobe\Color\Profiles\Recommended\AdobeRGB1998.icc
LUT_3D_SIZE 8
DOMAIN_MIN 0.000000 0.000000 0.000000
DOMAIN_MAX 0.903226 0.903226 0.903226
0.045930 0.059785 0.054688
0.065187 0.058991 0.055787
0.158419 0.040925 0.069245
0.314092 0.000000 0.078309
0.474556 0.000000 0.092195
0.626612 0.000000 0.126711
0.727626 0.000000 0.183291
0.811490 0.094392 0.264683
0.045930 0.059785 0.054688
0.064668 0.059083 0.055818
0.151522 0.046052 0.068818
0.299718 0.000000 0.077516
0.460273 0.000000 0.090394
0.607996 0.000000 0.120302
0.713924 0.000000 0.173617
0.803891 0.006348 0.255406
0.072908 0.092927 0.081575
0.076265 0.093660 0.081117
0.169650 0.098421 0.075074
0.317052 0.000000 0.082185
0.474128 0.000000 0.095369
0.617792 0.000000 0.125399
0.729793 0.000000 0.185458
0.815518 0.115236 0.269718
0.119753 0.163882 0.137972
0.124666 0.166842 0.135042
0.172519 0.183719 0.113405
0.376196 0.198734 0.096193
0.538476 0.159091 0.123659
0.646906 0.119051 0.157229
0.735470 0.153323 0.210269
0.814023 0.245304 0.285100
0.203891 0.277104 0.227878
0.209598 0.282902 0.227207
0.238285 0.298100 0.217197
0.368383 0.344457 0.169284
0.546044 0.346075 0.137453
0.646418 0.326726 0.178225
0.730587 0.337835 0.233860
0.810422 0.391485 0.316228
0.305852 0.409094 0.331029
0.321752 0.427375 0.341650
0.340826 0.437018 0.336736
0.396185 0.462776 0.304173
0.544121 0.500969 0.233463
0.661189 0.492409 0.218387
0.739956 0.494514 0.283787
0.813840 0.522484 0.369085
0.423133 0.549462 0.451087
0.433143 0.558190 0.457588
0.443915 0.565118 0.453376
0.474525 0.578882 0.443610
0.542046 0.597284 0.395117
0.665126 0.618433 0.331945
0.749386 0.609674 0.343664
0.812406 0.617212 0.418555
0.535973 0.662623 0.570397
0.540703 0.665888 0.573114
0.552514 0.675532 0.577539
0.574823 0.687984 0.582818
0.593286 0.690120 0.550439
0.665797 0.709438 0.520043
0.773068 0.728389 0.489662
0.832303 0.718654 0.511650
0.045716 0.059785 0.055512
0.061006 0.059236 0.055146
0.143069 0.050202 0.068055
0.289891 0.000000 0.077028
0.451942 0.000000 0.089479
0.597986 0.000000 0.116823
0.706020 0.000000 0.168276
0.796963 0.000000 0.247166
0.047761 0.062806 0.060609
0.065156 0.061799 0.057008
0.143648 0.050599 0.067994
0.287083 0.000000 0.076905
0.446998 0.000000 0.088960
0.590265 0.000000 0.114687
0.696254 0.000000 0.161990
0.788785 0.000000 0.238285
0.075807 0.095216 0.087251
0.084413 0.102541 0.090852
0.169619 0.110658 0.075990
0.308721 0.041047 0.083742
0.460853 0.000000 0.095796
0.597345 0.000000 0.121401
0.704219 0.000000 0.168978
0.797665 0.000000 0.248051
0.123598 0.164828 0.144533
0.133700 0.174319 0.148013
0.176364 0.190402 0.128206
0.353735 0.197696 0.093141
0.498482 0.151003 0.113893
0.613703 0.096223 0.142061
0.709041 0.111696 0.190158
0.797024 0.212833 0.264530
0.210330 0.280735 0.236393
0.218143 0.288426 0.238285
0.240757 0.298680 0.227512
0.353002 0.333898 0.178439
0.522789 0.330266 0.129458
0.629633 0.314916 0.168368
0.717678 0.326024 0.222446
0.800473 0.377447 0.302403
0.302342 0.401343 0.329015
0.312383 0.410864 0.334264
0.330205 0.422522 0.330663
0.384344 0.450233 0.304417
0.532280 0.492622 0.241215
0.655726 0.490547 0.214023
0.734279 0.491157 0.277836
0.807370 0.514977 0.358679
0.410071 0.533410 0.439277
0.415320 0.537194 0.441108
0.430243 0.549004 0.441932
0.464515 0.567407 0.438331
0.533837 0.590631 0.395850
0.656275 0.611627 0.330877
0.740291 0.600122 0.329351
0.803647 0.605890 0.401617
0.527337 0.654139 0.562432
0.533532 0.658625 0.566735
0.547845 0.670436 0.573938
0.570397 0.683742 0.580041
0.601770 0.699092 0.565820
0.667506 0.713527 0.530358
0.770535 0.727260 0.487526
0.828794 0.715236 0.504906
0.056214 0.078126 0.093843
0.061036 0.077699 0.092500
0.136843 0.074495 0.098085
0.297002 0.000000 0.083650
0.463294 0.000000 0.093141
0.607782 0.000000 0.122866
0.713497 0.000000 0.173068
0.803861 0.008759 0.255467
0.063600 0.089631 0.097566
0.073610 0.093294 0.101778
0.146700 0.087892 0.105684
0.297124 0.000000 0.090364
0.461433 0.000000 0.095155
0.601373 0.000000 0.123049
0.706874 0.000000 0.170291
0.799710 0.000000 0.250431
0.086610 0.120363 0.118288
0.101961 0.128420 0.125734
0.176699 0.142580 0.130648
0.322789 0.118105 0.114656
0.483833 0.000000 0.106233
0.611078 0.000000 0.134676
0.710170 0.000000 0.181888
0.799649 0.095460 0.254551
0.147189 0.185733 0.175601
0.162692 0.201358 0.188602
0.205661 0.234836 0.197086
0.368261 0.242496 0.153811
0.513695 0.220066 0.133272
0.625849 0.200412 0.154482
0.717769 0.212772 0.204807
0.802274 0.270970 0.279179
0.227878 0.294621 0.261051
0.241703 0.308080 0.270390
0.276524 0.337835 0.282170
0.369177 0.371679 0.246403
0.533165 0.373663 0.183749
0.636011 0.359442 0.177371
0.720851 0.365667 0.232639
0.802518 0.405402 0.312596
0.317144 0.412085 0.350042
0.328832 0.423255 0.357641
0.355169 0.447517 0.367437
0.396155 0.468299 0.348577
0.526909 0.504967 0.293858
0.649439 0.502495 0.236515
0.731289 0.504143 0.279576
0.808743 0.530266 0.367193
0.423713 0.543450 0.458259
0.430152 0.548547 0.461738
0.449989 0.565606 0.470375
0.476387 0.577752 0.468238
0.533013 0.598260 0.429816
0.651575 0.620752 0.374914
0.743862 0.614282 0.340154
0.810117 0.623621 0.419745
0.529839 0.654505 0.568841
0.532830 0.656489 0.570123
0.549828 0.668879 0.580896
0.574243 0.687739 0.591791
0.602625 0.701869 0.582788
0.664515 0.717891 0.551019
0.767910 0.733333 0.505882
0.831083 0.722744 0.513085
0.060609 0.115511 0.148714
0.069795 0.119539 0.153262
0.142336 0.127687 0.182162
0.280980 0.119020 0.185092
0.465156 0.000000 0.158572
0.603601 0.000000 0.143191
0.705745 0.000000 0.177554
0.797147 0.000000 0.247776
0.074922 0.133089 0.161135
0.087984 0.138552 0.168124
0.155398 0.147524 0.194125
0.294041 0.139315 0.196628
0.468971 0.000000 0.171756
0.601740 0.000000 0.149844
0.703273 0.000000 0.178195
0.795621 0.000000 0.248295
0.105440 0.168978 0.183444
0.121431 0.177157 0.191318
0.182712 0.202884 0.221653
0.321996 0.194339 0.222019
0.483925 0.169436 0.204715
0.615869 0.153628 0.183597
0.719753 0.165255 0.200748
0.804349 0.202090 0.269413
0.165560 0.235660 0.229557
0.181460 0.244083 0.236484
0.238376 0.277836 0.264714
0.362737 0.298772 0.263401
0.502098 0.289372 0.243442
0.619593 0.282444 0.219181
0.717098 0.282841 0.214603
0.803647 0.317571 0.290410
0.258457 0.325017 0.299290
0.272587 0.332708 0.306645
0.311528 0.371832 0.335882
0.380407 0.416785 0.337133
0.530968 0.424048 0.294224
0.633936 0.417517 0.273075
0.725521 0.415930 0.249546
0.805570 0.437995 0.326085
0.345922 0.435676 0.384833
0.361822 0.452430 0.398260
0.391821 0.480751 0.418280
0.431647 0.511620 0.427893
0.532769 0.543023 0.385687
0.645747 0.536919 0.336736
0.731411 0.535058 0.322332
0.810727 0.549584 0.378882
0.437476 0.550835 0.478401
0.445563 0.558190 0.484474
0.470649 0.580194 0.502098
0.502525 0.605798 0.516625
0.543725 0.623377 0.496254
0.648463 0.642725 0.449805
0.740322 0.634058 0.402777
0.812650 0.637964 0.431647
0.541680 0.661616 0.585962
0.546197 0.665248 0.589288
0.558831 0.675349 0.597742
0.582391 0.695399 0.611933
0.607874 0.708675 0.612573
0.658747 0.725063 0.584161
0.760708 0.742824 0.547387
0.832395 0.732143 0.522423
0.071565 0.169314 0.221622
0.087709 0.175845 0.229007
0.152529 0.199680 0.263523
0.291234 0.214023 0.304387
0.441199 0.216831 0.302281
0.591882 0.151003 0.271244
0.700526 0.183352 0.263127
0.798123 0.212558 0.265415
0.093629 0.188113 0.235203
0.109590 0.196109 0.244205
0.168673 0.219059 0.274815
0.299535 0.232303 0.312383
0.444892 0.232517 0.308202
0.593896 0.176699 0.277897
0.701076 0.207736 0.269078
0.798123 0.229160 0.268101
0.137270 0.232334 0.263432
0.154025 0.241245 0.271427
0.200259 0.261143 0.291875
0.319829 0.285527 0.333562
0.456184 0.279362 0.325170
0.593286 0.251072 0.299199
0.698848 0.268223 0.283726
0.795529 0.270726 0.273136
0.185275 0.286931 0.293706
0.199619 0.294652 0.299748
0.250706 0.324132 0.323735
0.353704 0.369726 0.371160
0.484016 0.358434 0.358038
0.603052 0.359686 0.341039
0.703792 0.357336 0.313085
0.800259 0.343420 0.293309
0.257816 0.361334 0.339239
0.271702 0.369696 0.345830
0.317540 0.397284 0.367651
0.394415 0.450050 0.411780
0.505547 0.460121 0.395605
0.611872 0.455299 0.374548
0.707973 0.450843 0.346990
0.802609 0.446876 0.326207
0.346166 0.444434 0.400458
0.357519 0.451179 0.406531
0.393072 0.472023 0.426062
0.439155 0.517418 0.461463
0.500694 0.548608 0.451209
0.624781 0.557305 0.423133
0.717708 0.561273 0.413062
0.809201 0.560266 0.387823
0.450385 0.554376 0.494575
0.455268 0.558740 0.498177
0.474403 0.576074 0.512932
0.509178 0.606958 0.539055
0.542779 0.632105 0.548425
0.628016 0.654353 0.513542
0.725521 0.648768 0.473091
0.806455 0.647547 0.459724
0.541588 0.655726 0.589593
0.544488 0.658015 0.591699
0.555352 0.667018 0.599725
0.581842 0.690913 0.621515
0.607630 0.712367 0.634150
0.646571 0.729580 0.620111
0.744350 0.748867 0.587060
0.824063 0.739773 0.553796
0.110201 0.247807 0.315312
0.126406 0.254124 0.321416
0.175662 0.271336 0.338659
0.300542 0.315343 0.400702
0.431861 0.336919 0.417456
0.564263 0.348516 0.421607
0.682368 0.339269 0.406592
0.786313 0.368505 0.403143
0.124849 0.255436 0.316136
0.138125 0.260258 0.320684
0.184024 0.277928 0.338872
0.300481 0.320623 0.397528
0.429908 0.343877 0.416419
0.562310 0.354955 0.421790
0.680751 0.347021 0.407691
0.784512 0.378485 0.406287
0.170779 0.300633 0.343297
0.181857 0.304417 0.346654
0.222965 0.321416 0.362615
0.324163 0.365789 0.415290
0.446387 0.391150 0.437018
0.570184 0.395270 0.438148
0.683650 0.388251 0.423072
0.784298 0.422827 0.426032
0.217838 0.352422 0.369818
0.229435 0.357244 0.373571
0.272831 0.379919 0.392035
0.351995 0.424109 0.433173
0.477089 0.469062 0.476783
0.588403 0.465095 0.471687
0.692256 0.460609 0.456764
0.789731 0.471839 0.444160
0.275181 0.411872 0.399969
0.286809 0.418433 0.405035
0.325963 0.441047 0.422889
0.390997 0.480842 0.455512
0.488045 0.527062 0.501549
0.594568 0.517021 0.489174
0.690852 0.521447 0.478462
0.790951 0.509850 0.445533
0.348821 0.481453 0.442267
0.360479 0.489265 0.448798
0.393774 0.508659 0.464973
0.448249 0.542046 0.493843
0.514885 0.588373 0.536950
0.606683 0.598016 0.527092
0.701808 0.596765 0.512840
0.798947 0.587732 0.482246
0.449439 0.575860 0.518700
0.458350 0.581262 0.523980
0.483040 0.593988 0.536980
0.522820 0.616388 0.560754
0.561395 0.649653 0.591791
0.606653 0.672755 0.586786
0.713405 0.676844 0.559747
0.801175 0.675898 0.545953
0.548821 0.661463 0.602716
0.552422 0.663020 0.604578
0.564904 0.669917 0.612482
0.583581 0.687098 0.628901
0.610437 0.711269 0.650935
0.643091 0.736538 0.665766
0.722988 0.759152 0.638605
0.814817 0.754757 0.608545
0.147860 0.318578 0.390631
0.161807 0.324895 0.396490
0.204807 0.340764 0.410956
0.301579 0.385962 0.459907
0.457343 0.442786 0.527733
0.554131 0.467201 0.529137
0.646265 0.482277 0.527672
0.753841 0.496529 0.534051
0.157259 0.323796 0.390784
0.170047 0.329534 0.395972
0.210544 0.344915 0.410163
0.299138 0.385168 0.453590
0.450996 0.441444 0.521263
0.547723 0.464179 0.523186
0.640223 0.476234 0.520653
0.748257 0.488594 0.525750
0.193790 0.359960 0.411292
0.204227 0.363775 0.414466
0.240177 0.377264 0.426429
0.310216 0.407324 0.456336
0.456580 0.469886 0.527886
0.553918 0.494636 0.535302
0.646143 0.505760 0.535210
0.754269 0.518456 0.542046
0.239628 0.409308 0.437018
0.247868 0.411566 0.438758
0.279026 0.423743 0.448890
0.339666 0.451331 0.473548
0.464546 0.513115 0.539391
0.566217 0.544884 0.558984
0.656001 0.549950 0.558709
0.761074 0.552850 0.559136
0.289738 0.460182 0.460273
0.296727 0.462379 0.461799
0.323522 0.473610 0.470832
0.370794 0.496010 0.490425
0.449195 0.534813 0.529259
0.568292 0.584710 0.575402
0.659113 0.583337 0.572778
0.766598 0.584436 0.570916
0.356573 0.523552 0.495735
0.363775 0.527031 0.498604
0.388617 0.539178 0.508812
0.431067 0.561242 0.528130
0.489296 0.592248 0.556542
0.585931 0.642512 0.612421
0.676936 0.636835 0.603845
0.775448 0.640436 0.599451
0.437964 0.591638 0.543420
0.444984 0.595331 0.546838
0.465766 0.605127 0.555962
0.500755 0.622919 0.572747
0.547021 0.648249 0.597528
0.608148 0.688533 0.639857
0.691829 0.701564 0.638331
0.786709 0.695979 0.621729
0.530175 0.667170 0.611048
0.534173 0.669062 0.613062
0.550683 0.678462 0.623163
0.575006 0.691707 0.637568
0.609857 0.711086 0.659510
0.650202 0.741695 0.691890
0.693965 0.769863 0.698878
0.801511 0.775418 0.675532
0.206332 0.415747 0.485481
0.216800 0.419593 0.488685
0.248997 0.427314 0.495369
0.306950 0.445380 0.512718
0.449836 0.517723 0.583307
0.592096 0.581842 0.642939
0.651484 0.597040 0.634485
0.728603 0.609461 0.638636
0.210758 0.418677 0.484932
0.221012 0.422400 0.488136
0.252842 0.430884 0.495521
0.308782 0.447974 0.511894
0.447120 0.517998 0.580621
0.588800 0.581994 0.640436
0.649195 0.597162 0.632807
0.727352 0.609857 0.637781
0.229404 0.437812 0.492470
0.238254 0.440650 0.494850
0.266697 0.447364 0.500511
0.323278 0.468391 0.520104
0.446632 0.529900 0.580316
0.584833 0.592340 0.639979
0.650172 0.609430 0.638025
0.729915 0.621180 0.644007
0.253819 0.469306 0.506615
0.262577 0.472602 0.509422
0.289738 0.479927 0.515496
0.341100 0.497536 0.531212
0.432593 0.536767 0.569512
0.579644 0.611414 0.642329
0.655360 0.633204 0.651392
0.734676 0.639704 0.654688
0.304753 0.518578 0.530266
0.310491 0.520836 0.532341
0.326177 0.523400 0.535454
0.353521 0.528313 0.542535
0.423957 0.552819 0.565240
0.561913 0.625208 0.637171
0.660151 0.661616 0.667994
0.739620 0.662470 0.667323
0.375769 0.578637 0.564202
0.379034 0.579004 0.564538
0.391821 0.581262 0.566888
0.415900 0.587243 0.573358
0.454017 0.598352 0.585779
0.528618 0.629511 0.618158
0.666194 0.698054 0.691005
0.749966 0.696010 0.688289
0.462409 0.642786 0.607721
0.465187 0.643275 0.608209
0.475166 0.645655 0.610437
0.494697 0.651850 0.616449
0.524224 0.662562 0.627283
0.566430 0.680934 0.647028
0.663691 0.732723 0.710231
0.760037 0.734188 0.710567
0.531518 0.691493 0.645258
0.533471 0.691951 0.645655
0.541985 0.695216 0.648951
0.559442 0.703304 0.657252
0.586267 0.716182 0.670649
0.626398 0.736995 0.692714
0.690181 0.775723 0.735073
0.776913 0.801419 0.754116
