data/fiter_cube/95423152/1023250/file.cube
# Created by Adobe Lightroom plugin Export LUT (1.17.0)
# www.johnrellis.com/lightroom/exportlut.htm
# Preset: 黑暗巧克力情绪人像_09 云集
# Color profile: C:\Program Files (x86)\Common Files\Adobe\Color\Profiles\Recommended\AdobeRGB1998.icc
LUT_3D_SIZE 32
DOMAIN_MIN 0.0 0.0 0.0
DOMAIN_MAX 1.0 1.0 1.0
0.000000 0.000000 0.000000
0.000000 0.000000 0.000000
0.003693 0.000519 0.000946
0.053254 0.004578 0.010071
0.080873 0.007660 0.019867
0.102419 0.009491 0.028260
0.124880 0.010040 0.032746
0.147768 0.007843 0.035554
0.171695 0.002808 0.036500
0.196506 0.000000 0.034241
0.222232 0.000000 0.032013
0.248569 0.000000 0.029328
0.276036 0.000000 0.026215
0.304753 0.000000 0.024201
0.334844 0.000000 0.019989
0.365606 0.000000 0.019409
0.397192 0.000000 0.021515
0.430091 0.000000 0.021851
0.463783 0.000000 0.022309
0.499825 0.000000 0.022065
0.538994 0.000000 0.017273
0.580041 0.000000 0.013367
0.623133 0.000000 0.006561
0.667597 0.000000 0.000153
0.711727 0.000000 0.000000
0.753780 0.000000 0.000000
0.793423 0.000000 0.000000
0.830289 0.000000 0.003143
0.863981 0.000000 0.022583
0.894591 0.000000 0.052918
0.922454 0.000000 0.073976
0.947814 0.000000 0.092805
0.000000 0.000000 0.000000
0.000000 0.000000 0.000000
0.006012 0.001282 0.001892
0.055177 0.005341 0.009949
0.081727 0.014221 0.019257
0.102998 0.019654 0.027375
0.125795 0.019745 0.031830
0.148867 0.018311 0.034516
0.173068 0.013794 0.035309
0.197818 0.007385 0.033021
0.223545 0.001129 0.030549
0.250065 0.000000 0.027832
0.277745 0.000000 0.024445
0.306584 0.000000 0.022156
0.336797 0.000000 0.018891
0.367498 0.000000 0.019348
0.399237 0.000000 0.019959
0.432227 0.000000 0.021393
0.466133 0.000000 0.020264
0.502281 0.000000 0.019806
0.541497 0.000000 0.016754
0.582544 0.000000 0.011566
0.625574 0.000000 0.005707
0.669917 0.000000 0.000000
0.713924 0.000000 0.000000
0.755673 0.000000 0.000000
0.795041 0.000000 0.000000
0.831571 0.000000 0.003265
0.865049 0.000000 0.022827
0.895537 0.000000 0.053223
0.923186 0.000000 0.074250
0.948425 0.000000 0.093019
0.004974 0.007294 0.002533
0.005951 0.008270 0.003510
0.012238 0.010773 0.003113
0.056733 0.019104 0.008759
0.082002 0.027008 0.018189
0.104311 0.032746 0.026154
0.126802 0.034058 0.030488
0.150240 0.031952 0.033112
0.174350 0.029603 0.033722
0.199283 0.024933 0.031220
0.225162 0.017975 0.028687
0.251743 0.013153 0.025727
0.279423 0.008667 0.022187
0.308507 0.008240 0.019623
0.338598 0.007141 0.016236
0.369238 0.000702 0.017853
0.401007 0.000000 0.019318
0.434241 0.000000 0.019135
0.468025 0.000000 0.020233
0.504417 0.000000 0.019226
0.543511 0.000000 0.015106
0.584649 0.000000 0.009613
0.627558 0.000000 0.003418
0.671778 0.000000 0.000000
0.715541 0.000000 0.000000
0.757198 0.000000 0.000000
0.796292 0.000000 0.000000
0.832578 0.000000 0.001068
0.865873 0.000000 0.021942
0.896147 0.000000 0.053529
0.923705 0.000000 0.073701
0.948852 0.000000 0.092897
0.025696 0.046845 0.013886
0.025360 0.048676 0.013703
0.035737 0.050019 0.013275
0.060548 0.047791 0.015961
0.079622 0.050507 0.020691
0.105928 0.059876 0.022156
0.128756 0.060609 0.026368
0.152316 0.060945 0.028687
0.176669 0.060609 0.029023
0.201999 0.058686 0.027405
0.227817 0.055726 0.024537
0.254765 0.052735 0.020172
0.282628 0.051789 0.017243
0.311833 0.052277 0.014374
0.341802 0.052552 0.012909
0.372503 0.049439 0.014130
0.404456 0.043244 0.016327
0.437720 0.035157 0.015869
0.471839 0.022889 0.016266
0.508446 0.007416 0.013764
0.547417 0.000000 0.011322
0.588495 0.000000 0.006378
0.631250 0.000000 0.000000
0.675166 0.000000 0.000000
0.718379 0.000000 0.000000
0.759335 0.000000 0.000000
0.797910 0.000000 0.000000
0.833860 0.000000 0.000000
0.866819 0.000000 0.017365
0.896880 0.000000 0.049470
0.924285 0.000000 0.072297
0.949371 0.000000 0.091890
0.048920 0.072114 0.026337
0.049531 0.072847 0.027222
0.057618 0.073030 0.025818
0.071626 0.073030 0.023774
0.082795 0.069825 0.026856
0.096651 0.067384 0.032502
0.128023 0.076997 0.025940
0.156130 0.081941 0.022827
0.180880 0.081941 0.022858
0.206180 0.081941 0.020691
0.232334 0.080995 0.016419
0.259525 0.080659 0.012604
0.287694 0.081392 0.007965
0.316716 0.082216 0.006897
0.346319 0.081849 0.008728
0.377173 0.081392 0.009400
0.409125 0.079530 0.011292
0.442237 0.078126 0.011414
0.476326 0.075288 0.011292
0.512871 0.070832 0.009491
0.552270 0.065217 0.004822
0.593286 0.056825 0.000000
0.635889 0.034974 0.000000
0.679438 0.008118 0.000000
0.721920 0.000000 0.000000
0.762448 0.000000 0.000000
0.800412 0.000000 0.000000
0.835904 0.000000 0.000000
0.868437 0.000000 0.010040
0.898192 0.000000 0.044373
0.925292 0.002869 0.070161
0.950134 0.060578 0.090394
0.062196 0.089693 0.035981
0.062135 0.089998 0.035859
0.067659 0.090272 0.034302
0.079011 0.090333 0.032319
0.093385 0.089906 0.029969
0.102571 0.085664 0.034577
0.112215 0.079408 0.041627
0.145449 0.090333 0.032044
0.181552 0.101869 0.017243
0.211337 0.105959 0.010071
0.237827 0.106294 0.006134
0.265171 0.106630 0.000732
0.293217 0.107332 0.000000
0.321904 0.107729 0.001129
0.351690 0.107942 0.001343
0.382544 0.107942 0.003754
0.414801 0.107942 0.003540
0.447608 0.107057 0.004578
0.481788 0.106050 0.003693
0.518608 0.104555 0.000702
0.557763 0.101900 0.000000
0.598474 0.098482 0.000000
0.630915 0.093172 0.000000
0.674617 0.088289 0.000000
0.717525 0.082765 0.000000
0.758267 0.076783 0.000000
0.796841 0.072755 0.000000
0.832700 0.070680 0.000000
0.865629 0.072267 0.000000
0.895781 0.078706 0.024750
0.923278 0.088960 0.062776
0.948455 0.103212 0.084535
0.070008 0.106142 0.041474
0.071717 0.106447 0.041230
0.076509 0.106447 0.039765
0.086091 0.106538 0.037781
0.099886 0.106844 0.032929
0.113497 0.105531 0.033906
0.121126 0.099947 0.039246
0.126223 0.089998 0.049622
0.160464 0.101991 0.038087
0.198215 0.114656 0.020935
0.238132 0.127810 0.000000
0.268956 0.131716 0.000000
0.296544 0.132082 0.000000
0.325628 0.132998 0.000000
0.355596 0.133608 0.000000
0.386938 0.134218 0.000000
0.419135 0.134920 0.000000
0.452277 0.134859 0.000000
0.486519 0.134859 0.000000
0.523064 0.134188 0.000000
0.561303 0.133486 0.000000
0.601007 0.131991 0.000000
0.641901 0.130282 0.000000
0.683833 0.127871 0.000000
0.724819 0.125917 0.000000
0.764096 0.123262 0.000000
0.801511 0.122133 0.000000
0.836484 0.121889 0.000000
0.868650 0.122957 0.000000
0.898100 0.126223 0.015045
0.925078 0.132113 0.058808
0.949828 0.141299 0.082246
0.079194 0.123507 0.045167
0.082246 0.123629 0.044862
0.086702 0.123568 0.043366
0.095125 0.123873 0.040192
0.107546 0.123903 0.036561
0.122530 0.123690 0.032410
0.134554 0.122011 0.034577
0.140688 0.114931 0.042084
0.144137 0.103670 0.051942
0.176486 0.114015 0.046052
0.215915 0.128267 0.029236
0.258366 0.143374 0.006317
0.304051 0.159365 0.000000
0.333379 0.160311 0.000000
0.363958 0.161257 0.000000
0.395514 0.162448 0.000000
0.428046 0.163424 0.000000
0.461524 0.163912 0.000000
0.495949 0.164218 0.000000
0.532647 0.164828 0.000000
0.570825 0.164920 0.000000
0.610254 0.164706 0.000000
0.650996 0.164553 0.000000
0.692134 0.163577 0.000000
0.731991 0.162600 0.000000
0.770352 0.161868 0.000000
0.806699 0.161440 0.000000
0.840665 0.161257 0.000000
0.871946 0.162417 0.000000
0.900725 0.164645 0.001892
0.927092 0.168917 0.049744
0.951324 0.175357 0.079011
0.090669 0.141024 0.048646
0.093385 0.140932 0.047669
0.097200 0.141085 0.046357
0.104555 0.141146 0.045441
0.115785 0.141176 0.041779
0.129427 0.141054 0.037690
0.143313 0.140261 0.035767
0.155184 0.138643 0.039826
0.160555 0.130678 0.048737
0.161990 0.117891 0.058686
0.191775 0.126009 0.057282
0.232853 0.141451 0.040986
0.277440 0.158145 0.018433
0.326604 0.176333 0.000000
0.373327 0.190616 0.000000
0.405097 0.191745 0.000000
0.437812 0.192844 0.000000
0.471656 0.193973 0.000000
0.506493 0.194888 0.000000
0.543175 0.195743 0.000000
0.581109 0.196658 0.000000
0.620417 0.197208 0.000000
0.660548 0.197696 0.000000
0.701045 0.197940 0.000000
0.739834 0.198154 0.000000
0.776913 0.197726 0.000000
0.812131 0.197574 0.000000
0.845151 0.197879 0.000000
0.875456 0.198489 0.000000
0.903532 0.200259 0.000000
0.929229 0.202976 0.033997
0.952972 0.207675 0.073487
0.101076 0.158511 0.053864
0.103395 0.158572 0.053620
0.106477 0.158724 0.052461
0.113436 0.158755 0.050935
0.123445 0.158816 0.049012
0.136202 0.158694 0.044526
0.151003 0.158358 0.039918
0.163912 0.157168 0.040253
0.175998 0.155398 0.045197
0.180270 0.146426 0.054566
0.181277 0.133242 0.062257
0.206760 0.137392 0.063966
0.249332 0.154452 0.055390
0.296208 0.172671 0.035645
0.347539 0.192416 0.005280
0.404089 0.213596 0.000000
0.448981 0.224063 0.000000
0.483070 0.225254 0.000000
0.517937 0.226658 0.000000
0.554406 0.227634 0.000000
0.592493 0.229160 0.000000
0.631556 0.230350 0.000000
0.671809 0.231571 0.000000
0.711055 0.232456 0.000000
0.748653 0.232609 0.000000
0.784604 0.232914 0.000000
0.818509 0.232822 0.000000
0.850187 0.232883 0.000000
0.879484 0.233219 0.000000
0.906493 0.234012 0.000000
0.931456 0.235813 0.012634
0.954528 0.239139 0.066712
0.111116 0.176516 0.059815
0.113191 0.176577 0.059693
0.116518 0.176547 0.059083
0.122347 0.176486 0.058076
0.132021 0.176486 0.055329
0.143740 0.176272 0.051484
0.157382 0.176028 0.047242
0.172549 0.175601 0.042267
0.184421 0.173709 0.046265
0.196506 0.171847 0.049989
0.200046 0.162081 0.059724
0.201083 0.148898 0.066194
0.220432 0.148226 0.070924
0.265049 0.166934 0.065248
0.313817 0.186801 0.053223
0.367437 0.207797 0.023957
0.426673 0.230564 0.000000
0.491218 0.255131 0.000000
0.531395 0.260136 0.000000
0.567926 0.261601 0.000000
0.605585 0.263218 0.000000
0.644251 0.264714 0.000000
0.683467 0.266209 0.000000
0.721370 0.267063 0.000000
0.757687 0.267399 0.000000
0.792203 0.267338 0.000000
0.824857 0.267247 0.000000
0.855344 0.266880 0.000000
0.883604 0.266819 0.000000
0.909758 0.267033 0.000000
0.933959 0.268070 0.000000
0.956420 0.270298 0.055360
0.121523 0.194339 0.064179
0.123415 0.194400 0.063630
0.126223 0.194247 0.063081
0.131960 0.194156 0.062745
0.140505 0.194095 0.060883
0.151217 0.193912 0.059297
0.164157 0.193576 0.055665
0.178408 0.192996 0.050385
0.192782 0.191958 0.047578
0.204685 0.189975 0.052064
0.216617 0.187961 0.056397
0.219059 0.177432 0.063783
0.217899 0.162417 0.069642
0.230808 0.157015 0.076570
0.276219 0.176608 0.072358
0.326299 0.197513 0.064302
0.381506 0.219699 0.043091
0.442176 0.243656 0.000000
0.509148 0.269718 0.000000
0.575769 0.293980 0.000000
0.613367 0.295811 0.000000
0.651911 0.297734 0.000000
0.690700 0.299351 0.000000
0.728023 0.300481 0.000000
0.763485 0.300847 0.000000
0.797177 0.300816 0.000000
0.828824 0.300389 0.000000
0.858549 0.299870 0.000000
0.886107 0.299260 0.000000
0.911650 0.298955 0.000000
0.935363 0.299168 0.000000
0.957397 0.300267 0.026795
0.131624 0.210971 0.068727
0.133547 0.211002 0.068238
0.136080 0.210880 0.068116
0.141146 0.210910 0.067414
0.149020 0.210971 0.066102
0.159091 0.210819 0.064210
0.171145 0.210513 0.061982
0.184512 0.209934 0.059205
0.199222 0.209079 0.053437
0.212070 0.207431 0.053468
0.223850 0.205234 0.057160
0.235538 0.202853 0.060639
0.236759 0.191440 0.067811
0.237919 0.178378 0.074708
0.246830 0.169863 0.082124
0.290715 0.188235 0.079683
0.342870 0.210513 0.072755
0.400122 0.234165 0.059846
0.463874 0.259953 0.016571
0.535424 0.288518 0.000000
0.608972 0.317754 0.000000
0.667628 0.335302 0.000000
0.704707 0.336492 0.000000
0.740352 0.337041 0.000000
0.774380 0.337072 0.000000
0.806363 0.336431 0.000000
0.836545 0.335393 0.000000
0.864775 0.334051 0.000000
0.891051 0.332830 0.000000
0.915557 0.331823 0.000000
0.938354 0.331029 0.000000
0.959625 0.331121 0.000000
0.142702 0.229038 0.074067
0.144503 0.228977 0.073640
0.146609 0.228977 0.073152
0.151461 0.228885 0.072541
0.158755 0.228824 0.071382
0.168002 0.228611 0.069673
0.179232 0.228244 0.067323
0.191806 0.227634 0.064912
0.205539 0.226719 0.061646
0.220645 0.225620 0.056092
0.232212 0.223575 0.059236
0.243870 0.221256 0.062043
0.254948 0.218296 0.065064
0.255894 0.206607 0.072389
0.257145 0.193759 0.078706
0.264286 0.183932 0.086275
0.304509 0.199130 0.086183
0.358373 0.222660 0.080537
0.418708 0.248203 0.068757
0.486671 0.276555 0.033753
0.561852 0.307439 0.000000
0.637812 0.338384 0.000000
0.710201 0.367651 0.000000
0.753017 0.374731 0.000000
0.785122 0.373877 0.000000
0.815488 0.372381 0.000000
0.843992 0.370550 0.000000
0.870848 0.368536 0.000000
0.895964 0.366400 0.000000
0.919402 0.364446 0.000000
0.941253 0.362860 0.000000
0.961822 0.361913 0.000000
0.153750 0.246860 0.078828
0.155184 0.246830 0.078767
0.157382 0.246616 0.078035
0.161624 0.246738 0.077394
0.168429 0.246616 0.076356
0.177066 0.246403 0.074800
0.187411 0.245945 0.072724
0.199252 0.245304 0.070161
0.212436 0.244450 0.067231
0.226658 0.243320 0.063264
0.240665 0.241672 0.060395
0.252171 0.239414 0.062806
0.263737 0.237125 0.065461
0.273930 0.233524 0.068879
0.275029 0.221622 0.076173
0.276310 0.208957 0.083253
0.281651 0.197696 0.090425
0.317174 0.209018 0.092561
0.373571 0.234501 0.087282
0.437507 0.262425 0.076539
0.510643 0.293675 0.050904
0.588647 0.326513 0.000000
0.666987 0.359228 0.000000
0.737575 0.388281 0.000000
0.795926 0.411444 0.000000
0.824552 0.408972 0.000000
0.851438 0.406043 0.000000
0.876768 0.403052 0.000000
0.900542 0.399908 0.000000
0.922850 0.397070 0.000000
0.943816 0.394446 0.000000
0.963592 0.392432 0.000000
0.164340 0.264652 0.083406
0.165652 0.264683 0.083314
0.167483 0.264500 0.082948
0.171695 0.264347 0.082124
0.177890 0.264164 0.081178
0.186069 0.263798 0.079469
0.195590 0.263310 0.077577
0.206790 0.262669 0.075227
0.219364 0.261723 0.071931
0.232792 0.260655 0.068299
0.247318 0.259251 0.063935
0.260441 0.257389 0.063355
0.272038 0.255100 0.065980
0.283757 0.252842 0.068696
0.293156 0.248631 0.072633
0.294377 0.236820 0.079744
0.295598 0.224094 0.086763
0.299138 0.211765 0.093935
0.329839 0.218967 0.098512
0.389349 0.246403 0.093385
0.457435 0.276860 0.082948
0.534905 0.310887 0.061128
0.615930 0.345892 0.000000
0.694728 0.379522 0.000000
0.762844 0.408087 0.000000
0.818906 0.431037 0.000000
0.858488 0.441962 0.000000
0.882506 0.437934 0.000000
0.905089 0.433783 0.000000
0.926452 0.429877 0.000000
0.946624 0.426276 0.000000
0.965759 0.423438 0.000000
0.174929 0.282689 0.087953
0.176333 0.282719 0.087587
0.178164 0.282628 0.087495
0.181949 0.282414 0.086488
0.187594 0.282231 0.085603
0.195438 0.281804 0.084016
0.204471 0.281285 0.082277
0.215030 0.280552 0.079835
0.226963 0.279698 0.076783
0.239933 0.278447 0.073518
0.253788 0.277104 0.069215
0.268498 0.275578 0.064393
0.280400 0.273533 0.066407
0.292180 0.271214 0.068788
0.303929 0.268833 0.071748
0.312566 0.263859 0.075898
0.313756 0.252140 0.083497
0.315099 0.239292 0.090425
0.317144 0.225895 0.097383
0.342931 0.228885 0.103609
0.406165 0.258793 0.099184
0.478981 0.292088 0.088350
0.560601 0.328771 0.067140
0.644251 0.365789 0.000000
0.722347 0.399969 0.000000
0.787686 0.427924 0.000000
0.840848 0.449928 0.000000
0.883421 0.466865 0.000000
0.909941 0.468208 0.000000
0.930266 0.463172 0.000000
0.949554 0.458534 0.000000
0.967987 0.454566 0.000000
0.185458 0.300786 0.092042
0.186770 0.300664 0.091981
0.187015 0.298466 0.091096
0.190616 0.298192 0.090150
0.196262 0.298009 0.089296
0.203281 0.297734 0.087770
0.211948 0.297246 0.085847
0.221927 0.296635 0.083803
0.233555 0.295811 0.080934
0.245975 0.294743 0.077852
0.259373 0.293584 0.073823
0.273442 0.292210 0.069398
0.287694 0.290471 0.065431
0.299565 0.288487 0.068452
0.311528 0.286320 0.070619
0.323491 0.284276 0.073548
0.331426 0.278660 0.078645
0.332952 0.267033 0.086122
0.334386 0.254368 0.093538
0.335302 0.240269 0.100252
0.355444 0.238346 0.108186
0.422461 0.270695 0.103853
0.500511 0.307256 0.093385
0.586023 0.346563 0.071748
0.672145 0.385657 0.000000
0.748623 0.419837 0.000000
0.811521 0.447333 0.000000
0.861631 0.468452 0.000000
0.901579 0.484474 0.000000
0.934051 0.496651 0.000000
0.952605 0.491066 0.000000
0.970336 0.486000 0.000000
0.196292 0.319097 0.095338
0.197147 0.318822 0.095369
0.198489 0.318456 0.094911
0.201785 0.317937 0.094087
0.206882 0.317540 0.093141
0.213504 0.317052 0.092012
0.221683 0.316625 0.090211
0.231540 0.315923 0.088014
0.242527 0.315190 0.085023
0.254551 0.314183 0.082124
0.267613 0.313024 0.078370
0.281468 0.311711 0.073884
0.296147 0.310124 0.068544
0.309667 0.308446 0.066896
0.321752 0.306493 0.069337
0.333959 0.304417 0.072358
0.346227 0.302281 0.075196
0.353521 0.296056 0.080842
0.355108 0.284276 0.088685
0.356664 0.271397 0.096162
0.358038 0.257542 0.103059
0.376806 0.254185 0.111330
0.441840 0.284276 0.108492
0.525475 0.324315 0.097261
0.614862 0.366339 0.075227
0.701930 0.406806 0.008087
0.776059 0.440681 0.000000
0.835386 0.467140 0.000000
0.882109 0.487068 0.000000
0.919432 0.502129 0.000000
0.949737 0.513542 0.000000
0.972686 0.517693 0.000000
0.207767 0.339849 0.099123
0.208591 0.339544 0.098939
0.210117 0.339147 0.098238
0.213138 0.338750 0.097932
0.217838 0.338293 0.096773
0.224369 0.337865 0.095186
0.232395 0.337346 0.093751
0.241978 0.336675 0.091341
0.252506 0.335943 0.088808
0.264286 0.335027 0.085451
0.277104 0.333837 0.081849
0.290776 0.332525 0.077302
0.305150 0.331090 0.072236
0.320195 0.329473 0.066529
0.333135 0.327733 0.067201
0.345525 0.325750 0.070283
0.358099 0.323919 0.072938
0.370764 0.321874 0.075898
0.377386 0.314702 0.082063
0.379095 0.302617 0.090425
0.380682 0.289738 0.098268
0.382635 0.275944 0.105440
0.400977 0.271916 0.113588
0.462928 0.298863 0.112673
0.552331 0.342473 0.101045
0.645899 0.387488 0.078462
0.732540 0.428809 0.021057
0.803372 0.461921 0.000000
0.858854 0.487160 0.000000
0.902312 0.506004 0.000000
0.937102 0.520226 0.000000
0.965362 0.530938 0.000000
0.220005 0.362310 0.101930
0.220829 0.361975 0.101534
0.222080 0.361639 0.101350
0.225101 0.361181 0.100587
0.229801 0.360754 0.099702
0.236179 0.360296 0.098177
0.243992 0.359808 0.096529
0.253178 0.359289 0.094392
0.263706 0.358495 0.091676
0.275273 0.357610 0.088472
0.287907 0.356573 0.084688
0.301427 0.355291 0.080293
0.315770 0.353887 0.075074
0.330755 0.352331 0.069215
0.346044 0.350652 0.062989
0.358679 0.348943 0.065675
0.371435 0.346929 0.069001
0.384283 0.344976 0.071626
0.397040 0.342748 0.074922
0.402808 0.334569 0.082246
0.404486 0.322210 0.091035
0.406134 0.308934 0.099458
0.408362 0.294957 0.107057
0.426581 0.290410 0.115114
0.484993 0.313725 0.116121
0.579950 0.361089 0.103670
0.676783 0.408789 0.080873
0.761227 0.450019 0.037873
0.828611 0.482246 0.000000
0.880522 0.506401 0.000000
0.921324 0.524559 0.000000
0.953124 0.537804 0.000000
0.232334 0.385779 0.104097
0.233280 0.385534 0.103883
0.234653 0.385382 0.103639
0.237736 0.385077 0.103059
0.242435 0.384802 0.101869
0.248692 0.384497 0.100587
0.256352 0.384009 0.098695
0.265385 0.383398 0.096437
0.275731 0.382696 0.093965
0.287205 0.381781 0.090272
0.299596 0.380743 0.086610
0.313054 0.379400 0.082307
0.327367 0.378149 0.077180
0.342382 0.376684 0.071107
0.358099 0.375067 0.063264
0.372992 0.373419 0.059419
0.385992 0.371618 0.062440
0.399268 0.369757 0.065675
0.412665 0.367864 0.068910
0.426062 0.365881 0.072633
0.431220 0.356817 0.081025
0.433204 0.344274 0.091127
0.435340 0.330907 0.099855
0.438361 0.316991 0.108034
0.457221 0.312230 0.116152
0.512566 0.332067 0.119203
0.613733 0.383551 0.106081
0.712306 0.433417 0.084993
0.793362 0.474006 0.061799
0.855985 0.504845 0.032349
0.903593 0.527642 0.025513
0.939879 0.544182 0.035767
0.246677 0.413184 0.105501
0.247501 0.413062 0.105470
0.248936 0.412787 0.104799
0.251804 0.412543 0.104250
0.256504 0.412207 0.103334
0.262730 0.411902 0.101778
0.270481 0.411414 0.099916
0.279454 0.410986 0.097566
0.289799 0.410346 0.095094
0.301274 0.409430 0.091432
0.313817 0.408515 0.087678
0.327306 0.407355 0.083009
0.341680 0.406073 0.077546
0.356909 0.404639 0.071046
0.372778 0.403204 0.062959
0.389288 0.401526 0.048981
0.403784 0.399756 0.047364
0.417487 0.398169 0.052888
0.431312 0.396338 0.059388
0.445350 0.394415 0.063081
0.459419 0.392584 0.066743
0.463996 0.382391 0.077638
0.466346 0.369726 0.088655
0.468910 0.355993 0.098878
0.473365 0.342565 0.108003
0.493568 0.338018 0.116548
0.545525 0.353765 0.122469
0.653101 0.409857 0.108797
0.750271 0.460334 0.092103
0.826474 0.499763 0.081575
0.882322 0.528008 0.080873
0.924559 0.549004 0.089784
0.261692 0.442908 0.105715
0.262577 0.442725 0.105715
0.263981 0.442542 0.105013
0.266941 0.442267 0.104433
0.271672 0.442115 0.103426
0.277836 0.441901 0.101808
0.285649 0.441657 0.099794
0.294835 0.441321 0.097597
0.305364 0.440833 0.094728
0.317082 0.440192 0.090822
0.329900 0.439521 0.086824
0.343694 0.438544 0.081910
0.358526 0.437507 0.075746
0.374060 0.436408 0.068605
0.390478 0.435157 0.059327
0.407599 0.433845 0.039246
0.425208 0.432441 0.012512
0.439704 0.431037 0.020874
0.454383 0.429541 0.027771
0.469154 0.427924 0.035523
0.484047 0.426154 0.045197
0.499062 0.424414 0.053315
0.503288 0.413397 0.070863
0.506371 0.400336 0.084169
0.509880 0.386542 0.095827
0.514214 0.372168 0.106538
0.535821 0.367712 0.115602
0.584375 0.379126 0.125551
0.696468 0.439307 0.113069
0.788449 0.488685 0.103792
0.856321 0.524865 0.104372
0.906340 0.551476 0.114961
0.279454 0.478218 0.105165
0.280247 0.477974 0.104768
0.281621 0.477729 0.104524
0.284611 0.477607 0.103670
0.289342 0.477394 0.102632
0.295903 0.477150 0.100710
0.303685 0.476967 0.098817
0.312902 0.476600 0.096071
0.323583 0.476204 0.092744
0.335546 0.475563 0.088930
0.348699 0.474891 0.084077
0.362737 0.474067 0.078767
0.377905 0.473030 0.071687
0.393866 0.472023 0.063325
0.410651 0.470985 0.048432
0.428351 0.469795 0.019654
0.446632 0.468513 0.000000
0.464240 0.467201 0.000000
0.479652 0.465949 0.000000
0.495338 0.464607 0.000000
0.511192 0.463172 0.000000
0.527276 0.461891 0.004974
0.543664 0.460609 0.014130
0.547784 0.448585 0.056764
0.551873 0.435431 0.075715
0.556481 0.421454 0.090547
0.561486 0.406531 0.103273
0.584985 0.402380 0.113649
0.638819 0.416602 0.126009
0.739681 0.469825 0.120851
0.823606 0.516472 0.120943
0.884215 0.550652 0.132998
0.299016 0.517205 0.103243
0.299779 0.517021 0.103029
0.301183 0.516899 0.102480
0.304326 0.516777 0.101778
0.309117 0.516777 0.100374
0.315679 0.516686 0.098512
0.323735 0.516625 0.096407
0.333379 0.516350 0.093141
0.344305 0.516045 0.089509
0.356603 0.515557 0.084993
0.370092 0.515007 0.079622
0.384619 0.514275 0.072877
0.400183 0.513512 0.064637
0.416876 0.512627 0.050690
0.434394 0.511742 0.023163
0.452766 0.510857 0.000000
0.471870 0.509941 0.000000
0.491585 0.508843 0.000000
0.509453 0.507805 0.000000
0.526055 0.506889 0.000000
0.543114 0.506004 0.000000
0.560449 0.505058 0.000000
0.578241 0.504326 0.000000
0.595544 0.503075 0.000000
0.600488 0.490730 0.011810
0.605951 0.477516 0.061891
0.611994 0.463508 0.082277
0.618616 0.448463 0.098421
0.641596 0.443000 0.110780
0.698665 0.459358 0.127260
0.784085 0.503014 0.134981
0.858762 0.546868 0.147677
0.321111 0.561700 0.100587
0.322118 0.561547 0.100099
0.323644 0.561425 0.099794
0.326757 0.561364 0.098482
0.331731 0.561273 0.097261
0.338354 0.561089 0.095338
0.346502 0.560754 0.092195
0.356023 0.560296 0.088808
0.367163 0.559747 0.084749
0.379461 0.558984 0.079347
0.392981 0.558129 0.072877
0.407904 0.557244 0.064057
0.423743 0.556359 0.050019
0.440742 0.555535 0.022492
0.458839 0.554711 0.000000
0.477882 0.554162 0.000000
0.497841 0.553491 0.000000
0.518456 0.552850 0.000000
0.539818 0.552087 0.000000
0.557885 0.551659 0.000000
0.576043 0.551293 0.000000
0.594720 0.551110 0.000000
0.613977 0.551049 0.000000
0.633692 0.551263 0.000000
0.651850 0.549920 0.000000
0.657740 0.537041 0.000000
0.663508 0.522881 0.022126
0.669703 0.507622 0.070802
0.676265 0.491493 0.092348
0.698390 0.484840 0.108522
0.755978 0.502739 0.133211
0.826139 0.537011 0.157809
0.344640 0.608179 0.097230
0.345739 0.608148 0.096895
0.347234 0.608118 0.096468
0.350530 0.608179 0.094972
0.355688 0.608179 0.093568
0.362371 0.608209 0.091585
0.370855 0.608209 0.088167
0.380865 0.608026 0.084199
0.392401 0.607813 0.079011
0.405341 0.607507 0.072389
0.419562 0.607111 0.064271
0.435157 0.606714 0.049378
0.451911 0.606256 0.021576
0.469673 0.605890 0.000000
