data/fiter_cube/95423152/1023250/file.cube
# Created by Adobe Lightroom plugin Export LUT (1.17.0)
# www.johnrellis.com/lightroom/exportlut.htm
# Preset: 黑暗巧克力情绪人像_09 云集
# Color profile: C:\Program Files (x86)\Common Files\Adobe\Color\Profiles\Recommended\AdobeRGB1998.icc
LUT_3D_SIZE 5
DOMAIN_MIN 0.000000 0.000000 0.000000
DOMAIN_MAX 0.903226 0.903226 0.903226
0.000000 0.000000 0.000000
0.147768 0.007843 0.035554
0.334844 0.000000 0.019989
0.580041 0.000000 0.013367
0.863981 0.000000 0.022583
0.079194 0.123507 0.045167
0.140688 0.114931 0.042084
0.363958 0.161257 0.000000
0.610254 0.164706 0.000000
0.871946 0.162417 0.000000
0.153750 0.246860 0.078828
0.199252 0.245304 0.070161
0.275029 0.221622 0.076173
0.588647 0.326513 0.000000
0.900542 0.399908 0.000000
0.232334 0.385779 0.104097
0.265385 0.383398 0.096437
0.358099 0.375067 0.063264
0.433204 0.344274 0.091127
0.793362 0.474006 0.061799
0.371679 0.659236 0.098848
0.408484 0.659144 0.084596
0.521569 0.661189 0.000000
0.673732 0.659144 0.000000
0.787228 0.623041 0.018463
0.054536 0.047150 0.129122
0.160128 0.008301 0.134463
0.317906 0.049500 0.138888
0.549401 0.000000 0.150240
0.853483 0.000000 0.160952
0.082765 0.125856 0.113161
0.158328 0.145541 0.130312
0.331670 0.160098 0.143008
0.579797 0.157717 0.149111
0.863737 0.141726 0.157504
0.126925 0.253819 0.117220
0.202701 0.257298 0.142702
0.286442 0.238529 0.137423
0.617456 0.352972 0.142824
0.893217 0.392920 0.142092
0.218265 0.392737 0.142947
0.263706 0.392279 0.152377
0.357092 0.383185 0.129915
0.439429 0.353307 0.138216
0.807797 0.489296 0.149599
0.352087 0.662989 0.156985
0.391974 0.662745 0.151492
0.507378 0.661433 0.113497
0.666957 0.659297 0.000000
0.785702 0.624140 0.115694
0.107668 0.075990 0.281102
0.192416 0.062470 0.292180
0.367102 0.000000 0.303136
0.604334 0.000000 0.321538
0.841642 0.000000 0.322881
0.132723 0.169558 0.255161
0.189853 0.171115 0.269932
0.357000 0.150210 0.293614
0.580102 0.109987 0.304479
0.829129 0.000000 0.307347
0.154421 0.260197 0.231937
0.206577 0.271794 0.242802
0.353491 0.321172 0.284764
0.600366 0.348669 0.304387
0.862882 0.354589 0.321569
0.192386 0.403998 0.241947
0.229984 0.412390 0.243442
0.365972 0.431464 0.262669
0.475898 0.397436 0.246220
0.858213 0.553948 0.328801
0.208865 0.677882 0.222843
0.271885 0.679255 0.224887
0.460365 0.679042 0.260990
0.644892 0.671260 0.204776
0.787869 0.635248 0.232273
0.179294 0.116030 0.494728
0.253300 0.100008 0.506218
0.445930 0.000000 0.548699
0.663996 0.000000 0.550164
0.899870 0.000000 0.559350
0.173556 0.203372 0.469032
0.239506 0.197299 0.481971
0.425757 0.154604 0.528618
0.656306 0.000000 0.542199
0.894011 0.000000 0.552911
0.189273 0.326390 0.412421
0.236271 0.328923 0.418280
0.380438 0.345800 0.472724
0.633783 0.327245 0.519158
0.868498 0.329442 0.528435
0.211978 0.427771 0.378607
0.253208 0.436988 0.386969
0.377203 0.473945 0.421057
0.613458 0.555596 0.495705
0.863523 0.604150 0.553613
0.259922 0.683162 0.448768
0.294377 0.687282 0.446815
0.394842 0.700923 0.435584
0.601190 0.709834 0.437049
0.794156 0.666957 0.407141
0.267247 0.181613 0.756039
0.325597 0.166781 0.759274
0.481392 0.076204 0.772732
0.689967 0.000000 0.795956
0.891203 0.000000 0.778103
0.252720 0.250736 0.743191
0.312108 0.240970 0.747158
0.469673 0.198489 0.762570
0.680476 0.000000 0.787655
0.887022 0.000000 0.773709
0.210300 0.392950 0.703120
0.263645 0.385687 0.709682
0.431983 0.373968 0.730739
0.653803 0.341619 0.765194
0.878569 0.311833 0.767056
0.201053 0.554009 0.665522
0.247135 0.549737 0.665370
0.378088 0.538781 0.672602
0.625238 0.567864 0.722896
0.865934 0.607660 0.764034
0.221866 0.717189 0.645197
0.265568 0.717006 0.645380
0.400366 0.721431 0.652186
0.614801 0.732967 0.674037
0.842069 0.787259 0.747463
