data/fiter_cube/95423152/1023250/file.cube
# Created by Adobe Lightroom plugin Export LUT (1.17.0)
# www.johnrellis.com/lightroom/exportlut.htm
# Preset: 黑暗巧克力情绪人像_09 云集
# Color profile: C:\Program Files (x86)\Common Files\Adobe\Color\Profiles\Recommended\AdobeRGB1998.icc
LUT_3D_SIZE 8
DOMAIN_MIN 0.000000 0.000000 0.000000
DOMAIN_MAX 0.903226 0.903226 0.903226
0.000000 0.000000 0.000000
0.080873 0.007660 0.019867
0.171695 0.002808 0.036500
0.276036 0.000000 0.026215
0.397192 0.000000 0.021515
0.538994 0.000000 0.017273
0.711727 0.000000 0.000000
0.863981 0.000000 0.022583
0.048920 0.072114 0.026337
0.082795 0.069825 0.026856
0.180880 0.081941 0.022858
0.287694 0.081392 0.007965
0.409125 0.079530 0.011292
0.552270 0.065217 0.004822
0.721920 0.000000 0.000000
0.868437 0.000000 0.010040
0.090669 0.141024 0.048646
0.115785 0.141176 0.041779
0.160555 0.130678 0.048737
0.277440 0.158145 0.018433
0.437812 0.192844 0.000000
0.581109 0.196658 0.000000
0.739834 0.198154 0.000000
0.875456 0.198489 0.000000
0.131624 0.210971 0.068727
0.149020 0.210971 0.066102
0.199222 0.209079 0.053437
0.236759 0.191440 0.067811
0.342870 0.210513 0.072755
0.608972 0.317754 0.000000
0.774380 0.337072 0.000000
0.891051 0.332830 0.000000
0.174929 0.282689 0.087953
0.187594 0.282231 0.085603
0.226963 0.279698 0.076783
0.280400 0.273533 0.066407
0.313756 0.252140 0.083497
0.406165 0.258793 0.099184
0.722347 0.399969 0.000000
0.909941 0.468208 0.000000
0.220005 0.362310 0.101930
0.229801 0.360754 0.099702
0.263706 0.358495 0.091676
0.315770 0.353887 0.075074
0.371435 0.346929 0.069001
0.404486 0.322210 0.091035
0.484993 0.313725 0.116121
0.828611 0.482246 0.000000
0.279454 0.478218 0.105165
0.289342 0.477394 0.102632
0.323583 0.476204 0.092744
0.377905 0.473030 0.071687
0.446632 0.468513 0.000000
0.511192 0.463172 0.000000
0.551873 0.435431 0.075715
0.638819 0.416602 0.126009
0.371679 0.659236 0.098848
0.382910 0.659266 0.095064
0.420111 0.658991 0.079194
0.481025 0.657893 0.011597
0.563867 0.661097 0.000000
0.654078 0.659541 0.000000
0.735683 0.658717 0.000000
0.787228 0.623041 0.018463
0.024201 0.030182 0.070649
0.088838 0.000000 0.075013
0.170596 0.036408 0.079988
0.267277 0.042237 0.086610
0.387945 0.010803 0.091768
0.532097 0.000000 0.093874
0.707942 0.000000 0.089784
0.862974 0.000000 0.098817
0.035981 0.072602 0.065797
0.087526 0.080385 0.072694
0.172396 0.090547 0.081575
0.275212 0.092592 0.085878
0.397436 0.091127 0.090425
0.542718 0.073762 0.091676
0.717220 0.000000 0.086427
0.867521 0.000000 0.096925
0.078889 0.143709 0.072084
0.118013 0.145327 0.086275
0.163943 0.138308 0.085451
0.281743 0.168673 0.085084
0.427222 0.191562 0.082338
0.573449 0.195590 0.079042
0.738094 0.196231 0.069123
0.875517 0.196170 0.082765
0.129335 0.214786 0.091615
0.152041 0.214847 0.097414
0.199588 0.212894 0.089113
0.241123 0.197910 0.094331
0.352758 0.221408 0.102419
0.622187 0.328344 0.006348
0.774075 0.335912 0.000000
0.891295 0.332067 0.034150
0.176974 0.285954 0.111543
0.189212 0.285466 0.109804
0.227939 0.283146 0.102235
0.282841 0.277531 0.091463
0.317754 0.257237 0.103761
0.414771 0.267308 0.118288
0.730739 0.407385 0.024414
0.909361 0.467597 0.000000
0.220737 0.365881 0.121553
0.230900 0.365301 0.119631
0.264775 0.362799 0.112337
0.316777 0.357794 0.098299
0.373358 0.350164 0.091249
0.406836 0.325475 0.107942
0.492317 0.320195 0.129427
0.833524 0.487526 0.076204
0.278264 0.482734 0.123873
0.288914 0.482612 0.121645
0.323369 0.480964 0.113100
0.377722 0.476936 0.095674
0.446693 0.471473 0.061311
0.512840 0.466102 0.059113
0.555291 0.439033 0.094575
0.644343 0.420752 0.138491
0.367742 0.662196 0.121279
0.378973 0.661860 0.117586
0.416632 0.661372 0.105043
0.478096 0.660090 0.076173
0.559014 0.659785 0.000000
0.651545 0.659144 0.000000
0.735286 0.659663 0.000000
0.788388 0.624720 0.072541
0.061769 0.047272 0.149203
0.101625 0.029175 0.153353
0.185092 0.005493 0.155062
0.281376 0.000336 0.157473
0.373175 0.037659 0.160006
0.494301 0.000000 0.166018
0.675685 0.000000 0.170565
0.847593 0.000000 0.180484
0.079988 0.096071 0.139040
0.106142 0.096620 0.143740
0.181216 0.088380 0.151217
0.274235 0.093568 0.154818
0.366766 0.102113 0.159060
0.504875 0.082948 0.167300
0.685267 0.000000 0.170993
0.851865 0.000000 0.180545
0.093080 0.144198 0.129427
0.118502 0.149050 0.134035
0.183658 0.168215 0.150515
0.277317 0.178500 0.157717
0.393133 0.184848 0.164920
0.536828 0.185336 0.168734
0.711208 0.177218 0.169619
0.863188 0.174624 0.178958
0.119600 0.216220 0.137148
0.138796 0.219242 0.139223
0.202731 0.227543 0.154208
0.253269 0.217014 0.150790
0.379034 0.251530 0.166171
0.593011 0.313329 0.167544
0.751400 0.319860 0.165408
0.880491 0.320439 0.175174
0.142306 0.291234 0.131777
0.167300 0.292546 0.140322
0.230564 0.295079 0.160494
0.286290 0.289006 0.148470
0.327001 0.271244 0.153353
0.439887 0.293004 0.169467
0.750484 0.428138 0.162020
0.901427 0.461097 0.169009
0.194675 0.371832 0.144564
0.215457 0.372656 0.153780
0.264561 0.373175 0.165469
0.316899 0.367956 0.153689
0.377569 0.359716 0.142916
0.415045 0.336736 0.152438
0.517723 0.342626 0.169802
0.845640 0.502770 0.169436
0.253758 0.487739 0.153780
0.272129 0.488380 0.161837
0.315038 0.487984 0.165225
0.371435 0.484138 0.151919
0.442481 0.478035 0.130251
0.512779 0.471199 0.123232
0.557305 0.444068 0.140627
0.655665 0.431159 0.172763
0.340520 0.666011 0.162081
0.357733 0.666255 0.169894
0.400031 0.665980 0.165774
0.463752 0.663600 0.147463
0.547662 0.663020 0.115999
0.644282 0.660883 0.024475
0.731075 0.660548 0.065003
0.786893 0.626032 0.132204
0.089509 0.063996 0.235111
0.122530 0.061158 0.237430
0.204593 0.015412 0.249180
0.299779 0.000000 0.248753
0.428321 0.000000 0.262211
0.535546 0.000000 0.258152
0.673671 0.000000 0.258579
0.824002 0.000000 0.259312
0.103029 0.111879 0.223606
0.127260 0.110201 0.227146
0.199252 0.098878 0.240330
0.295476 0.078981 0.244785
0.419745 0.032502 0.256596
0.528099 0.000000 0.253910
0.667536 0.000000 0.253880
0.826993 0.000000 0.258915
0.119722 0.171389 0.207675
0.141024 0.174136 0.209903
0.198093 0.182956 0.225834
0.290990 0.177157 0.239750
0.394995 0.177859 0.241642
0.500237 0.170871 0.240574
0.662470 0.135470 0.246342
0.839597 0.100404 0.261326
0.133547 0.220127 0.196628
0.152590 0.223545 0.199832
0.207889 0.238041 0.213748
0.292638 0.266697 0.237339
0.409918 0.285374 0.249454
0.547601 0.289769 0.254185
0.714900 0.290684 0.258762
0.861997 0.294102 0.270542
0.163180 0.292607 0.205631
0.177340 0.295537 0.207523
0.220249 0.306767 0.213321
0.299779 0.320714 0.229709
0.354437 0.305333 0.222843
0.501762 0.347967 0.247349
0.772000 0.453559 0.275364
0.886961 0.448524 0.284977
0.178256 0.376287 0.201602
0.190494 0.377691 0.201297
0.230167 0.386450 0.202029
0.320928 0.392218 0.227054
0.387640 0.381567 0.209049
0.433875 0.360510 0.213107
0.570794 0.387457 0.233799
0.868193 0.535607 0.278264
0.187747 0.496010 0.184756
0.201328 0.497230 0.183352
0.274144 0.499855 0.206607
0.359777 0.500664 0.222782
0.434760 0.492592 0.203494
0.514183 0.483162 0.188388
0.565942 0.457252 0.198703
0.694514 0.463935 0.226474
0.257603 0.672297 0.187198
0.279698 0.672236 0.193881
0.348425 0.672633 0.215763
0.435340 0.672114 0.226322
0.525261 0.670558 0.203342
0.627558 0.666529 0.166934
0.724392 0.664057 0.162387
0.786069 0.630121 0.196719
0.126406 0.088136 0.330724
0.153201 0.085756 0.333593
0.227848 0.068086 0.346258
0.338872 0.000000 0.370916
0.440040 0.000000 0.362097
0.606775 0.000000 0.392340
0.738552 0.000000 0.390845
0.859434 0.000000 0.387793
0.133059 0.129091 0.320928
0.155856 0.126955 0.323857
0.223697 0.117159 0.337346
0.331762 0.073915 0.363317
0.436103 0.000000 0.358587
0.603265 0.000000 0.388556
0.733211 0.000000 0.385931
0.856535 0.000000 0.384222
0.149813 0.195254 0.297856
0.167819 0.197391 0.302220
0.219913 0.197238 0.317815
0.314183 0.187411 0.343725
0.427680 0.170108 0.350225
0.585657 0.134401 0.372564
0.715358 0.069764 0.369909
0.846464 0.000000 0.371588
0.159274 0.251835 0.281376
0.175753 0.254154 0.283635
0.225742 0.263127 0.292729
0.307042 0.283452 0.322637
0.424201 0.282078 0.344762
0.547814 0.272587 0.344884
0.680171 0.248478 0.341558
0.829038 0.228611 0.348028
0.174289 0.300816 0.267552
0.189242 0.303716 0.270298
0.236576 0.315465 0.281193
0.313848 0.341711 0.305760
0.417975 0.378515 0.334478
0.581384 0.414252 0.359808
0.730312 0.412665 0.363348
0.864256 0.418555 0.378119
0.205295 0.382757 0.282139
0.216587 0.385351 0.283574
0.253696 0.395666 0.288975
0.312840 0.416571 0.297093
0.411139 0.435737 0.310857
0.478889 0.410620 0.297063
0.669673 0.471260 0.338872
0.893156 0.594263 0.427863
0.208255 0.501640 0.289097
0.219272 0.503685 0.288701
0.254520 0.510765 0.286198
0.308843 0.524132 0.276829
0.428656 0.529015 0.295445
0.522972 0.512108 0.264866
0.588342 0.485451 0.270268
0.757107 0.521111 0.313695
0.219455 0.679316 0.294896
0.230869 0.680507 0.291997
0.267369 0.684535 0.279484
0.358251 0.687282 0.280705
0.490517 0.687160 0.300603
0.601831 0.680293 0.266697
0.715908 0.673610 0.245640
0.788571 0.640436 0.271031
0.166659 0.110170 0.453193
0.190982 0.106447 0.456672
0.262882 0.088197 0.470436
0.369482 0.000000 0.494636
0.501274 0.000000 0.518486
0.615747 0.000000 0.507988
0.780117 0.000000 0.533562
0.892119 0.000000 0.523308
0.167697 0.146365 0.446326
0.190555 0.143679 0.450355
0.259312 0.131167 0.464118
0.363989 0.089204 0.488869
0.497597 0.000000 0.515435
0.613489 0.000000 0.505577
0.778866 0.000000 0.531487
0.890318 0.000000 0.521233
0.168063 0.216373 0.421057
0.186648 0.215610 0.425116
0.246769 0.211429 0.439521
0.344701 0.198154 0.465980
0.483070 0.158999 0.503319
0.604211 0.113130 0.496376
0.773098 0.000000 0.523186
0.882841 0.000000 0.512993
0.181735 0.281407 0.384588
0.197024 0.282353 0.386542
0.245121 0.288121 0.400549
0.325139 0.293675 0.434089
0.454536 0.286900 0.476844
0.592798 0.267582 0.484535
0.760464 0.250095 0.507256
0.868132 0.245914 0.497444
0.191165 0.345464 0.370245
0.205325 0.347051 0.372015
0.250065 0.353948 0.379797
0.321324 0.368750 0.398260
0.434546 0.399939 0.447730
0.592523 0.404273 0.481941
0.726070 0.390082 0.476417
0.843595 0.383093 0.474647
0.207034 0.398322 0.352850
0.219791 0.400580 0.354925
0.261814 0.410559 0.363897
0.330419 0.431586 0.383154
0.432380 0.469459 0.418921
0.571771 0.516960 0.459022
0.750332 0.566278 0.506065
0.863310 0.563958 0.514000
0.239933 0.507866 0.383246
0.249912 0.509789 0.384039
0.283421 0.517845 0.387335
0.337041 0.533104 0.392096
0.412696 0.557885 0.396429
0.541955 0.576501 0.409216
0.634272 0.543145 0.385901
0.828305 0.620264 0.480781
0.249607 0.682063 0.419165
0.260502 0.683436 0.418372
0.295842 0.687922 0.414954
0.350530 0.695491 0.405982
0.424598 0.705715 0.387823
0.574670 0.705135 0.405005
0.702388 0.691066 0.354101
0.792325 0.659266 0.373816
0.215152 0.135714 0.619257
0.239139 0.131411 0.623407
0.308141 0.110964 0.631647
0.409277 0.000000 0.647089
0.535363 0.000000 0.669825
0.667628 0.000000 0.678218
0.785336 0.000000 0.664210
0.900023 0.000000 0.654353
0.208469 0.165438 0.606531
0.231724 0.162325 0.610651
0.300328 0.146792 0.620203
0.400702 0.104555 0.636561
0.526238 0.000000 0.659785
0.658930 0.000000 0.669337
0.776486 0.000000 0.655238
0.894438 0.000000 0.648188
0.192325 0.238682 0.590295
0.214939 0.236698 0.592981
0.282902 0.228580 0.602258
0.383825 0.210330 0.620630
0.510155 0.169192 0.645502
0.650477 0.069398 0.663050
0.773922 0.000000 0.652186
0.894987 0.000000 0.648219
0.188693 0.322850 0.554559
0.205570 0.321569 0.557671
0.260166 0.316808 0.570733
0.358221 0.312139 0.594171
0.486366 0.299138 0.624628
0.640558 0.273136 0.657801
0.770596 0.243961 0.648493
0.892241 0.267369 0.646479
0.193271 0.396429 0.516381
0.207980 0.395209 0.516167
0.254398 0.392737 0.519036
0.326848 0.392004 0.534447
0.447730 0.403662 0.583429
0.610712 0.407660 0.632441
0.755581 0.396033 0.634241
0.883391 0.431586 0.642969
0.199588 0.468818 0.493568
0.213565 0.469459 0.494759
0.257633 0.472358 0.499611
0.326238 0.479469 0.511772
0.424231 0.492683 0.535027
0.586969 0.538201 0.596246
0.751980 0.560082 0.634272
0.858701 0.562249 0.629664
0.214755 0.534691 0.473457
0.227543 0.536919 0.475502
0.269047 0.543114 0.481331
0.336278 0.556512 0.494026
0.433753 0.577569 0.515282
0.574517 0.615045 0.556756
0.726223 0.664057 0.607904
0.862852 0.711421 0.662715
0.289616 0.682094 0.530114
0.301518 0.683192 0.531090
0.340307 0.690608 0.535943
0.396582 0.698573 0.538384
0.472358 0.708492 0.540307
0.568658 0.721889 0.543725
0.698512 0.728817 0.555962
0.800412 0.698573 0.531701
0.267247 0.181613 0.756039
0.286198 0.178103 0.757748
0.343236 0.161013 0.760281
0.430182 0.121218 0.767788
0.536492 0.000000 0.778256
0.657496 0.000000 0.791836
0.779751 0.000000 0.791836
0.891203 0.000000 0.778103
0.262119 0.204471 0.750393
0.281163 0.201297 0.752163
0.338537 0.186801 0.755550
0.425360 0.154849 0.762875
0.532097 0.068635 0.773953
0.653620 0.000000 0.788113
0.776425 0.000000 0.788540
0.888487 0.000000 0.775051
0.246952 0.268132 0.738369
0.265782 0.265965 0.739864
0.323857 0.255375 0.742977
0.414099 0.238804 0.753933
0.521660 0.202060 0.765652
0.644373 0.121584 0.780484
0.770779 0.000000 0.784298
0.885252 0.000000 0.771847
0.218875 0.349035 0.719600
0.241276 0.348791 0.721798
0.302312 0.343145 0.726528
0.394049 0.333898 0.737270
0.505028 0.316625 0.751980
0.631495 0.286625 0.770260
0.764279 0.245823 0.780575
0.881834 0.214572 0.769345
0.205081 0.434546 0.682460
0.221836 0.434028 0.685328
0.271641 0.428901 0.692592
0.355016 0.421271 0.709102
0.478218 0.421210 0.727687
0.610651 0.413886 0.750973
0.754665 0.405921 0.773770
0.875639 0.403265 0.765988
0.197330 0.527825 0.665980
0.211978 0.526085 0.665522
0.257725 0.520745 0.665644
0.328618 0.512535 0.669276
0.427985 0.504417 0.680232
0.591608 0.534447 0.722744
0.749752 0.564782 0.764431
0.869200 0.574395 0.765957
0.202579 0.623316 0.654688
0.216892 0.622675 0.654627
0.262608 0.621027 0.655482
0.336126 0.620478 0.659846
0.435706 0.621698 0.668605
0.564752 0.630426 0.685634
0.730404 0.674434 0.730495
0.857694 0.702113 0.760830
0.221866 0.717189 0.645197
0.235080 0.716884 0.644984
0.279637 0.717250 0.645808
0.353857 0.719631 0.649317
0.454414 0.723598 0.656062
0.580560 0.730190 0.668971
0.721706 0.747982 0.698360
0.842069 0.787259 0.747463
