data/fiter_cube/27130762/1023398/file.cube
# Created by Adobe Lightroom plugin Export LUT (1.17.0)
# www.johnrellis.com/lightroom/exportlut.htm
# Preset: 森系文艺人像美食静物_02 云集
# Color profile: C:\Program Files (x86)\Common Files\Adobe\Color\Profiles\Recommended\AdobeRGB1998.icc
LUT_3D_SIZE 8
DOMAIN_MIN 0.000000 0.000000 0.000000
DOMAIN_MAX 0.903226 0.903226 0.903226
0.076722 0.096315 0.092683
0.096590 0.099916 0.093996
0.178866 0.105531 0.094789
0.359686 0.089143 0.085512
0.531487 0.072877 0.063386
0.667781 0.123842 0.007935
0.778805 0.205478 0.000000
0.892027 0.318334 0.037293
0.080446 0.105318 0.098970
0.090822 0.112886 0.096803
0.168643 0.123018 0.098146
0.349432 0.125032 0.088655
0.525689 0.125948 0.066987
0.658320 0.160433 0.023133
0.771023 0.228183 0.000000
0.886625 0.333623 0.066468
0.087404 0.130617 0.115541
0.090883 0.146883 0.119661
0.154940 0.183932 0.100679
0.344945 0.216190 0.099336
0.526146 0.239506 0.085451
0.659388 0.266453 0.075105
0.777066 0.321782 0.089693
0.890257 0.409155 0.138796
0.100526 0.204746 0.159243
0.105837 0.226322 0.167117
0.089113 0.293431 0.141024
0.322484 0.360296 0.087861
0.541833 0.388647 0.100374
0.661158 0.408576 0.164279
0.772671 0.441871 0.184665
0.883024 0.506065 0.233097
0.139467 0.331579 0.241398
0.150607 0.351751 0.250950
0.191348 0.417731 0.271031
0.164492 0.491707 0.178805
0.476326 0.518822 0.121645
0.659510 0.527520 0.159243
0.761990 0.553826 0.275792
0.870787 0.611109 0.353643
0.231876 0.472480 0.353491
0.248997 0.488869 0.365423
0.295018 0.528405 0.389563
0.297154 0.581170 0.363287
0.355444 0.625971 0.277104
0.603204 0.640101 0.228916
0.770871 0.658625 0.271519
0.871489 0.699123 0.404425
0.360052 0.596704 0.477241
0.371191 0.605127 0.484138
0.403357 0.629175 0.501366
0.447730 0.667720 0.518425
0.410742 0.709743 0.452399
0.523522 0.738552 0.397803
0.722988 0.751614 0.360662
0.876646 0.781186 0.396765
0.486305 0.712123 0.597314
0.493050 0.717250 0.601373
0.517632 0.735470 0.615778
0.559716 0.767636 0.638697
0.555840 0.798062 0.617792
0.533776 0.840146 0.551476
0.687587 0.857877 0.530388
0.849607 0.867643 0.504601
0.081025 0.101991 0.105165
0.096803 0.101472 0.108034
0.182101 0.099184 0.106935
0.357153 0.079072 0.103944
0.527367 0.052613 0.091127
0.655268 0.111788 0.077607
0.767575 0.196109 0.071870
0.883116 0.308782 0.096071
0.085634 0.107668 0.104402
0.094575 0.115511 0.112154
0.177188 0.122744 0.113039
0.353399 0.119081 0.107698
0.524773 0.118776 0.095064
0.651240 0.154116 0.083650
0.762142 0.221317 0.080079
0.877653 0.324071 0.106264
0.097322 0.129702 0.121950
0.105806 0.147433 0.133425
0.163272 0.188174 0.120974
0.344549 0.216953 0.128542
0.521294 0.236240 0.116426
0.650477 0.261723 0.112001
0.763821 0.311833 0.122286
0.879698 0.398169 0.159731
0.118349 0.202152 0.169284
0.127779 0.224979 0.181399
0.132723 0.294285 0.176822
0.321416 0.354009 0.124727
0.525383 0.376623 0.142916
0.646143 0.397467 0.185458
0.758907 0.430579 0.201144
0.873014 0.495705 0.243870
0.167361 0.331426 0.256016
0.177859 0.349889 0.265782
0.222049 0.413123 0.292973
0.190341 0.484810 0.211307
0.472053 0.510948 0.161379
0.650843 0.521263 0.196017
0.754055 0.550500 0.299199
0.864897 0.605554 0.362005
0.251316 0.466377 0.361364
0.263157 0.478950 0.369665
0.305333 0.518456 0.394354
0.322087 0.573327 0.383337
0.363012 0.621576 0.301884
0.603143 0.637903 0.260197
0.766690 0.656428 0.299474
0.866850 0.696254 0.418097
0.366125 0.587854 0.477363
0.374212 0.594568 0.482185
0.405951 0.619837 0.500633
0.458991 0.661219 0.526055
0.425299 0.704677 0.466835
0.524376 0.734615 0.411688
0.718654 0.746792 0.374365
0.870848 0.775967 0.406714
0.487831 0.705989 0.596216
0.495216 0.711666 0.601007
0.519646 0.730404 0.615930
0.561089 0.763241 0.639490
0.570672 0.800565 0.631128
0.544244 0.840543 0.563867
0.687922 0.856870 0.539361
0.847623 0.865690 0.512078
0.087495 0.115206 0.155917
0.102327 0.110048 0.167727
0.200809 0.101472 0.174685
0.385046 0.000000 0.162692
0.538964 0.000000 0.152071
0.661433 0.081361 0.160555
0.771328 0.195560 0.169314
0.886381 0.311040 0.191623
0.109285 0.140383 0.157229
0.112306 0.136568 0.170748
0.197879 0.124636 0.179782
0.380346 0.029541 0.163668
0.537560 0.025574 0.160555
0.657527 0.142275 0.167239
0.767361 0.224674 0.175662
0.883146 0.330205 0.199863
0.124269 0.155886 0.154910
0.140017 0.167514 0.166842
0.191653 0.202701 0.202396
0.373327 0.215030 0.199222
0.536461 0.234806 0.198398
0.656580 0.266758 0.200595
0.765469 0.318547 0.211124
0.879820 0.401190 0.238804
0.173404 0.190738 0.188571
0.187655 0.213931 0.208133
0.233951 0.293004 0.263523
0.352331 0.370947 0.234745
0.530938 0.393530 0.267674
0.651972 0.411383 0.273167
0.761746 0.443030 0.283177
0.874723 0.503288 0.313054
0.229984 0.318395 0.283513
0.245243 0.340032 0.300084
0.291661 0.406836 0.345342
0.308263 0.487282 0.332769
0.493324 0.520775 0.282506
0.650996 0.531365 0.314763
0.751858 0.564630 0.387152
0.865415 0.610193 0.411017
0.308171 0.456825 0.389349
0.321843 0.470893 0.400885
0.360571 0.511345 0.431006
0.409033 0.568383 0.456886
0.401862 0.621057 0.385870
0.609491 0.637812 0.353033
0.761929 0.658228 0.385779
0.865019 0.702113 0.476478
0.408423 0.581781 0.499489
0.416449 0.589349 0.505394
0.441962 0.614191 0.523491
0.485389 0.654353 0.548974
0.481514 0.699245 0.521965
0.541680 0.734951 0.467933
0.724880 0.750027 0.438788
0.872587 0.781399 0.469001
0.509911 0.698573 0.607172
0.514275 0.703090 0.610285
0.535576 0.721645 0.624811
0.574853 0.756680 0.650660
0.602960 0.796017 0.659419
0.578302 0.836973 0.603235
0.694240 0.857786 0.573297
0.850370 0.867704 0.549035
0.096986 0.152407 0.310307
0.124331 0.144289 0.321813
0.242039 0.086336 0.343847
0.410376 0.060334 0.323308
0.562249 0.000000 0.298253
0.665766 0.000000 0.254185
0.762692 0.152193 0.266056
0.881590 0.279332 0.282628
0.153628 0.203861 0.321294
0.158572 0.190799 0.329931
0.240696 0.134157 0.349004
0.409125 0.122286 0.329961
0.559442 0.105867 0.303349
0.660670 0.000000 0.259007
0.761776 0.193393 0.272984
0.880095 0.302617 0.288701
0.233524 0.276310 0.311620
0.255802 0.289769 0.325139
0.270573 0.278325 0.356420
0.401801 0.242069 0.351232
0.551537 0.227939 0.320531
0.657130 0.250675 0.305241
0.767300 0.314122 0.313725
0.881651 0.388586 0.326299
0.250614 0.291905 0.296056
0.268650 0.304021 0.307988
0.322728 0.341497 0.344244
0.389319 0.388251 0.389136
0.536522 0.397467 0.378241
0.651392 0.413092 0.371435
0.759243 0.441993 0.371771
0.874846 0.496132 0.386328
0.314580 0.325475 0.323888
0.330083 0.337438 0.336492
0.376165 0.381933 0.380529
0.430457 0.476722 0.450568
0.517937 0.531487 0.425208
0.648127 0.547906 0.449592
0.754330 0.570092 0.458167
0.867460 0.608576 0.467445
0.391699 0.438941 0.421118
0.404028 0.456214 0.435920
0.431800 0.498482 0.469520
0.474556 0.559411 0.512291
0.485512 0.621698 0.499245
0.624628 0.644526 0.466377
0.759884 0.665248 0.489601
0.862760 0.709712 0.551446
0.465095 0.566125 0.522972
0.472084 0.575097 0.530297
0.493385 0.603143 0.551843
0.527153 0.645380 0.581140
0.562158 0.695827 0.598505
0.569390 0.739376 0.544854
0.732967 0.753964 0.518303
0.871489 0.784543 0.543694
0.554131 0.688472 0.627955
0.558282 0.693996 0.632044
0.570214 0.711696 0.643854
0.595331 0.744045 0.665095
0.637781 0.787625 0.691493
0.628626 0.830747 0.660090
0.701625 0.858854 0.621027
0.853574 0.869932 0.599084
0.209476 0.248966 0.497871
0.225467 0.237858 0.502159
0.291569 0.185885 0.509728
0.438727 0.000000 0.511254
0.576410 0.174166 0.474159
0.682063 0.253574 0.452979
0.776608 0.233066 0.418708
0.877714 0.255344 0.400641
0.264897 0.306065 0.501946
0.270573 0.294163 0.506401
0.308751 0.240330 0.513329
0.436347 0.101015 0.514275
0.573388 0.214786 0.477882
0.679683 0.277836 0.457588
0.774746 0.253941 0.421485
0.874846 0.281163 0.406592
0.386084 0.427100 0.502342
0.386603 0.423682 0.507713
0.375219 0.384070 0.517388
0.430121 0.276768 0.520592
0.563256 0.316197 0.490150
0.669337 0.340826 0.467659
0.766567 0.308446 0.426368
0.869017 0.350622 0.421088
0.411536 0.458228 0.487037
0.424659 0.466102 0.493660
0.463752 0.489906 0.514549
0.470558 0.474037 0.530480
0.551537 0.434638 0.513024
0.658625 0.421515 0.483375
0.751858 0.408881 0.449775
0.874113 0.449439 0.444923
0.417395 0.461433 0.465126
0.428626 0.468574 0.471839
0.460670 0.488930 0.491096
0.501854 0.515923 0.516716
0.537743 0.538384 0.537987
0.646815 0.538293 0.521508
0.752773 0.547753 0.509117
0.868894 0.579095 0.507439
0.449653 0.469703 0.465797
0.459205 0.476814 0.473152
0.487190 0.497322 0.494759
0.526299 0.527428 0.526879
0.561761 0.599664 0.578058
0.635248 0.646540 0.560296
0.755734 0.669490 0.581598
0.864530 0.702083 0.594507
0.531273 0.540124 0.536858
0.535119 0.548547 0.543633
0.548821 0.577111 0.566369
0.571740 0.621271 0.600000
0.601465 0.675166 0.634150
0.610468 0.734066 0.621088
0.738827 0.755154 0.593500
0.868437 0.783658 0.614984
0.601251 0.665431 0.639887
0.603754 0.670588 0.643702
0.612390 0.688594 0.656611
0.629633 0.723018 0.680293
0.652735 0.766720 0.705135
0.686580 0.818692 0.721126
0.705776 0.858152 0.673396
0.854734 0.869841 0.651545
0.382208 0.400092 0.639918
0.386908 0.390234 0.641169
0.409308 0.348882 0.644160
0.474800 0.251408 0.644617
0.601556 0.176638 0.634485
0.693080 0.327398 0.595392
0.789303 0.417151 0.596002
0.889403 0.410224 0.584314
0.411231 0.437324 0.637903
0.412757 0.427527 0.639155
0.425574 0.387671 0.642206
0.477272 0.295842 0.642359
0.596887 0.216251 0.632990
0.689570 0.346838 0.596246
0.786831 0.426642 0.596674
0.887724 0.416449 0.583459
0.496193 0.534112 0.642756
0.494484 0.527855 0.644129
0.484718 0.494697 0.646540
0.501884 0.424140 0.646571
0.590265 0.323003 0.637018
0.684321 0.411078 0.605035
0.782712 0.460792 0.602716
0.885313 0.439826 0.582940
0.560052 0.597009 0.639246
0.567437 0.600977 0.642390
0.577539 0.604303 0.651881
0.558556 0.564813 0.656245
0.584894 0.464424 0.647791
0.679713 0.495796 0.622065
0.778347 0.510002 0.611902
0.883116 0.472358 0.577386
0.554742 0.599207 0.618891
0.562127 0.603540 0.622797
0.584741 0.617334 0.635096
0.616571 0.636774 0.653407
0.611719 0.615167 0.658228
0.666804 0.572686 0.635065
0.765133 0.551904 0.607324
0.867033 0.522820 0.565637
0.551293 0.593530 0.596155
0.558434 0.598199 0.600610
0.577569 0.610071 0.611902
0.604150 0.626673 0.627802
0.631312 0.643366 0.643702
0.655940 0.656672 0.656184
0.757900 0.653559 0.636835
0.871183 0.668360 0.625147
0.576257 0.602564 0.597986
0.582452 0.606989 0.602625
0.599847 0.618769 0.614923
0.625269 0.636133 0.633326
0.653223 0.654597 0.653864
0.682368 0.718715 0.698054
0.752407 0.762295 0.677485
0.869902 0.788052 0.699062
0.653193 0.659785 0.657496
0.656245 0.661830 0.659846
0.666804 0.668971 0.668025
0.679927 0.696620 0.690486
0.695369 0.740993 0.721950
0.721279 0.796536 0.755093
0.734249 0.854459 0.743221
0.859434 0.872099 0.718654
0.524895 0.537560 0.753506
0.528557 0.532586 0.755428
0.537804 0.505821 0.756863
0.566339 0.447456 0.757443
0.628168 0.323156 0.751369
0.732540 0.338598 0.739223
0.798825 0.450477 0.704982
0.890623 0.550286 0.723598
0.537011 0.556298 0.749813
0.539025 0.550805 0.751583
0.544823 0.524895 0.753262
0.567376 0.468330 0.753292
0.623621 0.351751 0.746944
0.725277 0.350713 0.734249
0.792294 0.454322 0.700313
0.885435 0.548028 0.718379
0.592157 0.624475 0.756039
0.589136 0.617700 0.756466
0.585016 0.594446 0.756893
0.591394 0.546044 0.756466
0.628351 0.450782 0.749660
0.720302 0.411536 0.737057
0.791653 0.495186 0.708003
0.887419 0.571008 0.725338
0.658656 0.694942 0.759457
0.656733 0.691981 0.760098
0.650782 0.680262 0.762936
0.637598 0.644709 0.764431
0.644953 0.573083 0.758267
0.713924 0.492622 0.744991
0.791043 0.553613 0.720729
0.887755 0.600000 0.730892
0.670802 0.710658 0.744991
0.674769 0.712703 0.746792
0.690120 0.721553 0.754849
0.710811 0.732998 0.768887
0.680507 0.685389 0.766629
0.695857 0.580560 0.749416
0.781674 0.608942 0.727565
0.883726 0.628534 0.729335
0.665095 0.709926 0.726436
0.669490 0.712734 0.729030
0.684047 0.722011 0.737758
0.708156 0.737545 0.752773
0.738369 0.756680 0.771847
0.731777 0.734310 0.775906
0.779232 0.684871 0.747585
0.879515 0.663386 0.721920
0.664179 0.706569 0.709285
0.668482 0.709590 0.712245
0.680842 0.717678 0.720027
0.700801 0.730800 0.732784
0.724544 0.745785 0.747189
0.750576 0.761654 0.762448
0.769100 0.769131 0.769100
0.870909 0.763180 0.744747
0.679500 0.711849 0.707454
0.683009 0.714290 0.709926
0.698695 0.725887 0.721828
0.719326 0.739803 0.736263
0.744625 0.756161 0.753597
0.772580 0.773678 0.773312
0.800046 0.834836 0.815183
0.867491 0.875639 0.796475
0.646174 0.654475 0.850217
0.647974 0.650507 0.851194
0.651942 0.631830 0.851957
0.667689 0.595239 0.854124
0.702083 0.524926 0.854307
0.765316 0.382574 0.849638
0.852323 0.470314 0.842588
0.899290 0.565545 0.811856
0.652705 0.665858 0.848722
0.653956 0.662013 0.849729
0.656886 0.643915 0.850797
0.669612 0.607660 0.852476
0.701350 0.539849 0.852720
0.762203 0.403815 0.848020
0.848936 0.476417 0.840635
0.897215 0.568933 0.810727
0.681514 0.706966 0.848905
0.680842 0.702846 0.849546
0.677943 0.685054 0.849973
0.685267 0.654566 0.853574
0.706783 0.593530 0.853361
0.757961 0.475593 0.848081
0.844053 0.506615 0.840970
0.895872 0.589563 0.813504
0.727382 0.761471 0.848478
0.728145 0.760433 0.850095
0.727047 0.752132 0.853239
0.717128 0.722835 0.855741
0.720943 0.671077 0.856504
0.756252 0.576287 0.852201
0.838315 0.554559 0.844999
0.895811 0.625574 0.820768
0.770657 0.802152 0.843778
0.774899 0.804837 0.846128
0.778927 0.806332 0.851133
0.769772 0.794339 0.857328
0.754330 0.758785 0.860410
0.757900 0.682063 0.857206
0.826352 0.608453 0.849271
0.895171 0.673640 0.830747
0.765255 0.804532 0.832212
0.767849 0.805875 0.833402
0.777584 0.811368 0.838499
0.795621 0.822232 0.848875
0.821744 0.838529 0.865293
0.797787 0.800870 0.869657
0.813901 0.693782 0.861662
0.893065 0.732937 0.843565
0.763210 0.806912 0.821012
0.765621 0.808255 0.822263
0.774289 0.813352 0.827024
0.791012 0.823880 0.837125
0.814969 0.839536 0.852201
0.846677 0.861143 0.873594
0.848173 0.849577 0.884489
0.886687 0.798764 0.857328
0.765255 0.807736 0.810819
0.767361 0.808957 0.812009
0.776089 0.814481 0.817380
0.792844 0.825711 0.828244
0.813993 0.839689 0.841794
0.838163 0.855741 0.857359
0.864714 0.873655 0.874632
0.880186 0.879759 0.880034
