data/fiter_cube/27130762/1023398/file.cube
# Created by Adobe Lightroom plugin Export LUT (1.17.0)
# www.johnrellis.com/lightroom/exportlut.htm
# Preset: 森系文艺人像美食静物_02 云集
# Color profile: C:\Program Files (x86)\Common Files\Adobe\Color\Profiles\Recommended\AdobeRGB1998.icc
LUT_3D_SIZE 32
DOMAIN_MIN 0.0 0.0 0.0
DOMAIN_MAX 1.0 1.0 1.0
0.076722 0.096315 0.092683
0.078614 0.096620 0.092897
0.081575 0.097322 0.093019
0.087831 0.098329 0.093324
0.096590 0.099916 0.093996
0.108614 0.101534 0.094545
0.125307 0.103151 0.094881
0.148348 0.104646 0.095094
0.178866 0.105531 0.094789
0.217411 0.104616 0.093721
0.262547 0.101137 0.091951
0.310735 0.095918 0.089052
0.359686 0.089143 0.085512
0.407630 0.081758 0.081025
0.452796 0.075349 0.075715
0.494148 0.071595 0.070069
0.531487 0.072877 0.063386
0.569787 0.079805 0.054108
0.604364 0.091707 0.038788
0.636866 0.106294 0.022522
0.667781 0.123842 0.007935
0.697108 0.142428 0.000000
0.724941 0.162173 0.000000
0.751949 0.183291 0.000000
0.778805 0.205478 0.000000
0.806119 0.229953 0.000000
0.834287 0.256504 0.000000
0.863005 0.286015 0.000000
0.892027 0.318334 0.037293
0.921141 0.353582 0.076143
0.950042 0.391669 0.108003
0.978637 0.432746 0.144411
0.077150 0.097322 0.093385
0.078309 0.097993 0.093050
0.080812 0.098756 0.093446
0.086671 0.100099 0.093965
0.095644 0.101350 0.094423
0.107759 0.103212 0.094942
0.124361 0.104829 0.095277
0.146792 0.106508 0.095521
0.177188 0.107240 0.095216
0.215702 0.106752 0.094148
0.260227 0.104097 0.092439
0.308354 0.099641 0.089540
0.357427 0.093416 0.086030
0.405280 0.086885 0.081605
0.450416 0.081331 0.076387
0.491798 0.078279 0.070497
0.529320 0.079469 0.064302
0.567315 0.085847 0.055329
0.601404 0.097047 0.041016
0.633661 0.110445 0.025360
0.664637 0.126894 0.010040
0.693904 0.144747 0.000000
0.721798 0.163821 0.000000
0.748989 0.184146 0.000000
0.775906 0.206180 0.000000
0.803311 0.230014 0.000000
0.831601 0.256535 0.000000
0.860472 0.285557 0.000000
0.889738 0.317601 0.036622
0.919005 0.352667 0.075715
0.948119 0.390692 0.106813
0.976837 0.431647 0.142824
0.077455 0.098604 0.094301
0.077729 0.099672 0.093935
0.080385 0.100649 0.093812
0.086244 0.101686 0.094606
0.094514 0.103304 0.095308
0.106508 0.105135 0.095827
0.122835 0.107088 0.095888
0.145357 0.108766 0.096132
0.175570 0.109865 0.095583
0.213718 0.109621 0.094545
0.258396 0.107912 0.092775
0.306523 0.103853 0.089906
0.355413 0.099123 0.086366
0.403601 0.093629 0.081910
0.448829 0.089601 0.076631
0.490425 0.087434 0.071046
0.527947 0.088655 0.064973
0.565759 0.094453 0.055970
0.599695 0.103914 0.043488
0.631830 0.117067 0.027741
0.662898 0.132021 0.012726
0.692195 0.149355 0.000000
0.720211 0.167788 0.000000
0.747402 0.187503 0.000000
0.774319 0.208835 0.000000
0.801755 0.232090 0.000000
0.830106 0.258396 0.000000
0.859098 0.287144 0.001923
0.888457 0.318975 0.040986
0.917845 0.353918 0.076692
0.947021 0.391516 0.107576
0.975769 0.432288 0.143557
0.078706 0.101808 0.096315
0.079072 0.103029 0.096986
0.078676 0.104372 0.095827
0.084627 0.105898 0.095033
0.093996 0.107332 0.095979
0.104250 0.109102 0.097322
0.120638 0.111269 0.097353
0.142947 0.113436 0.097292
0.173007 0.115114 0.096742
0.211276 0.115938 0.095369
0.255833 0.115267 0.093568
0.304051 0.113130 0.090883
0.353124 0.109743 0.087343
0.401251 0.106447 0.082826
0.446845 0.103487 0.077546
0.488502 0.102602 0.071962
0.526482 0.104494 0.065766
0.564111 0.110170 0.058961
0.597406 0.118563 0.046204
0.629084 0.129671 0.031220
0.659937 0.143099 0.017700
0.689296 0.158846 0.003815
0.717494 0.176150 0.000000
0.745052 0.195163 0.000000
0.772549 0.216281 0.000000
0.800565 0.239231 0.000000
0.829343 0.265019 0.000000
0.858610 0.293828 0.014527
0.887999 0.325078 0.054078
0.917327 0.359350 0.082856
0.946288 0.396307 0.112520
0.974853 0.436133 0.147585
0.080446 0.105318 0.098970
0.080842 0.106233 0.099641
0.081239 0.107881 0.099733
0.080751 0.110597 0.097749
0.090822 0.112886 0.096803
0.104646 0.115236 0.097200
0.118105 0.117281 0.098817
0.138979 0.120119 0.099031
0.168643 0.123018 0.098146
0.206607 0.125185 0.096986
0.251347 0.126284 0.095064
0.299870 0.126040 0.092317
0.349432 0.125032 0.088655
0.397955 0.123751 0.084352
0.444068 0.122835 0.078950
0.486427 0.123232 0.073548
0.525689 0.125948 0.066987
0.562829 0.131044 0.060822
0.596124 0.138582 0.050507
0.627710 0.148257 0.036713
0.658320 0.160433 0.023133
0.687648 0.174716 0.011322
0.715816 0.190677 0.002289
0.743465 0.208316 0.000000
0.771023 0.228183 0.000000
0.799161 0.250248 0.000000
0.827939 0.275242 0.009552
0.857267 0.303075 0.034394
0.886625 0.333623 0.066468
0.915923 0.367071 0.090913
0.944915 0.403174 0.119844
0.973510 0.442420 0.153933
0.081819 0.109407 0.101961
0.082277 0.110292 0.102358
0.082887 0.112062 0.102907
0.082399 0.115297 0.101900
0.084688 0.119265 0.099550
0.099306 0.122805 0.098054
0.120089 0.126925 0.097993
0.138888 0.129244 0.099519
0.164034 0.132631 0.100984
0.202487 0.136782 0.099397
0.247440 0.139956 0.097322
0.296513 0.142092 0.094331
0.346380 0.143221 0.090761
0.395697 0.144015 0.086275
0.442054 0.144991 0.081086
0.484840 0.146822 0.075593
0.525231 0.150423 0.069398
0.562127 0.155856 0.063294
0.595392 0.162539 0.056580
0.627222 0.171328 0.045258
0.657954 0.182376 0.033234
0.687434 0.195377 0.022919
0.733455 0.224033 0.019287
0.760525 0.241520 0.021851
0.787442 0.260868 0.029084
0.814817 0.282597 0.042176
0.842527 0.306676 0.061219
0.870451 0.333135 0.076387
0.898436 0.362310 0.095155
0.926329 0.394324 0.118624
0.953826 0.428779 0.146578
0.980896 0.466285 0.180056
0.083497 0.114626 0.105440
0.083803 0.115908 0.105989
0.084291 0.117800 0.106722
0.085328 0.121920 0.107424
0.083558 0.127077 0.103761
0.090822 0.132753 0.101106
0.112459 0.137758 0.099458
0.143984 0.144991 0.098146
0.171054 0.148074 0.099733
0.205142 0.152804 0.101076
0.248234 0.158083 0.100496
0.298863 0.162631 0.097322
0.349615 0.165988 0.093355
0.399176 0.169009 0.088502
0.445594 0.171511 0.083314
0.487739 0.174502 0.078065
0.529564 0.179324 0.072297
0.566400 0.184604 0.066590
0.599878 0.191470 0.061707
0.632166 0.200198 0.055207
0.663966 0.211398 0.047822
0.694759 0.224674 0.041321
0.724697 0.240146 0.040192
0.753872 0.257603 0.044495
0.782620 0.276951 0.054200
0.811032 0.298192 0.064027
0.839353 0.321660 0.074983
0.867552 0.347204 0.089662
0.895689 0.375280 0.107454
0.923552 0.405921 0.129824
0.951110 0.439277 0.156893
0.978180 0.475715 0.189731
0.085145 0.121431 0.109895
0.085389 0.122835 0.110414
0.086152 0.124788 0.111086
0.087221 0.129183 0.112337
0.086732 0.135500 0.110872
0.084321 0.143465 0.104921
0.100282 0.150332 0.102785
0.130220 0.157259 0.100221
0.174777 0.168429 0.097597
0.209506 0.172488 0.098878
0.250034 0.177859 0.100038
0.294285 0.183749 0.101503
0.345006 0.189792 0.097780
0.395087 0.194705 0.093294
0.442145 0.198734 0.088014
0.486763 0.203220 0.082795
0.527672 0.207980 0.077516
0.563989 0.213504 0.072908
0.597314 0.219486 0.068635
0.629541 0.227573 0.065309
0.661280 0.237644 0.062654
0.691951 0.249668 0.060731
0.721736 0.263645 0.062043
0.750820 0.279454 0.066285
0.779446 0.297490 0.072358
0.807858 0.317601 0.080262
0.836240 0.339452 0.090852
0.864530 0.363745 0.104738
0.892790 0.390539 0.121828
0.920714 0.420142 0.143252
0.948333 0.452552 0.170199
0.975525 0.487739 0.202182
0.087404 0.130617 0.115541
0.087892 0.132052 0.116213
0.088167 0.134249 0.117006
0.089570 0.139132 0.118502
0.090883 0.146883 0.119661
0.087160 0.155367 0.114351
0.087282 0.166384 0.107118
0.114260 0.174777 0.104341
0.154940 0.183932 0.100679
0.214664 0.199680 0.094942
0.255375 0.204318 0.096284
0.299535 0.209903 0.097627
0.344945 0.216190 0.099336
0.391516 0.222690 0.100191
0.439673 0.228672 0.094667
0.485664 0.234592 0.089998
0.526146 0.239506 0.085451
0.562310 0.244572 0.081636
0.595483 0.249882 0.078920
0.627741 0.257298 0.075959
0.659388 0.266453 0.075105
0.689967 0.277409 0.075563
0.719631 0.290318 0.078401
0.748562 0.305058 0.082765
0.777066 0.321782 0.089693
0.805417 0.340154 0.097993
0.833768 0.360876 0.108461
0.862058 0.383764 0.122072
0.890257 0.409155 0.138796
0.918181 0.437171 0.159823
0.945708 0.468177 0.185489
0.972808 0.502129 0.217533
0.090089 0.142794 0.122774
0.090425 0.144472 0.123568
0.090883 0.146731 0.124453
0.091890 0.151980 0.126314
0.093935 0.160830 0.128450
0.092226 0.171084 0.125673
0.087098 0.183322 0.116884
0.096345 0.196506 0.109438
0.134981 0.207156 0.105348
0.187228 0.217807 0.099733
0.260410 0.237522 0.089754
0.304479 0.241489 0.091615
0.349584 0.246677 0.093690
0.394202 0.252628 0.096498
0.439948 0.260929 0.101198
0.484443 0.267918 0.100587
0.525139 0.273167 0.096559
0.561578 0.277989 0.093904
0.594842 0.283207 0.091920
0.627070 0.289708 0.090547
0.658259 0.297826 0.090791
0.688197 0.307622 0.092653
0.717189 0.319036 0.095430
0.745510 0.331975 0.100893
0.773648 0.347051 0.107759
0.801846 0.363836 0.116487
0.830320 0.383215 0.126955
0.858854 0.404944 0.140597
0.887358 0.429450 0.157351
0.915557 0.456367 0.178592
0.943328 0.486488 0.204562
0.970611 0.519402 0.236088
0.093019 0.158083 0.132113
0.093202 0.160006 0.132784
0.093812 0.162478 0.133730
0.094942 0.168368 0.135653
0.097108 0.177829 0.138430
0.098634 0.190707 0.139559
0.092561 0.203677 0.131563
0.084565 0.219730 0.117647
0.111360 0.234104 0.111299
0.162600 0.246342 0.105379
0.225528 0.257969 0.097261
0.310063 0.280949 0.080781
0.354833 0.283757 0.083955
0.401282 0.289281 0.087984
0.445167 0.295140 0.093538
0.485573 0.301030 0.102083
0.522423 0.307591 0.112581
0.558923 0.312230 0.109865
0.592462 0.316808 0.108858
0.624689 0.322698 0.108400
0.655970 0.330358 0.109102
0.685969 0.338994 0.111696
0.714992 0.349462 0.115938
0.743343 0.361456 0.121584
0.771359 0.375128 0.128969
0.799466 0.390723 0.137942
0.827787 0.408515 0.148196
0.856168 0.428779 0.161563
0.884520 0.451514 0.178408
0.912596 0.477119 0.198947
0.940307 0.505760 0.224460
0.967590 0.537316 0.255497
0.096437 0.177737 0.143587
0.096803 0.179782 0.144320
0.097292 0.182681 0.145571
0.098238 0.188815 0.147646
0.100618 0.198917 0.151003
0.104585 0.213169 0.154238
0.100710 0.228031 0.149447
0.091768 0.244297 0.137057
0.085084 0.263493 0.119539
0.133944 0.277867 0.112673
0.196872 0.290806 0.104616
0.268437 0.302739 0.093294
0.376349 0.342077 0.062806
0.423987 0.344518 0.070527
0.467079 0.346777 0.081910
0.505791 0.349584 0.095399
0.540826 0.353399 0.110414
0.572778 0.358648 0.127596
0.603693 0.364019 0.136599
0.635340 0.369177 0.136660
0.665492 0.375097 0.138460
0.694362 0.382452 0.141695
0.722194 0.390875 0.145998
0.749538 0.401160 0.152132
0.776852 0.413245 0.159640
0.804379 0.427344 0.168673
0.832029 0.443397 0.179355
0.859617 0.461830 0.192844
0.887083 0.482734 0.209171
0.914397 0.506371 0.229374
0.941283 0.532921 0.254551
0.967864 0.562615 0.284855
0.100526 0.204746 0.159243
0.101228 0.206668 0.160281
0.101778 0.209781 0.161288
0.103243 0.216098 0.163668
0.105837 0.226322 0.167117
0.110628 0.240604 0.171023
0.113527 0.257939 0.171817
0.102815 0.274083 0.160128
0.089113 0.293431 0.141024
0.095003 0.314336 0.122835
0.165530 0.328405 0.114595
0.241306 0.344976 0.103670
0.322484 0.360296 0.087861
0.423438 0.389960 0.034028
0.468849 0.388708 0.060975
0.507347 0.388251 0.081209
0.541833 0.388647 0.100374
0.573114 0.390784 0.119478
0.602472 0.395239 0.139254
0.631189 0.402564 0.160067
0.661158 0.408576 0.164279
0.690120 0.414832 0.167178
0.717983 0.422248 0.171695
0.745418 0.431189 0.177523
0.772671 0.441871 0.184665
0.800168 0.454658 0.193271
0.827817 0.469490 0.203738
0.855436 0.486519 0.217136
0.883024 0.506065 0.233097
0.910369 0.528496 0.252873
0.937377 0.553735 0.277440
0.964080 0.582116 0.307286
0.106203 0.232303 0.175967
0.106935 0.234440 0.176944
0.107546 0.237369 0.178073
0.109468 0.243717 0.180667
0.112490 0.253849 0.184176
0.117952 0.267857 0.188724
0.125704 0.285863 0.193118
0.119844 0.303227 0.185824
0.105898 0.321813 0.169131
0.088624 0.343450 0.143832
0.124269 0.365118 0.128664
0.204685 0.381170 0.118715
0.285588 0.395666 0.105013
0.367437 0.408057 0.086427
0.462379 0.431373 0.022492
0.508568 0.429969 0.055940
0.542535 0.426490 0.085756
0.573419 0.425238 0.109590
0.602594 0.426612 0.131746
0.631037 0.431250 0.154360
0.658595 0.438666 0.177523
0.685908 0.447364 0.196231
0.714015 0.453986 0.200229
0.741573 0.462043 0.205844
0.768948 0.471656 0.212711
0.796536 0.483314 0.221103
0.824186 0.496864 0.231510
0.851835 0.512718 0.244053
0.879393 0.531090 0.259770
0.906767 0.552270 0.279423
0.933806 0.576257 0.303380
0.960632 0.603082 0.332097
0.113863 0.262974 0.195254
0.114656 0.265110 0.196201
0.115541 0.267887 0.197360
0.117891 0.274144 0.199893
0.122042 0.283940 0.203891
0.127840 0.297429 0.208591
0.136660 0.314672 0.213687
0.142275 0.333867 0.214450
0.129335 0.352911 0.200656
0.112978 0.374487 0.179141
0.097292 0.398016 0.149203
0.163272 0.416205 0.137728
0.246708 0.429725 0.126436
0.328099 0.441291 0.111879
0.408118 0.450477 0.092287
0.496498 0.468055 0.038911
0.543603 0.467414 0.061646
0.574151 0.462196 0.096254
0.603052 0.460395 0.122591
0.631312 0.461952 0.147646
0.658564 0.466499 0.172030
0.684932 0.473762 0.197818
0.710475 0.483711 0.224033
0.737331 0.492500 0.236576
0.764920 0.501244 0.243198
0.792721 0.512108 0.251347
0.820737 0.525078 0.261387
0.848814 0.540307 0.274266
0.876738 0.558007 0.290074
0.904417 0.578393 0.309545
0.931731 0.601587 0.333410
0.958770 0.627344 0.361547
0.124636 0.295842 0.216709
0.125765 0.297978 0.217868
0.126772 0.300694 0.219150
0.129458 0.307012 0.221744
0.134401 0.316594 0.225956
0.141573 0.330480 0.231632
0.151431 0.347723 0.238041
0.164950 0.368261 0.244358
0.158877 0.387304 0.235966
0.144503 0.406744 0.217807
0.127108 0.427771 0.190829
0.125124 0.449348 0.162234
0.206943 0.462043 0.151522
0.288762 0.472053 0.139345
0.367285 0.480262 0.123751
0.443793 0.486519 0.103975
0.525505 0.499641 0.067750
0.574548 0.500938 0.075502
0.603662 0.495888 0.110780
0.632136 0.494728 0.139651
0.659480 0.496773 0.166598
0.685939 0.501610 0.193942
0.711543 0.509209 0.221347
0.736782 0.519554 0.249973
0.762203 0.532250 0.277379
0.790219 0.542412 0.285191
0.818418 0.554589 0.294926
0.846464 0.568933 0.307225
0.874296 0.585443 0.322362
0.901793 0.604395 0.340856
0.928893 0.625727 0.362860
0.955688 0.649714 0.389166
0.139467 0.331579 0.241398
0.140475 0.333410 0.242344
0.141817 0.336339 0.243748
0.145327 0.342199 0.246647
0.150607 0.351751 0.250950
0.158663 0.364202 0.256596
0.169375 0.379767 0.263249
0.182895 0.398322 0.269871
0.191348 0.417731 0.271031
0.178408 0.435004 0.255711
0.163302 0.453864 0.233433
0.145541 0.473610 0.201480
0.164492 0.491707 0.178805
0.250217 0.500786 0.168521
0.328557 0.508446 0.155550
0.403723 0.514366 0.140414
0.476326 0.518822 0.121645
0.552514 0.528923 0.093019
0.604089 0.532982 0.094453
0.632319 0.528466 0.129152
0.659510 0.527520 0.159243
0.685817 0.529717 0.188174
0.711391 0.534783 0.216861
0.736690 0.542809 0.246067
0.761990 0.553826 0.275792
0.787533 0.567773 0.306584
0.814572 0.581933 0.327764
0.842802 0.595514 0.339330
0.870787 0.611109 0.353643
0.898405 0.628992 0.370977
0.925628 0.649134 0.391882
0.952605 0.671870 0.416846
0.158083 0.368322 0.268132
0.159487 0.370397 0.269261
0.167117 0.382422 0.277989
0.170626 0.388037 0.280674
0.177066 0.396551 0.285069
0.185458 0.407507 0.290654
0.196597 0.421515 0.297093
0.210300 0.437385 0.303777
0.227665 0.455451 0.310796
0.222080 0.471534 0.301152
0.208133 0.487922 0.281926
0.193210 0.504997 0.255741
0.176577 0.522576 0.219913
0.220584 0.535485 0.204868
0.299290 0.542046 0.193881
0.373297 0.547448 0.181186
0.444800 0.551690 0.166049
0.513573 0.554894 0.148104
0.584039 0.562432 0.123812
0.637598 0.568597 0.120760
0.664088 0.563928 0.155093
0.689876 0.562951 0.186343
0.715084 0.565332 0.216526
0.739925 0.570855 0.246250
0.764675 0.579309 0.276158
0.789639 0.590661 0.306523
0.814725 0.604700 0.337774
0.839841 0.621302 0.369940
0.867247 0.636194 0.385168
0.894835 0.652796 0.400793
0.922087 0.671717 0.420233
0.949126 0.693080 0.443519
0.181857 0.406928 0.297978
0.184146 0.409796 0.300023
0.186984 0.413672 0.302373
0.191745 0.419654 0.306065
0.198489 0.427893 0.310826
0.207340 0.438300 0.316594
0.218448 0.450355 0.322942
0.231876 0.464332 0.329656
0.248478 0.480171 0.336858
0.257877 0.495918 0.337591
0.245426 0.510460 0.321447
0.232578 0.525750 0.300511
0.217716 0.541741 0.271702
0.210544 0.557458 0.239414
0.266636 0.566705 0.226658
0.339391 0.572015 0.215274
0.409644 0.576318 0.202670
0.477424 0.579828 0.187350
0.542626 0.582757 0.170718
0.608515 0.588769 0.150362
0.663722 0.597009 0.144106
0.689693 0.593286 0.178866
0.715084 0.593317 0.210727
0.740169 0.596582 0.241581
0.765072 0.603021 0.272648
0.790249 0.612604 0.303563
0.815427 0.625055 0.335332
0.840604 0.639979 0.368261
0.865721 0.657435 0.401709
0.891386 0.675990 0.430732
0.918669 0.693874 0.448676
0.945739 0.714046 0.470588
0.205844 0.440345 0.325383
0.208377 0.443183 0.327550
0.211093 0.446571 0.329808
0.215763 0.451759 0.333227
0.222751 0.459083 0.337957
0.231388 0.467994 0.343175
0.242283 0.478523 0.349157
0.255528 0.490578 0.355871
0.271122 0.504356 0.363104
0.289250 0.519432 0.370245
0.283391 0.533043 0.360235
0.271183 0.546899 0.342535
0.257908 0.561425 0.319158
0.243717 0.576440 0.288212
0.246830 0.590509 0.261967
0.311406 0.596704 0.250767
0.379522 0.601129 0.238956
0.445716 0.604761 0.226566
0.509880 0.607721 0.212467
0.571649 0.610346 0.197024
0.633112 0.614862 0.179080
0.689937 0.625330 0.170352
0.715480 0.622797 0.204776
0.740658 0.623682 0.237461
0.765743 0.628077 0.268956
0.790982 0.635676 0.300694
0.816129 0.646174 0.332860
0.841245 0.659388 0.365850
0.866361 0.675105 0.399329
0.891173 0.693294 0.434089
0.915801 0.713619 0.470161
0.942046 0.733944 0.496773
0.231876 0.472480 0.353491
0.234592 0.474922 0.355566
0.237400 0.477821 0.357763
0.242161 0.482551 0.361089
0.248997 0.488869 0.365423
0.257603 0.496651 0.370550
0.267918 0.505669 0.376135
0.280217 0.516411 0.382422
0.295018 0.528405 0.389563
0.311925 0.541802 0.396735
0.320409 0.555200 0.397284
0.309483 0.567803 0.382696
0.297154 0.581170 0.363287
0.284184 0.595117 0.338018
0.269810 0.609522 0.304875
0.288609 0.621302 0.286595
0.355444 0.625971 0.277104
0.420081 0.630060 0.266270
0.483040 0.633753 0.254795
0.544274 0.637018 0.242649
0.603204 0.640101 0.228916
0.660945 0.644068 0.213809
0.719661 0.656703 0.203098
0.745296 0.655818 0.238010
0.770871 0.658625 0.271519
0.796292 0.664546 0.304143
0.821530 0.673396 0.337346
0.846586 0.684993 0.370489
0.871489 0.699123 0.404425
0.896086 0.715633 0.439063
0.920317 0.734371 0.475593
0.944335 0.755276 0.513939
0.265293 0.507713 0.386725
0.267094 0.509361 0.388098
0.269261 0.511284 0.389563
0.273442 0.514702 0.392096
0.279454 0.519829 0.395697
0.287388 0.526390 0.400275
0.297124 0.534356 0.405646
0.308934 0.543786 0.411902
0.323003 0.554528 0.418891
0.338842 0.566796 0.426246
0.356329 0.580041 0.433539
0.350286 0.592157 0.424018
0.339757 0.604425 0.408453
0.328191 0.617182 0.388190
0.315618 0.630304 0.361639
0.305791 0.643488 0.330266
0.339422 0.652094 0.317296
0.401099 0.655970 0.307805
0.461524 0.659480 0.297368
0.520378 0.662623 0.286412
0.577722 0.665492 0.274266
0.633234 0.668055 0.261357
0.686793 0.670802 0.247166
0.746212 0.684932 0.232975
0.771664 0.685328 0.267369
0.797147 0.689265 0.300938
0.822507 0.696254 0.334325
0.847593 0.706081 0.368109
0.872465 0.718593 0.402594
0.897063 0.733486 0.437446
0.921355 0.750729 0.473945
0.945251 0.769924 0.512474
0.295079 0.536919 0.415625
0.296910 0.538445 0.417060
0.299229 0.540185 0.418494
0.303044 0.543359 0.420813
0.308690 0.547936 0.424262
0.315984 0.553613 0.428473
0.325078 0.560540 0.433387
0.335912 0.568841 0.439216
0.348669 0.578698 0.445716
0.363104 0.589563 0.452674
0.379065 0.601617 0.459663
0.386084 0.613489 0.459724
0.376745 0.624659 0.447211
0.366552 0.636347 0.430640
0.355291 0.648524 0.409064
0.343542 0.661097 0.381903
0.342351 0.673121 0.356970
0.385321 0.679622 0.346502
0.443122 0.683345 0.337621
0.500023 0.686793 0.327886
0.555779 0.689998 0.317876
0.610346 0.693050 0.306767
0.663172 0.696040 0.294926
0.714168 0.698939 0.282200
0.771054 0.712001 0.263249
0.797086 0.713649 0.295872
0.822538 0.718746 0.330114
0.847715 0.726833 0.363867
0.872618 0.737575 0.398535
0.897276 0.750912 0.434150
0.921782 0.766751 0.471168
0.945678 0.784482 0.509789
0.330297 0.569207 0.448951
0.332189 0.570550 0.450263
0.334173 0.572107 0.451575
0.337621 0.574701 0.453620
0.342412 0.578546 0.456428
0.348821 0.583398 0.459998
0.356817 0.589502 0.464393
0.366339 0.596704 0.469337
0.377356 0.605127 0.475013
0.389868 0.614527 0.480964
0.403784 0.624781 0.486946
0.419104 0.635828 0.492927
0.412909 0.645869 0.483742
0.403235 0.656306 0.469825
0.393194 0.667140 0.452308
0.382025 0.678431 0.429786
0.370245 0.690272 0.401221
0.376745 0.700984 0.382300
0.427283 0.705409 0.373877
0.481941 0.709133 0.365576
0.536004 0.712734 0.357031
0.589136 0.716213 0.347478
0.641108 0.719326 0.337072
0.691371 0.722286 0.326024
0.739620 0.724941 0.312810
0.797421 0.740780 0.298436
0.824063 0.743374 0.327489
0.849058 0.749386 0.361578
0.873777 0.758297 0.396338
0.898344 0.769833 0.431861
0.922698 0.783871 0.468940
0.946654 0.800076 0.507897
0.360052 0.596704 0.477241
0.361639 0.598047 0.478462
0.363470 0.599390 0.479683
0.366644 0.601709 0.481575
0.371191 0.605127 0.484138
0.377081 0.609613 0.487526
0.384375 0.615076 0.491554
0.393194 0.621546 0.496162
0.403357 0.629175 0.501366
0.415229 0.637720 0.507164
0.428138 0.647211 0.513085
0.442267 0.657557 0.519066
0.447730 0.667720 0.518425
0.439582 0.677485 0.507378
0.430426 0.687739 0.492805
0.420722 0.698543 0.474861
0.410742 0.709743 0.452399
0.400397 0.721645 0.424140
0.419562 0.730892 0.412573
0.471656 0.734737 0.405493
0.523522 0.738552 0.397803
0.575067 0.742214 0.389715
0.625727 0.745602 0.381018
0.675166 0.748745 0.371283
0.722988 0.751614 0.360662
0.768856 0.754391 0.348913
0.824552 0.770138 0.335607
0.851957 0.773983 0.361517
0.876646 0.781186 0.396765
0.901152 0.791165 0.432807
0.925292 0.803342 0.469673
0.949187 0.818021 0.509148
0.391180 0.625025 0.506676
0.392523 0.626154 0.507652
0.393927 0.627131 0.508507
0.396612 0.629145 0.510094
0.400519 0.631891 0.512200
0.405707 0.635767 0.515129
0.412177 0.640436 0.518547
0.420172 0.646296 0.522698
0.429450 0.653132 0.527550
0.440223 0.660945 0.532921
0.452216 0.669642 0.538628
0.465370 0.679286 0.544640
0.479469 0.689479 0.550347
0.473457 0.698848 0.541955
0.465248 0.708614 0.530053
0.456641 0.718746 0.515251
0.447425 0.729488 0.496742
0.438178 0.740780 0.473945
0.434974 0.752224 0.451179
0.463111 0.759884 0.441779
0.513146 0.763760 0.435035
0.563134 0.767483 0.428229
0.612512 0.770901 0.420600
0.660914 0.774166 0.412604
0.708125 0.777066 0.403388
0.753597 0.779873 0.393774
0.797208 0.782712 0.383124
0.849088 0.796872 0.371649
0.878233 0.802884 0.394446
0.902617 0.811063 0.430610
0.926574 0.821530 0.467689
0.950439 0.834653 0.507347
0.420539 0.651850 0.534539
0.421790 0.652705 0.535363
0.422919 0.653681 0.536126
0.425452 0.655451 0.537530
0.429267 0.658198 0.539727
0.434363 0.662074 0.542718
0.441047 0.666926 0.546563
0.449226 0.672969 0.551293
0.458869 0.680049 0.556695
0.469917 0.688075 0.562860
0.481880 0.696956 0.569177
0.494942 0.706630 0.575830
0.508812 0.716915 0.582269
0.513787 0.726986 0.582177
0.507012 0.736660 0.572900
0.499336 0.746609 0.560815
0.491127 0.756985 0.545617
0.482612 0.767880 0.526940
0.474006 0.779355 0.503777
0.478218 0.789914 0.487007
0.514305 0.795682 0.479622
0.562371 0.799161 0.473732
0.609949 0.802426 0.467201
0.656947 0.805478 0.460060
0.702998 0.808225 0.452705
0.747616 0.810910 0.444404
0.790463 0.813596 0.435767
0.831418 0.816403 0.426642
0.878996 0.828916 0.417487
0.908751 0.836271 0.437110
0.932280 0.844999 0.474189
0.955749 0.856413 0.514153
0.456367 0.684077 0.568322
0.457343 0.684749 0.568933
0.458350 0.685542 0.569543
0.460456 0.687037 0.570733
0.463783 0.689387 0.572625
0.468238 0.692622 0.575097
0.474006 0.696803 0.578363
0.480934 0.702052 0.582361
0.489326 0.708217 0.587060
0.498909 0.715328 0.592309
0.509545 0.723262 0.598016
0.521263 0.731991 0.603998
0.533745 0.741360 0.609979
0.546838 0.751247 0.615564
