data/fiter_cube/27130762/1023398/file.cube
# Created by Adobe Lightroom plugin Export LUT (1.17.0)
# www.johnrellis.com/lightroom/exportlut.htm
# Preset: 森系文艺人像美食静物_02 云集
# Color profile: C:\Program Files (x86)\Common Files\Adobe\Color\Profiles\Recommended\AdobeRGB1998.icc
LUT_3D_SIZE 5
DOMAIN_MIN 0.000000 0.000000 0.000000
DOMAIN_MAX 0.903226 0.903226 0.903226
0.076722 0.096315 0.092683
0.148348 0.104646 0.095094
0.452796 0.075349 0.075715
0.697108 0.142428 0.000000
0.892027 0.318334 0.037293
0.085145 0.121431 0.109895
0.130220 0.157259 0.100221
0.442145 0.198734 0.088014
0.691951 0.249668 0.060731
0.892790 0.390539 0.121828
0.113863 0.262974 0.195254
0.142275 0.333867 0.214450
0.408118 0.450477 0.092287
0.684932 0.473762 0.197818
0.876738 0.558007 0.290074
0.265293 0.507713 0.386725
0.308934 0.543786 0.411902
0.315618 0.630304 0.361639
0.633234 0.668055 0.261357
0.872465 0.718593 0.402594
0.486305 0.712123 0.597314
0.509606 0.729519 0.611139
0.567651 0.779446 0.635981
0.552880 0.848356 0.543725
0.849607 0.867643 0.504601
0.085847 0.110689 0.135286
0.160006 0.104524 0.149142
0.457160 0.000000 0.133700
0.684962 0.117220 0.136690
0.882902 0.307500 0.164309
0.108827 0.137362 0.135439
0.153506 0.169802 0.168307
0.456764 0.188602 0.163638
0.683009 0.244266 0.165438
0.880827 0.379980 0.203738
0.178256 0.252750 0.225803
0.225101 0.328435 0.275608
0.418524 0.447150 0.218631
0.672755 0.480293 0.301579
0.871824 0.558495 0.346136
0.324254 0.499123 0.416449
0.363500 0.535973 0.445319
0.402411 0.624048 0.443915
0.638697 0.667872 0.352972
0.868437 0.720821 0.459754
0.506676 0.704280 0.607355
0.527794 0.721950 0.621424
0.595056 0.779568 0.660151
0.575982 0.848814 0.580438
0.852171 0.869566 0.542229
0.138064 0.192660 0.411109
0.226322 0.148226 0.428290
0.503746 0.099916 0.403815
0.699763 0.124605 0.344762
0.876890 0.269902 0.343420
0.297581 0.340764 0.418219
0.291478 0.303258 0.437629
0.495827 0.242496 0.421393
0.690761 0.229587 0.357092
0.879149 0.343999 0.360418
0.335882 0.380529 0.385168
0.381109 0.410101 0.413184
0.470527 0.470497 0.470527
0.674342 0.482704 0.449531
0.871550 0.539391 0.450752
0.450324 0.458228 0.455543
0.470253 0.497108 0.487098
0.531334 0.600305 0.561730
0.655818 0.672816 0.524926
0.861540 0.726589 0.583703
0.574975 0.676387 0.633112
0.586725 0.695125 0.646845
0.622919 0.754299 0.683925
0.648890 0.835843 0.673732
0.852781 0.868650 0.622370
0.417609 0.433661 0.666682
0.433234 0.401312 0.670344
0.537743 0.221530 0.668299
0.718196 0.359411 0.621729
0.888823 0.446754 0.622827
0.497047 0.531426 0.668879
0.491188 0.502159 0.671321
0.543633 0.364446 0.669337
0.711330 0.414527 0.627070
0.884581 0.465675 0.621332
0.584649 0.624231 0.658167
0.606012 0.636805 0.669062
0.599268 0.604486 0.679377
0.693812 0.536034 0.643305
0.877836 0.515221 0.610132
0.583764 0.625025 0.627527
0.599176 0.634180 0.636225
0.641230 0.660670 0.661646
0.683497 0.684138 0.683742
0.869871 0.688716 0.651728
0.660517 0.673121 0.669551
0.671778 0.680995 0.678187
0.702602 0.711574 0.708278
0.741817 0.806638 0.770718
0.860624 0.872435 0.736690
0.646174 0.654475 0.850217
0.650263 0.637934 0.851621
0.682063 0.565881 0.854734
0.789548 0.403906 0.847929
0.899290 0.565545 0.811856
0.673304 0.695430 0.849516
0.672419 0.679805 0.850919
0.690059 0.614160 0.853910
0.781338 0.441962 0.846342
0.896941 0.584283 0.813382
0.753475 0.786709 0.846830
0.749813 0.780728 0.850401
0.734066 0.739254 0.856748
0.766140 0.593194 0.850095
0.895201 0.647364 0.824949
0.766781 0.807279 0.831266
0.775845 0.812406 0.835966
0.808255 0.832181 0.854978
0.809720 0.812406 0.872740
0.891386 0.747982 0.846311
0.765255 0.807736 0.810819
0.773129 0.812589 0.815488
0.803494 0.832853 0.835233
0.844724 0.860227 0.861662
0.880186 0.879759 0.880034
