data/fiter_cube/63078869/1022677/file.cube
# Created by Adobe Lightroom plugin Export LUT (1.17.0)
# www.johnrellis.com/lightroom/exportlut.htm
# Preset: 暗调胶片街拍_06 云集
# Color profile: C:\Program Files (x86)\Common Files\Adobe\Color\Profiles\Recommended\AdobeRGB1998.icc
LUT_3D_SIZE 32
DOMAIN_MIN 0.0 0.0 0.0
DOMAIN_MAX 1.0 1.0 1.0
0.014374 0.048188 0.049042
0.024201 0.051362 0.049409
0.039277 0.054780 0.049622
0.062318 0.060517 0.050843
0.074678 0.064729 0.052735
0.086122 0.068757 0.052918
0.098116 0.072816 0.052857
0.110872 0.077119 0.053285
0.125124 0.081727 0.051637
0.140932 0.087251 0.049287
0.158267 0.093355 0.046967
0.177310 0.099947 0.042756
0.197757 0.107240 0.039246
0.219272 0.115023 0.035401
0.245884 0.124025 0.030426
0.279362 0.135286 0.022156
0.310857 0.144961 0.013214
0.341619 0.154055 0.002838
0.372503 0.162600 0.000000
0.405676 0.171237 0.000000
0.441169 0.179690 0.000000
0.478431 0.188113 0.000000
0.516136 0.195834 0.000000
0.554406 0.203281 0.000000
0.591730 0.209842 0.000000
0.627832 0.215854 0.000000
0.663813 0.221500 0.000000
0.699886 0.226658 0.000000
0.737636 0.231876 0.000000
0.777218 0.236759 0.000000
0.818357 0.241672 0.000000
0.860441 0.246250 0.000000
0.014649 0.054170 0.053407
0.024170 0.057527 0.049714
0.038209 0.058991 0.050111
0.062440 0.062837 0.051270
0.074861 0.066835 0.052369
0.085939 0.070466 0.052644
0.097627 0.074067 0.053498
0.109987 0.078431 0.053132
0.124086 0.082643 0.052369
0.139681 0.087922 0.050111
0.156802 0.094087 0.047822
0.175448 0.100282 0.044129
0.195499 0.107515 0.039734
0.216678 0.115053 0.037263
0.242893 0.124086 0.032471
0.274388 0.134646 0.024445
0.304173 0.143954 0.016785
0.333776 0.152773 0.006439
0.363714 0.161288 0.000000
0.395972 0.169406 0.000000
0.430640 0.177890 0.000000
0.467475 0.186252 0.000000
0.504784 0.194308 0.000000
0.543053 0.201633 0.000000
0.581048 0.208377 0.000000
0.618067 0.214755 0.000000
0.655024 0.220554 0.000000
0.691890 0.226078 0.000000
0.730159 0.231296 0.000000
0.770291 0.236332 0.000000
0.811826 0.241337 0.000000
0.854307 0.245914 0.000000
0.017243 0.059724 0.058534
0.019928 0.061494 0.055756
0.038849 0.063630 0.050996
0.062226 0.066835 0.052277
0.074464 0.069429 0.052766
0.085573 0.072847 0.053864
0.097047 0.076081 0.054780
0.109560 0.079591 0.053742
0.123507 0.084138 0.052125
0.138674 0.089418 0.051514
0.155673 0.094972 0.048585
0.174258 0.101411 0.045075
0.194217 0.108156 0.040894
0.215183 0.115785 0.038453
0.241489 0.125002 0.033600
0.271672 0.134951 0.027527
0.300694 0.143984 0.019379
0.329473 0.152499 0.008698
0.358801 0.160739 0.000000
0.390784 0.169223 0.000000
0.425360 0.177768 0.000000
0.461860 0.186130 0.000000
0.499214 0.193820 0.000000
0.537377 0.201511 0.000000
0.575616 0.208347 0.000000
0.612970 0.214755 0.000000
0.650416 0.220676 0.000000
0.687800 0.226261 0.000000
0.726345 0.231479 0.000000
0.766659 0.236698 0.000000
0.808438 0.241703 0.000000
0.851011 0.246372 0.000000
0.020325 0.067475 0.064820
0.019776 0.068330 0.065156
0.027985 0.072023 0.061280
0.061677 0.075288 0.053223
0.074342 0.075288 0.054139
0.085664 0.077272 0.054627
0.097139 0.079957 0.055604
0.109285 0.083650 0.055329
0.123049 0.087678 0.053803
0.138369 0.092439 0.052430
0.155032 0.097902 0.049531
0.173404 0.103975 0.047395
0.193027 0.110658 0.043427
0.213687 0.118013 0.040070
0.240574 0.127138 0.036133
0.269169 0.136599 0.029755
0.296910 0.145296 0.021332
0.324529 0.153414 0.012726
0.352880 0.161318 0.000000
0.383337 0.169436 0.000000
0.416754 0.177646 0.000000
0.452491 0.185916 0.000000
0.490089 0.194034 0.000000
0.529473 0.201694 0.000000
0.569909 0.209293 0.000000
0.609674 0.216037 0.000000
0.648737 0.222293 0.000000
0.687068 0.228000 0.000000
0.725917 0.233280 0.000000
0.766049 0.238437 0.000000
0.807156 0.243320 0.000000
0.848966 0.247929 0.000000
0.024262 0.076448 0.071656
0.025360 0.076020 0.072389
0.024353 0.078645 0.069612
0.048707 0.083680 0.064973
0.072175 0.084199 0.056489
0.084993 0.083558 0.056611
0.096345 0.085695 0.056855
0.108614 0.088533 0.057557
0.122011 0.092409 0.056031
0.137026 0.096986 0.054688
0.153475 0.101991 0.052705
0.171756 0.107881 0.049775
0.191012 0.114229 0.047608
0.211826 0.121187 0.043519
0.239139 0.130709 0.039185
0.266667 0.139651 0.032319
0.294194 0.147982 0.024201
0.321843 0.156191 0.015534
0.350256 0.164034 0.002869
0.380529 0.171756 0.000000
0.413153 0.179904 0.000000
0.448280 0.187991 0.000000
0.485542 0.196048 0.000000
0.524956 0.203799 0.000000
0.565820 0.211429 0.000000
0.606195 0.218296 0.000000
0.645594 0.224765 0.000000
0.684138 0.230381 0.000000
0.722927 0.235660 0.000000
0.763027 0.240879 0.000000
0.804227 0.245701 0.000000
0.846128 0.250309 0.000000
0.028901 0.084230 0.078798
0.030213 0.083833 0.079164
0.030060 0.084169 0.079133
0.034607 0.088502 0.074342
0.062440 0.090669 0.069062
0.082063 0.092866 0.059510
0.096345 0.093202 0.059327
0.108705 0.095460 0.059297
0.122133 0.098482 0.058503
0.137087 0.102724 0.057984
0.153567 0.107424 0.055177
0.171481 0.113313 0.053040
0.190921 0.119722 0.049897
0.213321 0.126986 0.046845
0.239841 0.135866 0.041688
0.266545 0.144533 0.036164
0.293584 0.152560 0.028229
0.321324 0.160494 0.017395
0.349950 0.168276 0.005585
0.380652 0.176181 0.000000
0.413916 0.184176 0.000000
0.449836 0.192416 0.000000
0.555474 0.215946 0.000000
0.593530 0.222751 0.000000
0.629267 0.228367 0.000000
0.663478 0.233341 0.000000
0.696712 0.238010 0.000000
0.730587 0.242466 0.000000
0.765652 0.246769 0.000000
0.802090 0.251102 0.000000
0.839109 0.255100 0.000000
0.876555 0.258762 0.000000
0.035889 0.091402 0.085512
0.036988 0.091035 0.086122
0.036927 0.090730 0.086427
0.034882 0.093538 0.083223
0.051698 0.097932 0.079225
0.072999 0.099733 0.074281
0.094545 0.103883 0.062654
0.111238 0.106172 0.061494
0.126680 0.108400 0.060700
0.142428 0.112612 0.059815
0.159701 0.117586 0.058412
0.178500 0.123049 0.055055
0.198276 0.129183 0.052430
0.225620 0.138460 0.047822
0.252995 0.147280 0.042786
0.279881 0.155245 0.034394
0.306889 0.163058 0.026673
0.334722 0.170596 0.015015
0.364508 0.178134 0.000610
0.397894 0.186404 0.000000
0.435859 0.195499 0.000000
0.478492 0.204837 0.000000
0.524468 0.214267 0.000000
0.571313 0.223301 0.000000
0.614893 0.230930 0.000000
0.653620 0.236912 0.000000
0.689204 0.241855 0.000000
0.723964 0.246494 0.000000
0.759609 0.250858 0.000000
0.795895 0.255039 0.000000
0.833066 0.258915 0.000000
0.870634 0.262638 0.000000
0.041810 0.096376 0.090974
0.041810 0.096376 0.090974
0.041749 0.096101 0.091249
0.041901 0.096956 0.090364
0.046082 0.100923 0.086580
0.064027 0.105531 0.082612
0.082918 0.108522 0.077363
0.105684 0.114260 0.066346
0.124544 0.117403 0.063630
0.142458 0.120455 0.062348
0.159762 0.125063 0.060609
0.178225 0.130434 0.059236
0.201236 0.137850 0.055787
0.227085 0.146304 0.052338
0.252750 0.154269 0.047242
0.278111 0.161440 0.039857
0.304204 0.168704 0.029511
0.331365 0.175875 0.019440
0.360540 0.183139 0.004486
0.393256 0.191196 0.000000
0.430457 0.200076 0.000000
0.472084 0.209354 0.000000
0.517144 0.218753 0.000000
0.563439 0.227726 0.000000
0.607141 0.235264 0.000000
0.646357 0.241520 0.000000
0.682521 0.246647 0.000000
0.717647 0.251255 0.000000
0.753628 0.255741 0.000000
0.790280 0.259800 0.000000
0.827756 0.263828 0.000000
0.865660 0.267674 0.000000
0.046448 0.101656 0.095491
0.046235 0.101656 0.095766
0.047395 0.101350 0.096040
0.047639 0.100801 0.096101
0.045472 0.104829 0.092348
0.058839 0.108949 0.089631
0.074800 0.114076 0.085634
0.093812 0.118013 0.080720
0.118776 0.125368 0.069368
0.139498 0.130190 0.066163
0.160555 0.133913 0.063111
0.181582 0.140261 0.061189
0.205447 0.148104 0.059144
0.230106 0.155581 0.054780
0.254398 0.162722 0.050111
0.279088 0.169467 0.041688
0.304509 0.176150 0.032837
0.331273 0.182834 0.020874
0.359960 0.189944 0.007141
0.392309 0.197971 0.000000
0.428840 0.206455 0.000000
0.469886 0.215518 0.000000
0.514092 0.225010 0.000000
0.559747 0.233738 0.000000
0.603265 0.241581 0.000000
0.642481 0.247623 0.000000
0.678767 0.252750 0.000000
0.713893 0.257267 0.000000
0.749783 0.261540 0.000000
0.786374 0.265751 0.000000
0.823728 0.269749 0.000000
0.861509 0.273472 0.000000
0.050629 0.106844 0.100282
0.050629 0.106844 0.100282
0.050752 0.106569 0.100282
0.051118 0.105837 0.100343
0.048981 0.108400 0.098421
0.054505 0.112703 0.095155
0.067720 0.117433 0.092134
0.085054 0.121614 0.089113
0.106477 0.128450 0.083223
0.132845 0.137179 0.071748
0.157687 0.144533 0.067659
0.183627 0.151034 0.064179
0.208042 0.157748 0.061280
0.231724 0.164889 0.058045
0.256321 0.171695 0.052369
0.281437 0.178531 0.045167
0.307774 0.185489 0.033112
0.335027 0.192142 0.021576
0.364019 0.199222 0.005035
0.395850 0.206516 0.000000
0.431098 0.214755 0.000000
0.469703 0.223178 0.000000
0.511131 0.231785 0.000000
0.554223 0.240024 0.000000
0.596277 0.247501 0.000000
0.635462 0.253635 0.000000
0.672541 0.258946 0.000000
0.708583 0.263706 0.000000
0.745510 0.268162 0.000000
0.783200 0.272557 0.000000
0.821530 0.276646 0.000000
0.860227 0.280522 0.000000
0.053712 0.112001 0.104494
0.054139 0.111513 0.104311
0.054108 0.111299 0.104555
0.054353 0.110811 0.104616
0.054200 0.112001 0.103822
0.053346 0.115999 0.100130
0.063447 0.120851 0.097780
0.077546 0.126497 0.094606
0.096620 0.129854 0.091890
0.121462 0.140780 0.084810
0.152438 0.152743 0.072694
0.180179 0.161532 0.068025
0.207462 0.168276 0.063783
0.234073 0.174929 0.059602
0.258091 0.181369 0.054810
0.283055 0.187900 0.047150
0.308934 0.194308 0.035431
0.335912 0.200778 0.021668
0.364569 0.207584 0.006256
0.396063 0.214847 0.000000
0.430945 0.222782 0.000000
0.469245 0.231266 0.000000
0.510491 0.239780 0.000000
0.553307 0.248203 0.000000
0.594934 0.255436 0.000000
0.633692 0.261601 0.000000
0.670283 0.266728 0.000000
0.705837 0.271305 0.000000
0.742428 0.275761 0.000000
0.779812 0.279973 0.000000
0.818112 0.284062 0.000000
0.856779 0.287999 0.000000
0.057832 0.116854 0.108553
0.057679 0.116854 0.108766
0.057954 0.116640 0.108583
0.058320 0.115969 0.108644
0.058686 0.115511 0.108461
0.056397 0.119600 0.105379
0.060975 0.124392 0.102785
0.071992 0.130159 0.100343
0.090211 0.137484 0.097108
0.111727 0.142885 0.094514
0.140261 0.156283 0.085908
0.174075 0.169619 0.072969
0.227695 0.195010 0.065095
0.261723 0.203464 0.057649
0.295476 0.210422 0.044984
0.322362 0.216281 0.030854
0.349615 0.221988 0.015229
0.377447 0.227543 0.000000
0.406531 0.233310 0.000000
0.438422 0.239536 0.000000
0.473060 0.246464 0.000000
0.510185 0.253727 0.000000
0.548821 0.260624 0.000000
0.587488 0.267185 0.000000
0.624384 0.272679 0.000000
0.659297 0.277440 0.000000
0.692531 0.281376 0.000000
0.725704 0.285008 0.000000
0.759731 0.288579 0.000000
0.794888 0.292119 0.000000
0.830777 0.295659 0.000000
0.867460 0.298863 0.000000
0.060517 0.123690 0.114107
0.060517 0.123690 0.114107
0.060792 0.123049 0.113954
0.061006 0.122408 0.114015
0.061097 0.121187 0.113497
0.059846 0.124025 0.111574
0.060334 0.129244 0.108217
0.069093 0.135836 0.106538
0.084108 0.143679 0.103975
0.106661 0.152895 0.100374
0.132723 0.161227 0.096834
0.166995 0.177920 0.086702
0.207919 0.195010 0.071015
0.245731 0.208011 0.063569
0.282383 0.217624 0.051972
0.319982 0.225559 0.031891
0.348150 0.231388 0.015534
0.375738 0.236759 0.000000
0.404578 0.242405 0.000000
0.435706 0.248569 0.000000
0.469612 0.255100 0.000000
0.506157 0.262089 0.000000
0.543999 0.269169 0.000000
0.582330 0.275608 0.000000
0.618921 0.281041 0.000000
0.653620 0.285679 0.000000
0.686915 0.289616 0.000000
0.720150 0.293278 0.000000
0.754360 0.296818 0.000000
0.789822 0.300420 0.000000
0.826200 0.303960 0.000000
0.863310 0.307500 0.000000
0.062806 0.128786 0.118105
0.062867 0.128573 0.118105
0.062959 0.128389 0.118135
0.063142 0.127779 0.118196
0.063020 0.126802 0.118074
0.062959 0.128023 0.117159
0.061372 0.133394 0.113619
0.066407 0.139651 0.111635
0.078096 0.147066 0.109529
0.097078 0.156069 0.106508
0.121462 0.164675 0.103273
0.151125 0.176455 0.097932
0.188296 0.194461 0.086610
0.231174 0.211978 0.069215
0.269566 0.224613 0.059663
0.306432 0.233555 0.042145
0.343847 0.240970 0.017731
0.374487 0.246555 0.000000
0.403113 0.252018 0.000000
0.433997 0.258030 0.000000
0.467781 0.264591 0.000000
0.503899 0.271550 0.000000
0.541619 0.278569 0.000000
0.579797 0.285039 0.000000
0.616358 0.290562 0.000000
0.651087 0.295140 0.000000
0.684413 0.299046 0.000000
0.717586 0.302678 0.000000
0.751858 0.306188 0.000000
0.787472 0.309789 0.000000
0.824063 0.313420 0.000000
0.861387 0.316899 0.000000
0.065278 0.135622 0.123262
0.065339 0.135439 0.123293
0.065522 0.134859 0.123323
0.065339 0.134127 0.123201
0.065492 0.132845 0.122774
0.065614 0.131899 0.122072
0.064271 0.136690 0.119905
0.065370 0.142885 0.116304
0.073884 0.150027 0.114351
0.089174 0.158785 0.112001
0.111543 0.169039 0.108858
0.137942 0.177218 0.105928
0.171084 0.192599 0.098634
0.210636 0.211185 0.085847
0.255070 0.228916 0.065675
0.293706 0.240787 0.051637
0.330938 0.249454 0.027008
0.368902 0.256626 0.000336
0.403601 0.262669 0.000000
0.434058 0.268406 0.000000
0.467170 0.274907 0.000000
0.502617 0.281651 0.000000
0.539818 0.288518 0.000000
0.577691 0.294957 0.000000
0.614313 0.300603 0.000000
0.649561 0.305364 0.000000
0.683894 0.309483 0.000000
0.718410 0.313390 0.000000
0.754086 0.317357 0.000000
0.790951 0.321233 0.000000
0.828733 0.325048 0.000000
0.866819 0.328710 0.000000
0.067720 0.141695 0.128054
0.067781 0.141512 0.128054
0.067903 0.141176 0.128084
0.067872 0.140291 0.127810
0.067536 0.139101 0.127382
0.067536 0.137331 0.126619
0.066865 0.140627 0.125399
0.065736 0.146609 0.121431
0.071473 0.154055 0.119600
0.083497 0.162539 0.117830
0.102693 0.172671 0.115145
0.128450 0.184024 0.111177
0.155917 0.190616 0.109194
0.191745 0.208865 0.099092
0.232303 0.227115 0.084474
0.277165 0.244083 0.061433
0.316228 0.255650 0.039094
0.354681 0.264683 0.011810
0.395117 0.272679 0.000000
0.436561 0.280278 0.000000
0.470344 0.286992 0.000000
0.506615 0.294041 0.000000
0.544335 0.301091 0.000000
0.582116 0.307561 0.000000
0.618677 0.313085 0.000000
0.654047 0.317845 0.000000
0.688289 0.321874 0.000000
0.722805 0.325628 0.000000
0.758236 0.329473 0.000000
0.794430 0.333104 0.000000
0.831113 0.336706 0.000000
0.868132 0.340063 0.000000
0.069795 0.147341 0.132479
0.070008 0.147005 0.132326
0.069764 0.146548 0.132204
0.069825 0.145724 0.131746
0.070039 0.144350 0.131350
0.070039 0.142672 0.130617
0.068788 0.143313 0.129671
0.067628 0.149142 0.127169
0.069520 0.156252 0.123598
0.079072 0.164492 0.122377
0.094331 0.174197 0.120333
0.116548 0.185367 0.117342
0.145022 0.197696 0.112978
0.174289 0.205112 0.110567
0.212253 0.224521 0.099001
0.254215 0.242649 0.082826
0.300023 0.259495 0.054597
0.340124 0.271092 0.024750
0.380682 0.280674 0.000000
0.423651 0.289525 0.000000
0.470161 0.298131 0.000000
0.506645 0.305180 0.000000
0.544060 0.312139 0.000000
0.581872 0.318791 0.000000
0.618494 0.324376 0.000000
0.653956 0.329168 0.000000
0.688533 0.333227 0.000000
0.723445 0.337224 0.000000
0.759182 0.341070 0.000000
0.795712 0.344854 0.000000
0.832639 0.348516 0.000000
0.869902 0.351873 0.000000
0.072053 0.153048 0.136843
0.072175 0.152895 0.136690
0.074189 0.157321 0.140200
0.073884 0.156283 0.139803
0.073640 0.154452 0.139010
0.073548 0.152285 0.138064
0.073274 0.149783 0.136782
0.071748 0.155795 0.135073
0.070497 0.163210 0.131044
0.077668 0.171878 0.129641
0.091157 0.182040 0.128023
0.110964 0.193423 0.125612
0.137331 0.206210 0.121736
0.168185 0.217594 0.117617
0.202457 0.228458 0.112856
0.243992 0.248783 0.099214
0.289311 0.267460 0.079347
0.338262 0.284520 0.032837
0.380743 0.296117 0.000000
0.424384 0.306096 0.000000
0.470222 0.315099 0.000000
0.519280 0.323644 0.000000
0.559838 0.330266 0.000000
0.595209 0.335668 0.000000
0.628809 0.339910 0.000000
0.661280 0.343481 0.000000
0.693172 0.346532 0.000000
0.726101 0.349645 0.000000
0.760739 0.353155 0.000000
0.796872 0.356817 0.000000
0.833494 0.360388 0.000000
0.870420 0.363653 0.000000
0.074952 0.159945 0.142031
0.075105 0.160372 0.142306
0.075227 0.160647 0.142763
0.075593 0.160037 0.142489
0.075654 0.158999 0.142275
0.075074 0.157076 0.141329
0.074922 0.154330 0.140139
0.073884 0.157076 0.139071
0.072633 0.164248 0.136416
0.074830 0.172671 0.133089
0.085420 0.182223 0.131838
0.101595 0.193362 0.130159
0.124147 0.205692 0.127413
0.153231 0.219333 0.123323
0.184756 0.229374 0.119631
0.221622 0.242924 0.112703
0.264347 0.263127 0.097597
0.311131 0.281926 0.075349
0.361791 0.299351 0.012940
0.406104 0.311376 0.000000
0.452216 0.322332 0.000000
0.501549 0.332647 0.000000
0.552850 0.341741 0.000000
0.596246 0.347967 0.000000
0.630182 0.352300 0.000000
0.662898 0.356023 0.000000
0.695033 0.359045 0.000000
0.728145 0.362280 0.000000
0.762753 0.365728 0.000000
0.798581 0.369299 0.000000
0.834989 0.372717 0.000000
0.871763 0.376074 0.000000
0.076753 0.165164 0.145754
0.076997 0.165438 0.145876
0.077180 0.165682 0.146181
0.077333 0.165255 0.146212
0.077272 0.163821 0.145724
0.077119 0.161959 0.144808
0.076692 0.159182 0.143496
0.075868 0.158358 0.142336
0.074739 0.165164 0.140719
0.073915 0.173434 0.136599
0.080903 0.182803 0.135622
0.094209 0.193545 0.134432
0.113405 0.205631 0.132479
0.138949 0.219028 0.129335
0.170657 0.233310 0.124483
0.203006 0.241855 0.121767
0.242557 0.258671 0.112245
0.287449 0.279179 0.095491
0.336370 0.298436 0.069612
0.389502 0.316533 0.000000
0.436011 0.329259 0.000000
0.485206 0.341039 0.000000
0.537346 0.352117 0.000000
0.588373 0.360510 0.000000
0.632593 0.365484 0.000000
0.665003 0.368872 0.000000
0.696773 0.371862 0.000000
0.729580 0.374945 0.000000
0.763882 0.378271 0.000000
0.799252 0.381720 0.000000
0.835355 0.385107 0.000000
0.871946 0.388342 0.000000
0.078706 0.170443 0.149508
0.078889 0.170687 0.149783
0.079072 0.170962 0.150057
0.079347 0.170382 0.149966
0.078828 0.169162 0.149477
0.078859 0.167086 0.148470
0.078126 0.164309 0.147066
0.077638 0.161013 0.145357
0.076539 0.166079 0.144442
0.075685 0.174014 0.141909
0.077913 0.183169 0.138949
0.088655 0.193729 0.138186
0.104585 0.205417 0.136751
0.126680 0.218479 0.134463
0.154910 0.232883 0.131106
0.189670 0.248325 0.125673
0.223789 0.255741 0.123934
0.267857 0.277195 0.111910
0.317144 0.299687 0.092470
0.371618 0.321202 0.060212
0.430488 0.341405 0.000000
0.482948 0.355993 0.000000
0.536461 0.368841 0.000000
0.590173 0.379431 0.000000
0.639033 0.385992 0.000000
0.683284 0.389136 0.000000
0.715663 0.391821 0.000000
0.748348 0.394598 0.000000
0.782101 0.397467 0.000000
0.816373 0.400336 0.000000
0.851225 0.403174 0.000000
0.886625 0.406104 0.000000
0.081697 0.178470 0.155154
0.081971 0.178561 0.155276
0.081788 0.178195 0.155184
0.081880 0.177401 0.154818
0.081300 0.175723 0.154116
0.080781 0.173495 0.152895
0.080629 0.170535 0.151400
0.079927 0.167117 0.149660
0.079011 0.167788 0.148409
0.077943 0.175875 0.147158
0.077211 0.185245 0.143374
0.084810 0.195865 0.142672
0.098451 0.207828 0.141939
0.117983 0.221134 0.140414
0.143618 0.235752 0.137789
0.175631 0.251560 0.133669
0.212253 0.266148 0.128573
0.251102 0.275761 0.126162
0.299474 0.300328 0.110933
0.352697 0.323705 0.088075
0.410498 0.345586 0.032746
0.471962 0.365759 0.000000
0.524743 0.379400 0.000000
0.575921 0.390204 0.000000
0.626062 0.398474 0.000000
0.672023 0.403449 0.000000
0.715358 0.405921 0.000000
0.750881 0.408362 0.000000
0.784237 0.411139 0.000000
0.818173 0.413855 0.000000
0.852567 0.416632 0.000000
0.887633 0.419715 0.000000
0.083955 0.184390 0.159213
0.084016 0.184268 0.159243
0.083772 0.184024 0.159121
0.083803 0.183261 0.158907
0.083345 0.181521 0.158114
0.082979 0.179110 0.156802
0.082551 0.176150 0.155215
0.081758 0.172457 0.153262
0.080751 0.168582 0.151003
0.079591 0.175937 0.150759
0.079011 0.185245 0.148623
0.081361 0.195895 0.145876
0.092409 0.207614 0.145388
0.109133 0.220676 0.144625
0.131777 0.235447 0.142855
0.160403 0.251347 0.139895
0.196139 0.268772 0.135409
0.235172 0.283238 0.131106
0.278477 0.296513 0.126528
0.331304 0.322606 0.109010
0.389197 0.347387 0.081300
0.451545 0.370581 0.000000
0.516411 0.391363 0.000000
0.570367 0.404486 0.000000
0.608484 0.407874 0.000000
0.656428 0.414801 0.000000
0.701381 0.419074 0.000000
0.744930 0.421546 0.000000
0.782956 0.423529 0.000000
0.816800 0.426398 0.000000
0.851438 0.429480 0.000000
0.886687 0.432929 0.000000
0.086976 0.192996 0.165164
0.087282 0.192966 0.165286
0.087160 0.192630 0.165042
0.086763 0.191592 0.164492
0.086580 0.189578 0.163485
0.085756 0.186831 0.162142
0.084871 0.183658 0.160403
0.084077 0.179660 0.158145
0.082795 0.175051 0.155612
0.081819 0.177005 0.154421
0.080934 0.185855 0.153567
0.080293 0.196323 0.149935
0.087892 0.208011 0.149081
0.101808 0.220768 0.148592
0.121248 0.234958 0.147341
0.146761 0.250401 0.145205
0.178439 0.267277 0.141756
0.217105 0.285588 0.136324
0.258000 0.299077 0.132784
0.305791 0.316167 0.125612
0.362615 0.343603 0.105684
0.424384 0.369482 0.071656
0.489235 0.392828 0.000000
0.554131 0.412421 0.000000
0.603510 0.422553 0.000000
0.646601 0.428046 0.000000
0.692226 0.433539 0.000000
0.736110 0.437018 0.000000
0.778714 0.439002 0.000000
0.818387 0.440253 0.000000
0.852445 0.443366 0.000000
0.887480 0.447028 0.000000
0.089235 0.199313 0.169345
0.089235 0.199313 0.169345
0.089418 0.198947 0.169253
0.089082 0.197848 0.168734
0.088533 0.195926 0.167758
0.087800 0.193149 0.166323
0.087068 0.189883 0.164523
0.086061 0.185916 0.162203
0.084901 0.181369 0.159792
0.083650 0.177218 0.156954
0.083040 0.186007 0.157259
0.082399 0.196506 0.155459
0.084291 0.208469 0.152316
0.095979 0.221561 0.152590
0.113130 0.236179 0.152285
0.136110 0.251957 0.150851
0.165469 0.269444 0.148501
0.201755 0.288457 0.144503
0.245731 0.309087 0.138369
0.290166 0.322332 0.135836
0.344427 0.344182 0.125521
0.406714 0.373114 0.101106
0.473060 0.399817 0.052277
0.540551 0.422858 0.000000
0.602258 0.439185 0.000000
0.647913 0.446326 0.000000
0.687282 0.449470 0.000000
0.732357 0.454292 0.000000
0.776242 0.457588 0.000000
0.818540 0.459510 0.000000
0.859037 0.460334 0.000000
0.894194 0.463691 0.000000
0.092042 0.207431 0.174594
0.092134 0.207187 0.174624
0.092134 0.206760 0.174289
0.091859 0.205478 0.173800
0.091310 0.203311 0.172519
0.090486 0.200351 0.170901
0.089296 0.196872 0.169070
0.088228 0.192630 0.166629
0.086976 0.187930 0.164034
0.085664 0.182681 0.161013
0.084840 0.185824 0.160189
0.084016 0.196170 0.159823
0.083833 0.208377 0.157107
0.091127 0.221775 0.155978
0.105684 0.236393 0.156435
0.126162 0.252537 0.155795
0.152773 0.270298 0.154177
0.186130 0.289555 0.151553
0.227176 0.310643 0.146883
0.275242 0.332280 0.140414
0.324468 0.345892 0.138521
0.384985 0.372381 0.123598
0.452277 0.402441 0.093782
0.521813 0.429175 0.000000
0.587671 0.449653 0.000000
0.644373 0.462226 0.000000
0.686458 0.466896 0.000000
0.723781 0.468727 0.000000
0.768002 0.473030 0.000000
0.811551 0.476356 0.000000
0.853178 0.478462 0.000000
0.893004 0.480140 0.000000
0.094972 0.215488 0.179629
0.095064 0.215244 0.179660
0.095033 0.214725 0.179477
0.094575 0.213504 0.178744
0.094026 0.211337 0.177646
0.093416 0.208713 0.176333
0.092561 0.205417 0.174563
0.091279 0.201602 0.172549
0.090364 0.197238 0.170199
0.088746 0.192355 0.167300
0.087282 0.188266 0.164675
0.087434 0.199527 0.166079
0.087587 0.212802 0.165469
0.089143 0.227909 0.162478
0.102266 0.244175 0.163729
0.121614 0.261845 0.164218
0.147433 0.281254 0.163882
0.180453 0.302464 0.162234
0.221164 0.325566 0.158968
0.270726 0.350408 0.153597
0.325780 0.372839 0.146853
0.385138 0.388861 0.145022
0.456306 0.421454 0.123018
0.530419 0.452369 0.081971
0.598749 0.475288 0.000000
0.657252 0.489204 0.000000
0.708186 0.496773 0.000000
0.747372 0.498939 0.000000
0.781918 0.498695 0.000000
0.823301 0.501427 0.000000
0.864591 0.503868 0.000000
0.903929 0.505913 0.000000
0.101137 0.230442 0.189334
0.101015 0.230167 0.189273
0.100893 0.229404 0.188876
0.100374 0.227878 0.188144
0.099550 0.225406 0.186801
0.098482 0.222293 0.185183
0.097322 0.218448 0.182986
0.096010 0.214115 0.180728
0.094514 0.209018 0.177859
0.092958 0.203372 0.174746
0.091127 0.196933 0.170993
0.090303 0.201175 0.170565
0.090211 0.214298 0.171389
0.090333 0.229252 0.169467
