data/fiter_cube/63078869/1022677/file.cube
# Created by Adobe Lightroom plugin Export LUT (1.17.0)
# www.johnrellis.com/lightroom/exportlut.htm
# Preset: 暗调胶片街拍_06 云集
# Color profile: C:\Program Files (x86)\Common Files\Adobe\Color\Profiles\Recommended\AdobeRGB1998.icc
LUT_3D_SIZE 8
DOMAIN_MIN 0.000000 0.000000 0.000000
DOMAIN_MAX 0.903226 0.903226 0.903226
0.014374 0.048188 0.049042
0.074678 0.064729 0.052735
0.125124 0.081727 0.051637
0.197757 0.107240 0.039246
0.310857 0.144961 0.013214
0.441169 0.179690 0.000000
0.591730 0.209842 0.000000
0.737636 0.231876 0.000000
0.024262 0.076448 0.071656
0.072175 0.084199 0.056489
0.122011 0.092409 0.056031
0.191012 0.114229 0.047608
0.294194 0.147982 0.024201
0.413153 0.179904 0.000000
0.565820 0.211429 0.000000
0.722927 0.235660 0.000000
0.046448 0.101656 0.095491
0.045472 0.104829 0.092348
0.118776 0.125368 0.069368
0.205447 0.148104 0.059144
0.304509 0.176150 0.032837
0.428840 0.206455 0.000000
0.603265 0.241581 0.000000
0.749783 0.261540 0.000000
0.060517 0.123690 0.114107
0.061097 0.121187 0.113497
0.084108 0.143679 0.103975
0.207919 0.195010 0.071015
0.348150 0.231388 0.015534
0.469612 0.255100 0.000000
0.618921 0.281041 0.000000
0.754360 0.296818 0.000000
0.069795 0.147341 0.132479
0.070039 0.144350 0.131350
0.069520 0.156252 0.123598
0.145022 0.197696 0.112978
0.300023 0.259495 0.054597
0.470161 0.298131 0.000000
0.618494 0.324376 0.000000
0.759182 0.341070 0.000000
0.078706 0.170443 0.149508
0.078828 0.169162 0.149477
0.076539 0.166079 0.144442
0.104585 0.205417 0.136751
0.223789 0.255741 0.123934
0.430488 0.341405 0.000000
0.639033 0.385992 0.000000
0.782101 0.397467 0.000000
0.089235 0.199313 0.169345
0.088533 0.195926 0.167758
0.084901 0.181369 0.159792
0.084291 0.208469 0.152316
0.165469 0.269444 0.148501
0.344427 0.344182 0.125521
0.602258 0.439185 0.000000
0.776242 0.457588 0.000000
0.105989 0.243137 0.197238
0.104402 0.238071 0.194644
0.099092 0.221530 0.185946
0.093935 0.217563 0.177859
0.125429 0.279545 0.172396
0.283940 0.381018 0.165347
0.567620 0.491981 0.109316
0.790188 0.539269 0.000000
0.019013 0.077729 0.082856
0.061616 0.080629 0.088746
0.112245 0.094942 0.085359
0.181735 0.115084 0.082338
0.281987 0.143954 0.072786
0.395544 0.172396 0.040894
0.547326 0.202792 0.000000
0.707485 0.226932 0.000000
0.031006 0.087526 0.080751
0.064118 0.094545 0.088991
0.112764 0.104067 0.087648
0.181430 0.121431 0.082460
0.277073 0.148714 0.072908
0.386328 0.176120 0.043763
0.529808 0.205081 0.000000
0.692256 0.230259 0.000000
0.056306 0.108888 0.103365
0.058045 0.110689 0.103670
0.114168 0.128969 0.091188
0.192844 0.147433 0.083070
0.281865 0.170779 0.072267
0.396033 0.198245 0.036042
0.550958 0.229648 0.000000
0.713375 0.254032 0.000000
0.064637 0.128420 0.119112
0.065522 0.126772 0.119448
0.085298 0.146090 0.111879
0.189731 0.184268 0.088350
0.303136 0.211368 0.069368
0.414282 0.235447 0.018585
0.564324 0.265202 0.000000
0.719081 0.287785 0.000000
0.073823 0.152285 0.137392
0.073457 0.148959 0.136019
0.071992 0.157656 0.128420
0.140261 0.194247 0.118776
0.279820 0.247196 0.076967
0.439063 0.284489 0.000000
0.590387 0.314458 0.000000
0.737606 0.334264 0.000000
0.081392 0.173342 0.152468
0.080903 0.170260 0.151003
0.078950 0.164981 0.146365
0.103090 0.202548 0.139651
0.217624 0.251865 0.129397
0.421027 0.336461 0.002533
0.627039 0.380804 0.000000
0.767575 0.392309 0.000000
0.090700 0.199771 0.170199
0.089448 0.195254 0.167788
0.086427 0.182010 0.160678
0.084504 0.205447 0.153414
0.161776 0.265629 0.151186
0.333227 0.336797 0.131655
0.581048 0.427924 0.000000
0.756344 0.448646 0.000000
0.106996 0.243076 0.197543
0.105684 0.238804 0.195529
0.100679 0.223026 0.187137
0.094575 0.213748 0.177768
0.127932 0.285893 0.178134
0.285771 0.384985 0.171023
0.560845 0.488624 0.118959
0.780850 0.534691 0.000000
0.035523 0.107088 0.115633
0.053193 0.105776 0.119051
0.101900 0.109377 0.126101
0.179995 0.122957 0.115389
0.282597 0.149599 0.111147
0.399573 0.178134 0.101137
0.558465 0.205783 0.067323
0.718563 0.226017 0.000000
0.048798 0.114504 0.117037
0.063691 0.115816 0.120363
0.107576 0.114229 0.121462
0.179171 0.130495 0.115969
0.274754 0.154665 0.111177
0.390661 0.181827 0.100313
0.546380 0.209506 0.066987
0.711299 0.230930 0.000000
0.063844 0.126070 0.114260
0.071626 0.130068 0.123690
0.111849 0.140749 0.123293
0.189731 0.156435 0.118807
0.285832 0.179294 0.112795
0.401282 0.204166 0.099214
0.555016 0.231601 0.062745
0.715175 0.252323 0.000000
0.077241 0.150454 0.136690
0.081636 0.152041 0.142184
0.090639 0.161135 0.137789
0.192752 0.195346 0.125063
0.305272 0.218692 0.112795
0.421332 0.242252 0.097139
0.575738 0.269902 0.050416
0.727901 0.288914 0.000000
0.087953 0.173587 0.155673
0.087678 0.170474 0.154696
0.086213 0.169192 0.150576
0.146242 0.208865 0.144106
0.287907 0.258457 0.118502
0.441657 0.289830 0.092683
0.592401 0.317174 0.020600
0.740505 0.335149 0.000000
0.094911 0.193179 0.169100
0.094331 0.190005 0.167849
0.091341 0.177584 0.161715
0.107301 0.210147 0.156130
0.217929 0.259159 0.151156
0.412726 0.335363 0.099001
0.621241 0.379278 0.000000
0.769070 0.394141 0.000000
0.104921 0.220737 0.186648
0.103334 0.216068 0.184329
0.098146 0.200259 0.175601
0.093599 0.208621 0.167300
0.160159 0.268894 0.165957
0.332555 0.341283 0.155428
0.590143 0.435492 0.000000
0.772061 0.456733 0.000000
0.120974 0.263645 0.211795
0.118288 0.257664 0.208652
0.111208 0.239536 0.199130
0.101076 0.212009 0.183597
0.124147 0.282017 0.185977
0.277989 0.385199 0.185672
0.560327 0.492988 0.150057
0.787045 0.540276 0.000000
0.042695 0.141085 0.155886
0.062806 0.142458 0.159365
0.090974 0.132937 0.160128
0.164340 0.141695 0.174563
0.266911 0.140352 0.153170
0.376898 0.175204 0.148959
0.529534 0.200107 0.137179
0.699580 0.218265 0.110628
0.059876 0.149844 0.158968
0.071138 0.150820 0.161837
0.094789 0.140780 0.162142
0.170932 0.146548 0.173709
0.264866 0.159243 0.156100
0.374914 0.181643 0.149050
0.525261 0.205722 0.136660
0.697597 0.223545 0.108339
0.066194 0.161471 0.157717
0.076692 0.163210 0.160952
0.103670 0.163973 0.168307
0.177523 0.169436 0.164279
0.273411 0.186160 0.159426
0.394476 0.209934 0.154391
0.561822 0.236027 0.141360
0.719356 0.249729 0.109194
0.087373 0.179568 0.153536
0.095033 0.182467 0.158694
0.111879 0.186038 0.177920
0.189364 0.208743 0.169802
0.287877 0.224094 0.163333
0.404730 0.245029 0.155337
0.563867 0.269841 0.137911
0.726131 0.286778 0.105501
0.103975 0.206577 0.176028
0.108827 0.206638 0.180697
0.114504 0.199619 0.184787
0.150729 0.228397 0.181552
0.291905 0.273381 0.171695
0.439643 0.298924 0.158572
0.594415 0.323064 0.137606
0.743069 0.336858 0.101595
0.120485 0.232822 0.198093
0.126711 0.235782 0.203708
0.119539 0.217868 0.195010
0.118685 0.226291 0.185519
0.227939 0.282872 0.187930
0.421698 0.349584 0.162325
0.628595 0.386664 0.136782
0.769741 0.397925 0.098909
0.135378 0.262089 0.217288
0.133516 0.257420 0.215183
0.125551 0.239994 0.206302
0.112123 0.213260 0.189425
0.159976 0.280186 0.192355
0.337865 0.355688 0.192905
0.596155 0.445197 0.128267
0.779385 0.462562 0.087770
0.156832 0.311009 0.243015
0.153964 0.305638 0.240513
0.141848 0.284337 0.229526
0.122896 0.247440 0.209049
0.119051 0.272618 0.197818
0.259037 0.381903 0.207126
0.551720 0.496803 0.190433
0.791043 0.547692 0.000000
0.059419 0.190982 0.209720
0.075593 0.192264 0.212497
0.097017 0.179660 0.214359
0.147280 0.172885 0.212650
0.243473 0.181582 0.229038
0.370520 0.146792 0.199985
0.513054 0.205173 0.200748
0.691493 0.225284 0.196323
0.071046 0.198215 0.211704
0.084749 0.201236 0.216068
0.106416 0.191043 0.218112
0.149630 0.179355 0.213657
0.246403 0.184543 0.227298
0.370642 0.161654 0.199405
0.516106 0.212375 0.201236
0.692744 0.231205 0.195804
0.084169 0.214267 0.213870
0.096162 0.215793 0.216464
0.123629 0.213748 0.219944
0.156161 0.198886 0.216464
0.256718 0.194095 0.217105
0.362249 0.213687 0.204227
0.518151 0.233433 0.200717
0.691585 0.248173 0.190951
0.093294 0.223117 0.205722
0.101869 0.223850 0.207492
0.128267 0.228672 0.215457
0.176425 0.229282 0.220706
0.268132 0.237583 0.214328
0.382940 0.252171 0.209476
0.540581 0.270329 0.201846
0.709316 0.279789 0.184237
0.118318 0.241642 0.196262
0.125704 0.244358 0.199710
0.144717 0.247654 0.215305
0.154177 0.244480 0.221256
0.281132 0.283452 0.219791
0.408118 0.298985 0.211856
0.566522 0.318425 0.199741
0.727840 0.330114 0.180514
0.135714 0.266056 0.212985
0.140169 0.265934 0.216617
0.152865 0.263645 0.226505
0.146853 0.240848 0.219455
0.210758 0.289921 0.219638
0.406989 0.354345 0.216098
0.612329 0.389746 0.205447
0.760586 0.398566 0.184817
0.159426 0.304570 0.238651
0.162051 0.302678 0.240269
0.170840 0.297429 0.245731
0.154116 0.265629 0.230808
0.149081 0.273930 0.215824
0.318975 0.363073 0.227329
0.585138 0.449622 0.197940
0.777005 0.464515 0.180758
0.190311 0.359136 0.266606
0.191684 0.356237 0.267094
0.194827 0.345769 0.267979
0.171725 0.311406 0.251743
0.131716 0.248112 0.214694
0.217105 0.361761 0.227512
0.516289 0.488411 0.230442
0.780880 0.551415 0.157290
0.101472 0.273564 0.282536
0.116732 0.274754 0.284611
0.144442 0.263462 0.281773
0.168063 0.231418 0.273442
0.228580 0.224369 0.270542
0.344915 0.230289 0.284672
0.519677 0.179263 0.271733
0.693019 0.199771 0.261601
0.104311 0.269688 0.275853
0.116670 0.269596 0.276829
0.144228 0.262608 0.276799
0.165927 0.232303 0.269383
0.226047 0.226658 0.268070
0.343297 0.230686 0.281468
0.515557 0.184451 0.267491
0.689540 0.216403 0.261723
0.121736 0.287449 0.278386
0.131044 0.285954 0.278416
0.161807 0.284184 0.281163
0.177829 0.254337 0.273991
0.235111 0.246799 0.272007
0.356451 0.241520 0.278477
0.521080 0.204776 0.257115
0.690944 0.270359 0.266331
0.126253 0.302281 0.274510
0.135439 0.300877 0.274479
0.166232 0.300664 0.277775
0.205142 0.296727 0.282933
0.255924 0.284916 0.281834
0.385199 0.266392 0.271061
0.536522 0.293675 0.268284
0.709926 0.310246 0.268193
0.135805 0.298955 0.255833
0.143679 0.299931 0.257542
0.168276 0.303136 0.262974
0.204685 0.308751 0.272435
0.269413 0.311376 0.275608
0.389685 0.318456 0.269139
0.550561 0.332647 0.265293
0.719509 0.341711 0.258091
0.162264 0.318486 0.243412
0.170077 0.322179 0.246860
0.191867 0.327794 0.255528
0.214115 0.325292 0.271489
0.216007 0.315526 0.268070
0.411810 0.379919 0.274998
0.595239 0.399451 0.267948
0.752987 0.403571 0.254765
0.197238 0.368292 0.264347
0.202396 0.369085 0.267704
0.214298 0.365362 0.275090
0.229465 0.356359 0.284092
0.202426 0.308904 0.266361
0.293919 0.380194 0.268681
0.590661 0.472511 0.266056
0.781308 0.484474 0.258030
0.233188 0.427619 0.290257
0.235019 0.425025 0.291203
0.241276 0.416968 0.294469
0.249882 0.403326 0.298894
0.216373 0.349462 0.280095
0.174899 0.322789 0.245548
0.469245 0.492592 0.268437
0.776028 0.566705 0.241184
0.163729 0.358618 0.338445
0.178347 0.361517 0.340948
0.208652 0.356603 0.341741
0.220462 0.321447 0.337255
0.257481 0.281376 0.322850
0.338293 0.284550 0.326055
0.475563 0.288090 0.338140
0.679164 0.246464 0.338659
0.162142 0.354620 0.333593
0.175387 0.357061 0.335912
0.206668 0.354314 0.337713
0.218631 0.321080 0.332494
0.251286 0.280095 0.318547
0.329229 0.282536 0.321447
0.464271 0.284306 0.333074
0.672786 0.243626 0.334539
0.175814 0.372045 0.335790
0.186130 0.372015 0.336584
0.218204 0.370703 0.338964
0.241611 0.348119 0.335058
0.257969 0.297948 0.320745
0.336278 0.299107 0.323583
0.481209 0.295995 0.334051
0.685206 0.259861 0.331731
0.184237 0.393133 0.335485
0.192172 0.391089 0.335241
0.220768 0.388586 0.336828
0.268650 0.386816 0.341558
0.273808 0.333532 0.327886
0.352392 0.330083 0.329259
0.509483 0.315953 0.333654
0.696132 0.290288 0.324681
0.178744 0.403265 0.326360
0.185916 0.401434 0.326177
0.211612 0.398810 0.327428
0.253513 0.397925 0.332036
0.292943 0.380377 0.332891
0.353765 0.359197 0.329168
0.523186 0.335546 0.320623
0.700130 0.365942 0.322850
0.192294 0.395911 0.306065
0.198947 0.396643 0.307225
0.220768 0.398993 0.310979
0.255985 0.404486 0.318334
0.300450 0.409857 0.327764
0.382574 0.408362 0.331609
0.557092 0.419837 0.325872
0.726894 0.433845 0.325841
0.229038 0.427771 0.295933
0.235935 0.430426 0.297978
0.256046 0.435462 0.302953
0.288945 0.443854 0.311345
0.315099 0.434424 0.324712
0.294957 0.393988 0.315557
0.587427 0.504814 0.332128
0.763760 0.506218 0.324956
0.282658 0.504204 0.308354
0.286351 0.503746 0.310216
0.302983 0.506493 0.318303
0.322515 0.502068 0.327947
0.337957 0.484474 0.336339
0.297490 0.415351 0.320714
0.372045 0.476661 0.308507
0.769223 0.598749 0.320836
0.268803 0.483345 0.411597
0.282017 0.485573 0.413916
0.315648 0.483589 0.416114
0.344457 0.463905 0.412634
0.347997 0.405951 0.401831
0.398260 0.357916 0.385534
0.522789 0.376196 0.399878
0.653468 0.392706 0.408362
0.265049 0.480964 0.407752
0.277775 0.483009 0.409979
0.314244 0.483742 0.413794
0.342046 0.463874 0.410010
0.345617 0.407233 0.399878
0.395117 0.359075 0.383917
0.519341 0.377356 0.398199
0.651118 0.391424 0.406439
0.262882 0.487556 0.404425
0.273991 0.488533 0.405921
0.307225 0.487068 0.408423
0.354345 0.483101 0.413367
0.354223 0.426062 0.402991
0.396765 0.371740 0.384588
0.520195 0.389044 0.398230
0.655146 0.398260 0.405524
0.254154 0.503197 0.401862
0.266361 0.504967 0.403815
0.301457 0.505028 0.407202
0.364508 0.509819 0.416571
0.384710 0.471168 0.410986
0.407874 0.402197 0.391150
0.525963 0.411902 0.400702
0.666468 0.413977 0.405615
0.252598 0.524193 0.396704
0.262516 0.526024 0.398718
0.289525 0.525566 0.401892
0.336980 0.526635 0.409857
0.423102 0.531426 0.422950
0.427832 0.458045 0.405249
0.526665 0.440436 0.402136
0.680446 0.435340 0.403693
0.260746 0.551385 0.391333
0.266941 0.551476 0.392157
0.289769 0.554467 0.396551
0.334478 0.557061 0.403937
0.403876 0.562676 0.417853
0.482979 0.551995 0.427710
0.535149 0.489113 0.409033
0.705806 0.476356 0.403479
0.293828 0.561242 0.372808
0.299199 0.561212 0.373541
0.317937 0.562158 0.376623
0.352544 0.566339 0.383642
0.402136 0.572198 0.394965
0.466865 0.578668 0.411536
0.528923 0.548943 0.413001
0.714809 0.557244 0.407141
0.329656 0.585565 0.351965
0.334051 0.585657 0.352636
0.352087 0.588495 0.356237
0.387030 0.596002 0.364172
0.435981 0.604761 0.376226
0.486763 0.605585 0.394385
0.482795 0.555383 0.396765
0.749722 0.663844 0.440162
