data/fiter_cube/63078869/1022677/file.cube
# Created by Adobe Lightroom plugin Export LUT (1.17.0)
# www.johnrellis.com/lightroom/exportlut.htm
# Preset: 暗调胶片街拍_06 云集
# Color profile: C:\Program Files (x86)\Common Files\Adobe\Color\Profiles\Recommended\AdobeRGB1998.icc
LUT_3D_SIZE 5
DOMAIN_MIN 0.000000 0.000000 0.000000
DOMAIN_MAX 0.903226 0.903226 0.903226
0.014374 0.048188 0.049042
0.110872 0.077119 0.053285
0.245884 0.124025 0.030426
0.478431 0.188113 0.000000
0.737636 0.231876 0.000000
0.041810 0.096376 0.090974
0.105684 0.114260 0.066346
0.252750 0.154269 0.047242
0.472084 0.209354 0.000000
0.753628 0.255741 0.000000
0.065278 0.135622 0.123262
0.065370 0.142885 0.116304
0.255070 0.228916 0.065675
0.502617 0.281651 0.000000
0.754086 0.317357 0.000000
0.081697 0.178470 0.155154
0.079927 0.167117 0.149660
0.143618 0.235752 0.137789
0.471962 0.365759 0.000000
0.784237 0.411139 0.000000
0.105989 0.243137 0.197238
0.100649 0.226658 0.188602
0.091463 0.241459 0.169528
0.347295 0.411078 0.157443
0.790188 0.539269 0.000000
0.031861 0.099184 0.106386
0.089601 0.102235 0.115785
0.226749 0.133364 0.103944
0.423774 0.181338 0.081819
0.706508 0.225040 0.000000
0.058778 0.115999 0.106386
0.097658 0.127382 0.113985
0.231968 0.157259 0.105531
0.429236 0.201846 0.079835
0.713436 0.246250 0.000000
0.079164 0.155550 0.141604
0.078065 0.153536 0.138033
0.232761 0.219547 0.110628
0.460639 0.268193 0.070466
0.739132 0.312688 0.000000
0.094667 0.197055 0.170932
0.091829 0.184695 0.165103
0.145052 0.242130 0.155856
0.464790 0.364569 0.067811
0.777462 0.409796 0.000000
0.118441 0.261479 0.210056
0.111727 0.243748 0.200931
0.101076 0.244968 0.183719
0.348089 0.419257 0.176455
0.796109 0.544549 0.000000
0.048463 0.164340 0.181704
0.081605 0.155581 0.185245
0.201816 0.160739 0.201816
0.403265 0.184360 0.174655
0.695766 0.219669 0.155612
0.072145 0.182345 0.184787
0.103487 0.184268 0.192142
0.216129 0.172580 0.193210
0.407202 0.207156 0.176242
0.704799 0.240482 0.153323
0.100710 0.208103 0.173312
0.121279 0.213565 0.190402
0.231662 0.244083 0.194034
0.440681 0.275456 0.181155
0.727657 0.307652 0.146456
0.133761 0.258152 0.212558
0.143709 0.253819 0.219791
0.144961 0.255497 0.202640
0.458167 0.375952 0.187381
0.763668 0.410864 0.143038
0.175418 0.333654 0.256199
0.168948 0.318425 0.250889
0.127169 0.247501 0.211582
0.298100 0.403784 0.216800
0.781064 0.545922 0.102205
0.107668 0.283757 0.290135
0.145174 0.282200 0.293126
0.196689 0.232395 0.279667
0.370275 0.241703 0.296300
0.688411 0.161715 0.271153
0.124147 0.295079 0.287968
0.157595 0.295140 0.291600
0.200656 0.247776 0.279179
0.375006 0.248173 0.291295
0.680873 0.223270 0.272374
0.131228 0.318517 0.279667
0.159915 0.317815 0.282139
0.218570 0.301701 0.285588
0.390478 0.282902 0.270939
0.696559 0.325231 0.276219
0.179599 0.346502 0.258732
0.198123 0.349096 0.263951
0.239841 0.345373 0.287572
0.450752 0.407141 0.288182
0.749966 0.420905 0.269169
0.245182 0.446265 0.295445
0.254337 0.441535 0.300267
0.271183 0.416846 0.309026
0.204105 0.354803 0.259770
0.772702 0.571191 0.259556
0.268803 0.483345 0.411597
0.306401 0.484810 0.415686
0.338170 0.433112 0.408942
0.423560 0.359472 0.387274
0.653468 0.392706 0.408362
0.265995 0.487617 0.406714
0.301884 0.489052 0.410834
0.354620 0.454444 0.408667
0.422553 0.369940 0.386572
0.655421 0.397620 0.406561
0.252354 0.512535 0.399176
0.279545 0.511742 0.402228
0.388830 0.516442 0.417243
0.431098 0.414038 0.392676
0.671901 0.422583 0.404456
0.273198 0.558679 0.389685
0.295201 0.561395 0.393835
0.374762 0.576928 0.413367
0.488472 0.548638 0.424292
0.708705 0.486854 0.401038
0.329656 0.585565 0.351965
0.345922 0.587335 0.354925
0.410132 0.600549 0.369787
0.494484 0.600641 0.399207
0.749722 0.663844 0.440162
