data/fiter_cube/23985691/1023002/file.cube
# Created by Adobe Lightroom plugin Export LUT (1.17.0)
# www.johnrellis.com/lightroom/exportlut.htm
# Preset: 日系风光建筑_03 云集
# Color profile: C:\Program Files (x86)\Common Files\Adobe\Color\Profiles\Recommended\AdobeRGB1998.icc
LUT_3D_SIZE 5
DOMAIN_MIN 0.000000 0.000000 0.000000
DOMAIN_MAX 0.903226 0.903226 0.903226
0.017914 0.042176 0.049348
0.123323 0.000519 0.045655
0.538903 0.000000 0.000000
0.915740 0.000000 0.000000
1.000000 0.187381 0.000000
0.026551 0.081971 0.069642
0.101076 0.105531 0.049683
0.553491 0.053559 0.000000
0.914824 0.192325 0.000000
1.000000 0.314702 0.000000
0.000000 0.183566 0.123995
0.072877 0.198520 0.132570
0.431006 0.385779 0.000000
0.927276 0.551690 0.000000
1.000000 0.541527 0.000000
0.000000 0.330785 0.203342
0.000000 0.342077 0.206088
0.164248 0.292973 0.184604
0.770840 0.702937 0.155154
1.000000 0.771878 0.276555
0.000000 0.649439 0.397620
0.000000 0.648463 0.387182
0.184360 0.619287 0.338811
0.454505 0.632166 0.331731
0.995453 0.928191 0.520653
0.000000 0.051423 0.105226
0.122011 0.038483 0.125582
0.492378 0.000000 0.092775
0.876310 0.000000 0.000000
1.000000 0.194339 0.000000
0.000000 0.095521 0.117891
0.104036 0.124910 0.138827
0.511131 0.083314 0.120943
0.881193 0.173831 0.000000
1.000000 0.314519 0.000000
0.000000 0.213169 0.173953
0.068299 0.238773 0.189242
0.417853 0.383612 0.182589
0.898711 0.542229 0.176150
1.000000 0.556817 0.104219
0.000000 0.362615 0.247807
0.000000 0.377813 0.253391
0.199924 0.354131 0.237247
0.766934 0.706813 0.289433
1.000000 0.785122 0.432349
0.000000 0.666529 0.434607
0.000000 0.665949 0.424170
0.202731 0.664088 0.397864
0.442695 0.621546 0.352605
0.991913 0.931853 0.588556
0.000000 0.079377 0.284886
0.000000 0.083558 0.336736
0.563378 0.000000 0.491035
0.854978 0.000000 0.405188
1.000000 0.318303 0.398596
0.000000 0.127382 0.281102
0.000000 0.147768 0.336492
0.539513 0.167361 0.493050
0.831724 0.176059 0.406256
1.000000 0.398993 0.420050
0.000000 0.246525 0.318761
0.000000 0.284337 0.349737
0.448615 0.457710 0.489052
0.838804 0.546197 0.523064
1.000000 0.606836 0.519860
0.000000 0.451118 0.405615
0.000000 0.478889 0.421820
0.296880 0.530297 0.447791
0.758968 0.730678 0.564172
1.000000 0.827054 0.707790
0.000000 0.719265 0.563226
0.000000 0.723323 0.556664
0.006989 0.722103 0.519249
0.439338 0.647761 0.426764
0.975677 0.932799 0.707912
0.000000 0.119112 0.524620
0.000000 0.130434 0.575402
0.424109 0.088594 0.722774
0.875731 0.376715 0.820829
1.000000 0.584985 0.790982
0.000000 0.163119 0.500877
0.000000 0.175570 0.558068
0.401953 0.217990 0.709163
0.861601 0.464057 0.819760
1.000000 0.609705 0.790860
0.000000 0.264622 0.493385
0.000000 0.281376 0.512810
0.297185 0.388037 0.647211
0.819455 0.621515 0.813504
0.994720 0.677180 0.787198
0.000000 0.453742 0.554467
0.000000 0.473640 0.567956
0.195621 0.562005 0.635065
0.757748 0.775601 0.808530
0.989532 0.833890 0.841154
0.000000 0.775143 0.736965
0.000000 0.785367 0.741024
0.000000 0.821347 0.755215
0.533867 0.813931 0.713344
0.958526 0.941253 0.852354
0.000000 0.204257 0.824582
0.000000 0.216861 0.841611
0.375341 0.240604 0.895262
0.792905 0.417792 0.952605
0.995850 0.722805 0.949462
0.000000 0.240696 0.805386
0.000000 0.240421 0.825010
0.338415 0.286839 0.883879
0.778042 0.459388 0.946410
0.992309 0.743984 0.950317
0.000000 0.341222 0.770321
0.000000 0.329473 0.769467
0.000000 0.364935 0.840665
0.724636 0.557519 0.928740
0.985901 0.815396 0.957702
0.000000 0.560235 0.820005
0.000000 0.552728 0.816281
0.000000 0.538842 0.818601
0.545373 0.622919 0.885557
0.978698 0.897856 0.968750
0.000000 0.804532 0.891112
0.000000 0.807584 0.892271
0.000000 0.829038 0.904417
0.474067 0.850828 0.910277
0.949218 0.956207 0.965820
