data/fiter_cube/23985691/1023002/file.cube
# Created by Adobe Lightroom plugin Export LUT (1.17.0)
# www.johnrellis.com/lightroom/exportlut.htm
# Preset: 日系风光建筑_03 云集
# Color profile: C:\Program Files (x86)\Common Files\Adobe\Color\Profiles\Recommended\AdobeRGB1998.icc
LUT_3D_SIZE 8
DOMAIN_MIN 0.000000 0.000000 0.000000
DOMAIN_MAX 0.903226 0.903226 0.903226
0.017914 0.042176 0.049348
0.056733 0.035248 0.048951
0.159426 0.000000 0.041321
0.392370 0.000000 0.000000
0.670588 0.000000 0.000000
0.877348 0.000000 0.000000
1.000000 0.000000 0.000000
1.000000 0.187381 0.000000
0.017884 0.052033 0.052705
0.046448 0.062684 0.048554
0.155886 0.039002 0.036866
0.383490 0.000000 0.000000
0.661707 0.000000 0.000000
0.860960 0.000000 0.000000
0.991791 0.099672 0.000000
1.000000 0.223270 0.000000
0.022797 0.091951 0.075135
0.040467 0.095186 0.077333
0.126345 0.128115 0.057557
0.413764 0.160006 0.000000
0.692500 0.162753 0.000000
0.874846 0.223362 0.000000
1.000000 0.303532 0.000000
1.000000 0.342168 0.000000
0.000000 0.150057 0.105898
0.012146 0.154482 0.107668
0.086793 0.150454 0.109407
0.310674 0.284001 0.031525
0.709926 0.418219 0.000000
0.901518 0.459236 0.000000
1.000000 0.471168 0.000000
1.000000 0.471931 0.000000
0.000000 0.221012 0.144625
0.000000 0.225742 0.146029
0.085237 0.242069 0.156374
0.150668 0.231144 0.148257
0.535515 0.478981 0.000000
0.844724 0.592920 0.000000
1.000000 0.630976 0.000000
1.000000 0.614069 0.000000
0.000000 0.302800 0.188571
0.000000 0.310979 0.191806
0.000000 0.322637 0.196658
0.136721 0.299351 0.181308
0.267155 0.371099 0.186496
0.729397 0.662562 0.116762
0.960113 0.743008 0.161166
1.000000 0.746944 0.232273
0.000000 0.420813 0.250858
0.000000 0.424201 0.250980
0.000000 0.426398 0.247318
0.127138 0.428931 0.245121
0.189029 0.346349 0.204074
0.474250 0.577569 0.243565
0.882109 0.812222 0.276921
1.000000 0.838102 0.376104
0.000000 0.649439 0.397620
0.000000 0.648676 0.394141
0.000000 0.649134 0.384680
0.071504 0.652552 0.372900
0.221225 0.592584 0.294530
0.342840 0.531609 0.293004
0.758022 0.836606 0.451301
0.995453 0.928191 0.520653
0.014069 0.044038 0.066102
0.055116 0.034485 0.065980
0.148318 0.016571 0.060945
0.367254 0.000000 0.030396
0.647333 0.000000 0.000000
0.845823 0.000000 0.000000
0.983520 0.000000 0.000000
1.000000 0.185641 0.000000
0.009003 0.059785 0.071626
0.046143 0.067323 0.072908
0.147951 0.066224 0.069551
0.368170 0.000000 0.034363
0.647303 0.000000 0.000000
0.839689 0.000000 0.000000
0.976043 0.078706 0.000000
1.000000 0.218357 0.000000
0.005249 0.097902 0.087434
0.043641 0.104616 0.093172
0.128603 0.133791 0.084321
0.389410 0.157961 0.035767
0.663233 0.148165 0.000000
0.849332 0.200931 0.000000
0.984131 0.281743 0.000000
1.000000 0.332067 0.000000
0.000000 0.156924 0.119875
0.005585 0.163760 0.123537
0.096162 0.167910 0.127626
0.296086 0.274418 0.092653
0.665736 0.383673 0.000000
0.863890 0.426459 0.000000
0.987030 0.452338 0.000000
1.000000 0.464759 0.000000
0.000000 0.231571 0.160067
0.000000 0.235599 0.161227
0.088472 0.252354 0.172122
0.153414 0.229679 0.162173
0.513024 0.460639 0.097078
0.826047 0.578149 0.000000
0.990509 0.625910 0.000000
1.000000 0.612055 0.000000
0.000000 0.307591 0.199374
0.000000 0.311284 0.200137
0.000000 0.323644 0.205081
0.142275 0.311467 0.194186
0.264225 0.365484 0.199435
0.723537 0.658778 0.167453
0.954284 0.741024 0.219242
1.000000 0.747036 0.278080
0.000000 0.415198 0.254673
0.000000 0.414649 0.252567
0.000000 0.419867 0.250675
0.130892 0.431739 0.256260
0.193668 0.354833 0.212833
0.461585 0.565057 0.252049
0.870878 0.803006 0.292882
1.000000 0.833585 0.389075
0.000000 0.638117 0.395270
0.000000 0.640192 0.394049
0.000000 0.642420 0.386023
0.012970 0.647852 0.375799
0.234073 0.619654 0.315251
0.354162 0.547845 0.305241
0.751614 0.831815 0.456184
0.991485 0.925750 0.529137
0.000000 0.054139 0.125338
0.007263 0.055360 0.132906
0.162509 0.017670 0.159701
0.369787 0.000000 0.137301
0.635462 0.000000 0.115846
0.839261 0.000000 0.093019
0.983185 0.009522 0.000000
1.000000 0.213718 0.000000
0.000000 0.074128 0.126467
0.016846 0.077790 0.137026
0.154086 0.074281 0.161501
0.351141 0.000000 0.138766
0.629450 0.000000 0.125856
0.833127 0.000000 0.097322
0.978027 0.136477 0.000000
1.000000 0.246921 0.000000
0.000000 0.112093 0.141176
0.000000 0.121492 0.148745
0.134798 0.156527 0.174685
0.363806 0.161929 0.172641
0.651942 0.159518 0.159426
0.842802 0.222141 0.129061
0.980072 0.304051 0.050568
1.000000 0.352911 0.000000
0.000000 0.186618 0.177432
0.000000 0.198611 0.185122
0.117067 0.225650 0.202121
0.320470 0.306554 0.207309
0.681575 0.414893 0.218418
0.857145 0.442847 0.197147
0.984039 0.476143 0.166781
1.000000 0.489754 0.099916
0.000000 0.263066 0.210605
0.000000 0.271092 0.214939
0.081544 0.296208 0.230442
0.199863 0.288334 0.232517
0.537469 0.492470 0.238926
0.831357 0.601160 0.270542
0.981872 0.642206 0.298253
1.000000 0.632715 0.269413
0.000000 0.339879 0.245121
0.000000 0.346075 0.248051
0.000000 0.362280 0.255650
0.189364 0.382055 0.270726
0.273411 0.368811 0.250034
0.719875 0.663569 0.294285
0.946929 0.750362 0.379248
1.000000 0.766751 0.448859
0.000000 0.450507 0.300969
0.000000 0.451667 0.299870
0.000000 0.455634 0.296300
0.125490 0.465614 0.297704
0.222995 0.408942 0.257542
0.455055 0.559747 0.298131
0.872038 0.812070 0.401862
1.000000 0.847623 0.520348
0.000000 0.660212 0.436957
0.000000 0.657557 0.431373
0.000000 0.657435 0.421271
0.000000 0.668910 0.415595
0.263432 0.651392 0.372808
0.371923 0.580133 0.334600
0.744320 0.829221 0.493751
0.988098 0.929534 0.595941
0.000000 0.071046 0.224002
0.000000 0.073732 0.239780
0.108217 0.065156 0.291112
0.411292 0.000000 0.359075
0.666011 0.000000 0.337896
0.798337 0.000000 0.272557
0.957122 0.060914 0.282689
1.000000 0.262028 0.263401
0.000000 0.090089 0.228641
0.000000 0.092409 0.245914
0.107881 0.094942 0.294224
0.405066 0.000000 0.362036
0.655360 0.000000 0.337865
0.796841 0.000000 0.282383
0.954681 0.158480 0.289586
1.000000 0.288426 0.266209
0.000000 0.130068 0.233646
0.000000 0.137331 0.243076
0.098543 0.166476 0.289494
0.379156 0.192477 0.367620
0.621820 0.153079 0.337865
0.811429 0.228580 0.334142
0.966217 0.345159 0.345068
1.000000 0.397131 0.311040
0.000000 0.197635 0.256901
0.000000 0.208347 0.266117
0.076081 0.251835 0.301976
0.334508 0.348241 0.378607
0.620386 0.389532 0.390906
0.817716 0.442084 0.399176
0.961852 0.496254 0.400305
1.000000 0.524376 0.378546
0.000000 0.304204 0.303197
0.000000 0.315129 0.310521
0.000000 0.358587 0.340154
0.280613 0.413275 0.379858
0.557000 0.532708 0.419318
0.830869 0.641291 0.503807
0.961822 0.666041 0.512474
1.000000 0.665156 0.490242
0.000000 0.404486 0.343786
0.000000 0.415717 0.350561
0.000000 0.433326 0.356939
0.208530 0.464149 0.375128
0.335546 0.427680 0.357458
0.725826 0.687678 0.467781
0.938689 0.777218 0.579339
1.000000 0.797879 0.633631
0.000000 0.506310 0.386664
0.000000 0.510216 0.387427
0.000000 0.520256 0.386877
0.082643 0.532982 0.384710
0.301396 0.530419 0.375677
0.444770 0.550530 0.367956
0.868437 0.823423 0.543816
1.000000 0.863493 0.657862
0.000000 0.708034 0.523705
0.000000 0.709194 0.521599
0.000000 0.707881 0.508598
0.000000 0.706569 0.488472
0.292668 0.699855 0.468940
0.402838 0.639521 0.397559
0.724178 0.818509 0.542016
0.982055 0.933898 0.676722
0.000000 0.089082 0.347295
0.000000 0.092805 0.364782
0.000000 0.094697 0.418738
0.337835 0.000000 0.523827
0.684840 0.000000 0.611475
0.850462 0.125490 0.580529
0.946593 0.225925 0.519890
1.000000 0.378485 0.519707
0.000000 0.107332 0.346502
0.000000 0.109712 0.367254
0.000000 0.118441 0.421271
0.333989 0.074708 0.524498
0.677821 0.000000 0.610773
0.844633 0.197910 0.581903
0.942840 0.263676 0.522454
1.000000 0.400000 0.525322
0.000000 0.147646 0.334600
0.000000 0.153658 0.344335
0.000000 0.178714 0.411383
0.309483 0.207523 0.513085
0.652522 0.264134 0.606622
0.817868 0.321447 0.576379
0.926268 0.345830 0.520653
1.000000 0.457862 0.536980
0.000000 0.209659 0.353613
0.000000 0.217533 0.362097
0.000000 0.249668 0.396124
0.273960 0.329168 0.488869
0.617029 0.434241 0.608698
0.780972 0.450965 0.574029
0.922545 0.499306 0.566552
1.000000 0.550835 0.564019
0.000000 0.297978 0.380591
0.000000 0.308476 0.389258
0.000000 0.347723 0.420539
0.246983 0.430152 0.486244
0.554650 0.564996 0.597894
0.772335 0.612757 0.621729
0.927276 0.657221 0.637690
1.000000 0.678798 0.633234
0.000000 0.411414 0.419806
0.000000 0.424018 0.429175
0.000000 0.462593 0.456794
0.162417 0.525566 0.502495
0.443030 0.575708 0.539910
0.714168 0.702022 0.623896
0.929198 0.802762 0.729915
1.000000 0.808133 0.735592
0.000000 0.563104 0.502342
0.000000 0.569024 0.505486
0.000000 0.590326 0.516594
0.000000 0.604211 0.512718
0.319860 0.614954 0.505730
0.444526 0.545861 0.452766
0.856504 0.829862 0.665949
0.994507 0.877989 0.766659
0.000000 0.743282 0.619104
0.000000 0.742947 0.616052
0.000000 0.742367 0.605341
0.000000 0.751705 0.594690
0.221958 0.742733 0.559533
0.446174 0.717891 0.514000
0.669734 0.779385 0.569451
0.971405 0.935210 0.750301
0.000000 0.113313 0.492561
0.000000 0.119020 0.509300
0.000000 0.125277 0.560204
0.268803 0.104982 0.652277
0.604334 0.009308 0.741024
0.847929 0.313359 0.789914
0.958648 0.489876 0.781765
1.000000 0.550378 0.750118
0.000000 0.128786 0.481727
0.000000 0.130556 0.499184
0.000000 0.142977 0.551904
0.257816 0.139620 0.641657
0.594537 0.130831 0.734859
0.840696 0.343511 0.786740
0.954498 0.504173 0.781186
1.000000 0.557855 0.749569
0.000000 0.169986 0.461402
0.000000 0.174655 0.477150
0.000000 0.193301 0.540368
0.242191 0.226719 0.633356
0.581750 0.278874 0.735775
0.828733 0.450507 0.790372
0.945220 0.561059 0.786618
1.000000 0.591272 0.753140
0.000000 0.227329 0.464240
0.000000 0.231876 0.469795
0.000000 0.251560 0.495705
0.196292 0.322118 0.607111
0.553857 0.429908 0.729335
0.815030 0.579950 0.801724
0.932738 0.633661 0.793454
1.000000 0.637903 0.755306
0.000000 0.309117 0.482918
0.000000 0.315984 0.489418
0.000000 0.342016 0.513634
0.126009 0.395575 0.563409
0.469184 0.512444 0.674037
0.777218 0.661616 0.791012
0.903868 0.672969 0.769955
0.997589 0.695796 0.756619
0.000000 0.412909 0.510582
0.000000 0.422461 0.518303
0.000000 0.450996 0.539757
0.000000 0.507164 0.582910
0.412146 0.594903 0.653620
0.721859 0.738888 0.773129
0.899596 0.787686 0.803525
0.996582 0.810178 0.812650
0.000000 0.555352 0.571771
0.000000 0.565972 0.579797
0.000000 0.596155 0.601526
0.000000 0.649195 0.640436
0.317845 0.697902 0.674281
0.597406 0.724453 0.696284
0.853696 0.848692 0.791257
0.988434 0.907195 0.874632
0.000000 0.773587 0.718044
0.000000 0.775448 0.718044
0.000000 0.784085 0.719722
0.000000 0.804257 0.726894
0.142000 0.807462 0.708766
0.466621 0.793942 0.672877
0.601404 0.723751 0.601862
0.961395 0.940215 0.833616
0.000000 0.145571 0.655390
0.000000 0.153506 0.671229
0.000000 0.161349 0.705806
0.209201 0.164492 0.762966
0.540368 0.179934 0.833921
0.793637 0.326940 0.884215
0.943420 0.556878 0.894499
1.000000 0.694820 0.889647
0.000000 0.156863 0.637171
0.000000 0.158419 0.653193
0.000000 0.172335 0.691218
0.186374 0.180697 0.748440
0.522576 0.200778 0.820554
0.778836 0.330999 0.873808
0.934997 0.549920 0.887663
1.000000 0.683772 0.883268
0.000000 0.198581 0.622461
0.000000 0.201083 0.634638
0.000000 0.210422 0.677333
0.151339 0.242161 0.738491
0.504143 0.290867 0.811765
0.769619 0.420081 0.873075
0.932128 0.610407 0.893584
1.000000 0.724971 0.892393
0.000000 0.253086 0.601984
0.000000 0.252628 0.602502
0.000000 0.262516 0.627863
0.000000 0.308385 0.712459
0.467170 0.394965 0.796719
0.757565 0.536858 0.875486
0.927764 0.691463 0.902708
0.996765 0.769345 0.900359
0.000000 0.336400 0.613855
0.000000 0.336461 0.613764
0.000000 0.341863 0.620935
0.000000 0.356725 0.643763
0.345739 0.445350 0.740749
0.703761 0.604852 0.852232
0.910246 0.747677 0.901183
0.988312 0.802029 0.900603
0.000000 0.446723 0.640711
0.000000 0.449744 0.643153
0.000000 0.460853 0.652186
0.000000 0.483833 0.672297
0.221469 0.521935 0.705653
0.613519 0.655818 0.805386
0.897795 0.824765 0.908995
0.978363 0.834958 0.896727
0.000000 0.580194 0.686030
0.000000 0.585473 0.689937
0.000000 0.596887 0.696864
0.000000 0.619593 0.711330
0.184054 0.654627 0.733730
0.548943 0.727474 0.785122
0.854582 0.870298 0.894591
0.975158 0.901946 0.913725
0.000000 0.739834 0.761501
0.000000 0.742336 0.762448
0.000000 0.763333 0.776913
0.000000 0.788571 0.791043
0.000000 0.830442 0.816953
0.474220 0.863340 0.835752
0.715053 0.865690 0.824826
0.953124 0.947173 0.907073
0.000000 0.204257 0.824582
0.000000 0.212284 0.832181
0.000000 0.218540 0.846830
0.204929 0.229526 0.877440
0.509941 0.263523 0.912810
0.741909 0.374365 0.945800
0.914916 0.556329 0.960937
0.995850 0.722805 0.949462
0.000000 0.213474 0.813993
0.000000 0.213840 0.821897
0.000000 0.226963 0.839200
0.176944 0.239322 0.869627
0.497749 0.274784 0.907103
0.734188 0.382940 0.941985
0.909697 0.557824 0.958251
0.993866 0.723720 0.948394
0.000000 0.249424 0.796811
0.000000 0.249912 0.803342
0.000000 0.248692 0.820645
0.083009 0.282689 0.861082
0.472877 0.326726 0.899718
0.718624 0.431922 0.935912
0.901305 0.591180 0.955993
0.990936 0.749081 0.950256
0.000000 0.300298 0.771603
0.000000 0.302464 0.779080
0.000000 0.304875 0.797177
0.000000 0.324285 0.839231
0.415167 0.391424 0.886473
0.693935 0.504356 0.929015
0.890562 0.647608 0.955383
0.987976 0.792813 0.955169
0.000000 0.394202 0.778805
0.000000 0.394232 0.781582
0.000000 0.383825 0.780880
0.000000 0.367712 0.788632
0.221286 0.421698 0.851225
0.629297 0.551324 0.910582
0.869535 0.701503 0.952178
0.984497 0.841581 0.961425
0.000000 0.516503 0.802670
0.000000 0.512993 0.800504
0.000000 0.504631 0.796994
0.000000 0.494789 0.798001
0.000000 0.482734 0.806394
0.483803 0.576287 0.876799
0.841215 0.766659 0.949096
0.980652 0.888731 0.968017
0.000000 0.657893 0.842618
0.000000 0.656306 0.841459
0.000000 0.653193 0.839536
0.000000 0.654749 0.842679
0.000000 0.659174 0.849638
0.336645 0.673793 0.864836
0.734646 0.778378 0.918639
0.972442 0.926055 0.971130
0.000000 0.804532 0.891112
0.000000 0.804623 0.890806
0.000000 0.809751 0.893492
0.000000 0.823850 0.902068
0.000000 0.833433 0.905760
0.403754 0.846159 0.908965
0.675288 0.872648 0.917723
0.949218 0.956207 0.965820
