data/fiter_cube/23985691/1023002/file.cube
# Created by Adobe Lightroom plugin Export LUT (1.17.0)
# www.johnrellis.com/lightroom/exportlut.htm
# Preset: 日系风光建筑_03 云集
# Color profile: C:\Program Files (x86)\Common Files\Adobe\Color\Profiles\Recommended\AdobeRGB1998.icc
LUT_3D_SIZE 32
DOMAIN_MIN 0.0 0.0 0.0
DOMAIN_MAX 1.0 1.0 1.0
0.017914 0.042176 0.049348
0.017914 0.042176 0.049348
0.017914 0.042176 0.049348
0.017914 0.042176 0.049348
0.056733 0.035248 0.048951
0.074922 0.028626 0.048432
0.095613 0.016114 0.047700
0.123323 0.000519 0.045655
0.159426 0.000000 0.041321
0.204318 0.000000 0.034211
0.258671 0.000000 0.023224
0.322118 0.000000 0.006500
0.392370 0.000000 0.000000
0.466133 0.000000 0.000000
0.538903 0.000000 0.000000
0.607965 0.000000 0.000000
0.670588 0.000000 0.000000
0.731960 0.000000 0.000000
0.786038 0.000000 0.000000
0.834104 0.000000 0.000000
0.877348 0.000000 0.000000
0.915740 0.000000 0.000000
0.948821 0.000000 0.000000
0.977325 0.000000 0.000000
1.000000 0.000000 0.000000
1.000000 0.065766 0.000000
1.000000 0.125429 0.000000
1.000000 0.160983 0.000000
1.000000 0.187381 0.000000
1.000000 0.209049 0.000000
1.000000 0.226596 0.000000
1.000000 0.241428 0.000000
0.017914 0.042176 0.049348
0.017914 0.042176 0.049348
0.017914 0.042176 0.049348
0.017914 0.042176 0.049348
0.055695 0.035462 0.048981
0.074495 0.028840 0.048463
0.094942 0.016541 0.047730
0.122286 0.005035 0.045441
0.157931 0.000000 0.041077
0.202426 0.000000 0.034089
0.255955 0.000000 0.023316
0.318517 0.000000 0.006836
0.388037 0.000000 0.000000
0.461219 0.000000 0.000000
0.533684 0.000000 0.000000
0.602594 0.000000 0.000000
0.665522 0.000000 0.000000
0.726864 0.000000 0.000000
0.779995 0.000000 0.000000
0.827543 0.000000 0.000000
0.870817 0.000000 0.000000
0.909575 0.000000 0.000000
0.943267 0.000000 0.000000
0.972473 0.000000 0.000000
0.997742 0.000000 0.000000
1.000000 0.065705 0.000000
1.000000 0.125032 0.000000
1.000000 0.161288 0.000000
1.000000 0.188022 0.000000
1.000000 0.209812 0.000000
1.000000 0.227543 0.000000
1.000000 0.242313 0.000000
0.017914 0.042176 0.049348
0.017914 0.042176 0.049348
0.017914 0.042176 0.049348
0.017914 0.042176 0.049348
0.055695 0.035462 0.048981
0.074037 0.029053 0.048463
0.094148 0.021820 0.047486
0.121370 0.012909 0.044953
0.156741 0.000000 0.040620
0.200992 0.000000 0.033600
0.254276 0.000000 0.022827
0.316503 0.000000 0.006348
0.385840 0.000000 0.000000
0.458930 0.000000 0.000000
0.531121 0.000000 0.000000
0.600061 0.000000 0.000000
0.663111 0.000000 0.000000
0.724483 0.000000 0.000000
0.777005 0.000000 0.000000
0.824186 0.000000 0.000000
0.867552 0.000000 0.000000
0.906554 0.000000 0.000000
0.940551 0.000000 0.000000
0.970062 0.000000 0.000000
0.995636 0.000000 0.000000
1.000000 0.078859 0.000000
1.000000 0.132174 0.000000
1.000000 0.166445 0.000000
1.000000 0.192355 0.000000
1.000000 0.213535 0.000000
1.000000 0.230838 0.000000
1.000000 0.245274 0.000000
0.017914 0.042176 0.049348
0.017914 0.042176 0.049348
0.017914 0.042176 0.049348
0.017914 0.042176 0.049348
0.054963 0.042664 0.048554
0.073487 0.041108 0.047761
0.093904 0.038422 0.046357
0.121004 0.028565 0.043732
0.156771 0.008484 0.039185
0.200992 0.000000 0.032044
0.254032 0.000000 0.020966
0.316197 0.000000 0.003998
0.385046 0.000000 0.000000
0.457557 0.000000 0.000000
0.529656 0.000000 0.000000
0.598352 0.000000 0.000000
0.661311 0.000000 0.000000
0.722713 0.000000 0.000000
0.773648 0.000000 0.000000
0.819608 0.000000 0.000000
0.862425 0.000000 0.000000
0.901396 0.000000 0.000000
0.936095 0.000000 0.000000
0.966705 0.000000 0.000000
0.993439 0.000000 0.000000
1.000000 0.110750 0.000000
1.000000 0.152163 0.000000
1.000000 0.182467 0.000000
1.000000 0.205600 0.000000
1.000000 0.224613 0.000000
1.000000 0.240269 0.000000
1.000000 0.253361 0.000000
0.017884 0.052033 0.052705
0.017365 0.053834 0.053407
0.018158 0.055482 0.054047
0.018433 0.058778 0.055390
0.046448 0.062684 0.048554
0.072206 0.061616 0.045777
0.092714 0.059663 0.044282
0.120272 0.054810 0.041474
0.155886 0.039002 0.036866
0.199863 0.005249 0.029419
0.252903 0.000000 0.017792
0.314702 0.000000 0.000122
0.383490 0.000000 0.000000
0.456062 0.000000 0.000000
0.528405 0.000000 0.000000
0.597681 0.000000 0.000000
0.661707 0.000000 0.000000
0.723537 0.000000 0.000000
0.773678 0.000000 0.000000
0.818936 0.000000 0.000000
0.860960 0.000000 0.000000
0.899565 0.000000 0.000000
0.934081 0.000000 0.000000
0.964813 0.000000 0.000000
0.991791 0.099672 0.000000
1.000000 0.145907 0.000000
1.000000 0.178500 0.000000
1.000000 0.203159 0.000000
1.000000 0.223270 0.000000
1.000000 0.239963 0.000000
1.000000 0.253788 0.000000
1.000000 0.265599 0.000000
0.019867 0.065553 0.059358
0.020844 0.065919 0.059754
0.020478 0.066346 0.060151
0.021118 0.067567 0.060456
0.033661 0.067201 0.062104
0.065126 0.073335 0.048524
0.089845 0.074403 0.043427
0.120577 0.073518 0.037690
0.157076 0.068452 0.032624
0.201816 0.058869 0.024170
0.255436 0.014771 0.011292
0.317662 0.000000 0.000000
0.386633 0.000000 0.000000
0.459327 0.000000 0.000000
0.531609 0.000000 0.000000
0.600824 0.000000 0.000000
0.667170 0.000000 0.000000
0.726802 0.000000 0.000000
0.775967 0.000000 0.000000
0.820768 0.000000 0.000000
0.862516 0.000000 0.000000
0.900969 0.000000 0.000000
0.967651 0.138338 0.000000
0.993500 0.173678 0.000000
1.000000 0.200076 0.000000
1.000000 0.220981 0.000000
1.000000 0.238468 0.000000
1.000000 0.252995 0.000000
1.000000 0.265232 0.000000
1.000000 0.275547 0.000000
1.000000 0.284245 0.000000
1.000000 0.291508 0.000000
0.024231 0.073671 0.064607
0.025208 0.073976 0.065003
0.025055 0.074372 0.064973
0.025483 0.075502 0.065644
0.034943 0.074586 0.066011
0.053132 0.078676 0.063783
0.082002 0.088258 0.046754
0.117983 0.093233 0.035554
0.161196 0.094881 0.026398
0.215000 0.092744 0.011597
0.272251 0.083253 0.000000
0.337926 0.061372 0.000000
0.408728 0.000000 0.000000
0.481575 0.000000 0.000000
0.552270 0.000000 0.000000
0.618433 0.000000 0.000000
0.685847 0.000000 0.000000
0.742306 0.000000 0.000000
0.789914 0.000000 0.000000
0.835080 0.000000 0.000000
0.878080 0.067781 0.000000
0.918090 0.130404 0.000000
0.953765 0.173312 0.000000
0.984405 0.205722 0.000000
1.000000 0.230961 0.000000
1.000000 0.250370 0.000000
1.000000 0.265965 0.000000
1.000000 0.278660 0.000000
1.000000 0.288792 0.000000
1.000000 0.296971 0.000000
1.000000 0.303410 0.000000
1.000000 0.309148 0.000000
0.026551 0.081971 0.069642
0.026551 0.081971 0.069642
0.026154 0.082307 0.070008
0.025666 0.083314 0.069917
0.036347 0.083162 0.069825
0.051514 0.081666 0.071992
0.067750 0.091920 0.066041
0.101076 0.105531 0.049683
0.148165 0.115145 0.033051
0.201236 0.120058 0.015595
0.267796 0.122072 0.000000
0.340368 0.116823 0.000000
0.411200 0.103395 0.000000
0.483497 0.083040 0.000000
0.553491 0.053559 0.000000
0.622705 0.014618 0.000000
0.688197 0.035584 0.000000
0.742061 0.071321 0.000000
0.788418 0.098421 0.000000
0.832731 0.128695 0.000000
0.875181 0.160525 0.000000
0.914824 0.192325 0.000000
0.950347 0.221378 0.000000
0.981018 0.246006 0.000000
1.000000 0.265843 0.000000
1.000000 0.281926 0.000000
1.000000 0.294774 0.000000
1.000000 0.305486 0.000000
1.000000 0.314702 0.000000
1.000000 0.321904 0.000000
1.000000 0.326665 0.000000
1.000000 0.329839 0.000000
0.022797 0.091951 0.075135
0.022644 0.092256 0.075105
0.023835 0.092500 0.075074
0.025605 0.093294 0.075654
0.040467 0.095186 0.077333
0.052247 0.093538 0.076387
0.063203 0.094697 0.077089
0.083162 0.109621 0.070253
0.126345 0.128115 0.057557
0.185672 0.143313 0.035920
0.249454 0.151949 0.012085
0.326818 0.157321 0.000000
0.413764 0.160006 0.000000
0.487861 0.154757 0.000000
0.557671 0.150088 0.000000
0.630610 0.154849 0.000000
0.692500 0.162753 0.000000
0.744411 0.172702 0.000000
0.789548 0.184848 0.000000
0.833127 0.202029 0.000000
0.874846 0.223362 0.000000
0.913909 0.246189 0.000000
0.948974 0.268101 0.000000
0.979339 0.287663 0.000000
1.000000 0.303532 0.000000
1.000000 0.315984 0.000000
1.000000 0.326360 0.000000
1.000000 0.334874 0.000000
1.000000 0.342168 0.000000
1.000000 0.348119 0.000000
1.000000 0.352667 0.000000
1.000000 0.354406 0.000000
0.017365 0.103883 0.081392
0.017182 0.104158 0.081361
0.018402 0.104341 0.081331
0.022553 0.105440 0.081788
0.038453 0.107546 0.083284
0.051148 0.107576 0.081941
0.063905 0.104768 0.083925
0.074983 0.111666 0.082002
0.102907 0.131960 0.073701
0.157717 0.155489 0.058869
0.229374 0.175082 0.026276
0.303349 0.186831 0.000000
0.388830 0.196506 0.000000
0.479774 0.205356 0.000000
0.568902 0.217288 0.000000
0.639429 0.225620 0.000000
0.699672 0.234562 0.000000
0.750088 0.242924 0.000000
0.794430 0.252415 0.000000
0.836820 0.265141 0.000000
0.876951 0.280705 0.000000
0.914061 0.297459 0.000000
0.947539 0.313542 0.000000
0.976806 0.327855 0.000000
1.000000 0.339971 0.000000
1.000000 0.349889 0.000000
1.000000 0.358099 0.000000
1.000000 0.364996 0.000000
1.000000 0.370855 0.000000
1.000000 0.375647 0.000000
1.000000 0.379370 0.000000
1.000000 0.381415 0.000000
0.009400 0.116640 0.088045
0.009247 0.116854 0.088014
0.009888 0.117494 0.088228
0.017578 0.118746 0.088869
0.033143 0.121004 0.090150
0.052491 0.123659 0.092164
0.063294 0.120851 0.090181
0.073610 0.117128 0.092317
0.090242 0.132753 0.087831
0.128634 0.158785 0.077638
0.195224 0.187564 0.056184
0.280095 0.212192 0.005402
0.363043 0.227390 0.000000
0.459266 0.245029 0.000000
0.554925 0.264836 0.000000
0.642847 0.287816 0.000000
0.703883 0.297826 0.000000
0.752651 0.304204 0.000000
0.796139 0.311223 0.000000
0.837797 0.320989 0.000000
0.877256 0.333196 0.000000
0.913939 0.346319 0.000000
0.947051 0.359258 0.000000
0.976043 0.370367 0.000000
1.000000 0.379614 0.000000
1.000000 0.386786 0.000000
1.000000 0.392523 0.000000
1.000000 0.397375 0.000000
1.000000 0.401434 0.000000
1.000000 0.404547 0.000000
1.000000 0.406867 0.000000
1.000000 0.407996 0.000000
0.000000 0.131044 0.095857
0.000427 0.131533 0.096040
0.003632 0.132204 0.096193
0.010986 0.133700 0.096742
0.024659 0.136080 0.098116
0.047089 0.139406 0.100282
0.061799 0.139223 0.097932
0.074281 0.134890 0.099245
0.085420 0.132753 0.100740
0.110079 0.157778 0.094270
0.159731 0.190066 0.081270
0.239841 0.225071 0.049500
0.372229 0.279149 0.000000
0.475410 0.307042 0.000000
0.575494 0.335546 0.000000
0.664210 0.363104 0.000000
0.735653 0.384161 0.000000
0.790524 0.396582 0.000000
0.830564 0.399725 0.000000
0.868315 0.405005 0.000000
0.903471 0.411231 0.000000
0.935454 0.417945 0.000000
0.963836 0.423804 0.000000
0.989014 0.428840 0.000000
1.000000 0.432746 0.000000
1.000000 0.435706 0.000000
1.000000 0.437720 0.000000
1.000000 0.439124 0.000000
1.000000 0.440040 0.000000
1.000000 0.440497 0.000000
1.000000 0.440436 0.000000
1.000000 0.439368 0.000000
0.000000 0.150057 0.105898
0.000000 0.150484 0.106264
0.000000 0.151064 0.106416
0.000000 0.152468 0.106661
0.012146 0.154482 0.107668
0.037018 0.157626 0.109560
0.063355 0.160830 0.111971
0.073030 0.156130 0.107424
0.086793 0.150454 0.109407
0.101320 0.157168 0.109133
0.136629 0.189548 0.101900
0.204379 0.234195 0.086549
0.310674 0.284001 0.031525
0.435920 0.330175 0.000000
0.538903 0.362829 0.000000
0.632715 0.394232 0.000000
0.709926 0.418219 0.000000
0.771847 0.434852 0.000000
0.826505 0.450050 0.000000
0.866972 0.455604 0.000000
0.901518 0.459236 0.000000
0.933165 0.463172 0.000000
0.961242 0.466682 0.000000
0.986206 0.469368 0.000000
1.000000 0.471168 0.000000
1.000000 0.472145 0.000000
1.000000 0.472480 0.000000
1.000000 0.472389 0.000000
1.000000 0.471931 0.000000
1.000000 0.471260 0.000000
1.000000 0.470039 0.000000
1.000000 0.468116 0.000000
0.000000 0.166445 0.114931
0.000000 0.166934 0.115053
0.000000 0.167453 0.114961
0.000000 0.168826 0.115572
0.000000 0.170901 0.116457
0.022675 0.173831 0.117952
0.058656 0.177829 0.121187
0.071687 0.176577 0.117433
0.086000 0.170504 0.117189
0.099489 0.164096 0.119142
0.121462 0.184512 0.117922
0.169284 0.226200 0.110628
0.251621 0.278813 0.091310
0.371374 0.334936 0.009064
0.499641 0.384802 0.000000
0.597192 0.419257 0.000000
0.679988 0.446632 0.000000
0.746517 0.465492 0.000000
0.804135 0.480964 0.000000
0.856229 0.496010 0.000000
0.900206 0.507347 0.000000
0.931579 0.509178 0.000000
0.959472 0.510430 0.000000
0.984314 0.511162 0.000000
1.000000 0.511070 0.000000
1.000000 0.510277 0.000000
1.000000 0.508934 0.000000
1.000000 0.507408 0.000000
1.000000 0.505669 0.000000
1.000000 0.503746 0.000000
1.000000 0.501549 0.000000
1.000000 0.498665 0.000000
0.000000 0.183566 0.123995
0.000000 0.184115 0.124483
0.000000 0.184573 0.124392
0.000000 0.185946 0.124758
0.000000 0.187869 0.125521
0.005951 0.190738 0.127077
0.044862 0.194583 0.129458
0.072877 0.198520 0.132570
0.083772 0.193118 0.125795
0.100099 0.186313 0.127871
0.113130 0.178744 0.129610
0.145541 0.215579 0.127687
0.205264 0.264927 0.119173
0.302159 0.324895 0.095613
0.431006 0.385779 0.000000
0.557427 0.437903 0.000000
0.647425 0.470741 0.000000
0.719753 0.492958 0.000000
0.780362 0.509483 0.000000
0.835477 0.525261 0.000000
0.884642 0.539727 0.000000
0.927276 0.551690 0.000000
0.957794 0.554162 0.000000
0.982361 0.552850 0.000000
1.000000 0.551110 0.000000
1.000000 0.548974 0.000000
1.000000 0.546563 0.000000
1.000000 0.544121 0.000000
1.000000 0.541527 0.000000
1.000000 0.538811 0.000000
1.000000 0.535882 0.000000
1.000000 0.532219 0.000000
0.000000 0.201114 0.133791
0.000000 0.201663 0.133883
0.000000 0.202274 0.134127
0.000000 0.203952 0.134554
0.000000 0.206455 0.135500
0.000000 0.209995 0.137270
0.023438 0.214481 0.139956
0.067567 0.220127 0.144381
0.083375 0.218357 0.139803
0.099306 0.210697 0.137484
0.114900 0.201663 0.138552
0.130953 0.203891 0.139528
0.173251 0.249027 0.137392
0.244785 0.305089 0.127199
0.352941 0.370001 0.099580
0.484718 0.432868 0.000000
0.607019 0.485847 0.000000
0.688624 0.514977 0.000000
0.754635 0.534691 0.000000
0.813718 0.552544 0.000000
0.866728 0.568872 0.000000
0.912871 0.582422 0.000000
0.951568 0.592218 0.000000
0.982635 0.597101 0.000000
1.000000 0.593683 0.000000
1.000000 0.589990 0.000000
1.000000 0.586114 0.000000
1.000000 0.582269 0.000000
1.000000 0.578454 0.000000
1.000000 0.574365 0.000000
1.000000 0.570123 0.000000
1.000000 0.565454 0.000000
0.000000 0.221012 0.144625
0.000000 0.221469 0.144717
0.000000 0.222110 0.144930
0.000000 0.223484 0.145327
0.000000 0.225742 0.146029
0.000000 0.228916 0.147494
0.000000 0.232883 0.149691
0.056641 0.237949 0.153353
0.085237 0.242069 0.156374
0.094942 0.233951 0.146273
0.113802 0.224125 0.147005
0.127749 0.213291 0.147250
0.150668 0.231144 0.148257
0.203037 0.283116 0.146212
0.286412 0.345464 0.134890
0.403510 0.414496 0.104372
0.535515 0.478981 0.000000
0.651728 0.529992 0.000000
0.725795 0.555749 0.000000
0.788205 0.574975 0.000000
0.844724 0.592920 0.000000
0.894316 0.608026 0.000000
0.936400 0.619409 0.000000
0.971283 0.626917 0.000000
1.000000 0.630976 0.000000
1.000000 0.628748 0.000000
1.000000 0.623804 0.000000
1.000000 0.618921 0.000000
1.000000 0.614069 0.000000
1.000000 0.609247 0.000000
1.000000 0.604273 0.000000
1.000000 0.599084 0.000000
0.000000 0.241001 0.155459
0.000000 0.241611 0.155642
0.000000 0.251286 0.160800
0.000000 0.252598 0.161257
0.000000 0.254612 0.162020
0.000000 0.257298 0.163027
0.000000 0.260960 0.164797
0.030121 0.265293 0.167666
0.081056 0.270787 0.172396
0.098390 0.266697 0.165621
0.114015 0.255344 0.159701
0.131075 0.242496 0.159213
0.142885 0.228763 0.158114
0.178897 0.267918 0.160739
0.244511 0.329259 0.159091
0.342779 0.399420 0.146883
0.470344 0.473732 0.114382
0.600824 0.539574 0.000000
0.705592 0.583612 0.000000
0.772000 0.605432 0.000000
0.830533 0.623957 0.000000
0.882383 0.639826 0.000000
0.926452 0.651789 0.000000
0.962768 0.659388 0.000000
0.992493 0.662989 0.000000
1.000000 0.664027 0.000000
1.000000 0.662654 0.000000
1.000000 0.655909 0.000000
1.000000 0.649683 0.000000
1.000000 0.643854 0.000000
1.000000 0.638209 0.000000
1.000000 0.632410 0.000000
0.000000 0.263371 0.167666
0.000000 0.265171 0.168582
0.000000 0.266972 0.169345
0.000000 0.269352 0.170535
0.000000 0.272190 0.171481
0.000000 0.275090 0.172519
0.000000 0.278477 0.173892
0.000000 0.282414 0.176394
0.067781 0.287327 0.180026
0.099702 0.290440 0.182467
0.107729 0.279057 0.168154
0.128054 0.265568 0.167147
0.142702 0.251041 0.165713
0.155245 0.242161 0.164462
0.203922 0.298680 0.168765
0.280217 0.365850 0.166812
0.387640 0.439796 0.153811
0.517632 0.515312 0.121462
0.642786 0.579095 0.026276
0.739162 0.618433 0.000000
0.803037 0.640406 0.000000
0.859464 0.659174 0.000000
0.907958 0.673884 0.000000
0.948028 0.683803 0.000000
0.980682 0.689143 0.000000
1.000000 0.691341 0.000000
1.000000 0.691310 0.000000
1.000000 0.689784 0.021973
1.000000 0.684962 0.000000
1.000000 0.678370 0.000000
1.000000 0.672053 0.000000
1.000000 0.665797 0.000000
0.000000 0.282567 0.177951
0.000000 0.284367 0.178775
0.000000 0.286259 0.179721
0.000000 0.288548 0.180545
0.000000 0.291051 0.181460
0.000000 0.293645 0.182315
0.000000 0.296666 0.183383
0.000000 0.300206 0.185153
0.041535 0.304479 0.188205
0.091096 0.309575 0.192630
0.108614 0.303563 0.184207
0.123018 0.289952 0.175296
0.140871 0.274601 0.173465
0.153201 0.258518 0.170962
0.174533 0.269413 0.172519
0.232975 0.332830 0.177279
0.320378 0.405432 0.175082
0.435981 0.482704 0.162020
0.566857 0.559350 0.131136
0.683925 0.618341 0.074067
0.773831 0.654261 0.000000
0.834897 0.676081 0.000000
0.887968 0.693812 0.000000
0.932067 0.706325 0.061830
0.967834 0.713527 0.089509
0.997162 0.716945 0.110445
1.000000 0.717739 0.126864
1.000000 0.716854 0.140627
1.000000 0.714839 0.151339
1.000000 0.711849 0.159304
1.000000 0.704982 0.151156
1.000000 0.698421 0.143435
0.000000 0.302800 0.188571
0.000000 0.304509 0.189456
0.000000 0.306432 0.190188
0.000000 0.308568 0.191104
0.000000 0.310979 0.191806
0.000000 0.313298 0.192508
0.000000 0.315831 0.193240
0.000000 0.318944 0.194491
0.000000 0.322637 0.196658
0.075441 0.327031 0.200198
0.108980 0.329015 0.201450
0.116487 0.315404 0.184756
0.136721 0.299351 0.181308
0.152132 0.282567 0.178744
0.162448 0.264897 0.175448
0.197147 0.299870 0.180636
0.267155 0.371099 0.186496
0.367132 0.450355 0.185122
0.491585 0.531975 0.173678
0.620722 0.608484 0.149447
0.729397 0.662562 0.116762
0.816403 0.698146 0.088258
0.873350 0.718471 0.111910
0.921508 0.733822 0.137057
0.960113 0.743008 0.161166
0.991180 0.747616 0.182925
1.000000 0.749111 0.201846
1.000000 0.748684 0.218204
1.000000 0.746944 0.232273
1.000000 0.744289 0.244358
1.000000 0.740871 0.254917
1.000000 0.735439 0.258213
0.000000 0.330785 0.203342
0.000000 0.331823 0.203708
0.000000 0.332769 0.204074
0.000000 0.334112 0.204379
0.000000 0.335637 0.204715
0.000000 0.337285 0.204807
0.000000 0.339452 0.205203
0.000000 0.342077 0.206088
0.000000 0.345495 0.207706
0.050019 0.349462 0.210269
0.100587 0.354070 0.214328
0.118441 0.345861 0.203708
0.131655 0.329870 0.191379
0.150851 0.311894 0.188235
0.164248 0.292973 0.184604
0.172580 0.273655 0.180484
0.226749 0.338415 0.191501
0.310643 0.417975 0.198459
0.422705 0.502464 0.198398
0.550042 0.584710 0.189975
0.670527 0.654353 0.174319
0.770840 0.702937 0.155154
0.851835 0.735164 0.141268
0.902220 0.751156 0.165469
0.944671 0.762875 0.190982
0.978790 0.769345 0.215457
1.000000 0.772183 0.237949
1.000000 0.772793 0.258183
1.000000 0.771878 0.276555
1.000000 0.769863 0.292729
1.000000 0.767147 0.307591
1.000000 0.763485 0.320073
0.000000 0.355138 0.215946
0.000000 0.356207 0.216464
0.000000 0.357275 0.216770
0.000000 0.358495 0.217044
0.000000 0.359716 0.217105
0.000000 0.361181 0.216892
0.000000 0.362676 0.216953
0.000000 0.364721 0.217258
0.000000 0.367315 0.218112
0.000000 0.370581 0.219730
0.081941 0.374334 0.222507
0.118441 0.374731 0.222263
0.125765 0.358892 0.203189
0.145846 0.340703 0.196994
0.162905 0.321263 0.193088
0.174472 0.301030 0.188754
0.192355 0.302007 0.188968
0.260685 0.379797 0.202060
0.357977 0.466407 0.210361
0.479500 0.554070 0.212650
0.603174 0.632563 0.209995
0.715633 0.696193 0.203738
0.811002 0.742336 0.194736
0.886046 0.770901 0.191257
0.925811 0.778286 0.208438
0.963806 0.787259 0.235904
0.994568 0.791989 0.262364
1.000000 0.793881 0.286687
1.000000 0.793942 0.309056
1.000000 0.792752 0.329931
1.000000 0.790951 0.349859
1.000000 0.787961 0.366583
0.000000 0.389471 0.234287
0.000000 0.390845 0.234867
0.000000 0.391669 0.235080
0.000000 0.392462 0.234958
0.000000 0.393164 0.234623
0.000000 0.393622 0.234012
0.000000 0.394354 0.233280
0.000000 0.395148 0.232578
0.000000 0.396368 0.232364
0.000000 0.398138 0.232761
0.049470 0.400183 0.233799
0.108186 0.402533 0.236179
0.126528 0.391608 0.222660
0.138247 0.373205 0.206516
0.159915 0.352544 0.202182
0.174655 0.331212 0.197543
0.184512 0.309270 0.192599
0.218570 0.338842 0.198886
0.299596 0.424384 0.213138
0.408850 0.515557 0.222995
0.533196 0.602625 0.228641
0.649592 0.674281 0.232761
0.756008 0.733730 0.232670
0.844724 0.775357 0.229587
0.912047 0.798245 0.230106
0.949676 0.805722 0.257481
0.983124 0.812009 0.287266
1.000000 0.814908 0.315160
1.000000 0.815671 0.341100
1.000000 0.815213 0.365820
1.000000 0.813901 0.389410
1.000000 0.811582 0.410315
0.000000 0.420813 0.250858
0.000000 0.422217 0.251469
0.000000 0.423163 0.251804
0.000000 0.423804 0.251652
0.000000 0.424201 0.250980
0.000000 0.424537 0.250126
0.000000 0.424903 0.249088
0.000000 0.425483 0.248112
0.000000 0.426398 0.247318
0.000000 0.427680 0.246952
0.000000 0.429236 0.247013
0.086610 0.431067 0.248051
0.127138 0.428931 0.245121
0.134737 0.410986 0.223178
0.155337 0.390723 0.213687
0.175235 0.368841 0.208988
0.189029 0.346349 0.204074
0.197757 0.323766 0.198734
0.256199 0.389044 0.213413
0.353674 0.483589 0.230167
0.474250 0.577569 0.243565
0.593683 0.657588 0.256168
0.701747 0.721859 0.267216
0.801999 0.776883 0.273045
0.882109 0.812222 0.276921
0.940673 0.828428 0.282353
0.972290 0.832090 0.311986
1.000000 0.836332 0.344854
1.000000 0.838102 0.376104
1.000000 0.838437 0.405982
1.000000 0.837491 0.433143
1.000000 0.835813 0.458656
0.000000 0.461463 0.273381
0.000000 0.462531 0.273777
0.000000 0.463020 0.273838
0.000000 0.463172 0.273259
0.000000 0.462837 0.272160
0.000000 0.462440 0.270756
0.000000 0.462104 0.269017
0.000000 0.461799 0.267277
0.000000 0.462074 0.265782
0.000000 0.462684 0.264500
0.000000 0.463508 0.263554
0.043427 0.464607 0.263310
0.116762 0.465522 0.263951
0.136843 0.453101 0.247379
0.147707 0.433875 0.226810
0.173892 0.411963 0.222049
0.192752 0.389197 0.217166
0.205905 0.365972 0.212009
0.219913 0.353216 0.209354
0.304997 0.449287 0.231479
0.417578 0.548821 0.251225
0.539055 0.637781 0.270237
0.649439 0.707942 0.289464
0.751583 0.767361 0.305394
0.843687 0.815885 0.316045
0.914153 0.843839 0.324498
0.964508 0.853971 0.332891
0.991272 0.854795 0.363561
1.000000 0.857328 0.398993
1.000000 0.858366 0.433234
1.000000 0.857908 0.463813
1.000000 0.856779 0.493568
0.000000 0.506889 0.299809
0.000000 0.507774 0.300053
0.000000 0.508202 0.300175
0.000000 0.508385 0.299535
0.000000 0.508446 0.298436
0.000000 0.508751 0.297307
0.000000 0.509880 0.296330
0.000000 0.511559 0.295262
0.000000 0.513787 0.294560
0.000000 0.516381 0.293858
0.000000 0.519097 0.293217
0.000000 0.521538 0.292607
0.099275 0.523217 0.292149
0.147341 0.520134 0.286290
0.156069 0.503136 0.260502
0.179721 0.483040 0.247227
0.206790 0.460761 0.242466
0.227054 0.437842 0.237705
0.242069 0.415015 0.233097
0.282719 0.440406 0.241154
0.391547 0.546960 0.269047
0.512657 0.641871 0.297185
0.622919 0.715572 0.326329
0.724605 0.777310 0.352728
0.815732 0.826810 0.374487
0.894255 0.863981 0.390356
0.951659 0.881926 0.403082
0.992157 0.884916 0.413031
1.000000 0.882902 0.444862
1.000000 0.882994 0.480659
1.000000 0.882719 0.515648
1.000000 0.881621 0.548028
0.000000 0.582238 0.348669
0.000000 0.582757 0.348913
0.000000 0.582788 0.348455
0.000000 0.582238 0.347356
0.000000 0.581476 0.345495
0.000000 0.580652 0.343267
0.000000 0.580224 0.340887
0.000000 0.580163 0.338384
0.000000 0.580438 0.335882
0.000000 0.581109 0.333410
0.000000 0.581537 0.330571
0.000000 0.581872 0.327642
0.074922 0.581506 0.324773
0.148867 0.580163 0.321965
