data/fiter_cube/25649002/1023271/file.cube
# Created by Adobe Lightroom plugin Export LUT (1.17.0)
# www.johnrellis.com/lightroom/exportlut.htm
# Preset: 高级电影质感情绪胶片_01 云集
# Color profile: C:\Program Files (x86)\Common Files\Adobe\Color\Profiles\Recommended\AdobeRGB1998.icc
LUT_3D_SIZE 5
DOMAIN_MIN 0.000000 0.000000 0.000000
DOMAIN_MAX 0.903226 0.903226 0.903226
0.068147 0.076265 0.088075
0.244785 0.101076 0.093507
0.588952 0.174166 0.095186
0.743771 0.393042 0.208072
0.841154 0.570825 0.391272
0.118257 0.186465 0.139345
0.207095 0.207370 0.153780
0.672328 0.328405 0.000000
0.763851 0.429267 0.157809
0.858824 0.588312 0.373510
0.427161 0.554131 0.402869
0.531792 0.605463 0.503960
0.555261 0.542687 0.407080
0.798734 0.600702 0.189120
0.896117 0.626581 0.220371
0.617609 0.711299 0.610895
0.649409 0.729915 0.647822
0.718929 0.779812 0.716304
0.670680 0.678309 0.577996
0.862211 0.735622 0.475624
0.712520 0.812863 0.720668
0.730404 0.821012 0.741939
0.778866 0.843565 0.795560
0.819760 0.866545 0.825071
0.790372 0.801785 0.717617
0.064576 0.098604 0.170871
0.293217 0.084749 0.208438
0.522210 0.278935 0.265415
0.699550 0.425574 0.323583
0.812131 0.575921 0.446265
0.119844 0.199557 0.187137
0.268589 0.284001 0.274907
0.615747 0.372992 0.261509
0.724239 0.460517 0.310033
0.826841 0.587854 0.431220
0.410559 0.537987 0.405737
0.520531 0.590997 0.509514
0.546777 0.543877 0.446998
0.781155 0.610925 0.324254
0.875242 0.640314 0.364263
0.612482 0.705409 0.610285
0.644251 0.723903 0.646723
0.716030 0.775479 0.720272
0.669886 0.681483 0.594903
0.861326 0.740261 0.506126
0.707240 0.809354 0.716884
0.724910 0.817472 0.737697
0.783505 0.846891 0.803311
0.826078 0.871519 0.836118
0.793606 0.806180 0.727565
0.069490 0.208438 0.429816
0.295354 0.190616 0.499062
0.634119 0.359869 0.491341
0.583185 0.496681 0.485389
0.752377 0.616938 0.573999
0.266423 0.364508 0.418952
0.352911 0.392493 0.493202
0.602502 0.468116 0.509667
0.627436 0.523552 0.500664
0.769619 0.626337 0.572595
0.378485 0.522362 0.454780
0.467018 0.556847 0.501884
0.581872 0.602411 0.569574
0.726192 0.629419 0.542748
0.823087 0.665553 0.560388
0.581048 0.681270 0.589014
0.611780 0.694789 0.621973
0.694545 0.751308 0.713069
0.674769 0.695857 0.639490
0.861570 0.755917 0.591943
0.688106 0.795010 0.703059
0.704891 0.803983 0.722011
0.758938 0.832609 0.781033
0.826474 0.871672 0.844480
0.789731 0.805814 0.738979
0.316869 0.395636 0.608545
0.400793 0.401953 0.635584
0.633478 0.413550 0.687404
0.734585 0.564019 0.642481
0.735042 0.642817 0.643732
0.418891 0.502464 0.600122
0.444862 0.495613 0.626520
0.625757 0.498177 0.685847
0.720363 0.591913 0.644526
0.720974 0.648157 0.643519
0.471778 0.594232 0.593133
0.510857 0.603845 0.605249
0.601495 0.637263 0.662226
0.683742 0.649470 0.652094
0.714992 0.670222 0.653620
0.552972 0.669337 0.612848
0.576349 0.674067 0.624475
0.638483 0.704555 0.668727
0.687160 0.719234 0.695491
0.831540 0.745052 0.677241
0.657832 0.773404 0.683040
0.671809 0.780453 0.697475
0.719814 0.807523 0.748623
0.806546 0.857115 0.834958
0.792447 0.814511 0.769314
0.529625 0.592462 0.740536
0.550011 0.590143 0.750912
0.638911 0.579614 0.786435
0.778225 0.601984 0.806058
0.847593 0.678553 0.768093
0.556237 0.628504 0.732662
0.561791 0.620050 0.743984
0.635767 0.613336 0.780697
0.773495 0.623438 0.806943
0.844602 0.690394 0.770962
0.580407 0.667567 0.700069
0.589563 0.670100 0.708400
0.624048 0.676204 0.758785
0.757565 0.677729 0.812680
0.835477 0.724544 0.780179
0.605402 0.738308 0.728603
0.613733 0.738399 0.731014
0.641871 0.738277 0.739773
0.707515 0.753445 0.791958
0.816007 0.773556 0.793881
0.650172 0.787167 0.737972
0.658167 0.789334 0.742214
0.687922 0.798489 0.759121
0.748135 0.822599 0.798123
0.815366 0.847318 0.839322
