data/fiter_cube/25649002/1023271/file.cube
# Created by Adobe Lightroom plugin Export LUT (1.17.0)
# www.johnrellis.com/lightroom/exportlut.htm
# Preset: 高级电影质感情绪胶片_01 云集
# Color profile: C:\Program Files (x86)\Common Files\Adobe\Color\Profiles\Recommended\AdobeRGB1998.icc
LUT_3D_SIZE 32
DOMAIN_MIN 0.0 0.0 0.0
DOMAIN_MAX 1.0 1.0 1.0
0.068147 0.076265 0.088075
0.071931 0.077089 0.088808
0.076692 0.078462 0.089174
0.088106 0.081941 0.091096
0.112520 0.087251 0.092988
0.148501 0.092592 0.093782
0.192935 0.097383 0.093904
0.244785 0.101076 0.093507
0.303349 0.102937 0.092256
0.363836 0.103822 0.089815
0.420478 0.106661 0.088319
0.472206 0.114626 0.087312
0.517662 0.129183 0.087465
0.556023 0.149752 0.090486
0.588952 0.174166 0.095186
0.624384 0.207553 0.104128
0.656245 0.244419 0.116732
0.680018 0.277531 0.131350
0.698573 0.307439 0.148196
0.714778 0.336309 0.166079
0.729458 0.364660 0.186191
0.743771 0.393042 0.208072
0.757534 0.420264 0.230747
0.770932 0.446387 0.254337
0.784176 0.471260 0.278264
0.797482 0.495796 0.303624
0.811398 0.520470 0.330632
0.825956 0.545434 0.359655
0.841154 0.570825 0.391272
0.857053 0.596399 0.424720
0.873289 0.621851 0.459419
0.889372 0.646632 0.494575
0.069337 0.078157 0.089326
0.071290 0.078920 0.090059
0.078065 0.080720 0.088685
0.092592 0.083864 0.089204
0.118746 0.089570 0.091218
0.155459 0.095430 0.092164
0.199863 0.100465 0.092134
0.250919 0.104097 0.091615
0.308537 0.105898 0.090028
0.367437 0.106935 0.087861
0.422766 0.109834 0.085878
0.473426 0.117800 0.084688
0.517632 0.131746 0.085115
0.555657 0.151553 0.087800
0.587823 0.174899 0.092470
0.623072 0.207401 0.100923
0.653498 0.241978 0.113283
0.676814 0.273442 0.126894
0.695430 0.302342 0.142428
0.711635 0.330663 0.160067
0.726192 0.358373 0.179568
0.740627 0.386023 0.199985
0.754299 0.413123 0.222385
0.767666 0.439460 0.246159
0.781033 0.464576 0.269718
0.794491 0.489418 0.294957
0.808499 0.514611 0.322515
0.823270 0.540032 0.351781
0.838651 0.565881 0.383551
0.854704 0.591913 0.417487
0.871122 0.617762 0.452644
0.887449 0.642908 0.488258
0.071077 0.080995 0.091279
0.072511 0.082368 0.093050
0.074647 0.082734 0.092988
0.093477 0.088075 0.089967
0.127779 0.094789 0.088533
0.165499 0.100618 0.089815
0.209537 0.105287 0.089631
0.259983 0.108705 0.088991
0.316930 0.110628 0.086824
0.374090 0.111727 0.084932
0.428016 0.114992 0.082795
0.477485 0.122621 0.081361
0.520714 0.136294 0.081605
0.557885 0.156039 0.084504
0.589410 0.178347 0.089265
0.624109 0.209964 0.097688
0.653529 0.243168 0.109377
0.676204 0.273198 0.122591
0.694453 0.301305 0.138277
0.710597 0.329076 0.155764
0.725154 0.356329 0.175082
0.739528 0.383581 0.195407
0.753201 0.410437 0.217594
0.766629 0.436530 0.240543
0.779782 0.461769 0.264958
0.793301 0.486580 0.289982
0.807401 0.511833 0.317205
0.822141 0.537469 0.346838
0.837675 0.563470 0.378698
0.853758 0.589715 0.413001
0.870237 0.615656 0.448432
0.886564 0.641016 0.484474
0.074372 0.087160 0.095796
0.076936 0.089448 0.098604
0.078828 0.090944 0.099428
0.083467 0.091463 0.098817
0.122988 0.104707 0.092195
0.180728 0.117464 0.086580
0.235874 0.121309 0.083040
0.286046 0.122927 0.081910
0.340124 0.123537 0.079683
0.393774 0.124666 0.076753
0.444251 0.128023 0.074098
0.490059 0.135744 0.073091
0.530510 0.149020 0.073243
0.565209 0.167056 0.076326
0.595056 0.188144 0.081605
0.629236 0.219059 0.090181
0.656123 0.249058 0.102449
0.677333 0.276738 0.115633
0.694636 0.302495 0.130648
0.710018 0.328283 0.147616
0.724086 0.354040 0.166598
0.737972 0.380468 0.187167
0.751827 0.406806 0.208591
0.765560 0.433417 0.232425
0.779385 0.459632 0.257816
0.793454 0.485695 0.284550
0.807980 0.511742 0.313054
0.823056 0.537774 0.343420
0.838499 0.563867 0.375921
0.854429 0.589685 0.409857
0.870573 0.615076 0.444923
0.886564 0.639796 0.480201
0.079469 0.097841 0.101076
0.082216 0.100832 0.104341
0.086275 0.104768 0.108217
0.092195 0.109255 0.109743
0.100130 0.107057 0.106630
0.154177 0.125948 0.096010
0.239231 0.146914 0.081758
0.311589 0.152773 0.072267
0.373449 0.150851 0.063752
0.421210 0.149844 0.061036
0.466621 0.151797 0.057252
0.508171 0.158511 0.053437
0.544610 0.169955 0.055329
0.576471 0.185763 0.060456
0.605951 0.205905 0.067597
0.637507 0.234257 0.077302
0.662013 0.261295 0.091402
0.681880 0.286564 0.105653
0.698116 0.310552 0.122377
0.712764 0.334264 0.139132
0.726040 0.358190 0.158907
0.739620 0.382910 0.178653
0.753079 0.408270 0.200534
0.766598 0.434058 0.224521
0.780423 0.459876 0.249851
0.794339 0.485573 0.277287
0.808835 0.511345 0.305791
0.823636 0.537011 0.336584
0.838987 0.562768 0.368933
0.854734 0.588342 0.403113
0.870787 0.613642 0.438361
0.886717 0.638239 0.474037
0.086702 0.115694 0.108858
0.090364 0.119692 0.112520
0.096193 0.125246 0.118074
0.105531 0.133944 0.124056
0.117250 0.139315 0.124056
0.125002 0.130861 0.117250
0.189059 0.151949 0.102602
0.302525 0.181460 0.074708
0.392462 0.195956 0.043336
0.450599 0.192905 0.015381
0.499489 0.191714 0.000000
0.534997 0.195102 0.000000
0.565820 0.202548 0.000000
0.593927 0.215061 0.004059
0.623255 0.234714 0.022492
0.650111 0.258061 0.052399
0.671626 0.280919 0.073304
0.689204 0.302617 0.091920
0.704311 0.324010 0.110201
0.717891 0.345495 0.129549
0.730922 0.368139 0.150332
0.744259 0.391913 0.171847
0.780545 0.460548 0.235538
0.793149 0.483742 0.261631
0.805631 0.505882 0.287907
0.818112 0.527672 0.314672
0.830808 0.549157 0.342382
0.843870 0.570764 0.371496
0.857450 0.592523 0.401770
0.871427 0.614343 0.433204
0.885344 0.635889 0.465309
0.898955 0.656672 0.496925
0.100404 0.148501 0.122408
0.105470 0.153475 0.127016
0.112612 0.160494 0.133761
0.128786 0.174899 0.147463
0.146181 0.189731 0.154299
0.161410 0.189517 0.147982
0.165621 0.169100 0.134829
0.238529 0.189792 0.114412
0.369116 0.224765 0.073762
0.469581 0.245914 0.000000
0.532738 0.256352 0.000000
0.571893 0.256291 0.000000
0.603204 0.258610 0.000000
0.626581 0.265934 0.000000
0.654292 0.283909 0.000000
0.674952 0.300938 0.000000
0.691585 0.317540 0.028534
0.705653 0.334478 0.074983
0.718410 0.352331 0.100374
0.731258 0.372534 0.124910
0.745205 0.395727 0.149569
0.759945 0.421332 0.176577
0.775113 0.448219 0.205112
0.789944 0.475257 0.236454
0.804440 0.500969 0.267552
0.817990 0.524651 0.298009
0.831113 0.546868 0.327703
0.844266 0.568536 0.357763
0.857816 0.590082 0.388617
0.871519 0.611566 0.420447
0.885313 0.632837 0.453010
0.898833 0.653529 0.485328
0.118257 0.186465 0.139345
0.123629 0.191348 0.144106
0.131624 0.198672 0.151186
0.150698 0.214359 0.167758
0.172305 0.232303 0.180270
0.199649 0.254276 0.190982
0.209232 0.238071 0.172274
0.207095 0.207370 0.153780
0.279484 0.224125 0.131258
0.411231 0.262364 0.085634
0.515190 0.290013 0.000000
0.578393 0.311254 0.000000
0.613886 0.314336 0.000000
0.647242 0.321721 0.000000
0.672328 0.328405 0.000000
0.688197 0.336309 0.000000
0.701656 0.345800 0.000000
0.713527 0.357061 0.000000
0.724849 0.370428 0.069368
0.736812 0.387030 0.101747
0.749966 0.406867 0.129244
0.763851 0.429267 0.157809
0.778225 0.453437 0.187503
0.792569 0.478035 0.218448
0.806455 0.502159 0.250278
0.819638 0.524681 0.280980
0.832547 0.546044 0.310979
0.845457 0.567102 0.341741
0.858824 0.588312 0.373510
0.872343 0.609461 0.406409
0.886046 0.630518 0.439582
0.899413 0.651118 0.473152
0.143801 0.233890 0.162417
0.149691 0.238956 0.167514
0.158297 0.246250 0.174838
0.178012 0.261540 0.191470
0.207218 0.283574 0.212741
0.234592 0.305211 0.224247
0.263127 0.319707 0.228885
0.267826 0.294224 0.201877
0.257237 0.252659 0.177646
0.321721 0.261112 0.153231
0.450263 0.303136 0.106600
0.549737 0.334325 0.000000
0.615198 0.362768 0.000000
0.660121 0.383825 0.000000
0.682002 0.382849 0.000000
0.699641 0.381811 0.000000
0.713802 0.381811 0.000000
0.723781 0.387060 0.000000
0.733913 0.395453 0.000000
0.744930 0.408057 0.065827
0.757168 0.423987 0.103182
0.770169 0.442878 0.136812
0.783780 0.463661 0.167788
0.797330 0.485573 0.200107
0.810605 0.507469 0.232517
0.823270 0.528252 0.263767
0.835721 0.548363 0.294713
0.848295 0.568322 0.325841
0.861173 0.588586 0.358465
0.874357 0.608942 0.391577
0.887694 0.629358 0.425452
0.900755 0.649470 0.459693
0.177035 0.289311 0.190982
0.183413 0.294102 0.196139
0.192264 0.300664 0.203250
0.212467 0.314977 0.219638
0.245853 0.336919 0.246769
0.275181 0.357549 0.262333
0.310155 0.381537 0.278752
0.328588 0.380285 0.269841
0.328649 0.349889 0.235447
0.311131 0.300298 0.204440
0.362097 0.298497 0.178042
0.490761 0.349035 0.135317
0.584070 0.385870 0.067231
0.645808 0.411933 0.000000
0.683986 0.429725 0.000000
0.706233 0.432837 0.000000
0.720424 0.428717 0.000000
0.733822 0.426795 0.000000
0.746029 0.428199 0.000000
0.755978 0.435676 0.000000
0.766812 0.446784 0.060304
0.778195 0.460670 0.107210
0.790127 0.476661 0.142824
0.802304 0.494301 0.175753
0.814450 0.512810 0.208835
0.826505 0.531487 0.241123
0.838621 0.550317 0.273503
0.851102 0.569604 0.306188
0.864012 0.589380 0.340154
0.877226 0.609522 0.375036
0.890471 0.629755 0.410925
0.903502 0.649683 0.446723
0.215183 0.344732 0.222568
0.221653 0.349065 0.227787
0.230655 0.354681 0.235080
0.250889 0.367071 0.251347
0.283360 0.385901 0.278111
0.318822 0.407294 0.303563
0.350439 0.428779 0.319951
0.387274 0.453162 0.339330
0.390967 0.435706 0.313298
0.387640 0.403326 0.273716
0.372625 0.356329 0.240421
0.411292 0.346136 0.212314
0.526055 0.394568 0.170565
0.607446 0.428626 0.116884
0.666163 0.450629 0.000000
0.698878 0.463569 0.000000
0.725002 0.474128 0.000000
0.738064 0.469795 0.000000
0.750515 0.466987 0.000000
0.763577 0.467231 0.000000
0.776211 0.471290 0.000000
0.786801 0.481117 0.049805
0.798062 0.493690 0.108614
0.809476 0.508049 0.148623
0.821012 0.523491 0.183627
0.832303 0.539605 0.217838
0.843717 0.556298 0.251682
0.855436 0.573663 0.285649
0.867826 0.591852 0.319951
0.880430 0.610742 0.355993
0.893309 0.629938 0.392523
0.905943 0.649195 0.429633
0.261387 0.400214 0.260410
0.267918 0.403876 0.265843
0.276738 0.408606 0.273045
0.295964 0.418799 0.288823
0.325109 0.434333 0.313207
0.363165 0.454353 0.345312
0.391455 0.473091 0.361425
0.423102 0.493874 0.379614
0.455512 0.513481 0.396612
0.456336 0.494148 0.365515
0.454292 0.465919 0.326513
0.430732 0.412024 0.283055
0.483223 0.420935 0.273106
0.582391 0.468696 0.235599
0.651148 0.497475 0.190494
0.698421 0.511101 0.131655
0.729671 0.519188 0.085176
0.754177 0.528344 0.060426
0.772641 0.532494 0.029053
0.783993 0.529015 0.050050
0.795895 0.527947 0.059846
0.808377 0.529015 0.062898
0.819852 0.532799 0.085634
0.829160 0.542016 0.136080
0.838712 0.552789 0.175906
0.848447 0.565087 0.212833
0.858335 0.578241 0.247898
0.868681 0.592218 0.281773
0.879454 0.607263 0.316136
0.890715 0.623316 0.351415
0.902129 0.639918 0.387274
0.913390 0.656977 0.424170
0.324895 0.464698 0.313176
0.330419 0.467445 0.317937
0.337652 0.470466 0.324010
0.353521 0.477699 0.337621
0.377905 0.488746 0.358373
0.408637 0.503197 0.385443
0.438849 0.520348 0.409125
0.470710 0.542535 0.431373
0.503929 0.566247 0.456214
0.523613 0.574731 0.461097
0.521813 0.555230 0.428565
0.518151 0.528374 0.387640
0.495399 0.477852 0.340764
0.500877 0.445167 0.300511
0.593744 0.492744 0.269902
0.657923 0.520378 0.232578
0.702388 0.533227 0.185306
0.736843 0.540642 0.129610
0.760891 0.549859 0.117037
0.783749 0.559838 0.103212
0.797543 0.559899 0.105348
0.809293 0.558618 0.108705
0.821317 0.558831 0.110323
0.833738 0.560266 0.110414
0.844907 0.564935 0.129946
0.853941 0.574090 0.173495
0.863249 0.584863 0.212711
0.872984 0.597040 0.250187
0.883391 0.610376 0.286534
0.894285 0.625177 0.323766
0.905364 0.640772 0.361883
0.916442 0.657008 0.400488
0.370397 0.506249 0.352087
0.376287 0.509239 0.357153
0.383276 0.512505 0.363378
0.398596 0.519768 0.376928
0.421332 0.530663 0.397406
0.449866 0.544640 0.423896
0.480964 0.561059 0.453712
0.504265 0.577173 0.470832
0.529870 0.595361 0.490425
0.556756 0.614771 0.512474
0.563104 0.610346 0.500877
0.559014 0.590234 0.467353
0.552880 0.563348 0.425757
0.528283 0.513115 0.375677
0.520989 0.471778 0.330388
0.605493 0.515740 0.303807
0.664027 0.540612 0.270848
0.705470 0.552850 0.231785
0.741421 0.560937 0.179110
0.767910 0.570153 0.156954
0.791073 0.580560 0.149233
0.811093 0.588891 0.145205
0.822599 0.587304 0.147829
0.834470 0.587152 0.149691
0.846555 0.588037 0.150546
0.858946 0.589807 0.149905
0.869627 0.595239 0.172702
0.878904 0.605066 0.214267
0.888792 0.616541 0.254276
0.899138 0.629664 0.294499
0.909850 0.643915 0.334966
0.920562 0.659113 0.376196
0.427161 0.554131 0.402869
0.431434 0.556085 0.406928
0.436591 0.558160 0.411749
0.447944 0.562982 0.422431
0.464698 0.570245 0.438666
0.485573 0.579858 0.459449
0.510338 0.592309 0.484810
0.531792 0.605463 0.503960
0.551934 0.619532 0.520256
0.573632 0.634730 0.538933
0.595666 0.650385 0.559442
0.592676 0.637385 0.534142
0.588006 0.618250 0.500603
0.580774 0.591852 0.458320
0.555261 0.542687 0.407080
0.538079 0.494667 0.357244
0.615686 0.535698 0.334539
0.669398 0.558679 0.306188
0.709224 0.571405 0.273503
0.745266 0.581140 0.230961
0.775601 0.590143 0.193881
0.798734 0.600702 0.189120
0.820371 0.610712 0.184421
0.835477 0.613642 0.184543
0.847105 0.613184 0.186313
0.859068 0.613855 0.188052
0.871641 0.615625 0.189029
0.884764 0.618799 0.191012
0.896117 0.626581 0.220371
0.906432 0.638331 0.265232
0.916899 0.651453 0.310185
0.927306 0.665766 0.355718
0.470314 0.590021 0.444495
0.474067 0.591791 0.448249
0.478187 0.593530 0.452461
0.487343 0.597467 0.461646
0.500847 0.603510 0.475471
0.517967 0.611383 0.493477
0.538201 0.621302 0.515190
0.559197 0.632441 0.537896
0.575494 0.643549 0.552087
0.592767 0.655238 0.567803
0.610010 0.667201 0.584283
0.621515 0.673304 0.590967
0.616083 0.658839 0.563287
0.609857 0.639521 0.528008
0.601526 0.613428 0.484352
0.576104 0.565942 0.433051
0.554711 0.516228 0.381353
0.623804 0.552422 0.361639
0.674525 0.575097 0.338628
0.713832 0.589441 0.312535
0.750393 0.601465 0.278233
0.784604 0.611078 0.232456
0.808011 0.621698 0.228519
0.829770 0.631708 0.226841
0.849882 0.640589 0.225101
0.861448 0.640162 0.227939
0.873503 0.640803 0.230167
0.886107 0.642664 0.232883
0.899199 0.645655 0.236576
0.912718 0.649683 0.241184
0.923430 0.658839 0.277714
0.933013 0.671168 0.326360
0.503197 0.617456 0.478248
0.505760 0.618555 0.480964
0.509056 0.619867 0.484474
0.516197 0.622797 0.492042
0.526909 0.627283 0.503593
0.540856 0.633387 0.518822
0.557366 0.640986 0.537377
0.575799 0.649866 0.558770
0.591089 0.659083 0.574273
0.605249 0.668696 0.587518
0.619959 0.679164 0.601465
0.635157 0.690639 0.615564
0.639216 0.689326 0.610834
0.632715 0.674098 0.584497
0.626154 0.655512 0.549889
0.617700 0.630701 0.507195
0.594446 0.586908 0.457313
0.573938 0.539879 0.406073
0.631891 0.568292 0.387488
0.679438 0.590417 0.369268
0.718502 0.606134 0.347814
0.755123 0.619379 0.319249
0.789273 0.629908 0.281285
0.816220 0.639582 0.261509
0.837949 0.649439 0.261265
0.858213 0.658534 0.261784
0.874083 0.663233 0.263706
0.886259 0.664149 0.267338
0.898894 0.666224 0.272313
0.911925 0.669398 0.278447
0.925139 0.673365 0.285924
0.938445 0.678523 0.297063
0.531640 0.640681 0.509270
0.534417 0.641993 0.512352
0.556909 0.658503 0.538201
0.562371 0.660578 0.544457
0.570367 0.663539 0.553826
0.580621 0.667536 0.565942
0.592859 0.672633 0.580713
0.606378 0.678950 0.597009
0.620081 0.686732 0.612787
0.631098 0.695033 0.622522
0.643030 0.704402 0.632837
0.655573 0.714473 0.643305
0.668666 0.724880 0.653803
0.665064 0.714778 0.639338
0.656489 0.697627 0.614557
0.647608 0.677943 0.582544
0.638575 0.654139 0.540826
0.618311 0.614679 0.491737
0.599573 0.571191 0.440650
0.645777 0.591363 0.423102
0.689509 0.612055 0.408606
0.728603 0.628870 0.390692
0.765011 0.642878 0.366888
0.798672 0.653590 0.334997
0.828122 0.661280 0.300999
0.848875 0.669886 0.300969
0.868254 0.677668 0.300877
0.886473 0.685084 0.302159
0.898863 0.686519 0.306554
0.911162 0.688472 0.312749
0.923857 0.691585 0.320806
0.936584 0.695796 0.332250
0.560662 0.663416 0.542596
0.564630 0.665858 0.547387
0.569299 0.668482 0.552911
0.576074 0.671778 0.560998
0.584405 0.675502 0.570977
0.594018 0.679622 0.582544
0.604547 0.684413 0.595209
0.616327 0.690394 0.609339
0.629480 0.697871 0.624872
0.640009 0.705653 0.634882
0.650660 0.714229 0.643732
0.662013 0.723507 0.653132
0.673915 0.733028 0.662928
0.684596 0.740688 0.670588
0.676600 0.725551 0.649714
0.667628 0.708095 0.625940
0.658106 0.688289 0.595697
0.648127 0.664759 0.556786
0.630091 0.628748 0.509911
0.613703 0.589197 0.461494
0.652064 0.603845 0.444404
0.694820 0.625452 0.434211
0.734035 0.643549 0.419837
0.770382 0.658595 0.400824
0.803952 0.669947 0.374121
0.835142 0.677852 0.338354
0.857603 0.686061 0.331701
0.877134 0.694240 0.334844
0.895415 0.701961 0.338842
0.910704 0.707301 0.345312
0.922820 0.709682 0.354650
0.934936 0.713100 0.366461
0.578820 0.677485 0.564508
0.582391 0.679683 0.568841
0.586328 0.681971 0.573510
0.591913 0.684871 0.580285
0.599084 0.688411 0.588861
0.607172 0.692287 0.598535
0.616327 0.696834 0.609461
0.626612 0.702358 0.621607
0.638117 0.709255 0.634974
0.649409 0.717037 0.647089
0.659052 0.724941 0.655146
0.669520 0.733425 0.663996
0.680507 0.742123 0.673121
0.691859 0.751003 0.682643
0.696498 0.751675 0.681605
0.688258 0.736538 0.660456
0.679133 0.719112 0.637171
0.669306 0.699519 0.609125
0.658350 0.676143 0.573358
0.641993 0.643183 0.529381
0.627710 0.607355 0.483497
0.659327 0.617334 0.466987
0.701442 0.639796 0.459998
0.740688 0.658869 0.448798
0.776822 0.674434 0.433051
0.810269 0.686213 0.411078
0.841337 0.694667 0.381292
0.866911 0.702022 0.362158
0.886381 0.710384 0.367437
0.904326 0.718196 0.374701
0.920775 0.725795 0.384649
0.933013 0.729427 0.396948
0.595666 0.691310 0.584802
0.598596 0.693294 0.588312
0.601984 0.695521 0.592401
0.606867 0.698329 0.598169
0.613001 0.701686 0.605463
0.619928 0.705287 0.613733
0.627832 0.709529 0.623041
0.636744 0.714595 0.633417
0.646815 0.720882 0.644953
0.658137 0.728176 0.657862
0.667628 0.735561 0.666621
0.677211 0.743221 0.674769
0.687312 0.751217 0.683375
0.697932 0.759426 0.692348
0.708888 0.767666 0.701656
0.708339 0.762600 0.692988
0.700649 0.748287 0.672328
0.692317 0.731991 0.649897
0.683314 0.713771 0.625086
0.672389 0.691768 0.594354
0.656764 0.661555 0.555413
0.645319 0.630365 0.513237
0.671168 0.636774 0.497902
0.714076 0.661067 0.494423
0.753780 0.681361 0.486824
0.789944 0.697536 0.475471
0.823331 0.709865 0.459266
0.854185 0.718929 0.436988
0.882322 0.725216 0.409491
0.900969 0.733455 0.418311
0.917754 0.741115 0.429511
0.932250 0.748196 0.442908
0.617609 0.711299 0.610895
0.619318 0.712459 0.612909
0.621241 0.713680 0.615167
0.624475 0.715541 0.618982
0.629084 0.718074 0.624353
0.634668 0.721126 0.630884
0.641444 0.725032 0.638758
0.649409 0.729915 0.647822
0.658808 0.735866 0.658625
0.669673 0.742885 0.671229
0.680537 0.750423 0.683070
0.689601 0.757626 0.691005
0.699031 0.764950 0.699214
0.708827 0.772396 0.707668
0.718929 0.779812 0.716304
0.729335 0.787381 0.725216
0.723751 0.777066 0.709010
0.716152 0.763149 0.688319
0.707973 0.747433 0.665858
0.698878 0.729488 0.641474
0.687037 0.707607 0.613550
0.670680 0.678309 0.577996
0.658839 0.648554 0.537865
0.680232 0.651514 0.521019
0.722805 0.676143 0.519005
0.762203 0.696620 0.513268
0.798337 0.713130 0.504784
0.831632 0.725978 0.492500
0.862211 0.735622 0.475624
0.890410 0.742580 0.453620
0.910765 0.749905 0.453834
0.926238 0.757626 0.467964
0.631159 0.725185 0.626612
0.632746 0.726375 0.628443
0.634485 0.727596 0.630457
0.637354 0.729397 0.633814
0.641321 0.731716 0.638361
0.646204 0.734554 0.643977
0.652125 0.738003 0.650813
0.659358 0.742275 0.659174
0.667994 0.747555 0.669184
0.678035 0.753841 0.680903
0.689174 0.760952 0.694026
0.698116 0.767697 0.702541
0.706905 0.774380 0.710231
0.716152 0.781308 0.718318
0.725673 0.788296 0.726619
0.735561 0.795407 0.735103
0.742885 0.799619 0.739498
0.736019 0.788144 0.721431
0.728908 0.775113 0.701350
0.721401 0.760403 0.679500
0.713100 0.743648 0.655756
0.701381 0.722652 0.630304
0.685359 0.695247 0.599115
0.673548 0.667720 0.563317
0.688258 0.664118 0.540307
0.730739 0.689265 0.540032
0.770260 0.710353 0.536614
0.806424 0.727230 0.530785
0.839689 0.740780 0.522423
0.870176 0.751431 0.511223
0.897398 0.759304 0.496864
0.919493 0.765621 0.488075
0.648402 0.744045 0.646265
0.649866 0.745235 0.647913
0.651301 0.746242 0.649622
0.653651 0.747616 0.652308
0.656947 0.749447 0.656092
0.661158 0.751705 0.661067
0.666438 0.754513 0.667201
0.672786 0.757992 0.674678
0.680354 0.762234 0.683589
0.689113 0.767330 0.693965
0.699001 0.773190 0.705623
0.708644 0.779385 0.716243
0.716396 0.785092 0.722988
0.724483 0.790921 0.729946
0.732815 0.796780 0.736965
0.741451 0.802731 0.744198
0.750393 0.808835 0.751614
0.752773 0.808011 0.748959
0.746120 0.796963 0.731228
0.739559 0.784756 0.711971
0.732753 0.771115 0.690974
0.725246 0.755581 0.667994
0.713832 0.735286 0.643214
0.697719 0.708858 0.614588
0.685359 0.682460 0.581781
0.699397 0.680079 0.563470
0.741909 0.705623 0.564660
0.781125 0.726589 0.563043
0.817197 0.743832 0.560113
0.850095 0.757870 0.555779
0.879301 0.768978 0.550103
0.904601 0.777676 0.543938
0.659602 0.756710 0.658930
0.660975 0.757809 0.660548
0.662348 0.758785 0.662135
0.664576 0.760067 0.664759
0.667628 0.761715 0.668391
0.671626 0.763821 0.673091
0.676661 0.766476 0.679042
0.682765 0.769741 0.686213
0.689998 0.773800 0.694820
0.698421 0.778592 0.704860
0.707851 0.784054 0.716060
0.718441 0.790341 0.728573
0.726467 0.795926 0.736172
0.734188 0.801450 0.742885
0.742214 0.807034 0.749660
0.750423 0.812619 0.756527
0.758938 0.818357 0.763607
0.767788 0.824247 0.770962
0.766384 0.819760 0.762905
0.760403 0.809751 0.746487
0.754360 0.798459 0.728084
0.748043 0.785733 0.707698
0.740993 0.771054 0.684901
0.730037 0.751644 0.660334
0.714626 0.726802 0.633906
0.702388 0.702388 0.605341
0.713252 0.698299 0.588251
0.756405 0.724544 0.591424
0.796017 0.746120 0.592889
0.831846 0.763668 0.593256
0.863523 0.777951 0.593347
0.890623 0.789517 0.593805
0.672358 0.770840 0.673671
0.673518 0.771695 0.675044
0.674586 0.772335 0.676295
0.676387 0.773251 0.678431
0.679072 0.774563 0.681605
0.682612 0.776242 0.685847
0.687190 0.778500 0.691279
0.692775 0.781369 0.697932
0.699550 0.784970 0.706020
0.707485 0.789334 0.715480
0.716426 0.794369 0.726131
0.726497 0.800168 0.737972
0.736049 0.805997 0.748440
0.743374 0.811093 0.754726
0.750820 0.816159 0.760983
0.758450 0.821286 0.767361
0.766293 0.826444 0.773831
0.774472 0.831785 0.780575
0.783047 0.837339 0.787686
0.778256 0.829770 0.774807
0.772824 0.820523 0.759335
0.767269 0.810117 0.741909
0.761410 0.798184 0.722194
0.755062 0.784573 0.700160
0.744717 0.766262 0.676173
0.730526 0.743069 0.650385
0.719265 0.720912 0.625666
0.727718 0.715785 0.610315
0.770779 0.741878 0.614740
0.810239 0.763485 0.618372
0.845182 0.781125 0.621393
0.875029 0.795529 0.625330
0.683589 0.783078 0.686671
0.684535 0.783719 0.687800
0.685512 0.784298 0.688991
0.687282 0.785214 0.691096
0.690028 0.786587 0.694392
0.693843 0.788571 0.698939
0.698878 0.791348 0.705013
0.705104 0.794797 0.712459
0.712581 0.799100 0.721401
0.721096 0.803983 0.731533
0.730648 0.809476 0.742794
0.741085 0.815488 0.754849
0.752102 0.821836 0.767453
0.760128 0.827085 0.774929
0.767422 0.831907 0.781125
0.774563 0.836545 0.787045
0.781827 0.841123 0.792966
0.789212 0.845762 0.799008
0.796872 0.850523 0.805295
0.802029 0.852964 0.807950
0.797269 0.845853 0.795468
0.792508 0.837797 0.781369
0.787594 0.828550 0.765286
0.782589 0.818051 0.747097
0.777462 0.806180 0.726619
0.768582 0.789853 0.704036
0.756741 0.769467 0.679591
0.747860 0.750332 0.656764
0.755062 0.745174 0.644038
0.796994 0.769650 0.649439
0.834531 0.790219 0.655604
0.866117 0.806729 0.662318
0.701289 0.801236 0.707546
0.702022 0.801694 0.708431
0.702754 0.802029 0.709346
0.704280 0.802670 0.711147
0.706691 0.803708 0.714076
0.709987 0.805203 0.717983
0.714290 0.807248 0.723171
0.719661 0.809873 0.729549
0.726101 0.813169 0.737179
0.733577 0.817014 0.745968
0.741909 0.821347 0.755673
0.751064 0.826169 0.766110
0.760861 0.831388 0.777188
0.769986 0.836454 0.786801
