data/fiter_cube/25649002/1023271/file.cube
# Created by Adobe Lightroom plugin Export LUT (1.17.0)
# www.johnrellis.com/lightroom/exportlut.htm
# Preset: 高级电影质感情绪胶片_01 云集
# Color profile: C:\Program Files (x86)\Common Files\Adobe\Color\Profiles\Recommended\AdobeRGB1998.icc
LUT_3D_SIZE 8
DOMAIN_MIN 0.000000 0.000000 0.000000
DOMAIN_MAX 0.903226 0.903226 0.903226
0.068147 0.076265 0.088075
0.112520 0.087251 0.092988
0.303349 0.102937 0.092256
0.517662 0.129183 0.087465
0.656245 0.244419 0.116732
0.729458 0.364660 0.186191
0.784176 0.471260 0.278264
0.841154 0.570825 0.391272
0.079469 0.097841 0.101076
0.100130 0.107057 0.106630
0.373449 0.150851 0.063752
0.544610 0.169955 0.055329
0.662013 0.261295 0.091402
0.726040 0.358190 0.158907
0.780423 0.459876 0.249851
0.838987 0.562768 0.368933
0.143801 0.233890 0.162417
0.207218 0.283574 0.212741
0.257237 0.252659 0.177646
0.615198 0.362768 0.000000
0.713802 0.381811 0.000000
0.757168 0.423987 0.103182
0.810605 0.507469 0.232517
0.861173 0.588586 0.358465
0.324895 0.464698 0.313176
0.377905 0.488746 0.358373
0.503929 0.566247 0.456214
0.495399 0.477852 0.340764
0.702388 0.533227 0.185306
0.797543 0.559899 0.105348
0.844907 0.564935 0.129946
0.883391 0.610376 0.286534
0.503197 0.617456 0.478248
0.526909 0.627283 0.503593
0.591089 0.659083 0.574273
0.639216 0.689326 0.610834
0.594446 0.586908 0.457313
0.718502 0.606134 0.347814
0.837949 0.649439 0.261265
0.898894 0.666224 0.272313
0.595666 0.691310 0.584802
0.613001 0.701686 0.605463
0.646815 0.720882 0.644953
0.687312 0.751217 0.683375
0.700649 0.748287 0.672328
0.656764 0.661555 0.555413
0.753780 0.681361 0.486824
0.882322 0.725216 0.409491
0.659602 0.756710 0.658930
0.667628 0.761715 0.668391
0.689998 0.773800 0.694820
0.726467 0.795926 0.736172
0.758938 0.818357 0.763607
0.754360 0.798459 0.728084
0.714626 0.726802 0.633906
0.796017 0.746120 0.592889
0.712520 0.812863 0.720668
0.717708 0.815122 0.726894
0.736599 0.824063 0.749203
0.770230 0.841062 0.787411
0.791958 0.851743 0.806424
0.819974 0.868681 0.829831
0.810758 0.848325 0.790066
0.790372 0.801785 0.717617
0.071321 0.084413 0.110567
0.121218 0.081971 0.119295
0.250462 0.134127 0.143069
0.482063 0.176059 0.154208
0.627924 0.265934 0.177920
0.704799 0.361791 0.220340
0.762631 0.459968 0.293492
0.824308 0.559442 0.393622
0.077974 0.102388 0.111391
0.113558 0.127382 0.138643
0.327031 0.164675 0.132998
0.519188 0.203037 0.139467
0.641901 0.284581 0.163180
0.708644 0.366827 0.205356
0.762081 0.454322 0.273442
0.821958 0.551080 0.372686
0.143984 0.229770 0.172732
0.214694 0.284672 0.235111
0.274998 0.275029 0.218173
0.606317 0.371130 0.092988
0.693050 0.382849 0.100038
0.737331 0.422705 0.170626
0.786709 0.491493 0.252842
0.842496 0.574304 0.360174
0.314641 0.448951 0.313725
0.371160 0.477150 0.361425
0.496132 0.554833 0.460914
0.475898 0.462409 0.346136
0.683497 0.516869 0.205142
0.772366 0.538140 0.155123
0.820768 0.548547 0.179141
0.865843 0.598688 0.299870
0.499825 0.611749 0.479469
0.520867 0.620111 0.501335
0.583825 0.650446 0.570092
0.630274 0.679774 0.605646
0.581598 0.574792 0.452979
0.709957 0.598993 0.352514
0.827695 0.644190 0.283665
0.889158 0.659998 0.288334
0.588067 0.684016 0.577813
0.600000 0.689265 0.591913
0.634913 0.707973 0.632868
0.677821 0.740597 0.674739
0.695552 0.743130 0.670314
0.653834 0.659449 0.557366
0.750484 0.679377 0.490181
0.876371 0.722164 0.417945
0.650385 0.746792 0.649470
0.655848 0.749325 0.655818
0.679072 0.762783 0.682918
0.718685 0.788052 0.728450
0.753841 0.813443 0.759213
0.750088 0.794553 0.725429
0.707332 0.719722 0.628443
0.788144 0.738064 0.583886
0.706264 0.807401 0.713863
0.712154 0.810391 0.720974
0.731502 0.819913 0.743862
0.765652 0.837613 0.782803
0.796231 0.854948 0.811978
0.821561 0.869780 0.832425
0.810086 0.847929 0.790768
0.786526 0.798276 0.714321
0.054780 0.107973 0.205325
0.113893 0.097932 0.243778
0.368231 0.096437 0.250278
0.384314 0.281865 0.294865
0.582025 0.348913 0.320226
0.678218 0.430610 0.353216
0.743496 0.507622 0.403601
0.811368 0.590509 0.476051
0.111421 0.165896 0.208042
0.136995 0.174319 0.251621
0.338994 0.202670 0.266575
0.433783 0.293309 0.296635
0.597650 0.361212 0.315953
0.683040 0.433570 0.344457
0.744961 0.505119 0.391638
0.812131 0.587579 0.465187
0.144717 0.246372 0.222934
0.200259 0.284459 0.259037
0.333501 0.346136 0.329412
0.577417 0.408759 0.308324
0.661067 0.441871 0.318791
0.713100 0.477760 0.339574
0.766049 0.529900 0.380621
0.826200 0.598077 0.448859
0.304662 0.443397 0.326238
0.366278 0.477333 0.376532
0.504509 0.555871 0.497383
0.505547 0.505974 0.431128
0.690303 0.559838 0.353155
0.758511 0.566003 0.334386
0.803647 0.582727 0.358404
0.852506 0.624384 0.419959
0.484535 0.600763 0.475715
0.511894 0.613092 0.502953
0.580804 0.646967 0.576410
0.641627 0.690639 0.636316
0.595972 0.599023 0.507469
0.716701 0.624445 0.431342
0.824796 0.665126 0.397314
0.880644 0.670954 0.388342
0.582177 0.679255 0.577020
0.595575 0.684993 0.592523
0.630457 0.703273 0.632654
0.674403 0.735012 0.678584
0.699001 0.747524 0.686671
0.652918 0.663294 0.577569
0.752255 0.688075 0.520897
0.873808 0.732998 0.482826
0.648493 0.745449 0.651240
0.654841 0.748684 0.658503
0.676265 0.760586 0.683192
0.714839 0.784024 0.727993
0.751888 0.810727 0.761990
0.754147 0.799466 0.739345
0.711849 0.726589 0.643122
0.798459 0.750515 0.607263
0.701717 0.804623 0.711025
0.705806 0.806241 0.715846
0.724239 0.814969 0.737484
0.760250 0.834348 0.778408
0.794980 0.853452 0.813352
0.822232 0.869993 0.835660
0.813535 0.851713 0.800473
0.789883 0.802823 0.724453
0.000000 0.164431 0.355505
0.111330 0.164218 0.388342
0.391699 0.096254 0.458900
0.575189 0.262119 0.418585
0.542382 0.402075 0.415900
0.605066 0.463081 0.443977
0.694697 0.528588 0.481971
0.774228 0.604730 0.540154
0.157900 0.252354 0.369757
0.172732 0.242344 0.398657
0.398596 0.204746 0.469490
0.565881 0.329656 0.433448
0.529656 0.426276 0.429053
0.617609 0.471229 0.446265
0.699245 0.530938 0.479408
0.777218 0.604608 0.535607
0.217350 0.351965 0.370886
0.265629 0.369390 0.388891
0.386755 0.411963 0.461524
0.521721 0.454047 0.462562
0.574823 0.482795 0.461799
0.663081 0.518944 0.469642
0.729976 0.568048 0.498329
0.799252 0.624506 0.540520
0.303288 0.452766 0.389929
0.345006 0.469123 0.410376
0.459724 0.525048 0.477852
0.533471 0.549401 0.515740
0.667659 0.583429 0.493965
0.713008 0.583551 0.484260
0.764187 0.603479 0.491890
0.824826 0.644556 0.526024
0.460822 0.584466 0.470466
0.485298 0.594629 0.492409
0.556054 0.629511 0.560601
0.632898 0.679164 0.641596
0.609400 0.624628 0.567773
0.728969 0.659388 0.526116
0.808743 0.678462 0.511498
0.861112 0.684749 0.507286
0.572442 0.673243 0.575494
0.589563 0.681727 0.594385
0.623316 0.698390 0.631586
0.671138 0.730861 0.684535
0.716335 0.766629 0.724514
0.660182 0.678096 0.614984
0.763668 0.709194 0.573419
0.871916 0.747463 0.558160
0.639277 0.737789 0.646845
0.646571 0.742306 0.655024
0.670069 0.756588 0.681483
0.708705 0.780789 0.725460
0.753811 0.811460 0.771695
0.766690 0.812863 0.767300
0.716732 0.734829 0.662806
0.808743 0.761501 0.629847
0.697841 0.802823 0.711391
0.702907 0.805447 0.717189
0.718868 0.813230 0.735225
0.749233 0.828519 0.768978
0.792172 0.850706 0.814786
0.822110 0.869535 0.839384
0.819089 0.857786 0.815549
0.793027 0.807919 0.737758
0.140993 0.257969 0.490974
0.192233 0.260044 0.508293
0.368048 0.243870 0.557336
0.590356 0.281254 0.584253
0.668788 0.437324 0.543572
0.639368 0.498604 0.513390
0.624414 0.553674 0.539361
0.726040 0.627771 0.601251
0.234531 0.331212 0.494087
0.251011 0.324804 0.511742
0.383917 0.314519 0.557794
0.591058 0.340337 0.590478
0.661402 0.462531 0.547204
0.633265 0.509148 0.517662
0.633661 0.559136 0.543206
0.730922 0.629480 0.601038
0.327337 0.424445 0.472816
0.360388 0.441962 0.491066
0.424994 0.462104 0.551141
0.580072 0.467781 0.597253
0.636622 0.523613 0.556237
0.606470 0.539452 0.531060
0.659632 0.574273 0.551324
0.745205 0.632715 0.596124
0.372534 0.523430 0.506340
0.399176 0.530144 0.514641
0.475044 0.553765 0.543297
0.562005 0.588037 0.598230
0.598596 0.591791 0.578393
0.643763 0.591608 0.565698
0.704891 0.610773 0.569665
0.778439 0.650294 0.594598
0.442969 0.576684 0.509941
0.463233 0.582910 0.519890
0.522667 0.607965 0.555261
0.595941 0.645502 0.611017
0.617060 0.642267 0.612634
0.717739 0.670985 0.600793
0.764767 0.667964 0.584985
0.821622 0.684688 0.590784
0.533288 0.650935 0.550469
0.547478 0.654322 0.561883
0.586389 0.668482 0.598962
0.636133 0.698116 0.651850
0.693690 0.743282 0.712337
0.661280 0.685420 0.641199
0.779629 0.728603 0.620111
0.863554 0.749020 0.612177
0.620996 0.721553 0.634272
0.626795 0.724575 0.640528
0.647425 0.736812 0.662745
0.683619 0.760220 0.702602
0.733791 0.793576 0.757687
0.777096 0.824369 0.793759
0.716640 0.738674 0.680171
0.819394 0.769955 0.649866
0.680659 0.789517 0.697963
0.684810 0.791440 0.702571
0.699763 0.798947 0.719081
0.730800 0.817014 0.753170
0.770321 0.838041 0.794644
0.815824 0.864561 0.837888
0.825071 0.864530 0.832792
0.791012 0.808438 0.746944
0.293034 0.375463 0.593622
0.319829 0.376898 0.602441
0.419287 0.380285 0.632532
0.577661 0.371527 0.673274
0.671046 0.456733 0.647730
0.722560 0.546960 0.626642
0.707301 0.589685 0.606287
0.719295 0.645899 0.639521
0.331670 0.415717 0.588220
0.346380 0.413123 0.597864
0.426703 0.414710 0.626368
0.570245 0.406744 0.666346
0.666011 0.474769 0.646265
0.716304 0.555505 0.625635
0.702266 0.592370 0.605615
0.714351 0.646448 0.638697
0.420996 0.507958 0.579309
0.435706 0.513939 0.590082
0.466987 0.512230 0.620722
0.565393 0.513909 0.659846
0.660639 0.543694 0.655146
0.703120 0.591394 0.632715
0.690303 0.608087 0.610864
0.702632 0.653773 0.641840
0.454475 0.564141 0.577722
0.467903 0.567010 0.581170
0.512963 0.580835 0.596368
0.573297 0.609583 0.649012
0.659937 0.622919 0.675380
0.685847 0.636042 0.645380
0.669917 0.633845 0.623468
0.720150 0.667964 0.650782
0.482033 0.626154 0.597436
0.495186 0.628840 0.601678
0.535180 0.637659 0.615503
0.588281 0.652796 0.637751
0.640070 0.672786 0.674983
0.649409 0.662684 0.648615
0.692317 0.660731 0.638788
0.766323 0.684840 0.651545
0.531029 0.652003 0.592004
0.542809 0.655665 0.598627
0.573632 0.664729 0.616083
0.615106 0.683558 0.645075
0.660822 0.712551 0.685023
0.673610 0.704677 0.679774
0.780972 0.737514 0.675471
0.831876 0.734859 0.662348
0.603967 0.712428 0.633906
0.610193 0.715724 0.639094
0.626795 0.723934 0.652094
0.659388 0.740963 0.682979
0.705562 0.771969 0.732906
0.767941 0.816587 0.796109
0.723995 0.751583 0.711147
0.843748 0.790585 0.693019
0.663905 0.777523 0.687160
0.667567 0.779232 0.691066
0.681300 0.786160 0.705684
0.707546 0.800870 0.733944
0.745052 0.821927 0.773159
0.797177 0.851621 0.824949
0.838712 0.877287 0.858915
0.792691 0.813626 0.764858
0.415015 0.481544 0.664027
0.428809 0.482490 0.668666
0.476295 0.482429 0.684047
0.564477 0.479530 0.711971
0.675837 0.488411 0.735866
0.732540 0.557977 0.708217
0.779171 0.614435 0.695247
0.784634 0.654200 0.685664
0.431952 0.503532 0.661036
0.441962 0.503014 0.665675
0.483284 0.502861 0.680903
0.563531 0.499641 0.708125
0.673121 0.505364 0.734707
0.730159 0.567773 0.708522
0.775906 0.618982 0.694728
0.781704 0.655665 0.684871
0.486244 0.565026 0.651270
0.496742 0.568566 0.657282
0.508110 0.558892 0.673548
0.567681 0.560021 0.701045
0.668849 0.559747 0.736294
0.726497 0.601801 0.714351
0.769619 0.637812 0.698238
0.776516 0.665858 0.687892
0.508568 0.596948 0.630488
0.515831 0.597925 0.631708
0.543633 0.612726 0.652766
0.578180 0.622065 0.687861
0.652949 0.625757 0.729335
0.721889 0.643671 0.724056
0.758907 0.663935 0.702907
0.765591 0.679957 0.690944
0.530846 0.645655 0.644892
0.537835 0.646571 0.646418
0.560327 0.650233 0.652186
0.592584 0.656580 0.662593
0.633082 0.673945 0.708553
0.713497 0.684169 0.735561
0.740414 0.690578 0.705501
0.743954 0.696193 0.693538
0.559594 0.689113 0.660304
0.565270 0.690272 0.662440
0.583551 0.694636 0.670130
0.609918 0.702541 0.683223
0.643641 0.712459 0.700679
0.696162 0.734066 0.742885
0.708797 0.719081 0.710689
0.751980 0.723659 0.709071
0.595941 0.712062 0.660822
0.600397 0.713588 0.663478
0.614282 0.718593 0.671778
0.636927 0.728084 0.686519
0.671504 0.747250 0.712764
0.720119 0.775998 0.753964
0.733883 0.768246 0.749844
0.842069 0.795712 0.747311
0.645899 0.769589 0.692805
0.649317 0.771176 0.695338
0.661585 0.777218 0.704768
0.682124 0.787198 0.720638
0.715267 0.801877 0.748562
0.765377 0.831144 0.798856
0.829587 0.870512 0.858274
0.797635 0.823514 0.792142
0.529625 0.592462 0.740536
0.535576 0.592035 0.743771
0.557458 0.589227 0.754391
0.604150 0.583886 0.773861
0.681941 0.573877 0.800626
0.762081 0.592920 0.807767
0.806882 0.636530 0.781094
0.847593 0.678553 0.768093
0.535027 0.601862 0.738003
0.540429 0.601556 0.741299
0.560571 0.599145 0.752132
0.604303 0.594232 0.771603
0.679500 0.585168 0.798703
0.760342 0.600214 0.807645
0.805783 0.640864 0.781552
0.846525 0.681819 0.768704
0.564355 0.638392 0.729702
0.564538 0.635706 0.733150
0.569726 0.626947 0.744808
0.605707 0.624933 0.765621
0.672297 0.618647 0.793606
0.755612 0.623713 0.808865
0.803464 0.656947 0.784970
0.843534 0.693965 0.771756
0.573175 0.657527 0.708980
0.577539 0.659663 0.713375
0.592187 0.665553 0.728695
0.606378 0.660029 0.753658
0.658808 0.658137 0.784237
0.747127 0.656397 0.812406
0.799985 0.682612 0.791836
0.838804 0.713100 0.777035
0.586938 0.686427 0.706722
0.590021 0.686488 0.707546
0.599359 0.685512 0.709499
0.614160 0.687892 0.723171
0.643641 0.694362 0.765743
0.723323 0.696712 0.808347
0.793973 0.714412 0.801572
0.831510 0.737484 0.783902
0.601068 0.726986 0.723140
0.603510 0.726894 0.723751
0.612055 0.726650 0.726040
0.626978 0.726009 0.730404
0.649012 0.724422 0.737179
0.692470 0.739651 0.785275
0.788052 0.754391 0.818479
0.820310 0.766384 0.792233
0.620508 0.764736 0.738033
0.622858 0.765225 0.739162
0.631159 0.767147 0.743191
0.646296 0.771084 0.751095
0.669429 0.776791 0.762966
0.703151 0.781277 0.776577
0.759854 0.799954 0.816861
0.796963 0.795407 0.798764
0.650172 0.787167 0.737972
0.652522 0.787747 0.739132
0.660975 0.790127 0.743740
0.676905 0.795010 0.752743
0.701137 0.802853 0.766964
0.736934 0.817350 0.790311
0.787411 0.842222 0.826444
0.815366 0.847318 0.839322
