data/fiter_cube/72007313/1022719/file.cube
# Created by Adobe Lightroom plugin Export LUT (1.17.0)
# www.johnrellis.com/lightroom/exportlut.htm
# Preset: 高级电影暗青色_08 云集
# Color profile: C:\Program Files (x86)\Common Files\Adobe\Color\Profiles\Recommended\AdobeRGB1998.icc
LUT_3D_SIZE 32
DOMAIN_MIN 0.0 0.0 0.0
DOMAIN_MAX 1.0 1.0 1.0
0.056153 0.065675 0.062409
0.056153 0.065675 0.062409
0.056153 0.065675 0.062409
0.073426 0.066377 0.064485
0.101778 0.067414 0.069642
0.139376 0.064424 0.074525
0.186374 0.041596 0.077760
0.240299 0.000000 0.080568
0.299809 0.000000 0.083284
0.362402 0.000000 0.086152
0.424659 0.000000 0.089509
0.483314 0.000000 0.093996
0.535576 0.000000 0.099825
0.580438 0.000000 0.107637
0.616785 0.000000 0.117037
0.646479 0.000000 0.128084
0.670924 0.000000 0.140017
0.692470 0.000000 0.152193
0.711635 0.000000 0.165316
0.733822 0.000000 0.182895
0.754788 0.000000 0.202853
0.772305 0.000000 0.222019
0.787076 0.002472 0.239902
0.799863 0.126864 0.257298
0.811215 0.173434 0.273991
0.821744 0.209079 0.290166
0.831876 0.240330 0.306493
0.841733 0.268956 0.323491
0.851316 0.295903 0.340917
0.860716 0.321874 0.358740
0.869749 0.348211 0.377173
0.878111 0.376410 0.396551
0.056153 0.065675 0.062409
0.056153 0.065675 0.062409
0.056153 0.065675 0.062409
0.072541 0.066529 0.064515
0.100923 0.067628 0.069276
0.137575 0.064759 0.074250
0.183780 0.044434 0.077546
0.236454 0.000000 0.080476
0.295018 0.000000 0.083070
0.357336 0.000000 0.085756
0.419165 0.000000 0.088991
0.477577 0.000000 0.093385
0.530144 0.000000 0.099062
0.575372 0.000000 0.106538
0.612451 0.000000 0.115877
0.642695 0.000000 0.126497
0.667536 0.000000 0.138155
0.689326 0.000000 0.150546
0.708919 0.000000 0.163485
0.731106 0.000000 0.181308
0.751736 0.000000 0.200473
0.769162 0.000000 0.218875
0.784024 0.000000 0.236606
0.796994 0.118013 0.253696
0.808560 0.166903 0.270237
0.819303 0.203891 0.286717
0.829709 0.235294 0.303136
0.839750 0.264683 0.320287
0.849668 0.292088 0.337865
0.859251 0.318334 0.355932
0.868437 0.344427 0.374640
0.877043 0.372778 0.393988
0.056153 0.065675 0.062409
0.056153 0.065675 0.062409
0.056153 0.065675 0.062409
0.072145 0.066194 0.064546
0.099489 0.067597 0.068940
0.135531 0.065156 0.073976
0.180850 0.047486 0.077363
0.232578 0.000000 0.080110
0.290654 0.000000 0.083070
0.352514 0.000000 0.085573
0.414405 0.000000 0.088930
0.473182 0.000000 0.093111
0.526146 0.000000 0.098604
0.571954 0.000000 0.105928
0.609430 0.000000 0.114870
0.640223 0.000000 0.125643
0.665370 0.000000 0.137179
0.687526 0.000000 0.149691
0.707362 0.000000 0.163119
0.729702 0.000000 0.180941
0.750118 0.000000 0.199466
0.767544 0.000000 0.217838
0.782437 0.000000 0.235355
0.795438 0.120638 0.252567
0.807095 0.168032 0.268925
0.817929 0.204013 0.285405
0.828397 0.235843 0.302129
0.838651 0.264744 0.319036
0.848661 0.291997 0.336706
0.858366 0.318120 0.355016
0.867704 0.343359 0.373327
0.876402 0.370794 0.392584
0.055879 0.066102 0.062806
0.055879 0.066102 0.062806
0.055879 0.066102 0.062806
0.071351 0.066346 0.064118
0.098299 0.067506 0.069001
0.133425 0.065522 0.074067
0.177890 0.049042 0.077180
0.229038 0.000000 0.079957
0.286351 0.000000 0.082765
0.347814 0.000000 0.085420
0.409369 0.000000 0.088594
0.468147 0.000000 0.092378
0.521141 0.000000 0.097749
0.567407 0.000000 0.104952
0.605829 0.000000 0.113893
0.637385 0.000000 0.125277
0.663172 0.000000 0.137362
0.685481 0.000000 0.150454
0.705348 0.000000 0.163485
0.727657 0.000000 0.181125
0.747402 0.000000 0.198947
0.764614 0.000000 0.216434
0.779690 0.050507 0.233829
0.793118 0.132143 0.251347
0.805386 0.176974 0.268193
0.816861 0.212192 0.285252
0.827695 0.243534 0.302739
0.838193 0.272160 0.320104
0.848264 0.298375 0.337957
0.857939 0.323461 0.355993
0.867247 0.346715 0.373816
0.875944 0.369757 0.391760
0.068025 0.081300 0.075288
0.068086 0.081300 0.074922
0.067659 0.081025 0.074983
0.070283 0.082338 0.074800
0.097719 0.085664 0.073610
0.134157 0.080903 0.076265
0.176333 0.068910 0.078614
0.225498 0.027924 0.080995
0.281224 0.000000 0.083101
0.341466 0.000000 0.086213
0.402838 0.000000 0.089082
0.461891 0.000000 0.093263
0.515892 0.000000 0.098726
0.563378 0.000000 0.106477
0.602899 0.000000 0.116030
0.635279 0.000000 0.126894
0.661677 0.000000 0.139559
0.684382 0.000000 0.152560
0.705013 0.000000 0.166354
0.727169 0.000000 0.183566
0.746273 0.000000 0.200687
0.763058 0.000000 0.217868
0.778012 0.105470 0.235233
0.791501 0.156863 0.252262
0.803891 0.194522 0.269291
0.815457 0.226596 0.286168
0.826444 0.255375 0.303502
0.836973 0.281895 0.321050
0.847105 0.306828 0.338720
0.856901 0.330175 0.356298
0.866270 0.352361 0.374151
0.875120 0.373480 0.391791
0.077302 0.096742 0.086519
0.077302 0.096742 0.086519
0.076997 0.096498 0.086244
0.077821 0.096681 0.085939
0.090272 0.102449 0.084169
0.135531 0.108766 0.079866
0.183017 0.101534 0.081941
0.231785 0.085695 0.083864
0.286381 0.049073 0.086152
0.345525 0.000000 0.089021
0.405707 0.000000 0.092409
0.463752 0.000000 0.096712
0.516777 0.000000 0.102266
0.563714 0.000000 0.109957
0.602808 0.000000 0.119203
0.635004 0.000000 0.130800
0.661402 0.000000 0.143374
0.684047 0.000000 0.156283
0.706172 0.000000 0.171023
0.727596 0.000000 0.188174
0.746395 0.000000 0.205081
0.763119 0.108278 0.222477
0.795468 0.220737 0.264714
0.807523 0.249454 0.281987
0.818326 0.273686 0.298375
0.828305 0.295232 0.314275
0.837766 0.314916 0.329656
0.846769 0.333654 0.345129
0.855497 0.351659 0.360754
0.863981 0.369238 0.376654
0.872099 0.385687 0.392187
0.879789 0.401038 0.407202
0.090333 0.118471 0.104250
0.090150 0.118288 0.103822
0.089937 0.118105 0.103365
0.091096 0.119722 0.102693
0.099702 0.124056 0.102296
0.125521 0.134737 0.096407
0.193881 0.145937 0.087343
0.253544 0.135561 0.088045
0.309758 0.116762 0.090639
0.369451 0.089204 0.093812
0.428809 0.015320 0.097963
0.484932 0.000000 0.102907
0.535088 0.000000 0.109712
0.578363 0.000000 0.118044
0.613672 0.000000 0.127993
0.642756 0.000000 0.139467
0.667201 0.000000 0.151675
0.688746 0.000000 0.164614
0.712673 0.000000 0.181643
0.734035 0.108339 0.199527
0.753414 0.157412 0.218296
0.771115 0.197452 0.238041
0.787106 0.232609 0.258335
0.801328 0.262913 0.278264
0.813962 0.288975 0.297002
0.825010 0.310643 0.314336
0.835019 0.329717 0.330388
0.844388 0.347082 0.346166
0.853361 0.363714 0.361852
0.861967 0.379644 0.377539
0.870237 0.394842 0.393072
0.878080 0.409033 0.407935
0.104219 0.140597 0.123659
0.104067 0.140444 0.123293
0.103700 0.140352 0.122560
0.105776 0.142672 0.123445
0.114107 0.149691 0.124422
0.128969 0.157595 0.119539
0.167910 0.170748 0.109041
0.249119 0.185367 0.094514
0.316869 0.174777 0.092103
0.374914 0.158389 0.096437
0.432929 0.139864 0.101045
0.487495 0.118959 0.106630
0.536248 0.097444 0.114137
0.578332 0.079683 0.122225
0.612940 0.071901 0.132662
0.641566 0.076600 0.144045
0.665797 0.093568 0.156497
0.689479 0.119753 0.171206
0.712154 0.151186 0.187564
0.732479 0.181338 0.204471
0.751156 0.210666 0.222751
0.768429 0.239170 0.241917
0.784146 0.266545 0.261570
0.798306 0.290929 0.280583
0.810941 0.312840 0.299168
0.822110 0.331823 0.316411
0.832303 0.348394 0.332494
0.841886 0.363561 0.348028
0.851072 0.378668 0.363836
0.859892 0.392981 0.379431
0.868345 0.406928 0.394965
0.876371 0.419898 0.409796
0.121187 0.167056 0.146700
0.120760 0.166964 0.146578
0.120729 0.166690 0.145968
0.124239 0.170474 0.148135
0.136690 0.182834 0.155093
0.147005 0.188663 0.153079
0.169009 0.200534 0.143832
0.220249 0.216220 0.129824
0.311284 0.232944 0.105287
0.383459 0.224796 0.097108
0.439826 0.212375 0.103548
0.492836 0.200839 0.110323
0.540063 0.191775 0.118288
0.580652 0.185428 0.127443
0.613855 0.183078 0.138186
0.641657 0.184207 0.150271
0.666377 0.190890 0.163180
0.691005 0.206790 0.179202
0.712306 0.223239 0.195102
0.731716 0.242161 0.211704
0.749783 0.262303 0.229252
0.766629 0.283207 0.247868
0.782010 0.304265 0.267033
0.795987 0.324163 0.285954
0.808591 0.341924 0.303868
0.819791 0.357397 0.320745
0.830076 0.371221 0.336584
0.839719 0.384436 0.352148
0.849027 0.397070 0.367559
0.857939 0.409613 0.382910
0.866484 0.421790 0.398138
0.874632 0.433295 0.412848
0.141024 0.196933 0.172946
0.140780 0.196628 0.172610
0.140627 0.196323 0.172000
0.146090 0.202182 0.175601
0.158297 0.214145 0.183108
0.171084 0.226444 0.186801
0.187045 0.233860 0.184939
0.216495 0.249210 0.171267
0.279820 0.268986 0.154299
0.373480 0.286839 0.126253
0.444129 0.282414 0.109071
0.496773 0.272770 0.111849
0.542596 0.266117 0.121096
0.582055 0.261479 0.132174
0.614893 0.259037 0.143801
0.642725 0.259464 0.156832
0.670161 0.268437 0.173404
0.693416 0.277897 0.189395
0.713710 0.288365 0.205020
0.732174 0.300511 0.221500
0.749264 0.313878 0.238376
0.765072 0.328069 0.255833
0.779629 0.342596 0.273625
0.793027 0.356786 0.291112
0.805264 0.370062 0.308080
0.816526 0.382513 0.324498
0.827024 0.394202 0.340398
0.837064 0.405646 0.356085
0.846677 0.417060 0.371923
0.855985 0.428229 0.387396
0.864836 0.439338 0.402960
0.873259 0.449683 0.417823
0.162692 0.228214 0.199619
0.162448 0.228153 0.199405
0.163638 0.229465 0.200015
0.170016 0.235996 0.204471
0.182040 0.247929 0.212222
0.199344 0.265385 0.221988
0.212528 0.275547 0.222019
0.232822 0.287266 0.216983
0.271092 0.304021 0.201083
0.343084 0.327337 0.182528
0.433509 0.345830 0.152956
0.498939 0.343694 0.133761
0.545739 0.336614 0.127749
0.583886 0.331212 0.136110
0.616663 0.328618 0.150271
0.646326 0.331548 0.167025
0.671748 0.335088 0.183017
0.693629 0.339574 0.198917
0.713008 0.344823 0.214176
0.730922 0.351812 0.230137
0.747555 0.360815 0.246952
0.763119 0.370855 0.264042
0.777554 0.381720 0.281621
0.790829 0.392340 0.298772
0.803037 0.402625 0.315618
0.814237 0.411963 0.331579
0.824765 0.420752 0.346746
0.834775 0.429541 0.362036
0.844450 0.438849 0.377508
0.853819 0.447944 0.392706
0.862821 0.457282 0.407782
0.871336 0.466438 0.422705
0.186862 0.263493 0.228702
0.188205 0.264622 0.229465
0.190799 0.267460 0.231357
0.197482 0.274235 0.235935
0.208927 0.286137 0.243626
0.225742 0.302770 0.253666
0.242924 0.320653 0.260441
0.260441 0.330236 0.260349
0.285161 0.345556 0.250889
0.330053 0.362921 0.233616
0.405524 0.388373 0.213748
0.489052 0.406683 0.184085
0.566522 0.432166 0.179690
0.609461 0.431922 0.176394
0.641749 0.431373 0.182742
0.668666 0.430762 0.197116
0.691218 0.430152 0.215091
0.710658 0.429480 0.231052
0.727810 0.429480 0.246189
0.743679 0.431281 0.261967
0.758358 0.434302 0.277836
0.772122 0.438331 0.293400
0.784817 0.442573 0.308782
0.796628 0.447425 0.324132
0.807767 0.452247 0.338781
0.818112 0.457191 0.353063
0.827909 0.461952 0.366674
0.837278 0.466926 0.380194
0.846342 0.472358 0.393713
0.855100 0.478431 0.407630
0.863584 0.484627 0.421210
0.871763 0.490944 0.434516
0.223484 0.314549 0.269444
0.225376 0.316564 0.270817
0.228092 0.319005 0.272435
0.234409 0.325170 0.276402
0.245029 0.335302 0.282933
0.259983 0.349767 0.291905
0.280461 0.369482 0.303349
0.295354 0.382452 0.304967
0.316838 0.393256 0.305516
0.345739 0.411841 0.291081
0.395697 0.430457 0.274357
0.475074 0.462104 0.257450
0.554498 0.488380 0.236271
0.605829 0.493965 0.225834
0.640528 0.489601 0.219852
0.667292 0.486244 0.224063
0.690028 0.481880 0.227573
0.708644 0.477577 0.242741
0.725246 0.474525 0.257786
0.740688 0.472786 0.272648
0.755093 0.472694 0.287541
0.768673 0.473671 0.302525
0.781277 0.475349 0.317266
0.793118 0.477577 0.331853
0.804196 0.480140 0.346075
0.814694 0.482826 0.359655
0.824582 0.485939 0.373236
0.834104 0.489448 0.386450
0.843381 0.493416 0.399847
0.852415 0.498116 0.413397
0.861112 0.503258 0.426917
0.869505 0.508598 0.440375
0.253666 0.355047 0.301549
0.255741 0.357061 0.302983
0.258244 0.359411 0.304631
0.264164 0.364965 0.308385
0.273960 0.374273 0.314458
0.288029 0.387579 0.323095
0.306493 0.405219 0.334112
0.325200 0.424598 0.342199
0.341924 0.434730 0.343145
0.365881 0.450263 0.341436
0.403693 0.473426 0.331487
0.458625 0.496040 0.319097
0.531823 0.526818 0.305058
0.593744 0.541741 0.284276
0.633936 0.541283 0.273472
0.664149 0.534447 0.262181
0.686244 0.527825 0.262486
0.705562 0.521202 0.262089
0.722469 0.515465 0.269596
0.737728 0.511528 0.283848
0.752102 0.509087 0.298558
0.765591 0.508049 0.313298
0.778164 0.507683 0.327703
0.790127 0.507988 0.341711
0.801266 0.508812 0.355505
0.811826 0.509880 0.368841
0.821866 0.511284 0.381689
0.831510 0.513268 0.394720
0.840940 0.515892 0.407660
0.850095 0.519432 0.421241
0.858976 0.523430 0.434607
0.867552 0.527703 0.447791
0.285496 0.396429 0.334752
0.287419 0.398352 0.336156
0.289860 0.400458 0.337591
0.295354 0.405768 0.341161
0.304265 0.414069 0.346807
0.316838 0.425696 0.354589
0.334386 0.442481 0.365789
0.357397 0.464576 0.380163
0.375006 0.481361 0.386053
0.397070 0.495338 0.390753
0.422950 0.513695 0.386297
0.461067 0.533288 0.375982
0.511162 0.551965 0.364416
0.571679 0.573632 0.349432
0.621393 0.581353 0.329198
0.655695 0.578302 0.316228
0.682551 0.569696 0.300542
0.701503 0.561669 0.298466
0.718929 0.554284 0.296147
0.735103 0.547997 0.296696
0.749233 0.543603 0.310857
0.762661 0.540490 0.324743
0.775174 0.538293 0.338445
0.787076 0.537102 0.352239
0.798367 0.536431 0.365606
0.809110 0.536370 0.378820
0.819516 0.536919 0.392004
0.829526 0.538415 0.405402
0.839322 0.540459 0.418860
0.848844 0.543359 0.432532
0.858030 0.546624 0.446052
0.866819 0.550103 0.459144
0.321416 0.442206 0.371984
0.323705 0.444465 0.373693
0.326329 0.447028 0.375494
0.332219 0.452583 0.379583
0.341680 0.461494 0.386053
0.354559 0.473640 0.394934
0.371283 0.489265 0.406165
0.391852 0.508324 0.419715
0.412604 0.528435 0.431434
0.428870 0.539849 0.435004
0.450721 0.552026 0.439490
0.473854 0.567529 0.429419
0.507530 0.581109 0.417334
0.549645 0.593164 0.405371
0.599420 0.607111 0.388067
0.642237 0.611109 0.366583
0.672114 0.606470 0.352209
0.696559 0.597833 0.335760
0.714687 0.590112 0.331518
0.731411 0.583520 0.329076
0.747311 0.577600 0.327001
0.760922 0.573449 0.339849
0.773587 0.570001 0.353307
0.785550 0.567559 0.366796
0.796902 0.565789 0.380041
0.807736 0.564721 0.392950
0.818235 0.564141 0.405615
0.828275 0.564385 0.418585
0.838102 0.565240 0.431342
0.847562 0.566644 0.444129
0.856626 0.568475 0.456825
0.865263 0.570550 0.469062
0.357977 0.487037 0.409552
0.359686 0.488624 0.410681
0.361975 0.490608 0.412268
0.367010 0.495216 0.415747
0.375158 0.502403 0.421271
0.386358 0.512413 0.428931
0.400824 0.525292 0.438758
0.418372 0.540764 0.450629
0.438941 0.558862 0.464057
0.453651 0.571832 0.469581
0.470283 0.581659 0.473640
0.488746 0.592767 0.473487
0.510948 0.604700 0.463478
0.541436 0.615015 0.451209
0.578180 0.623926 0.440253
0.621759 0.634272 0.422156
0.659724 0.636347 0.400916
0.686336 0.630915 0.385779
0.709071 0.622675 0.369512
0.726711 0.615137 0.362860
0.742641 0.608667 0.359136
0.757870 0.602533 0.355779
0.770871 0.597803 0.365942
0.782864 0.594263 0.379217
0.794339 0.591516 0.392004
0.805356 0.589563 0.404700
0.815946 0.588312 0.417456
0.826230 0.587732 0.429999
0.836179 0.587793 0.442725
0.845792 0.588464 0.455390
0.855009 0.589532 0.467720
0.863828 0.590814 0.479713
0.392096 0.526909 0.444526
0.394354 0.529046 0.446296
0.417121 0.553796 0.469032
0.421515 0.557397 0.472053
0.428382 0.562921 0.476722
0.437537 0.570214 0.482887
0.449195 0.579400 0.490791
0.463294 0.590387 0.500298
0.479805 0.603449 0.511681
0.495796 0.616907 0.521660
0.506523 0.624079 0.524071
0.520500 0.631373 0.527306
0.534081 0.639521 0.521904
0.552880 0.647364 0.511315
0.578515 0.654047 0.498421
0.610956 0.661219 0.486580
0.648890 0.668421 0.468147
0.681880 0.668025 0.446540
0.705104 0.661372 0.430426
0.725704 0.653010 0.413855
0.742428 0.644770 0.403693
0.757198 0.637659 0.397894
0.771420 0.630671 0.391638
0.783383 0.624994 0.399512
0.794278 0.620203 0.410224
0.804623 0.616358 0.421057
0.814725 0.613184 0.431708
0.824613 0.610986 0.442847
0.834348 0.609857 0.454688
0.843961 0.609522 0.466651
0.853300 0.609705 0.478462
0.862150 0.609949 0.489845
0.428687 0.567407 0.482124
0.432807 0.571374 0.485847
0.437446 0.575647 0.489937
0.443702 0.581109 0.495033
0.451484 0.587488 0.500999
0.460456 0.594293 0.507347
0.470649 0.602014 0.514519
0.482582 0.611109 0.522881
0.496468 0.621851 0.532677
0.511559 0.633661 0.543297
0.521599 0.642206 0.547387
0.532372 0.648432 0.550072
0.544945 0.654597 0.552117
0.556939 0.661891 0.543236
0.575036 0.668238 0.532494
0.599176 0.673671 0.519768
0.629786 0.680446 0.508202
0.663996 0.685664 0.490517
0.694209 0.684657 0.470100
0.715755 0.678401 0.455329
0.735439 0.670771 0.439918
0.752377 0.663294 0.428931
0.766873 0.656519 0.422492
0.780758 0.649592 0.415747
0.792081 0.643915 0.423865
0.802670 0.639399 0.434363
0.812863 0.635706 0.444770
0.822843 0.632959 0.455665
0.832670 0.631159 0.466987
0.842313 0.630091 0.478553
0.851682 0.629419 0.489754
0.860624 0.628931 0.500542
0.454231 0.593683 0.507988
0.457862 0.596918 0.511406
0.462013 0.600488 0.514946
0.467414 0.604944 0.519402
0.474098 0.610163 0.524620
0.481636 0.615839 0.530083
0.490181 0.622187 0.536217
0.500206 0.629755 0.543389
0.511864 0.638605 0.551843
0.524773 0.648707 0.561273
0.536706 0.659052 0.569085
0.544762 0.664729 0.570947
0.554986 0.670283 0.573022
0.565576 0.676295 0.571130
0.578058 0.682429 0.562219
0.595789 0.687770 0.551873
0.618769 0.692348 0.539666
0.647913 0.698634 0.528557
0.679042 0.702480 0.511986
0.706935 0.701167 0.493416
0.726894 0.695216 0.479896
0.745663 0.688350 0.465827
0.762722 0.681147 0.453559
0.776730 0.674403 0.446571
0.790158 0.667109 0.438727
0.800870 0.661463 0.447791
0.811032 0.657160 0.457740
0.821012 0.653742 0.468147
0.830838 0.651301 0.478981
0.840543 0.649439 0.489723
0.849973 0.648035 0.500359
0.858976 0.646815 0.510674
0.477424 0.616449 0.531731
0.480537 0.619196 0.534661
0.484016 0.622187 0.537743
0.488716 0.625971 0.541680
0.494331 0.630365 0.546166
0.500694 0.635065 0.550835
0.507897 0.640375 0.556085
0.516350 0.646601 0.562219
0.526085 0.654108 0.569482
0.537041 0.662898 0.577691
0.548913 0.672938 0.586542
0.556298 0.679774 0.589166
0.564691 0.684840 0.590997
0.574853 0.689967 0.592950
0.584405 0.695705 0.587640
0.597650 0.701350 0.579370
0.615961 0.706691 0.570336
0.638849 0.711696 0.560906
0.667292 0.718288 0.551049
0.696437 0.721920 0.537346
0.722560 0.721035 0.522057
0.741604 0.715969 0.510918
0.759396 0.709834 0.498909
0.776486 0.703029 0.486091
0.790097 0.696345 0.478401
0.802945 0.689113 0.471687
0.813199 0.683711 0.480659
0.823026 0.679744 0.490181
0.832700 0.676387 0.499763
0.842191 0.673518 0.509056
0.851316 0.671015 0.518334
0.860014 0.668696 0.527276
0.505882 0.643915 0.561395
0.507561 0.645350 0.562890
0.509300 0.646754 0.564446
0.512200 0.648951 0.566705
0.516197 0.651911 0.569787
0.521111 0.655543 0.573480
0.527062 0.660151 0.577935
0.534295 0.665827 0.583520
0.542748 0.672724 0.590143
0.552361 0.680964 0.597742
0.563165 0.690181 0.606134
0.572442 0.698970 0.612055
0.579400 0.703609 0.613794
0.587915 0.708278 0.615595
0.597284 0.713039 0.616022
0.606561 0.718318 0.608759
0.620142 0.723262 0.600732
0.638239 0.727993 0.591974
0.659815 0.732082 0.583612
0.686641 0.737545 0.573114
0.712978 0.739498 0.559686
0.736690 0.737423 0.544549
0.753811 0.731685 0.533227
0.770047 0.724819 0.520439
0.786496 0.717586 0.506310
0.799771 0.710475 0.497078
0.811704 0.703609 0.493965
0.821653 0.698665 0.502770
0.831388 0.694789 0.511650
0.840818 0.691432 0.520684
0.849943 0.688350 0.529259
0.858701 0.685389 0.537530
0.523552 0.661677 0.580591
0.524987 0.662989 0.581964
0.526604 0.664363 0.583459
0.529137 0.666438 0.585595
0.532464 0.669032 0.588251
0.536584 0.672267 0.591424
0.541588 0.676234 0.595270
0.547601 0.681117 0.599939
0.554894 0.687190 0.605768
0.563500 0.694392 0.612573
0.573266 0.702602 0.620325
0.584009 0.711604 0.628656
0.589837 0.716884 0.630335
0.597162 0.721279 0.632166
0.605798 0.725704 0.633967
0.614160 0.730526 0.631312
0.624384 0.735561 0.624506
0.638636 0.740414 0.617151
0.656886 0.745113 0.609186
0.677546 0.748623 0.602045
0.703548 0.753628 0.591302
0.728145 0.754757 0.578576
0.750362 0.752316 0.564538
0.766415 0.746578 0.553948
0.779263 0.736599 0.536370
0.795132 0.729397 0.522087
0.808621 0.722103 0.511070
0.819638 0.715724 0.513176
0.829374 0.711360 0.521691
0.838926 0.707607 0.530236
0.848173 0.704219 0.538781
0.857053 0.701045 0.546929
0.544335 0.684108 0.604639
0.545739 0.685451 0.606043
0.546990 0.686549 0.607233
0.548852 0.688106 0.608759
0.551446 0.690150 0.610773
0.554711 0.692683 0.613275
0.558862 0.695857 0.616327
0.563867 0.699763 0.620142
0.570031 0.704585 0.624842
0.577264 0.710414 0.630457
0.585504 0.717037 0.636866
0.594903 0.724605 0.644099
0.601740 0.731044 0.647761
0.607507 0.734524 0.648859
0.614313 0.737972 0.649836
0.622370 0.741512 0.650874
0.629389 0.745724 0.644526
0.639857 0.750027 0.637446
0.654414 0.754513 0.630304
0.672877 0.759121 0.622919
0.692988 0.762295 0.616388
0.718013 0.766598 0.605524
0.740993 0.766659 0.592645
0.761593 0.763302 0.578027
0.776211 0.756832 0.566491
0.789914 0.749264 0.553307
0.805203 0.741939 0.538750
0.818540 0.734096 0.526299
0.828305 0.728359 0.533227
0.837736 0.724056 0.541161
0.846952 0.720241 0.549157
0.855863 0.716640 0.556847
0.557733 0.699275 0.620630
0.558984 0.700526 0.621942
0.560204 0.701564 0.623072
0.561913 0.702937 0.624506
0.564324 0.704768 0.626368
0.567376 0.707149 0.628748
0.571283 0.710109 0.631708
0.576074 0.713771 0.635431
0.581903 0.718349 0.640009
0.588800 0.723812 0.645502
0.596612 0.730007 0.651728
0.605554 0.737118 0.658808
0.615137 0.744808 0.666255
0.619165 0.748409 0.666377
0.625177 0.751827 0.667567
0.632319 0.755337 0.668849
0.639551 0.759121 0.667567
0.647425 0.763424 0.661585
0.658778 0.767819 0.655390
0.673823 0.772366 0.648981
0.692226 0.776761 0.642206
0.711696 0.779324 0.635096
0.734737 0.781918 0.623835
0.756069 0.780819 0.610407
0.775143 0.776577 0.595300
0.788663 0.769680 0.583215
0.801389 0.761807 0.569848
0.816190 0.754391 0.554986
0.828672 0.746883 0.547631
0.838010 0.741726 0.554650
0.847105 0.737423 0.561944
0.855955 0.733333 0.569024
0.572473 0.715785 0.638392
0.573510 0.716701 0.639429
0.574395 0.717403 0.640131
0.575799 0.718441 0.641260
0.577722 0.719844 0.642695
0.580377 0.721798 0.644678
0.583795 0.724300 0.647211
0.588190 0.727535 0.650568
0.593500 0.731624 0.654780
0.599939 0.736568 0.659876
0.607233 0.742306 0.665736
0.615595 0.748836 0.672541
0.624750 0.756008 0.679744
0.630182 0.761044 0.682216
0.635370 0.764248 0.683406
0.641566 0.767483 0.684535
0.648768 0.770809 0.685786
0.655177 0.774746 0.681941
0.663966 0.778988 0.676387
0.675929 0.783322 0.670802
0.691218 0.787686 0.664759
0.709407 0.791592 0.658289
0.728237 0.793423 0.650355
0.749691 0.794644 0.638605
0.769528 0.792508 0.624628
0.787259 0.787564 0.608911
0.799924 0.780331 0.596277
0.811795 0.772030 0.581994
0.826017 0.764218 0.566369
0.837339 0.757290 0.565301
0.846311 0.752529 0.572137
0.855039 0.748165 0.579034
0.585382 0.730129 0.653925
0.586145 0.730800 0.654658
0.586969 0.731441 0.655360
0.588342 0.732448 0.656428
0.590417 0.733974 0.658076
0.593347 0.736202 0.660456
0.597375 0.739345 0.663844
0.602380 0.743252 0.668086
0.608453 0.748074 0.673335
0.615534 0.753628 0.679408
0.623468 0.759945 0.686244
0.632166 0.766812 0.693690
0.641505 0.774136 0.701472
0.649317 0.780728 0.707210
0.653895 0.784176 0.708522
0.659327 0.787320 0.709804
0.665675 0.790494 0.711147
0.672450 0.793881 0.711299
0.678981 0.797848 0.706661
0.688289 0.801907 0.701808
0.700557 0.805936 0.696620
0.715816 0.809812 0.691035
0.732845 0.812375 0.684565
0.750820 0.813321 0.675288
0.770169 0.812833 0.662837
0.788113 0.809415 0.648005
0.804196 0.803494 0.631403
0.815579 0.795529 0.617456
0.826383 0.786618 0.601953
0.839200 0.777920 0.587427
0.848997 0.771572 0.589837
0.857115 0.766476 0.595514
0.604700 0.750790 0.676967
0.605280 0.751278 0.677516
0.605890 0.751675 0.677943
0.606958 0.752407 0.678767
0.608698 0.753597 0.680049
0.611139 0.755367 0.681941
0.614466 0.757748 0.684565
0.618647 0.760800 0.687953
0.623774 0.764614 0.692134
0.629786 0.769131 0.697078
0.636561 0.774228 0.702663
0.644190 0.779934 0.708888
0.652430 0.786099 0.715602
0.661280 0.792660 0.722621
