data/fiter_cube/72007313/1022719/file.cube
# Created by Adobe Lightroom plugin Export LUT (1.17.0)
# www.johnrellis.com/lightroom/exportlut.htm
# Preset: 高级电影暗青色_08 云集
# Color profile: C:\Program Files (x86)\Common Files\Adobe\Color\Profiles\Recommended\AdobeRGB1998.icc
LUT_3D_SIZE 5
DOMAIN_MIN 0.000000 0.000000 0.000000
DOMAIN_MAX 0.903226 0.903226 0.903226
0.056153 0.065675 0.062409
0.240299 0.000000 0.080568
0.616785 0.000000 0.117037
0.772305 0.000000 0.222019
0.851316 0.295903 0.340917
0.104219 0.140597 0.123659
0.249119 0.185367 0.094514
0.612940 0.071901 0.132662
0.768429 0.239170 0.241917
0.851072 0.378668 0.363836
0.285496 0.396429 0.334752
0.357397 0.464576 0.380163
0.621393 0.581353 0.329198
0.762661 0.540490 0.324743
0.839322 0.540459 0.418860
0.505882 0.643915 0.561395
0.534295 0.665827 0.583520
0.597284 0.713039 0.616022
0.736690 0.737423 0.544549
0.831388 0.694789 0.511650
0.617182 0.764431 0.691951
0.630884 0.774166 0.702785
0.669032 0.801175 0.729671
0.718257 0.826658 0.725368
0.826017 0.819242 0.647333
0.056062 0.136507 0.192172
0.185733 0.163333 0.253910
0.572076 0.133028 0.265293
0.749630 0.285008 0.280156
0.841733 0.351812 0.344366
0.110964 0.220340 0.239841
0.212863 0.276555 0.290837
0.576318 0.320348 0.335943
0.744839 0.384100 0.321630
0.839780 0.414008 0.362463
0.298955 0.422919 0.377447
0.385412 0.481483 0.430274
0.572747 0.603265 0.482704
0.731624 0.588220 0.451453
0.834440 0.562310 0.424964
0.514244 0.642267 0.573449
0.540398 0.663783 0.595666
0.606043 0.722805 0.649439
0.721248 0.750332 0.609003
0.825315 0.711666 0.542809
0.616510 0.761074 0.694301
0.629480 0.770504 0.704768
0.677089 0.805905 0.743954
0.721767 0.832547 0.749783
0.821164 0.829740 0.687068
0.030823 0.303899 0.409491
0.129335 0.326940 0.426001
0.499031 0.503777 0.589410
0.669429 0.583459 0.603723
0.801419 0.576074 0.569299
0.132296 0.376287 0.443275
0.208286 0.402747 0.463172
0.493050 0.546471 0.588739
0.667048 0.616510 0.620722
0.800076 0.609003 0.588983
0.280400 0.515679 0.507713
0.341070 0.538933 0.525444
0.503227 0.617243 0.590478
0.673762 0.692287 0.665888
0.797116 0.682277 0.632624
0.467933 0.644800 0.589990
0.497597 0.656153 0.601617
0.584802 0.707881 0.656001
0.689479 0.778714 0.720882
0.796170 0.766690 0.691249
0.607660 0.754025 0.698146
0.621454 0.760891 0.706630
0.664088 0.790890 0.739864
0.726864 0.838132 0.787778
0.805325 0.848692 0.759976
0.188052 0.482918 0.573877
0.207431 0.490913 0.576165
0.383062 0.543725 0.606470
0.630304 0.686763 0.725765
0.743496 0.741848 0.752956
0.229679 0.514549 0.582300
0.257176 0.521874 0.585107
0.405524 0.567193 0.612482
0.626703 0.695064 0.723384
0.742855 0.748409 0.754910
0.323491 0.582330 0.604486
0.353368 0.590448 0.608850
0.461799 0.626307 0.633356
0.621302 0.718166 0.719966
0.749783 0.774136 0.766873
0.451209 0.668910 0.648219
0.469429 0.673823 0.651820
0.533532 0.699641 0.674800
0.633967 0.755276 0.728542
0.771817 0.810513 0.786313
0.572534 0.761349 0.720638
0.574609 0.762325 0.720821
0.617578 0.781308 0.739101
0.705318 0.824949 0.785153
0.792599 0.869474 0.824460
0.363989 0.622980 0.688472
0.364446 0.623224 0.688014
0.457923 0.656550 0.704433
0.610163 0.737026 0.762081
0.742733 0.808682 0.826902
0.378058 0.633082 0.691035
0.378088 0.633112 0.690517
0.464149 0.663752 0.706447
0.605615 0.736141 0.758846
0.743008 0.811795 0.827298
0.423255 0.666041 0.703334
0.420752 0.664149 0.702205
0.473793 0.682521 0.712642
0.597589 0.740352 0.755001
0.746548 0.823575 0.830594
0.493019 0.719295 0.728725
0.491920 0.718288 0.727871
0.503166 0.721065 0.730007
0.601862 0.761013 0.762966
0.755917 0.844480 0.838376
0.561730 0.771847 0.757351
0.562036 0.771969 0.757168
0.565850 0.774624 0.758480
0.645319 0.809812 0.789303
0.771054 0.871672 0.848417
