data/fiter_cube/72007313/1022719/file.cube
# Created by Adobe Lightroom plugin Export LUT (1.17.0)
# www.johnrellis.com/lightroom/exportlut.htm
# Preset: 高级电影暗青色_08 云集
# Color profile: C:\Program Files (x86)\Common Files\Adobe\Color\Profiles\Recommended\AdobeRGB1998.icc
LUT_3D_SIZE 8
DOMAIN_MIN 0.000000 0.000000 0.000000
DOMAIN_MAX 0.903226 0.903226 0.903226
0.056153 0.065675 0.062409
0.101778 0.067414 0.069642
0.299809 0.000000 0.083284
0.535576 0.000000 0.099825
0.670924 0.000000 0.140017
0.754788 0.000000 0.202853
0.811215 0.173434 0.273991
0.851316 0.295903 0.340917
0.068025 0.081300 0.075288
0.097719 0.085664 0.073610
0.281224 0.000000 0.083101
0.515892 0.000000 0.098726
0.661677 0.000000 0.139559
0.746273 0.000000 0.200687
0.803891 0.194522 0.269291
0.847105 0.306828 0.338720
0.121187 0.167056 0.146700
0.136690 0.182834 0.155093
0.311284 0.232944 0.105287
0.540063 0.191775 0.118288
0.666377 0.190890 0.163180
0.749783 0.262303 0.229252
0.808591 0.341924 0.303868
0.849027 0.397070 0.367559
0.223484 0.314549 0.269444
0.245029 0.335302 0.282933
0.316838 0.393256 0.305516
0.554498 0.488380 0.236271
0.690028 0.481880 0.227573
0.755093 0.472694 0.287541
0.804196 0.480140 0.346075
0.843381 0.493416 0.399847
0.357977 0.487037 0.409552
0.375158 0.502403 0.421271
0.438941 0.558862 0.464057
0.510948 0.604700 0.463478
0.659724 0.636347 0.400916
0.742641 0.608667 0.359136
0.794339 0.591516 0.392004
0.836179 0.587793 0.442725
0.477424 0.616449 0.531731
0.494331 0.630365 0.546166
0.526085 0.654108 0.569482
0.564691 0.684840 0.590997
0.615961 0.706691 0.570336
0.722560 0.721035 0.522057
0.790097 0.696345 0.478401
0.832700 0.676387 0.499763
0.557733 0.699275 0.620630
0.564324 0.704768 0.626368
0.581903 0.718349 0.640009
0.615137 0.744808 0.666255
0.639551 0.759121 0.667567
0.692226 0.776761 0.642206
0.775143 0.776577 0.595300
0.828672 0.746883 0.547631
0.617182 0.764431 0.691951
0.621057 0.767117 0.694911
0.635889 0.777798 0.706905
0.664088 0.798520 0.730098
0.679072 0.807370 0.732845
0.707210 0.822538 0.729183
0.762631 0.834470 0.709133
0.826017 0.819242 0.647333
0.062623 0.083497 0.104250
0.083101 0.081483 0.106569
0.251621 0.007355 0.106142
0.502068 0.000000 0.112825
0.655909 0.000000 0.142123
0.740597 0.000000 0.200595
0.799344 0.206516 0.266361
0.843748 0.301152 0.333257
0.075532 0.111147 0.119203
0.092714 0.118532 0.125612
0.261814 0.105562 0.136080
0.501976 0.000000 0.127077
0.653407 0.000000 0.145418
0.736690 0.122683 0.202487
0.793851 0.228244 0.264439
0.839292 0.311040 0.330571
0.128389 0.177096 0.168734
0.156741 0.199191 0.190494
0.287816 0.271000 0.209323
0.517754 0.250767 0.183780
0.656458 0.258152 0.175174
0.737484 0.295567 0.224735
0.794980 0.344579 0.289952
0.840330 0.393957 0.356023
0.233555 0.312047 0.281285
0.258610 0.336919 0.301122
0.338018 0.418128 0.353826
0.524804 0.490791 0.307652
0.659388 0.475990 0.281193
0.735927 0.465980 0.271489
0.790616 0.471473 0.326421
0.835172 0.487617 0.387060
0.368994 0.489509 0.422309
0.383032 0.502007 0.432013
0.437507 0.551415 0.470771
0.502739 0.599451 0.487129
0.638758 0.629511 0.428931
0.726436 0.609125 0.394629
0.787167 0.591119 0.382452
0.831174 0.586023 0.435187
0.474159 0.608820 0.529870
0.484016 0.616358 0.537163
0.515679 0.640925 0.560998
0.560021 0.678828 0.592096
0.608301 0.703365 0.581109
0.714443 0.722835 0.543450
0.782223 0.701320 0.505241
0.829374 0.675715 0.495003
0.550256 0.689174 0.612848
0.554101 0.691981 0.615534
0.572534 0.706935 0.630579
0.607507 0.736049 0.659785
0.637232 0.756008 0.671199
0.685359 0.773373 0.646876
0.767208 0.774411 0.602228
0.822599 0.745907 0.549798
0.612238 0.758633 0.687129
0.616754 0.762051 0.691005
0.631830 0.773220 0.703426
0.660121 0.794400 0.727077
0.685634 0.812894 0.742733
0.709621 0.825071 0.737697
0.760250 0.834867 0.714717
0.822324 0.820005 0.655299
0.044526 0.159762 0.227726
0.056703 0.161593 0.226383
0.235203 0.206546 0.314275
0.449134 0.236973 0.330083
0.637079 0.245182 0.334600
0.726131 0.353124 0.363226
0.795132 0.369055 0.328435
0.843626 0.378912 0.354925
0.073182 0.188846 0.241337
0.093141 0.196689 0.247623
0.234440 0.247105 0.322637
0.445808 0.281346 0.348638
0.631281 0.289097 0.350805
0.721004 0.370214 0.367102
0.790616 0.382788 0.332067
0.841062 0.390814 0.355779
0.127657 0.262394 0.282017
0.152804 0.275761 0.292668
0.262211 0.338476 0.347601
0.466987 0.409033 0.415198
0.630945 0.427008 0.415473
0.717556 0.455604 0.406592
0.785885 0.456703 0.372015
0.838407 0.445747 0.372656
0.220401 0.362799 0.339025
0.253117 0.386206 0.358526
0.354711 0.455879 0.416358
0.495460 0.559228 0.495186
0.630274 0.562158 0.483589
0.712032 0.563165 0.470283
0.779019 0.555291 0.440345
0.835172 0.526055 0.405951
0.365911 0.505333 0.447333
0.388586 0.519951 0.461097
0.457343 0.564324 0.504631
0.531640 0.629297 0.565362
0.619776 0.666499 0.556207
0.705165 0.655970 0.534478
0.769284 0.644434 0.512688
0.830076 0.611444 0.451057
0.486030 0.610040 0.544366
0.496925 0.618097 0.552880
0.525200 0.641474 0.576471
0.566033 0.679103 0.612634
0.608637 0.714015 0.633082
0.697475 0.735592 0.607416
0.766140 0.723384 0.584619
0.822751 0.700526 0.545281
0.557244 0.690547 0.623499
0.561639 0.693996 0.627161
0.577295 0.706844 0.640345
0.607172 0.732387 0.666499
0.642420 0.762051 0.692439
0.680659 0.780148 0.683162
0.759976 0.788449 0.654505
0.816434 0.767117 0.615778
0.612787 0.756222 0.690669
0.615381 0.758053 0.692500
0.628901 0.768154 0.703609
0.657832 0.790860 0.728908
0.691493 0.816068 0.755306
0.713436 0.828733 0.757595
0.757961 0.840696 0.739223
0.817716 0.830381 0.693660
0.011475 0.251804 0.351019
0.025299 0.256229 0.352544
0.164187 0.292912 0.388464
0.430701 0.408972 0.522148
0.574884 0.474037 0.534234
0.675380 0.504662 0.535485
0.754116 0.516533 0.521202
0.817350 0.524376 0.495735
0.074220 0.284398 0.367864
0.086183 0.287480 0.369238
0.189059 0.322759 0.403113
0.431373 0.437049 0.526879
0.574090 0.497505 0.543359
0.672206 0.521080 0.542992
0.751431 0.527977 0.526635
0.816403 0.529747 0.496376
0.133089 0.344671 0.395026
0.156893 0.355413 0.402930
0.248966 0.398047 0.437812
0.425086 0.493080 0.528313
0.575830 0.564935 0.573419
0.673030 0.584405 0.580133
0.753231 0.591333 0.569299
0.816739 0.572808 0.524071
0.228153 0.448005 0.449714
0.250797 0.457282 0.456397
0.329046 0.494484 0.485237
0.446784 0.558282 0.538506
0.581750 0.633631 0.609674
0.671901 0.636530 0.608576
0.746090 0.643427 0.599634
0.811612 0.622889 0.555810
0.343542 0.544671 0.503655
0.360540 0.551415 0.509575
0.421180 0.579950 0.534936
0.509697 0.629938 0.581537
0.593835 0.690028 0.641779
0.678523 0.701350 0.649012
0.746639 0.699580 0.635340
0.807828 0.680537 0.597101
0.457740 0.625238 0.564813
0.475196 0.635309 0.575311
0.510887 0.652155 0.593439
0.563622 0.683009 0.627100
0.622614 0.727810 0.676661
0.681086 0.759060 0.686610
0.748898 0.755306 0.674159
0.806332 0.740108 0.645594
0.548150 0.692012 0.630518
0.555138 0.696101 0.635279
0.577935 0.709133 0.650782
0.612696 0.732540 0.678035
0.650813 0.766842 0.714107
0.685573 0.794430 0.733669
0.749203 0.805814 0.714778
0.804898 0.791928 0.688869
0.619104 0.756283 0.700008
0.622217 0.758968 0.702846
0.632471 0.767514 0.711543
0.654017 0.785031 0.729976
0.688258 0.811337 0.758785
0.720211 0.834195 0.779599
0.753231 0.846860 0.770901
0.810971 0.844297 0.741695
0.077028 0.358312 0.464607
0.083314 0.362158 0.466163
0.171084 0.385229 0.482246
0.337255 0.457923 0.544396
0.546746 0.575219 0.636347
0.636225 0.616297 0.650080
0.708736 0.639796 0.653956
0.782071 0.634516 0.638941
0.109773 0.382330 0.475074
0.114931 0.387396 0.478004
0.198764 0.410346 0.494972
0.338689 0.466377 0.541802
0.544488 0.583246 0.635279
0.636622 0.625635 0.654353
0.708827 0.647089 0.657984
0.782071 0.639857 0.641535
0.169253 0.434546 0.496193
0.188205 0.441596 0.500420
0.253483 0.461280 0.514427
0.356298 0.499336 0.543633
0.537896 0.604364 0.631495
0.634913 0.648463 0.663172
0.707698 0.665736 0.667292
0.781369 0.653010 0.646235
0.239658 0.497414 0.521172
0.256901 0.502708 0.524468
0.320439 0.525933 0.540703
0.413733 0.564324 0.569360
0.535637 0.633783 0.629603
0.643915 0.690181 0.688045
0.712306 0.697475 0.685695
0.786160 0.678035 0.656855
0.334783 0.570825 0.556115
0.349859 0.575860 0.559960
0.398779 0.592432 0.572930
0.472023 0.622553 0.597223
0.545983 0.662806 0.633967
0.653315 0.729793 0.709529
0.718990 0.731197 0.704402
0.785428 0.727626 0.689601
0.426795 0.629297 0.588373
0.437293 0.632807 0.591547
0.469612 0.643977 0.601556
0.519432 0.667079 0.623407
0.578363 0.702785 0.658686
0.652979 0.757534 0.716579
0.728847 0.777859 0.735409
0.789487 0.773648 0.721096
0.516808 0.692012 0.638605
0.522210 0.693965 0.640620
0.542107 0.702998 0.650172
0.578149 0.722408 0.670741
0.629023 0.752468 0.703792
0.684932 0.793149 0.749874
0.734249 0.816617 0.757839
0.791440 0.811673 0.744961
0.596460 0.756527 0.702327
0.596857 0.756283 0.701930
0.610071 0.761379 0.708003
0.641047 0.777340 0.726955
0.676234 0.798581 0.751553
0.717952 0.830991 0.786526
0.749081 0.850889 0.798001
0.802029 0.855467 0.781003
0.176913 0.472541 0.565362
0.178958 0.473854 0.565332
0.220737 0.482521 0.567498
0.324773 0.512200 0.584894
0.494972 0.601617 0.646723
0.616999 0.670069 0.711788
0.690822 0.706020 0.733394
0.748257 0.730922 0.739376
0.183536 0.475563 0.560967
0.184360 0.475837 0.560266
0.230991 0.487221 0.565606
0.328496 0.515740 0.583001
0.489052 0.598596 0.640833
0.614069 0.671107 0.709285
0.689906 0.708675 0.733700
0.747951 0.732509 0.739742
0.233158 0.515160 0.575525
0.233951 0.514794 0.574243
0.283268 0.525994 0.580560
0.366400 0.550652 0.595941
0.486305 0.606744 0.635370
0.613397 0.685176 0.710170
0.693721 0.724697 0.742184
0.750423 0.742733 0.745418
0.289891 0.557488 0.590051
0.295964 0.558526 0.589746
0.343694 0.571496 0.597650
0.419318 0.598474 0.616022
0.501793 0.634760 0.642481
0.617548 0.709255 0.715908
0.702632 0.751125 0.757290
0.757382 0.759213 0.754910
0.354284 0.601251 0.605493
0.362707 0.603754 0.606958
0.401343 0.615229 0.614923
0.459815 0.636103 0.630243
0.522484 0.663783 0.653407
0.608118 0.716640 0.705928
0.705348 0.769772 0.763577
0.763516 0.770169 0.757137
0.427008 0.648524 0.628107
0.436378 0.652277 0.631281
0.464118 0.661463 0.638727
0.505333 0.677607 0.652674
0.553613 0.700771 0.674159
0.618006 0.739010 0.711727
0.716304 0.799435 0.778958
0.775875 0.798123 0.772641
0.504448 0.704372 0.667994
0.508385 0.706325 0.669856
0.525536 0.712947 0.676143
0.555138 0.725856 0.688441
0.596826 0.746181 0.708064
0.653712 0.779049 0.740658
0.719722 0.822843 0.787411
0.783627 0.834104 0.795712
0.576776 0.760616 0.716426
0.576959 0.760403 0.715969
0.581476 0.761746 0.716579
0.606836 0.772885 0.727657
0.644526 0.790829 0.746059
0.698207 0.817746 0.776394
0.752132 0.853819 0.817044
0.794858 0.867247 0.817044
0.265629 0.547753 0.625360
0.267979 0.549523 0.626246
0.283391 0.555169 0.627436
0.365209 0.578332 0.639643
0.457252 0.612146 0.658228
0.587152 0.692409 0.723873
0.674159 0.739590 0.769741
0.741634 0.772732 0.794491
0.270268 0.550866 0.624170
0.272038 0.552209 0.624811
0.289555 0.558251 0.626459
0.366308 0.579156 0.637537
0.455695 0.611566 0.655695
0.583307 0.689967 0.719936
0.670344 0.737148 0.766262
0.739254 0.770993 0.792294
0.302770 0.574640 0.632990
0.302739 0.574609 0.632715
0.323095 0.580316 0.634394
0.390936 0.599176 0.644923
0.470375 0.627985 0.661952
0.584741 0.697292 0.719722
0.672236 0.746792 0.768734
0.743709 0.781735 0.797910
0.347173 0.606195 0.645228
0.345922 0.605219 0.644129
0.363470 0.609735 0.645533
0.423255 0.627558 0.656336
0.492409 0.653468 0.673518
0.580102 0.702205 0.715206
0.675441 0.761044 0.772702
0.748836 0.795377 0.804044
0.393866 0.638209 0.656123
0.392950 0.637385 0.655207
0.405982 0.640742 0.656367
0.449256 0.653407 0.665278
0.506249 0.674250 0.681270
0.573297 0.706661 0.708675
0.673762 0.771023 0.771847
0.753170 0.809506 0.808896
0.448615 0.676020 0.673457
0.448798 0.676051 0.673304
0.458747 0.679500 0.675319
0.492378 0.691005 0.684718
0.534722 0.707515 0.699397
0.593866 0.735897 0.725093
0.676783 0.786893 0.774624
0.761624 0.828122 0.816953
0.502464 0.715663 0.696986
0.503136 0.716182 0.697353
0.509300 0.718746 0.699062
0.535393 0.729000 0.708339
0.572717 0.744656 0.722530
0.623865 0.769924 0.745846
0.684901 0.804593 0.779416
0.772427 0.850156 0.827665
0.561852 0.762478 0.732845
0.562310 0.762753 0.732906
0.565209 0.764889 0.734585
0.580255 0.771725 0.740352
0.614038 0.786526 0.753933
0.661769 0.809415 0.775570
0.723415 0.840879 0.806882
0.787930 0.877012 0.846677
0.363989 0.622980 0.688472
0.364782 0.623499 0.688746
0.364477 0.623255 0.687770
0.420142 0.642542 0.696712
0.495521 0.672389 0.714015
0.582879 0.719417 0.748287
0.672694 0.775509 0.794766
0.742733 0.808682 0.826902
0.366857 0.625025 0.688289
0.367773 0.625605 0.688563
0.367651 0.625513 0.687831
0.421424 0.643885 0.696345
0.495583 0.673121 0.713558
0.580499 0.718288 0.746517
0.672053 0.775723 0.794156
0.742092 0.808804 0.826444
0.381750 0.635798 0.691585
0.382055 0.635950 0.691554
0.380957 0.635096 0.690303
0.431250 0.653346 0.699763
0.501061 0.680537 0.716426
0.576440 0.718624 0.743862
0.673732 0.780301 0.795254
0.742855 0.812558 0.827237
0.406531 0.653803 0.698634
0.406897 0.654108 0.698726
0.406287 0.653559 0.697841
0.440497 0.665827 0.704128
0.507866 0.691890 0.721218
0.579156 0.726802 0.746578
0.676356 0.787655 0.797116
0.745357 0.819669 0.829496
0.442115 0.680079 0.709316
0.441993 0.680049 0.709377
0.439643 0.678248 0.708248
0.440131 0.677272 0.707637
0.507927 0.702052 0.724544
0.582635 0.737301 0.750759
0.669215 0.787930 0.792538
0.748501 0.828611 0.832303
0.482704 0.711147 0.724331
0.482246 0.710750 0.723995
0.480751 0.709560 0.723049
0.479072 0.708095 0.721950
0.514733 0.719417 0.731441
0.582086 0.748043 0.754299
0.659419 0.789181 0.787533
0.754879 0.841581 0.837522
0.521447 0.741451 0.740047
0.521263 0.741299 0.739834
0.520653 0.740719 0.739223
0.519951 0.740078 0.738582
0.547234 0.750118 0.746761
0.597101 0.770443 0.764248
0.665187 0.803769 0.793210
0.760891 0.855161 0.842222
0.561730 0.771847 0.757351
0.561730 0.771786 0.757198
0.562249 0.772091 0.757229
0.563928 0.773281 0.757809
0.583215 0.781765 0.764614
0.630701 0.802792 0.783047
0.694636 0.834073 0.811551
0.771054 0.871672 0.848417
