data/fiter_cube/81078425/1022772/file.cube
# Created by Adobe Lightroom plugin Export LUT (1.17.0)
# www.johnrellis.com/lightroom/exportlut.htm
# Preset: 旅拍情绪景观_06 云集视觉
# Color profile: C:\Program Files (x86)\Common Files\Adobe\Color\Profiles\Recommended\AdobeRGB1998.icc
LUT_3D_SIZE 32
DOMAIN_MIN 0.0 0.0 0.0
DOMAIN_MAX 1.0 1.0 1.0
0.067933 0.082856 0.078462
0.069245 0.083009 0.078737
0.070954 0.083436 0.079011
0.075868 0.084382 0.079438
0.084382 0.085908 0.080079
0.099184 0.087343 0.080751
0.120912 0.089113 0.080720
0.150698 0.089723 0.080140
0.190738 0.088045 0.078920
0.243412 0.081178 0.076143
0.313115 0.057008 0.071412
0.400977 0.000000 0.061769
0.499275 0.000000 0.032227
0.593347 0.000000 0.000000
0.670741 0.000000 0.000000
0.730068 0.000000 0.000000
0.775418 0.053498 0.000000
0.810880 0.166751 0.000000
0.839292 0.234287 0.000000
0.863737 0.289952 0.000000
0.885191 0.337407 0.000000
0.907713 0.386358 0.000000
0.926665 0.428412 0.041321
0.940612 0.461158 0.111666
0.951354 0.487648 0.154513
0.959899 0.510704 0.192416
0.967041 0.531792 0.228946
0.972961 0.551751 0.265599
0.977935 0.571221 0.303105
0.981903 0.590448 0.342199
0.984833 0.609705 0.382727
0.986694 0.628901 0.424445
0.068086 0.083833 0.079042
0.068971 0.083680 0.079347
0.071168 0.084413 0.079225
0.075654 0.085359 0.079683
0.084199 0.086885 0.080323
0.098665 0.088685 0.080964
0.119783 0.090547 0.080934
0.148714 0.091524 0.080415
0.187350 0.090608 0.079255
0.238590 0.085023 0.076631
0.305608 0.066560 0.072297
0.390845 0.000000 0.063478
0.487434 0.000000 0.038636
0.581842 0.000000 0.000000
0.660883 0.000000 0.000000
0.721828 0.000000 0.000000
0.768643 0.047211 0.000000
0.805356 0.162875 0.000000
0.834623 0.230472 0.000000
0.859770 0.286625 0.000000
0.881834 0.334508 0.000000
0.904631 0.383215 0.000000
0.923644 0.424445 0.013489
0.937987 0.456825 0.101595
0.949065 0.483284 0.144839
0.958007 0.506432 0.182834
0.965576 0.527489 0.218967
0.971862 0.547906 0.256352
0.977173 0.567468 0.293828
0.981445 0.586938 0.333074
0.984649 0.606195 0.373632
0.986755 0.625422 0.415442
0.068086 0.085084 0.079896
0.069429 0.085237 0.080171
0.070710 0.085389 0.080476
0.075227 0.086641 0.080568
0.084230 0.088411 0.080781
0.098421 0.090211 0.081117
0.118868 0.092226 0.081117
0.146822 0.093782 0.080598
0.184482 0.093477 0.079530
0.234348 0.089174 0.077333
0.299779 0.074861 0.072816
0.383307 0.000000 0.064515
0.479133 0.000000 0.043336
0.573907 0.000000 0.000000
0.654047 0.000000 0.000000
0.716518 0.000000 0.000000
0.764218 0.067201 0.000000
0.801633 0.166812 0.000000
0.831632 0.232761 0.000000
0.857237 0.288457 0.000000
0.879698 0.336034 0.000000
0.902892 0.384527 0.000000
0.921935 0.424933 0.006683
0.936400 0.456611 0.097902
0.947662 0.482826 0.141543
0.956847 0.505608 0.178988
0.964569 0.526757 0.215457
0.971099 0.547021 0.252506
0.976593 0.566674 0.290349
0.981018 0.586114 0.329686
0.984344 0.605310 0.370214
0.986572 0.624445 0.411994
0.068940 0.088380 0.081453
0.070253 0.088502 0.081727
0.071992 0.088289 0.082033
0.074403 0.088563 0.082551
0.082368 0.090730 0.082460
0.097810 0.093782 0.081727
0.118318 0.096315 0.081666
0.145754 0.098482 0.081117
0.182467 0.099123 0.080049
0.230777 0.096956 0.078187
0.294163 0.087648 0.074189
0.375341 0.056733 0.066285
0.469154 0.000000 0.049378
0.563684 0.000000 0.007965
0.645350 0.000000 0.000000
0.709285 0.000000 0.000000
0.758267 0.100465 0.000000
0.796567 0.180545 0.000000
0.827115 0.241978 0.000000
0.853117 0.294957 0.000000
0.875944 0.341039 0.000000
0.899596 0.388678 0.000000
0.918791 0.427436 0.001282
0.933806 0.458869 0.096254
0.945800 0.485359 0.140475
0.955566 0.508751 0.179812
0.963684 0.530205 0.217563
0.970397 0.550805 0.255955
0.975952 0.570214 0.294072
0.980407 0.589136 0.332952
0.983764 0.607660 0.372473
0.986084 0.625910 0.412573
0.069306 0.093019 0.083497
0.070222 0.093202 0.083436
0.072724 0.093172 0.084016
0.076417 0.093263 0.084535
0.079866 0.093355 0.085023
0.091493 0.096712 0.084718
0.114473 0.101808 0.083101
0.141665 0.105379 0.082429
0.177462 0.107546 0.081361
0.224063 0.107973 0.079530
0.284398 0.103944 0.075807
0.362158 0.088960 0.069581
0.454017 0.040314 0.056977
0.549035 0.000000 0.019257
0.633387 0.000000 0.000000
0.700649 0.043366 0.000000
0.752132 0.139986 0.000000
0.791989 0.205936 0.000000
0.823545 0.261631 0.000000
0.850034 0.311162 0.000000
0.873259 0.354986 0.000000
0.897337 0.400793 0.000000
0.916381 0.436866 0.020050
0.931548 0.466560 0.100801
0.943786 0.491981 0.144015
0.953826 0.514641 0.182986
0.962158 0.535546 0.220890
0.969085 0.555138 0.258366
0.974762 0.574090 0.296422
0.979339 0.592523 0.335058
0.982818 0.610620 0.374395
0.985229 0.628595 0.414618
0.069398 0.099794 0.086091
0.070314 0.099977 0.086061
0.072084 0.100313 0.085695
0.077211 0.100465 0.087007
0.083253 0.100465 0.087739
0.088502 0.100526 0.088167
0.103700 0.104860 0.087861
0.133669 0.112062 0.085664
0.172793 0.118593 0.083406
0.218326 0.121645 0.081483
0.278050 0.121828 0.078218
0.354894 0.115785 0.072267
0.444739 0.099916 0.062013
0.539727 0.076875 0.030488
0.625147 0.079927 0.000000
0.694240 0.125246 0.000000
0.747097 0.182467 0.000000
0.787961 0.238224 0.000000
0.820310 0.289036 0.000000
0.847440 0.334813 0.000000
0.872526 0.378637 0.000000
0.896422 0.420447 0.000000
0.932250 0.493538 0.138827
0.944701 0.519829 0.185458
0.954101 0.541680 0.226505
0.961425 0.560815 0.264378
0.967285 0.578210 0.300206
0.971984 0.594659 0.335760
0.975799 0.610590 0.370855
0.978698 0.626368 0.406439
0.980804 0.641932 0.441932
0.982116 0.657191 0.476844
0.068574 0.111604 0.089998
0.069917 0.111940 0.089937
0.071839 0.112001 0.089357
0.078004 0.112734 0.090791
0.087129 0.112795 0.091676
0.095796 0.113039 0.092775
0.103182 0.112642 0.093660
0.123507 0.118013 0.093751
0.164370 0.129000 0.090913
0.222416 0.139956 0.085817
0.289464 0.146578 0.081086
0.371283 0.146853 0.074464
0.465827 0.142153 0.062531
0.560754 0.140780 0.025818
0.641047 0.158419 0.000000
0.704128 0.196048 0.000000
0.753384 0.242039 0.000000
0.792203 0.288914 0.000000
0.823636 0.333165 0.000000
0.850645 0.374548 0.000000
0.878813 0.420294 0.000000
0.903777 0.460914 0.061250
0.923400 0.494453 0.124971
0.938476 0.522637 0.176120
0.949798 0.546593 0.222568
0.958221 0.566583 0.263859
0.964660 0.584100 0.301823
0.969757 0.600153 0.337804
0.973877 0.615534 0.372961
0.977020 0.630579 0.408148
0.979370 0.645411 0.442847
0.980865 0.660273 0.477760
0.067079 0.124758 0.094728
0.069062 0.125032 0.094148
0.070924 0.125277 0.093843
0.075746 0.125887 0.092897
0.087709 0.126223 0.096223
0.099825 0.126589 0.097627
0.110445 0.126955 0.098787
0.119478 0.125978 0.099855
0.142245 0.132052 0.101015
0.192111 0.146975 0.097719
0.262760 0.162142 0.091493
0.352728 0.174563 0.081636
0.446845 0.179629 0.070985
0.542199 0.186007 0.049805
0.626551 0.205173 0.000000
0.693690 0.238895 0.000000
0.744625 0.279759 0.000000
0.784756 0.321935 0.000000
0.817258 0.362280 0.000000
0.846159 0.402258 0.000000
0.875181 0.444831 0.000000
0.899626 0.480385 0.080201
0.919219 0.510216 0.135225
0.934447 0.535576 0.183719
0.946136 0.557305 0.228153
0.954925 0.575921 0.268711
0.961761 0.592187 0.306004
0.967224 0.607233 0.341527
0.971588 0.622034 0.376989
0.975036 0.636378 0.411963
0.977539 0.650874 0.447272
0.979217 0.665278 0.482155
0.065614 0.141726 0.100526
0.067109 0.142000 0.099977
0.069978 0.142153 0.099672
0.075196 0.142824 0.099001
0.087831 0.143557 0.102022
0.102174 0.143771 0.104036
0.117556 0.144442 0.106020
0.129763 0.144961 0.106722
0.140139 0.143343 0.108339
0.165530 0.149722 0.110323
0.226047 0.169924 0.107149
0.311284 0.190127 0.099458
0.421912 0.209262 0.084352
0.527123 0.228122 0.064424
0.612665 0.250034 0.022766
0.682063 0.282841 0.000000
0.736141 0.320867 0.000000
0.778470 0.359533 0.000000
0.811765 0.395727 0.000000
0.843900 0.436378 0.000000
0.872038 0.472633 0.017975
0.896056 0.503349 0.100801
0.915526 0.529686 0.150362
0.930846 0.552239 0.196353
0.942687 0.571801 0.239536
0.951751 0.588434 0.279057
0.958862 0.603418 0.315709
0.964508 0.617365 0.350896
0.969116 0.631037 0.385687
0.972686 0.644617 0.420386
0.975372 0.658320 0.455238
0.977203 0.671931 0.489479
0.062867 0.162295 0.107424
0.064973 0.162509 0.107149
0.067994 0.162478 0.106661
0.073823 0.163180 0.105776
0.083803 0.164248 0.105440
0.103517 0.164645 0.111147
0.120974 0.165377 0.113375
0.138460 0.166201 0.115419
0.153109 0.166842 0.116457
0.165316 0.164431 0.118318
0.192447 0.170443 0.121309
0.264622 0.196262 0.117800
0.364324 0.222660 0.109468
0.484474 0.250889 0.091371
0.593622 0.287449 0.059388
0.671290 0.326543 0.000000
0.727901 0.363653 0.000000
0.771847 0.399725 0.000000
0.809751 0.437720 0.000000
0.842405 0.473060 0.000000
0.869566 0.502922 0.074189
0.892485 0.528252 0.122438
0.911284 0.549828 0.165316
0.926329 0.568597 0.207401
0.938323 0.585260 0.247471
0.947723 0.600153 0.285863
0.955322 0.613977 0.322332
0.961425 0.627375 0.358556
0.966308 0.640833 0.394995
0.970123 0.654200 0.431189
0.972869 0.667872 0.467475
0.974792 0.681392 0.502800
0.058595 0.185428 0.115175
0.061219 0.185702 0.114900
0.064454 0.185946 0.114412
0.071382 0.186618 0.113802
0.082460 0.187839 0.113008
0.103670 0.189303 0.119081
0.124086 0.190494 0.121736
0.145388 0.191989 0.124697
0.165011 0.193057 0.126650
0.182589 0.193820 0.127901
0.196353 0.190555 0.129915
0.224613 0.195346 0.134096
0.310185 0.227665 0.130678
0.422889 0.261387 0.120943
0.544518 0.301396 0.100710
0.647517 0.352758 0.062745
0.716976 0.402350 0.000000
0.765225 0.439979 0.000000
0.804715 0.475135 0.000000
0.836942 0.505058 0.064332
0.864378 0.530755 0.104616
0.887968 0.552544 0.142550
0.907103 0.571405 0.182956
0.922393 0.587884 0.223667
0.934539 0.602533 0.263188
0.944182 0.615625 0.300298
0.951934 0.627771 0.336004
0.958221 0.639796 0.371283
0.963287 0.651942 0.406836
0.967285 0.664363 0.442481
0.970184 0.677241 0.478523
0.972198 0.690181 0.513756
0.044953 0.213931 0.124269
0.050202 0.214267 0.123995
0.058198 0.214542 0.123537
0.066865 0.215396 0.122927
0.079377 0.216831 0.121950
0.097658 0.218875 0.123201
0.125978 0.220645 0.131563
0.150607 0.222660 0.134554
0.177188 0.225071 0.138186
0.198581 0.226383 0.139834
0.219486 0.227268 0.141085
0.235355 0.222965 0.143496
0.289494 0.243595 0.156435
0.402533 0.289220 0.152010
0.528313 0.339574 0.139559
0.637598 0.396887 0.118746
0.724910 0.462348 0.094881
0.783322 0.513664 0.089448
0.822049 0.546929 0.110994
0.851041 0.568963 0.144656
0.875547 0.586999 0.179477
0.895842 0.602167 0.215579
0.912200 0.614832 0.250919
0.925414 0.626215 0.286076
0.935882 0.636713 0.321324
0.944060 0.646906 0.356420
0.950683 0.656672 0.389715
0.956085 0.666316 0.421912
0.960449 0.676356 0.454078
0.963867 0.686946 0.486458
0.966430 0.697780 0.518334
0.968292 0.708888 0.549706
0.007202 0.258457 0.137484
0.014923 0.258701 0.137240
0.027771 0.258579 0.136721
0.053101 0.258671 0.135744
0.073121 0.259251 0.134432
0.092897 0.260441 0.133242
0.128145 0.262119 0.143435
0.157290 0.264378 0.147127
0.188266 0.267613 0.151064
0.221927 0.271855 0.155703
0.247471 0.274479 0.157443
0.275303 0.277226 0.159335
0.296330 0.272984 0.163149
0.329259 0.274083 0.170504
0.454139 0.330632 0.167697
0.588952 0.401251 0.159945
0.690486 0.470985 0.149538
0.759243 0.524804 0.143618
0.807828 0.564630 0.146609
0.842283 0.592981 0.168734
0.867582 0.609735 0.200748
0.888304 0.622675 0.234928
0.905119 0.633600 0.269169
0.918914 0.643275 0.303075
0.930083 0.652125 0.335790
0.939208 0.660365 0.367315
0.946532 0.668544 0.398474
0.952239 0.677363 0.430854
0.956970 0.686549 0.462959
0.960632 0.696559 0.495827
0.963500 0.706813 0.527794
0.965484 0.717678 0.559930
0.000000 0.297429 0.148775
0.000000 0.297704 0.148409
0.000000 0.297551 0.147768
0.018189 0.297765 0.146853
0.061341 0.298192 0.145327
0.086458 0.299504 0.144015
0.117617 0.301915 0.147494
0.158816 0.304448 0.158480
0.193118 0.308293 0.162325
0.230564 0.313420 0.167178
0.267674 0.318486 0.171725
0.297673 0.321447 0.173617
0.329564 0.324224 0.175570
0.357580 0.322545 0.181277
0.400488 0.328710 0.191836
0.528710 0.394965 0.192142
0.643519 0.466560 0.188144
0.723934 0.524895 0.187167
0.781033 0.569238 0.191318
0.823819 0.602289 0.201236
0.856077 0.626154 0.223392
0.880613 0.642908 0.254246
0.898131 0.652491 0.288121
0.912474 0.661036 0.321996
0.924163 0.668818 0.354955
0.933715 0.676173 0.386542
0.941558 0.683314 0.416724
0.948058 0.690639 0.446296
0.953307 0.698695 0.476753
0.957244 0.707942 0.509453
0.960204 0.717800 0.542016
0.962341 0.728145 0.574182
0.000000 0.342992 0.160830
0.000000 0.343450 0.160586
0.000000 0.343328 0.160006
0.000000 0.343481 0.158877
0.017243 0.343786 0.157351
0.073732 0.344945 0.155520
0.105318 0.347601 0.154238
0.157778 0.350530 0.169497
0.197055 0.354864 0.174563
0.238254 0.360540 0.179477
0.283207 0.367224 0.185519
0.324102 0.373358 0.190036
0.365118 0.382727 0.194247
0.407202 0.391333 0.198428
0.435645 0.387518 0.204959
0.471717 0.387518 0.215061
0.584314 0.451514 0.218418
0.680507 0.516930 0.220584
0.748287 0.567285 0.227390
0.798001 0.605585 0.239139
0.836515 0.633783 0.254948
0.867399 0.653925 0.274998
0.889647 0.668666 0.305943
0.905760 0.678004 0.339544
0.918029 0.684993 0.373114
0.928130 0.691859 0.405890
0.936400 0.698939 0.438270
0.943145 0.706538 0.470863
0.948730 0.714656 0.503014
0.953124 0.723384 0.535058
0.956512 0.732692 0.566888
0.958434 0.743191 0.600305
0.000000 0.394141 0.174197
0.000000 0.394751 0.174044
0.000000 0.395117 0.173404
0.000000 0.395636 0.172396
0.000000 0.396826 0.170809
0.039918 0.398749 0.169039
0.094392 0.402045 0.167575
0.145174 0.406317 0.174899
0.202640 0.410712 0.189609
0.249302 0.417548 0.195254
0.302892 0.428565 0.203098
0.360967 0.440253 0.212192
0.404395 0.446754 0.216922
0.443488 0.451240 0.220157
0.480568 0.454322 0.222965
0.501457 0.444587 0.228244
0.529839 0.439582 0.237797
0.624537 0.497414 0.245609
0.708492 0.557641 0.255283
0.768582 0.604028 0.270268
0.813291 0.638331 0.289616
0.848692 0.663081 0.311925
0.877043 0.680385 0.334936
0.897612 0.693111 0.364996
0.912810 0.703639 0.399207
0.923064 0.710048 0.433570
0.931487 0.716640 0.466865
0.938323 0.723720 0.499672
0.943877 0.731228 0.531670
0.948425 0.739101 0.562280
0.951843 0.747433 0.592218
0.954406 0.756222 0.621363
0.000000 0.446479 0.188418
0.000000 0.446754 0.187961
0.000000 0.446937 0.187533
0.000000 0.447639 0.186313
0.000000 0.448768 0.184909
0.000000 0.450843 0.183047
0.077974 0.456214 0.182132
0.127657 0.463416 0.181582
0.206516 0.470283 0.205661
0.262608 0.478431 0.214115
0.320500 0.487495 0.222171
0.380774 0.496742 0.231632
0.440040 0.505577 0.242161
0.477546 0.508019 0.245274
0.512200 0.509148 0.247745
0.542962 0.508721 0.249424
0.558312 0.496407 0.253849
0.579706 0.488655 0.262821
0.657954 0.537774 0.275547
0.731472 0.592981 0.291997
0.784695 0.634668 0.313176
0.825162 0.664973 0.337346
0.857542 0.686397 0.362890
0.883177 0.701747 0.389014
0.902800 0.713039 0.415991
0.916258 0.723171 0.451667
0.926116 0.731350 0.486702
0.933288 0.738064 0.520378
0.939086 0.745266 0.553002
0.943694 0.752956 0.584466
0.947265 0.761105 0.614649
0.949859 0.769802 0.644068
0.000000 0.508537 0.207828
0.000000 0.509850 0.207889
0.000000 0.540032 0.218936
0.000000 0.541558 0.218143
0.000000 0.543908 0.217136
0.000000 0.546838 0.215763
0.071351 0.550774 0.214694
0.140169 0.555749 0.214023
0.220401 0.560845 0.229557
0.303807 0.565515 0.252018
0.368353 0.571221 0.261204
0.431983 0.576684 0.271855
0.491798 0.581415 0.283574
0.539269 0.584314 0.292882
0.568414 0.582879 0.294591
0.594415 0.580652 0.295323
0.617609 0.577935 0.295720
0.627588 0.564050 0.298375
0.641627 0.553338 0.306218
0.700526 0.590936 0.324895
0.760983 0.638148 0.348821
0.805814 0.672755 0.375982
0.840970 0.697383 0.404395
0.868772 0.714656 0.432288
0.890257 0.726772 0.458076
0.907164 0.735836 0.481910
0.919158 0.744045 0.510765
0.928099 0.752377 0.542443
0.934264 0.758938 0.573419
0.939055 0.766049 0.604456
0.942779 0.773800 0.634485
0.945495 0.782010 0.663203
0.000000 0.578546 0.236728
0.000000 0.583276 0.238682
0.000000 0.588128 0.240543
0.000000 0.592950 0.241764
0.000000 0.597192 0.242191
0.000000 0.600427 0.241520
0.072694 0.603174 0.240269
0.148928 0.606256 0.239414
0.213718 0.610132 0.242069
0.315984 0.611292 0.275303
0.383917 0.614252 0.286748
0.446601 0.617243 0.297093
0.504082 0.619715 0.308476
0.554559 0.622156 0.320409
0.588769 0.621698 0.326207
0.612146 0.618708 0.326238
0.633387 0.615351 0.325902
0.652888 0.611963 0.325353
0.660975 0.598871 0.327764
0.672358 0.588281 0.335515
0.720729 0.619043 0.357458
0.775631 0.663325 0.387427
0.816678 0.695064 0.419257
0.849058 0.717403 0.450965
0.874174 0.733089 0.480751
0.893614 0.744564 0.508141
0.908995 0.753536 0.533227
0.920897 0.761501 0.558953
0.928710 0.770352 0.591791
0.934478 0.778866 0.623743
0.938354 0.786221 0.653559
0.941222 0.794003 0.681880
0.000000 0.628016 0.263371
0.000000 0.632166 0.265843
0.000000 0.636439 0.268009
0.000000 0.640436 0.269596
0.000000 0.643763 0.270268
0.000000 0.645960 0.269627
0.091737 0.647578 0.268528
0.165316 0.649226 0.267582
0.227054 0.651545 0.267979
0.315953 0.652064 0.289799
0.400916 0.652094 0.315190
0.461799 0.653498 0.325414
0.516503 0.654505 0.336248
0.564599 0.655665 0.347936
0.605921 0.656825 0.360082
0.630030 0.654353 0.361852
0.649439 0.650843 0.360815
0.667567 0.647456 0.359960
0.684718 0.644495 0.359442
0.691829 0.632715 0.362066
0.701045 0.622553 0.369848
0.740475 0.647425 0.394873
0.789731 0.687984 0.429969
0.827176 0.716548 0.465217
0.856474 0.736477 0.498268
0.878996 0.750729 0.528405
0.896513 0.761563 0.556023
0.910338 0.770626 0.582208
0.921416 0.778775 0.607477
0.928801 0.787472 0.637568
0.933867 0.796689 0.668757
0.937194 0.804685 0.697108
0.000000 0.670008 0.291936
0.000000 0.673671 0.294530
0.000000 0.677424 0.297154
0.000000 0.680751 0.299107
0.000000 0.683345 0.299901
0.000000 0.684688 0.299565
0.122377 0.685451 0.298466
0.188907 0.686061 0.297612
0.248753 0.686946 0.298039
0.316503 0.687404 0.306065
0.414801 0.684810 0.342138
0.475898 0.684596 0.354681
0.527672 0.684596 0.365026
0.573175 0.684993 0.376471
0.613062 0.685725 0.388708
0.647028 0.686671 0.400916
0.666102 0.684596 0.401495
0.684352 0.682948 0.402594
0.701869 0.682002 0.404608
0.718746 0.681819 0.407752
0.726406 0.673365 0.413611
0.735042 0.665675 0.423987
0.765774 0.684901 0.452674
0.808743 0.720607 0.494301
0.841825 0.745327 0.532738
0.866880 0.762661 0.567254
0.885893 0.775662 0.598291
0.900603 0.786221 0.626734
0.912200 0.795377 0.653223
0.921355 0.803555 0.677638
0.928191 0.811368 0.701534
0.932036 0.820127 0.728573
0.000000 0.719142 0.335027
0.000000 0.720699 0.336278
0.000000 0.721859 0.337316
0.000000 0.722835 0.337713
0.000000 0.723445 0.337560
0.102022 0.723568 0.336767
0.170932 0.723507 0.336156
0.229374 0.723598 0.336217
0.286748 0.723995 0.337621
0.344640 0.724392 0.341314
0.432013 0.722072 0.370459
0.504936 0.719814 0.398260
0.552056 0.719448 0.408881
0.593500 0.719234 0.420233
0.629816 0.719295 0.432044
0.661860 0.719753 0.444709
0.686580 0.719753 0.453834
0.702449 0.717800 0.454078
0.717739 0.716274 0.455146
0.732540 0.715206 0.456672
0.746792 0.714565 0.458869
0.752438 0.705928 0.463294
0.758297 0.697261 0.471107
0.781460 0.709743 0.496773
0.819944 0.740871 0.537896
0.849729 0.762844 0.575555
0.872099 0.778958 0.609918
0.889158 0.791623 0.641199
0.902373 0.802213 0.669795
0.912749 0.811398 0.695552
0.920928 0.819608 0.718837
0.927306 0.827115 0.739925
0.000000 0.749569 0.366583
0.000000 0.750881 0.368200
0.000000 0.752010 0.369482
0.000000 0.752743 0.370153
0.096071 0.752987 0.370336
0.157900 0.752621 0.369665
0.211521 0.751949 0.369116
0.263279 0.751186 0.369177
0.316716 0.750546 0.370947
0.371191 0.749966 0.374731
0.437781 0.748348 0.390448
0.518700 0.744259 0.428840
0.564843 0.743191 0.442298
0.603571 0.742763 0.453468
0.637751 0.742672 0.465278
0.668086 0.743008 0.477974
0.695125 0.743954 0.491585
0.714046 0.743771 0.498238
0.728267 0.742672 0.499794
0.742184 0.742000 0.501946
0.755795 0.741726 0.504936
0.769009 0.741848 0.508507
0.774166 0.734432 0.514000
0.779141 0.726650 0.521691
0.793210 0.728634 0.532647
0.828733 0.757015 0.573693
0.855924 0.777493 0.611688
0.876249 0.792935 0.646143
0.891752 0.805417 0.677180
0.903838 0.815976 0.705135
0.913329 0.825345 0.730312
0.920684 0.833768 0.752895
0.079774 0.784176 0.411078
0.103731 0.785336 0.413031
0.125124 0.785946 0.414221
0.155734 0.785916 0.414496
0.191836 0.785275 0.414160
0.230747 0.784115 0.413397
0.272374 0.782528 0.412726
0.316289 0.780606 0.412482
0.362982 0.778500 0.413703
0.410956 0.776486 0.416876
0.459205 0.774289 0.422675
0.529503 0.769650 0.454749
0.582574 0.766232 0.481025
0.616236 0.764889 0.490028
0.646174 0.763729 0.499123
0.673121 0.762844 0.508782
0.697505 0.762539 0.519402
0.719966 0.763058 0.531609
0.734371 0.762325 0.534752
0.747494 0.761837 0.537285
0.760525 0.761898 0.540856
0.773251 0.762112 0.544762
0.785458 0.762264 0.548272
0.789517 0.754635 0.552300
0.792905 0.746151 0.556970
0.806699 0.749874 0.575433
0.838773 0.775265 0.616083
0.862699 0.793759 0.652583
0.880735 0.808194 0.685389
0.894682 0.820127 0.714809
0.905577 0.830503 0.741146
0.914092 0.839719 0.764645
0.165835 0.805081 0.440711
0.179263 0.806027 0.442695
0.193027 0.806546 0.443946
0.214572 0.806394 0.444556
0.243198 0.805631 0.444617
0.276493 0.804440 0.444556
0.314122 0.802823 0.444862
0.354559 0.800931 0.445838
0.398047 0.798947 0.448371
0.443183 0.796902 0.453132
0.487770 0.794888 0.460426
0.541863 0.791806 0.481788
0.599664 0.787594 0.518120
0.632074 0.786343 0.530419
0.659174 0.785519 0.539666
0.683772 0.784939 0.549310
0.706264 0.784756 0.559747
0.727138 0.785245 0.571374
0.746059 0.786343 0.583795
0.757870 0.785855 0.586023
0.769741 0.785763 0.589136
0.781460 0.785855 0.592584
0.792935 0.785916 0.595850
0.804105 0.785794 0.598779
0.807431 0.778561 0.602197
0.810147 0.770474 0.605890
0.821469 0.772580 0.622553
0.848844 0.794400 0.661769
0.869841 0.811612 0.697353
0.885801 0.825284 0.728542
0.898131 0.836820 0.755856
0.907836 0.846830 0.779660
0.240208 0.825986 0.474678
0.249729 0.826474 0.476204
0.258885 0.826505 0.476967
0.275090 0.825956 0.477241
0.297704 0.824796 0.477058
0.325322 0.823270 0.477089
0.357671 0.821378 0.477516
0.394018 0.819242 0.479042
0.433295 0.817044 0.482307
0.473732 0.814939 0.487953
0.514488 0.812802 0.496345
0.554131 0.811032 0.507958
0.607996 0.807065 0.542596
0.646265 0.804654 0.567468
0.670405 0.803922 0.576165
0.692500 0.803372 0.585077
0.712978 0.803098 0.594568
0.732174 0.803311 0.605127
0.750484 0.804227 0.617212
0.765774 0.805081 0.626825
0.776638 0.804929 0.629572
0.787564 0.804929 0.632776
0.798306 0.804929 0.635859
0.808835 0.804868 0.638758
0.819120 0.804623 0.641260
0.821897 0.797757 0.644312
0.824094 0.790311 0.647669
0.833951 0.791806 0.662959
0.856718 0.810056 0.698848
0.875608 0.826200 0.732692
0.890013 0.839261 0.761654
0.901244 0.850309 0.786557
0.297337 0.842679 0.504143
0.304448 0.842863 0.505303
0.312352 0.842802 0.506004
0.326574 0.842313 0.506706
0.347601 0.841428 0.507713
0.374609 0.840299 0.509728
0.407294 0.839231 0.513512
0.443824 0.838102 0.519066
0.482856 0.836973 0.527245
0.522393 0.835904 0.538079
0.560754 0.834958 0.551293
0.596551 0.834134 0.566583
0.636500 0.832334 0.593133
0.675227 0.830014 0.626886
0.697261 0.829740 0.639307
0.715724 0.829526 0.648096
0.733059 0.829374 0.656947
0.749569 0.829526 0.666407
0.765652 0.830076 0.676997
0.781247 0.831022 0.688472
0.792966 0.831388 0.694697
0.802396 0.831205 0.697169
0.811673 0.831022 0.699458
0.820859 0.830838 0.701686
0.829862 0.830564 0.703761
0.838651 0.830289 0.705623
0.840818 0.824369 0.708370
0.842771 0.818173 0.711299
0.850492 0.818936 0.723934
0.868070 0.833066 0.753323
0.883970 0.847105 0.781704
0.896269 0.858579 0.805173
0.390997 0.863798 0.552758
0.396094 0.863737 0.553613
0.401465 0.863432 0.554131
0.411872 0.862669 0.554772
0.427802 0.861509 0.555901
0.448402 0.860044 0.557946
0.473396 0.858396 0.561486
0.501457 0.856657 0.566644
0.531670 0.854856 0.573754
0.562676 0.853117 0.582940
0.592889 0.851438 0.593866
0.621851 0.849943 0.606744
0.650111 0.848417 0.622827
0.684382 0.845640 0.652796
