data/fiter_cube/81078425/1022772/file.cube
# Created by Adobe Lightroom plugin Export LUT (1.17.0)
# www.johnrellis.com/lightroom/exportlut.htm
# Preset: 旅拍情绪景观_06 云集视觉
# Color profile: C:\Program Files (x86)\Common Files\Adobe\Color\Profiles\Recommended\AdobeRGB1998.icc
LUT_3D_SIZE 5
DOMAIN_MIN 0.000000 0.000000 0.000000
DOMAIN_MAX 0.903226 0.903226 0.903226
0.067933 0.082856 0.078462
0.150698 0.089723 0.080140
0.670741 0.000000 0.000000
0.907713 0.386358 0.000000
0.977935 0.571221 0.303105
0.067079 0.124758 0.094728
0.119478 0.125978 0.099855
0.626551 0.205173 0.000000
0.899626 0.480385 0.080201
0.971588 0.622034 0.376989
0.000000 0.342992 0.160830
0.157778 0.350530 0.169497
0.435645 0.387518 0.204959
0.867399 0.653925 0.274998
0.948730 0.714656 0.503014
0.000000 0.719142 0.335027
0.229374 0.723598 0.336217
0.629816 0.719295 0.432044
0.752438 0.705928 0.463294
0.902373 0.802213 0.669795
0.440742 0.876188 0.582696
0.538293 0.869566 0.600763
0.708309 0.850889 0.682216
0.812894 0.855039 0.752956
0.860594 0.851286 0.770932
0.085023 0.108461 0.154147
0.157046 0.113100 0.150546
0.614405 0.150332 0.229831
0.874907 0.493355 0.358007
0.947570 0.654383 0.537011
0.089754 0.167330 0.176822
0.168154 0.180301 0.182834
0.597742 0.273960 0.239536
0.867796 0.543023 0.371527
0.942718 0.679744 0.561944
0.000000 0.377874 0.245731
0.181796 0.399908 0.250431
0.460212 0.419867 0.287175
0.845243 0.665949 0.426551
0.928405 0.747646 0.634607
0.073548 0.726101 0.426062
0.313909 0.729122 0.433387
0.638239 0.725612 0.506859
0.751492 0.715755 0.533379
0.895781 0.813840 0.721798
0.468940 0.874327 0.624872
0.553429 0.868345 0.638514
0.713466 0.858824 0.710628
0.816892 0.859159 0.779904
0.861112 0.855894 0.793149
0.230472 0.264866 0.486641
0.333104 0.244388 0.468818
0.578485 0.266087 0.435615
0.825864 0.616388 0.631281
0.898924 0.788632 0.800168
0.322240 0.411200 0.519219
0.379736 0.377630 0.502495
0.578912 0.360662 0.456336
0.820310 0.659754 0.660670
0.898955 0.793484 0.800961
0.292699 0.573816 0.547723
0.393164 0.569268 0.539452
0.597742 0.578363 0.536858
0.811795 0.725277 0.692439
0.896971 0.810544 0.803464
0.306401 0.742641 0.618097
0.414405 0.736965 0.612360
0.637537 0.742885 0.632471
0.758633 0.749325 0.679652
0.888304 0.841367 0.812528
0.546288 0.867369 0.732723
0.595392 0.865599 0.737026
0.701930 0.861387 0.753384
0.812894 0.860472 0.811368
0.857847 0.859342 0.823239
0.608392 0.611048 0.786862
0.631037 0.601648 0.781765
0.696010 0.545739 0.755459
0.781765 0.612512 0.716823
0.877592 0.798245 0.834897
0.639673 0.667872 0.789700
0.648066 0.653071 0.783108
0.694697 0.600916 0.757504
0.775937 0.634424 0.719295
0.876310 0.805142 0.838468
0.662074 0.736934 0.799405
0.682490 0.739376 0.796963
0.710323 0.719417 0.778225
0.764492 0.693416 0.734249
0.878630 0.835935 0.859403
0.652644 0.792508 0.810147
0.668727 0.790249 0.806363
0.716762 0.789609 0.801633
0.776364 0.789090 0.794095
0.883452 0.863096 0.872740
0.673945 0.869535 0.844205
0.686732 0.868559 0.843107
0.722255 0.866728 0.839261
0.800534 0.867735 0.842710
0.860563 0.869566 0.861814
0.777249 0.799008 0.886564
0.779355 0.795163 0.885344
0.790555 0.781277 0.881590
0.822446 0.754513 0.873106
0.864836 0.795438 0.861601
0.782376 0.808896 0.886259
0.783841 0.805203 0.885069
0.792630 0.791806 0.881376
0.818997 0.759518 0.871763
0.863828 0.799802 0.862577
0.801022 0.838682 0.890929
0.801541 0.835813 0.889647
0.804776 0.824949 0.885222
0.818021 0.794766 0.875792
0.863706 0.818265 0.869535
0.804471 0.858946 0.895750
0.808347 0.859068 0.895293
0.824125 0.861906 0.895781
0.839261 0.857145 0.893706
0.864775 0.846159 0.880888
0.802304 0.881773 0.900847
0.805539 0.881682 0.900542
0.820188 0.883299 0.901122
0.841855 0.885008 0.901183
0.867979 0.882933 0.896788
