data/fiter_cube/81078425/1022772/file.cube
# Created by Adobe Lightroom plugin Export LUT (1.17.0)
# www.johnrellis.com/lightroom/exportlut.htm
# Preset: 旅拍情绪景观_06 云集视觉
# Color profile: C:\Program Files (x86)\Common Files\Adobe\Color\Profiles\Recommended\AdobeRGB1998.icc
LUT_3D_SIZE 8
DOMAIN_MIN 0.000000 0.000000 0.000000
DOMAIN_MAX 0.903226 0.903226 0.903226
0.067933 0.082856 0.078462
0.084382 0.085908 0.080079
0.190738 0.088045 0.078920
0.499275 0.000000 0.032227
0.775418 0.053498 0.000000
0.885191 0.337407 0.000000
0.951354 0.487648 0.154513
0.977935 0.571221 0.303105
0.069306 0.093019 0.083497
0.079866 0.093355 0.085023
0.177462 0.107546 0.081361
0.454017 0.040314 0.056977
0.752132 0.139986 0.000000
0.873259 0.354986 0.000000
0.943786 0.491981 0.144015
0.974762 0.574090 0.296422
0.065614 0.141726 0.100526
0.087831 0.143557 0.102022
0.140139 0.143343 0.108339
0.421912 0.209262 0.084352
0.736141 0.320867 0.000000
0.872038 0.472633 0.017975
0.942687 0.571801 0.239536
0.969116 0.631037 0.385687
0.007202 0.258457 0.137484
0.073121 0.259251 0.134432
0.188266 0.267613 0.151064
0.296330 0.272984 0.163149
0.690486 0.470985 0.149538
0.867582 0.609735 0.200748
0.930083 0.652125 0.335790
0.956970 0.686549 0.462959
0.000000 0.446479 0.188418
0.000000 0.448768 0.184909
0.206516 0.470283 0.205661
0.440040 0.505577 0.242161
0.558312 0.496407 0.253849
0.784695 0.634668 0.313176
0.902800 0.713039 0.415991
0.939086 0.745266 0.553002
0.000000 0.670008 0.291936
0.000000 0.683345 0.299901
0.248753 0.686946 0.298039
0.527672 0.684596 0.365026
0.666102 0.684596 0.401495
0.726406 0.673365 0.413611
0.841825 0.745327 0.532738
0.912200 0.795377 0.653223
0.165835 0.805081 0.440711
0.243198 0.805631 0.444617
0.398047 0.798947 0.448371
0.599664 0.787594 0.518120
0.706264 0.784756 0.559747
0.769741 0.785763 0.589136
0.807431 0.778561 0.602197
0.869841 0.811612 0.697353
0.440742 0.876188 0.582696
0.472877 0.873991 0.587121
0.564813 0.867948 0.608759
0.669398 0.862486 0.659113
0.741512 0.850858 0.702083
0.799985 0.853819 0.742611
0.836973 0.855955 0.762295
0.860594 0.851286 0.770932
0.073457 0.090272 0.096864
0.088655 0.091035 0.096742
0.175326 0.101320 0.109102
0.436347 0.059449 0.122530
0.739925 0.129946 0.120363
0.866697 0.362921 0.148684
0.935485 0.504936 0.249241
0.966979 0.587823 0.367712
0.072786 0.102022 0.102541
0.089845 0.105409 0.104494
0.175418 0.119997 0.115023
0.424506 0.114260 0.124361
0.729030 0.183078 0.121187
0.860319 0.383917 0.149538
0.929442 0.507836 0.238865
0.964080 0.586786 0.354437
0.070314 0.150393 0.122896
0.095705 0.156649 0.126314
0.154269 0.159426 0.134981
0.413001 0.222324 0.133639
0.714107 0.321599 0.128359
0.853971 0.474281 0.176577
0.925628 0.569360 0.288731
0.958923 0.634607 0.418982
0.044739 0.259434 0.161501
0.089845 0.264805 0.162264
0.195712 0.277409 0.176181
0.295354 0.275700 0.184970
0.657710 0.444129 0.187228
0.839445 0.582025 0.230991
0.913939 0.638849 0.344976
0.948455 0.683680 0.475441
0.000000 0.456825 0.220035
0.000000 0.459571 0.217105
0.198032 0.475807 0.219760
0.426734 0.493233 0.260594
0.533013 0.476051 0.265568
0.769589 0.620661 0.324956
0.893248 0.708949 0.433265
0.933104 0.744076 0.564569
0.000000 0.660273 0.313024
0.000000 0.662348 0.311620
0.240177 0.667231 0.309239
0.508598 0.670222 0.369299
0.656672 0.675898 0.411261
0.721462 0.670649 0.429297
0.837278 0.744350 0.545220
0.908751 0.794125 0.657710
0.145052 0.792020 0.441810
0.208865 0.789181 0.438361
0.370245 0.785367 0.442206
0.575952 0.779324 0.501976
0.699031 0.778653 0.559442
0.763577 0.779568 0.587549
0.799527 0.770230 0.593805
0.865324 0.805295 0.686397
0.423743 0.871733 0.581720
0.460517 0.870207 0.587762
0.555535 0.864744 0.608545
0.663172 0.859831 0.657008
0.749813 0.855314 0.724178
0.802243 0.855741 0.753902
0.835813 0.855192 0.765011
0.858274 0.849149 0.769070
0.092531 0.120638 0.187716
0.118349 0.118288 0.186801
0.195071 0.125704 0.178622
0.444312 0.137148 0.225834
0.734310 0.286809 0.307286
0.853056 0.505272 0.412909
0.911284 0.623163 0.523156
0.939452 0.687678 0.608087
0.108675 0.150393 0.195285
0.126864 0.146853 0.194125
0.194583 0.147250 0.185672
0.438636 0.177584 0.235233
0.721370 0.309545 0.305119
0.846738 0.506920 0.402502
0.908324 0.619745 0.509209
0.938323 0.686915 0.601251
0.099397 0.202640 0.213382
0.128725 0.205722 0.213657
0.210758 0.219944 0.220249
0.446479 0.277073 0.258793
0.720943 0.416571 0.324285
0.841550 0.558923 0.417762
0.903349 0.648432 0.524956
0.934112 0.705592 0.616327
0.033478 0.309819 0.249363
0.103059 0.317418 0.251408
0.223423 0.339910 0.256504
0.379217 0.356298 0.281834
0.704921 0.531243 0.343297
0.832120 0.630793 0.443397
0.895842 0.694209 0.555901
0.927184 0.738125 0.647181
0.000000 0.502403 0.312718
0.060365 0.509758 0.315465
0.254063 0.530144 0.322972
0.482551 0.550072 0.363256
0.590753 0.541741 0.373907
0.781521 0.664363 0.463874
0.881834 0.740047 0.582818
0.917510 0.774350 0.679713
0.000000 0.677089 0.402930
0.127108 0.679530 0.405554
0.314244 0.682185 0.408789
0.527977 0.682338 0.448035
0.667048 0.688197 0.491432
0.722835 0.683131 0.502281
0.834104 0.758602 0.616938
0.901762 0.811643 0.725429
0.260380 0.798245 0.519493
0.307652 0.796078 0.518914
0.429816 0.789853 0.519677
0.575921 0.784421 0.541955
0.701076 0.781582 0.606928
0.765743 0.785916 0.639734
0.802182 0.782193 0.651942
0.866697 0.821164 0.741207
0.458869 0.870848 0.627680
0.480323 0.868711 0.627436
0.562249 0.863127 0.640955
0.667445 0.860258 0.684932
0.751583 0.855650 0.745327
0.803433 0.857328 0.773709
0.837247 0.858183 0.786984
0.858976 0.853941 0.791653
0.154513 0.197360 0.367071
0.191287 0.196262 0.367132
0.288426 0.174136 0.350469
0.431983 0.191165 0.330236
0.693172 0.322210 0.419165
0.822873 0.578302 0.573754
0.878050 0.699794 0.686458
0.910399 0.756222 0.748836
0.191409 0.247898 0.385992
0.214298 0.239780 0.381781
0.297917 0.211734 0.362463
0.440620 0.223392 0.342229
0.693599 0.361120 0.431678
0.818051 0.597894 0.586419
0.876219 0.699245 0.681697
0.910155 0.755612 0.745541
0.211612 0.333989 0.402777
0.246921 0.337835 0.401251
0.319951 0.321721 0.390143
0.450202 0.313909 0.369268
0.700832 0.479622 0.481666
0.816129 0.647364 0.619196
0.876585 0.731594 0.712856
0.909087 0.773404 0.762203
0.185702 0.447913 0.433265
0.225467 0.447517 0.430365
0.335363 0.451087 0.426215
0.487953 0.469520 0.432349
0.697322 0.579431 0.518425
0.806516 0.674983 0.614710
0.870817 0.742245 0.703883
0.905852 0.786648 0.766506
0.130861 0.583246 0.473457
0.186893 0.581048 0.470436
0.318334 0.582910 0.468788
0.522057 0.607935 0.489540
0.642878 0.612757 0.518791
0.793515 0.717678 0.623072
0.865690 0.773342 0.716640
0.901854 0.807858 0.777249
0.194553 0.708461 0.538445
0.271611 0.715938 0.548455
0.409583 0.712856 0.547082
0.564813 0.714839 0.560204
0.690578 0.721859 0.608179
0.738033 0.717922 0.615717
0.837034 0.787045 0.715175
0.894987 0.833768 0.794339
0.362707 0.802579 0.616419
0.401678 0.802182 0.618738
0.501488 0.799680 0.624781
0.612451 0.797513 0.639094
0.714412 0.796994 0.686152
0.775662 0.802090 0.716243
0.805051 0.796475 0.717037
0.867704 0.836271 0.790005
0.533745 0.871275 0.705745
0.551904 0.870451 0.707607
0.599237 0.867094 0.710384
0.670344 0.862913 0.725246
0.743343 0.859800 0.759579
0.804623 0.860014 0.798581
0.839414 0.862211 0.813443
0.859800 0.859617 0.817258
0.342748 0.354040 0.597528
0.375219 0.352270 0.596857
0.457252 0.327520 0.581384
0.570001 0.288060 0.556970
0.672572 0.375463 0.533013
0.782681 0.549645 0.604883
0.857237 0.717586 0.740932
0.890959 0.813748 0.834531
0.378943 0.407996 0.608301
0.409125 0.407965 0.610529
0.476600 0.378973 0.595056
0.570611 0.322026 0.561669
0.669795 0.398596 0.535943
0.781918 0.567987 0.613916
0.856504 0.725948 0.747677
0.890837 0.814237 0.834165
0.458778 0.532616 0.632746
0.474769 0.528008 0.629267
0.501518 0.490364 0.608453
0.569665 0.429023 0.575677
0.661494 0.465217 0.545953
0.776425 0.611017 0.633600
0.853208 0.746212 0.762753
0.890105 0.812833 0.829343
0.448676 0.596185 0.638178
0.470802 0.595392 0.635004
0.539239 0.599237 0.630579
0.596307 0.582696 0.614252
0.663844 0.567559 0.582361
0.780056 0.686519 0.687373
0.851865 0.777737 0.787228
0.891508 0.817350 0.827481
0.427436 0.663111 0.646937
0.451850 0.662562 0.645960
0.517479 0.659083 0.640101
0.598535 0.657984 0.634577
0.670222 0.659815 0.629450
0.779690 0.732692 0.711727
0.850034 0.789425 0.782193
0.890654 0.827298 0.827359
0.398077 0.727199 0.657771
0.421912 0.725948 0.656855
0.485451 0.719966 0.650568
0.568841 0.715938 0.646113
0.670558 0.724788 0.655604
0.741695 0.736355 0.689631
0.842191 0.810575 0.783780
0.889128 0.846983 0.836027
0.456214 0.804440 0.711299
0.471290 0.802457 0.709285
0.535485 0.799313 0.707546
0.619593 0.798581 0.710170
0.698207 0.801144 0.719753
0.773983 0.808255 0.759304
0.804623 0.805142 0.762509
0.869810 0.848234 0.824765
0.572229 0.866361 0.766506
0.583124 0.865446 0.766049
0.617884 0.862974 0.765377
0.676509 0.863828 0.774075
0.731716 0.861570 0.781277
0.800015 0.861143 0.816709
0.839719 0.864836 0.834073
0.858518 0.862333 0.835142
0.592126 0.592920 0.775479
0.600549 0.589929 0.773648
0.619867 0.566247 0.760098
0.661311 0.528740 0.741329
0.720577 0.513939 0.718135
0.768338 0.580438 0.690303
0.831937 0.693172 0.745693
0.881743 0.805203 0.838010
0.588128 0.598688 0.764675
0.593896 0.593347 0.761746
0.615045 0.574365 0.751675
0.654841 0.538109 0.733883
0.714534 0.519646 0.712123
0.764431 0.584527 0.687495
0.830411 0.696986 0.746792
0.881163 0.806790 0.838651
0.632898 0.669459 0.778225
0.634119 0.663386 0.773892
0.641291 0.643580 0.763333
0.666651 0.612299 0.746517
0.712795 0.574792 0.721065
0.761807 0.621027 0.698970
0.830411 0.722072 0.763180
0.881254 0.817899 0.846372
0.652735 0.717433 0.787686
0.658625 0.717006 0.785275
0.677852 0.716670 0.780514
0.692805 0.699611 0.770352
0.718807 0.661097 0.747433
0.764309 0.680110 0.727657
0.834684 0.763790 0.794339
0.883299 0.837156 0.860502
0.632471 0.738155 0.782528
0.641047 0.738857 0.782071
0.666682 0.740993 0.780423
0.702144 0.745388 0.778866
0.723842 0.732082 0.764981
0.756771 0.717830 0.739315
0.836332 0.796231 0.816007
0.883909 0.851804 0.869261
0.614313 0.769406 0.782254
0.625422 0.770871 0.783719
0.650385 0.770443 0.781888
0.684169 0.769711 0.778561
0.718990 0.768093 0.772915
0.759670 0.769863 0.770108
0.841154 0.826169 0.833371
0.885466 0.859586 0.868376
0.621363 0.822141 0.806516
0.630579 0.822477 0.807248
0.651789 0.820554 0.804990
0.681697 0.818296 0.801541
0.713863 0.815274 0.795071
0.769314 0.819638 0.798764
0.813046 0.822721 0.813535
0.879484 0.868132 0.865110
0.650874 0.868559 0.831144
0.654444 0.867826 0.830228
0.667231 0.865965 0.827665
0.692836 0.864836 0.825589
0.736141 0.864317 0.824826
0.785824 0.864775 0.829801
0.840726 0.869657 0.855192
0.860258 0.868315 0.857053
0.697780 0.713893 0.844938
0.702663 0.715023 0.845579
0.710445 0.707301 0.842252
0.726101 0.691981 0.836271
0.750423 0.659907 0.823972
0.792874 0.665583 0.813352
0.822263 0.704158 0.792630
0.864805 0.777340 0.828153
0.695186 0.714778 0.840604
0.699428 0.715236 0.841032
0.706905 0.707576 0.837888
0.720760 0.690181 0.830808
0.744228 0.657130 0.817624
0.785855 0.657649 0.805264
0.816190 0.695064 0.783566
0.861265 0.770108 0.821256
0.719783 0.751644 0.847227
0.719387 0.748318 0.846311
0.721859 0.739223 0.842191
0.730495 0.723171 0.835264
0.746914 0.691920 0.821775
0.784451 0.681910 0.809171
0.817197 0.716548 0.793393
0.864073 0.789059 0.834287
0.744167 0.788998 0.856443
0.743648 0.786343 0.854643
0.744869 0.779385 0.850034
0.748836 0.767147 0.844205
0.757351 0.743160 0.832914
0.785794 0.721584 0.819974
0.819455 0.747311 0.808499
0.867094 0.811002 0.848600
0.736660 0.799466 0.854276
0.738430 0.798825 0.853117
0.747890 0.799405 0.851316
0.765408 0.802701 0.850645
0.766354 0.784146 0.840269
0.778531 0.751522 0.823148
0.813962 0.765988 0.812467
0.869261 0.831205 0.860777
0.727047 0.814145 0.854093
0.730465 0.814511 0.853971
0.741726 0.815732 0.853544
0.760342 0.818570 0.853758
0.782345 0.821500 0.853544
0.796689 0.814054 0.847379
0.818448 0.803891 0.832853
0.876371 0.859068 0.879728
0.724208 0.837522 0.858732
0.728603 0.838285 0.859281
0.739132 0.838743 0.858976
0.755856 0.839780 0.858793
0.774472 0.839384 0.856718
0.796506 0.838773 0.853941
0.821225 0.837156 0.849607
0.881346 0.877440 0.889342
0.727626 0.869474 0.870634
0.730129 0.869474 0.870512
0.744076 0.872435 0.873503
0.759213 0.873289 0.873777
0.776455 0.872496 0.871794
0.795804 0.871275 0.868162
0.832853 0.873594 0.869322
0.864103 0.875883 0.878416
0.777249 0.799008 0.886564
0.778897 0.798978 0.886687
0.780026 0.793668 0.884855
0.786099 0.786740 0.882994
0.795956 0.773312 0.879423
0.813657 0.750027 0.873503
0.847318 0.768154 0.871824
0.864836 0.795438 0.861601
0.776516 0.799832 0.885374
0.778103 0.799771 0.885466
0.779751 0.795163 0.884001
0.784726 0.787350 0.881743
0.794369 0.774014 0.878172
0.811582 0.750332 0.872160
0.845151 0.766598 0.870115
0.863584 0.794430 0.860349
0.783139 0.811093 0.885863
0.783841 0.810422 0.885710
0.783627 0.804898 0.883665
0.790707 0.801053 0.883177
0.797482 0.787686 0.879301
0.811154 0.764096 0.872770
0.843290 0.773922 0.870481
0.863279 0.800687 0.862547
0.794766 0.829191 0.889189
0.796201 0.829282 0.889158
0.797604 0.826322 0.887449
0.799863 0.820401 0.885801
0.804807 0.809964 0.882689
0.815000 0.790768 0.877104
0.842832 0.790311 0.874022
0.864225 0.813169 0.867918
0.803647 0.845121 0.892058
0.806058 0.846159 0.892454
0.810239 0.846494 0.892088
0.811429 0.841794 0.890379
0.813474 0.833097 0.886839
0.819303 0.818143 0.881865
0.841123 0.807919 0.877714
0.863676 0.825071 0.872099
0.801663 0.854154 0.893736
0.802579 0.854002 0.893431
0.806790 0.854215 0.893004
0.815640 0.855833 0.893187
0.829099 0.859312 0.894347
0.833341 0.851621 0.891783
0.842924 0.834257 0.885740
0.865171 0.842710 0.879789
0.805112 0.868833 0.898375
0.806271 0.868864 0.898314
0.810697 0.869261 0.898253
0.819455 0.870817 0.898802
0.830045 0.871977 0.898863
0.843717 0.873869 0.899229
0.851438 0.868193 0.895659
0.864744 0.859373 0.885924
0.802304 0.881773 0.900847
0.803037 0.881651 0.900664
0.806912 0.881804 0.900542
0.815061 0.882719 0.900908
0.825711 0.883787 0.901213
0.838376 0.884764 0.901213
0.852873 0.885405 0.900694
0.867979 0.882933 0.896788
