data/fiter_cube/38543845/1023266/file.cube
# Created by Adobe Lightroom plugin Export LUT (1.17.0)
# www.johnrellis.com/lightroom/exportlut.htm
# Preset: 清新通透胶片预设_02 云集
# Color profile: C:\Program Files (x86)\Common Files\Adobe\Color\Profiles\Recommended\AdobeRGB1998.icc
LUT_3D_SIZE 32
DOMAIN_MIN 0.0 0.0 0.0
DOMAIN_MAX 1.0 1.0 1.0
0.149996 0.157656 0.150057
0.170230 0.157473 0.150393
0.185367 0.158328 0.151644
0.216068 0.160403 0.155734
0.294011 0.155520 0.159121
0.396826 0.133455 0.159609
0.495064 0.090028 0.158541
0.578576 0.000000 0.157198
0.645838 0.000000 0.155703
0.699611 0.000000 0.154604
0.742428 0.000000 0.155032
0.775998 0.000000 0.157259
0.802945 0.000000 0.161715
0.825864 0.000000 0.170230
0.845670 0.000000 0.181949
0.863096 0.041779 0.196139
0.878508 0.115785 0.212222
0.892149 0.158480 0.229984
0.904448 0.195041 0.249271
0.916136 0.230045 0.271305
0.926238 0.260685 0.292424
0.935149 0.288457 0.312993
0.942931 0.313634 0.332891
0.949859 0.336614 0.352728
0.956207 0.357244 0.370886
0.961944 0.376959 0.389105
0.967285 0.395605 0.406622
0.972259 0.413703 0.424842
0.976867 0.431189 0.442969
0.981048 0.448737 0.461494
0.984802 0.466163 0.480323
0.988067 0.483742 0.499916
0.153872 0.173526 0.157687
0.163149 0.174441 0.158358
0.181155 0.177218 0.157290
0.214664 0.177523 0.157656
0.291661 0.178347 0.160067
0.392584 0.166506 0.159396
0.490394 0.140566 0.157870
0.573785 0.105043 0.155978
0.641596 0.051057 0.154482
0.695979 0.000000 0.153262
0.739254 0.000000 0.153567
0.773220 0.000000 0.156130
0.800534 0.000000 0.161410
0.823575 0.000000 0.169955
0.843595 0.058839 0.181704
0.861143 0.108766 0.196628
0.876677 0.146853 0.212345
0.890501 0.179355 0.230106
0.902953 0.210269 0.249638
0.914611 0.240696 0.270451
0.924804 0.268711 0.291203
0.933806 0.294224 0.311559
0.941711 0.318029 0.331579
0.948791 0.339818 0.351019
0.955230 0.359838 0.369146
0.961120 0.378882 0.386999
0.966613 0.397009 0.404761
0.971618 0.414954 0.423407
0.976349 0.432227 0.441108
0.980621 0.449409 0.459876
0.984527 0.466346 0.478401
0.987884 0.483742 0.497871
0.161532 0.186465 0.167575
0.164248 0.186740 0.166964
0.174441 0.188296 0.168368
0.206271 0.196262 0.167300
0.288365 0.204959 0.160861
0.388067 0.201785 0.159213
0.484443 0.186831 0.156924
0.568109 0.165774 0.154635
0.636530 0.143435 0.152621
0.691615 0.122469 0.151522
0.735622 0.106783 0.151858
0.770169 0.099397 0.154604
0.797910 0.098360 0.160403
0.821256 0.110201 0.169863
0.841398 0.130953 0.182315
0.859251 0.154208 0.196780
0.874907 0.179599 0.213596
0.888823 0.204562 0.230900
0.901579 0.229984 0.250431
0.913207 0.256626 0.270970
0.923491 0.281132 0.291752
0.932586 0.304417 0.311620
0.940642 0.326207 0.331365
0.947845 0.346471 0.350439
0.954345 0.365637 0.368841
0.960327 0.383520 0.386816
0.965881 0.401068 0.404486
0.971008 0.418219 0.422766
0.975830 0.434913 0.440772
0.980163 0.451698 0.459327
0.984131 0.468360 0.477882
0.987518 0.485359 0.497353
0.170565 0.210330 0.182254
0.172641 0.210300 0.181247
0.175113 0.209781 0.180026
0.195041 0.215274 0.181827
0.259556 0.239536 0.177920
0.372259 0.261479 0.161074
0.474281 0.259373 0.153933
0.558556 0.247562 0.150729
0.627924 0.234226 0.148287
0.684169 0.222202 0.147097
0.729183 0.212802 0.147799
0.764675 0.204654 0.151705
0.792905 0.201816 0.159121
0.816648 0.203067 0.170077
0.837400 0.209049 0.183017
0.855497 0.219944 0.199069
0.871489 0.234012 0.215854
0.885710 0.250004 0.233524
0.898772 0.268223 0.252903
0.910430 0.287694 0.272923
0.920836 0.306676 0.292943
0.930083 0.325444 0.312932
0.938415 0.344121 0.332280
0.945861 0.361883 0.351598
0.952697 0.378882 0.369818
0.958923 0.395331 0.388128
0.964721 0.411383 0.405982
0.969970 0.427527 0.424231
0.974853 0.443153 0.442267
0.979339 0.458534 0.460426
0.983337 0.474128 0.478706
0.986847 0.490120 0.497810
0.171695 0.261906 0.202792
0.173922 0.260166 0.199771
0.176791 0.257939 0.196201
0.182498 0.255528 0.189364
0.232914 0.272740 0.192782
0.326146 0.302495 0.190219
0.442725 0.329198 0.164157
0.538659 0.332280 0.146395
0.614221 0.324743 0.141054
0.671870 0.315709 0.140505
0.718746 0.306554 0.142336
0.755703 0.298100 0.148257
0.785245 0.291173 0.157992
0.809781 0.287938 0.170871
0.831174 0.288182 0.185489
0.849973 0.291691 0.201846
0.866606 0.297734 0.219852
0.881346 0.306065 0.238071
0.894987 0.317449 0.257633
0.906920 0.329961 0.277501
0.917510 0.343023 0.297246
0.927031 0.357031 0.316472
0.935546 0.371221 0.335454
0.943297 0.385321 0.354345
0.950378 0.399115 0.372442
0.956878 0.413092 0.390448
0.962799 0.426978 0.408240
0.968292 0.440681 0.426154
0.973297 0.454658 0.443977
0.977905 0.468666 0.461860
0.982055 0.482856 0.480079
0.985718 0.497566 0.498726
0.163455 0.338598 0.232029
0.167086 0.336065 0.227817
0.171267 0.332006 0.222293
0.179690 0.323827 0.212192
0.202853 0.324132 0.202457
0.285252 0.348241 0.210666
0.393256 0.375097 0.224674
0.505211 0.402869 0.180270
0.589868 0.406470 0.149233
0.655665 0.402136 0.136263
0.706477 0.394690 0.137392
0.745113 0.384771 0.146548
0.775906 0.375738 0.159701
0.801511 0.368414 0.174441
0.823697 0.364263 0.190555
0.843198 0.362402 0.208225
0.860502 0.362768 0.226902
0.876219 0.366155 0.245151
0.890227 0.371008 0.265080
0.902556 0.377935 0.284215
0.913512 0.386023 0.303929
0.923430 0.394934 0.323003
0.936370 0.416999 0.356603
0.943816 0.427344 0.375677
0.950561 0.437507 0.393286
0.956756 0.447791 0.410285
0.962402 0.458320 0.427070
0.967590 0.469093 0.444068
0.972381 0.480293 0.460639
0.976806 0.491859 0.477577
0.980804 0.503685 0.494301
0.984314 0.516289 0.511528
0.157015 0.423774 0.273594
0.163333 0.420996 0.269780
0.169406 0.416541 0.263401
0.180819 0.407721 0.251591
0.194583 0.394049 0.235966
0.244602 0.402319 0.230106
0.348180 0.428992 0.247684
0.462776 0.456306 0.273472
0.563104 0.480842 0.232731
0.636347 0.483711 0.188815
0.690883 0.476173 0.154299
0.735134 0.467567 0.155093
0.767819 0.456886 0.168215
0.794156 0.446540 0.184695
0.816892 0.438178 0.201785
0.836790 0.432136 0.219974
0.854673 0.428016 0.237919
0.871489 0.427161 0.257450
0.885924 0.427802 0.277256
0.898772 0.429938 0.297429
0.910399 0.434119 0.317052
0.920958 0.439734 0.337194
0.930388 0.446815 0.357427
0.938872 0.454322 0.376867
0.946380 0.462470 0.395819
0.953124 0.470466 0.413336
0.959197 0.478798 0.430274
0.964721 0.487465 0.446754
0.969848 0.496437 0.462867
0.974487 0.506096 0.479316
0.978729 0.516167 0.495674
0.982483 0.527062 0.512413
0.166598 0.496223 0.321477
0.176822 0.494667 0.320256
0.182681 0.490700 0.314214
0.193515 0.481880 0.301518
0.207858 0.468940 0.284550
0.222812 0.452583 0.266484
0.298222 0.470405 0.270695
0.406592 0.496468 0.295964
0.512993 0.519158 0.325933
0.603418 0.543511 0.307805
0.667781 0.545983 0.258549
0.714870 0.536858 0.217136
0.751369 0.523735 0.193423
0.782132 0.512566 0.200229
0.806210 0.502068 0.216037
0.827146 0.492988 0.233097
0.846525 0.486732 0.251469
0.863676 0.481758 0.270115
0.878630 0.478340 0.288579
0.891997 0.476570 0.307439
0.904112 0.476814 0.326635
0.915129 0.478584 0.345708
0.925078 0.481727 0.364324
0.933959 0.485908 0.383215
0.941955 0.490517 0.401038
0.949065 0.495918 0.418006
0.955474 0.501640 0.434668
0.961395 0.507866 0.450233
0.966796 0.514885 0.466224
0.971801 0.522484 0.481941
0.976287 0.530877 0.497993
0.980285 0.540093 0.514488
0.194186 0.559442 0.375250
0.208530 0.558556 0.376684
0.214359 0.555749 0.372137
0.223117 0.548577 0.360784
0.234714 0.537591 0.344121
0.247501 0.523064 0.324315
0.260868 0.507134 0.303258
0.356176 0.530968 0.319615
0.461860 0.553735 0.350439
0.556664 0.573175 0.384375
0.636011 0.594659 0.389929
0.692012 0.596063 0.337926
0.733028 0.586481 0.293767
0.765133 0.571374 0.254215
0.792447 0.558465 0.244785
0.817533 0.548516 0.252537
0.837522 0.539757 0.269139
0.855192 0.532250 0.285771
0.870665 0.525994 0.302922
0.884672 0.521263 0.320409
0.897337 0.518547 0.338170
0.908904 0.517082 0.356176
0.919310 0.517113 0.373968
0.928679 0.518364 0.391424
0.937041 0.520439 0.408698
0.944579 0.523033 0.424933
0.951415 0.526299 0.440467
0.957671 0.530297 0.455390
0.963439 0.535149 0.470527
0.968688 0.540764 0.485603
0.973480 0.547265 0.501213
0.977752 0.554803 0.517021
0.234592 0.610620 0.428962
0.246372 0.609766 0.430274
0.256291 0.607904 0.429328
0.262089 0.602197 0.418799
0.270542 0.593561 0.403906
0.280339 0.581842 0.384985
0.290043 0.567285 0.363806
0.312291 0.561151 0.343603
0.413672 0.580713 0.371923
0.510033 0.599603 0.404639
0.593103 0.616846 0.440589
0.661463 0.634424 0.465003
0.709651 0.635096 0.415137
0.746517 0.626215 0.370916
0.776944 0.612970 0.330541
0.802762 0.597742 0.293004
0.826108 0.587793 0.296880
0.846464 0.578088 0.304875
0.862547 0.570214 0.320592
0.877073 0.563409 0.336736
0.890227 0.558190 0.352483
0.902129 0.554284 0.368963
0.912963 0.551507 0.384771
0.922698 0.550011 0.400793
0.931518 0.549493 0.416266
0.939483 0.549920 0.431922
0.946746 0.551080 0.446448
0.953460 0.553216 0.460883
0.959564 0.556298 0.475837
0.965240 0.560204 0.490303
0.970336 0.565240 0.505547
0.974914 0.571130 0.521050
0.278904 0.650721 0.477943
0.288060 0.650050 0.479042
0.300755 0.648676 0.480232
0.306035 0.644526 0.472572
0.311803 0.637720 0.459937
0.318059 0.628687 0.443305
0.325353 0.617151 0.423560
0.331945 0.603326 0.401862
0.371588 0.604730 0.392676
0.466285 0.621057 0.422919
0.550805 0.636927 0.456184
0.623316 0.652003 0.491096
0.682338 0.666835 0.531426
0.724422 0.667750 0.486854
0.757931 0.659876 0.444404
0.786221 0.647883 0.404395
0.810941 0.633356 0.364538
0.832609 0.619837 0.340063
0.851804 0.610315 0.345312
0.868559 0.601495 0.352850
0.882261 0.594690 0.367895
0.894896 0.588922 0.382086
0.906157 0.584558 0.397528
0.916442 0.581201 0.412116
0.925689 0.578851 0.426795
0.934142 0.577264 0.440925
0.941833 0.576501 0.454414
0.948882 0.576837 0.468147
0.955413 0.578088 0.481849
0.961425 0.580194 0.495491
0.966857 0.583551 0.509972
0.971740 0.587976 0.524895
0.324773 0.683436 0.521569
0.332189 0.682704 0.522362
0.342321 0.681605 0.523430
0.351598 0.678645 0.520195
0.354833 0.673426 0.509728
0.358648 0.666285 0.495796
0.363012 0.657160 0.478767
0.367529 0.646021 0.458961
0.371191 0.632837 0.437018
0.427192 0.640375 0.439918
0.512505 0.654749 0.471321
0.586267 0.668574 0.503990
0.656031 0.688106 0.547967
0.707027 0.700160 0.586450
0.742184 0.700801 0.558862
0.772519 0.693782 0.520500
0.798795 0.682704 0.482521
0.821866 0.669093 0.444129
0.842191 0.653986 0.406775
0.860166 0.642481 0.395453
0.876127 0.633692 0.399817
0.889860 0.625879 0.408087
0.901244 0.619623 0.420417
0.911559 0.614588 0.433204
0.920989 0.610437 0.445838
0.929595 0.607233 0.458289
0.937438 0.604883 0.470588
0.944732 0.603357 0.482246
0.951415 0.602930 0.494789
0.957641 0.603357 0.507195
0.963256 0.605066 0.520500
0.968383 0.607782 0.534142
0.374090 0.711452 0.561547
0.379797 0.710780 0.562158
0.387549 0.709590 0.562768
0.398810 0.707149 0.562158
0.399756 0.702968 0.553613
0.401282 0.697261 0.542107
0.403113 0.690059 0.527977
0.405158 0.681453 0.511254
0.407874 0.671687 0.492683
0.410559 0.660395 0.472663
0.481483 0.673487 0.489601
0.555688 0.685512 0.520165
0.619257 0.697139 0.551202
0.673548 0.708186 0.581292
0.720302 0.719387 0.612573
0.751614 0.721218 0.603174
0.779538 0.715633 0.569085
0.803830 0.705776 0.535119
0.825467 0.693355 0.500755
0.845121 0.679683 0.466102
0.863188 0.665400 0.431830
0.878599 0.656764 0.433234
0.892424 0.648859 0.437354
0.904234 0.641962 0.444953
0.914214 0.636591 0.456062
0.923339 0.632105 0.467170
0.931701 0.628504 0.478248
0.939391 0.625757 0.489601
0.946563 0.623896 0.500694
0.953155 0.623194 0.512749
0.959228 0.623499 0.524926
0.964660 0.625086 0.538506
0.414618 0.731014 0.591302
0.419348 0.730434 0.591882
0.425330 0.729580 0.592462
0.438209 0.727779 0.593927
0.439216 0.724666 0.587671
0.439765 0.720333 0.578698
0.440620 0.714961 0.567681
0.441749 0.708492 0.554620
0.442603 0.700740 0.539208
0.443305 0.691676 0.521569
0.451331 0.686885 0.503593
0.523796 0.697078 0.529229
0.587366 0.706844 0.556909
0.641962 0.716243 0.584100
0.688960 0.725307 0.610132
0.731289 0.735103 0.634974
0.760372 0.738399 0.638666
0.785702 0.734035 0.608759
0.808255 0.725399 0.578485
0.828763 0.714473 0.548119
0.847654 0.702205 0.517662
0.865110 0.689143 0.486458
0.880949 0.677089 0.463661
0.894377 0.669612 0.466987
0.906584 0.662409 0.470283
0.916869 0.656397 0.477272
0.925750 0.651698 0.487282
0.933928 0.647852 0.497658
0.941466 0.645075 0.508324
0.948486 0.643214 0.519280
0.954894 0.642512 0.531243
0.960784 0.642847 0.543786
0.454139 0.748592 0.618738
0.457954 0.748104 0.619318
0.462501 0.747280 0.619745
0.472358 0.745632 0.620813
0.475563 0.742916 0.616999
0.475288 0.739376 0.609766
0.474922 0.734920 0.600610
0.474708 0.729549 0.589654
0.474372 0.723232 0.576776
0.474311 0.716060 0.562371
0.473732 0.707729 0.546075
0.495338 0.707881 0.538109
0.558923 0.716091 0.563195
0.613672 0.724117 0.587793
0.661067 0.732082 0.611627
0.702602 0.739986 0.633967
0.738979 0.747005 0.653742
0.768643 0.753017 0.666773
0.791684 0.749844 0.640986
0.812802 0.742672 0.614374
0.832151 0.733150 0.587884
0.850095 0.722133 0.560815
0.866850 0.710140 0.533104
0.882506 0.697597 0.504662
0.896208 0.688075 0.493568
0.908110 0.681239 0.496193
0.919066 0.674769 0.499306
0.928222 0.669856 0.507134
0.936278 0.666224 0.517021
0.943725 0.663630 0.527764
0.950530 0.662013 0.539239
0.956695 0.661677 0.551843
0.487617 0.763241 0.641749
0.490761 0.762844 0.642267
0.494392 0.762203 0.642634
0.502373 0.760739 0.643610
0.507744 0.758541 0.642054
0.507164 0.755520 0.636103
0.506432 0.751858 0.628656
0.505852 0.747494 0.619898
0.505241 0.742336 0.609491
0.504143 0.736416 0.597528
0.502739 0.729519 0.583734
0.500938 0.721584 0.568231
0.533959 0.725063 0.570031
0.588281 0.731594 0.591852
0.635492 0.738308 0.613214
0.677119 0.745266 0.633814
0.714260 0.752438 0.653162
0.747097 0.758541 0.669947
0.776455 0.765652 0.689479
0.797818 0.763882 0.667536
0.817594 0.758236 0.644739
0.835813 0.750149 0.621973
0.852842 0.740291 0.598230
0.868803 0.729458 0.573907
0.883879 0.717922 0.548791
0.898131 0.706020 0.523003
0.909972 0.698848 0.521721
0.920623 0.692897 0.524773
0.930480 0.687434 0.528405
0.938720 0.683528 0.536492
0.945861 0.681025 0.547265
0.952392 0.679713 0.558831
0.515862 0.775845 0.661067
0.518029 0.775418 0.661341
0.521080 0.774838 0.661707
0.527703 0.773556 0.662531
0.534234 0.771603 0.662318
0.533532 0.769009 0.657465
0.532860 0.765835 0.651423
0.531792 0.761990 0.643915
0.530724 0.757504 0.635248
0.529412 0.752316 0.625177
0.528038 0.746517 0.613886
0.525811 0.739864 0.600732
0.523369 0.732448 0.586358
0.565454 0.738643 0.596368
0.612604 0.744442 0.615839
0.653986 0.750515 0.634699
0.690974 0.756893 0.652613
0.724605 0.763394 0.669276
0.755276 0.769345 0.684260
0.784024 0.776791 0.705104
0.803861 0.776181 0.689174
0.822232 0.771725 0.669398
0.839322 0.764858 0.649531
0.855375 0.756283 0.629114
0.870603 0.746426 0.607507
0.885069 0.735927 0.585534
0.898863 0.725032 0.562951
0.911742 0.714809 0.543999
0.922148 0.709316 0.547417
0.931792 0.704311 0.551324
0.940703 0.699977 0.556115
0.947967 0.697536 0.566155
0.540551 0.787106 0.678004
0.542809 0.786770 0.678431
0.552819 0.789578 0.683894
0.558068 0.788479 0.684596
0.565179 0.786679 0.685328
0.564385 0.784360 0.681239
0.563073 0.781491 0.675959
0.561761 0.778012 0.669673
0.560235 0.773953 0.662226
0.558618 0.769345 0.653803
0.556542 0.764096 0.644038
0.554162 0.758206 0.633143
0.551232 0.751553 0.620783
0.553338 0.747524 0.608545
0.596124 0.752834 0.623224
0.636591 0.758022 0.640101
0.672877 0.763546 0.656275
0.705715 0.769314 0.671443
0.736172 0.775174 0.685664
0.764736 0.780819 0.699092
0.792599 0.788205 0.716365
0.810971 0.788388 0.709071
0.827878 0.784878 0.691737
0.843717 0.778988 0.674220
0.858640 0.771389 0.656397
0.872862 0.762600 0.637812
0.886595 0.752895 0.618189
0.899779 0.742824 0.598322
0.912535 0.732601 0.578119
0.923857 0.724697 0.568475
0.933257 0.720241 0.572992
0.941863 0.716609 0.579004
0.564263 0.798001 0.694148
0.566735 0.798093 0.695033
0.569757 0.798032 0.695888
0.574975 0.797421 0.697108
0.582116 0.796201 0.698482
0.582666 0.794308 0.695705
0.581720 0.791836 0.691402
0.580560 0.788785 0.686061
0.579309 0.785245 0.679927
0.577630 0.781186 0.672663
0.575738 0.776577 0.664454
0.573602 0.771420 0.655238
0.570855 0.765591 0.644709
0.567376 0.759060 0.632776
0.578027 0.758511 0.626307
0.618036 0.763088 0.641718
0.653925 0.767971 0.656641
0.686397 0.773159 0.670802
0.716487 0.778561 0.684382
0.744778 0.784085 0.697292
0.771633 0.789548 0.709499
0.799069 0.797147 0.724514
0.816495 0.798062 0.724361
0.832395 0.795468 0.708919
0.847349 0.790555 0.693233
0.861479 0.784115 0.677729
0.875059 0.776425 0.661707
0.888151 0.768063 0.645319
0.900877 0.759182 0.628534
0.913237 0.749966 0.611566
0.925109 0.740902 0.594965
0.934844 0.735805 0.594842
0.582422 0.806943 0.706752
0.584588 0.807034 0.707485
0.587030 0.806973 0.708248
0.591424 0.806455 0.709255
0.597498 0.805356 0.710414
0.599115 0.803738 0.708675
0.598322 0.801572 0.705043
0.597314 0.798886 0.700526
0.596033 0.795773 0.695216
0.594598 0.792142 0.689021
0.593042 0.788113 0.682155
0.591119 0.783566 0.674281
0.588617 0.778347 0.665309
0.585840 0.772610 0.655360
0.582147 0.766232 0.643977
0.602228 0.768582 0.644648
0.637385 0.772915 0.658198
0.669459 0.777523 0.671351
0.699123 0.782437 0.684047
0.726802 0.787533 0.696223
0.753170 0.792630 0.707912
0.778439 0.797879 0.719234
0.805417 0.805661 0.732418
0.821927 0.807004 0.738277
0.836912 0.805142 0.724025
0.851102 0.801083 0.709834
0.864591 0.795621 0.696071
0.877562 0.789120 0.682246
0.890105 0.781918 0.668513
0.902312 0.774289 0.654719
0.914183 0.766445 0.641138
0.925628 0.758663 0.628321
0.598596 0.815457 0.718105
0.600366 0.815488 0.718746
0.602594 0.815457 0.719417
0.606287 0.815000 0.720302
0.611566 0.814054 0.721401
0.613764 0.812589 0.720333
0.612909 0.810666 0.717067
0.612116 0.808347 0.713283
0.610956 0.805539 0.708614
0.609766 0.802335 0.703365
0.608362 0.798795 0.697414
0.606531 0.794644 0.690547
0.604486 0.790066 0.682948
0.601923 0.784970 0.674311
0.598993 0.779355 0.664820
0.595880 0.773342 0.654505
0.623560 0.778317 0.661097
0.655177 0.782650 0.673396
0.684382 0.787167 0.685389
0.711757 0.791989 0.697078
0.737606 0.796902 0.708339
0.762325 0.801816 0.719173
0.786191 0.806729 0.729732
0.811093 0.813535 0.741634
0.828183 0.816312 0.752529
0.842374 0.815152 0.739437
0.855863 0.812009 0.726680
0.868742 0.807523 0.714565
0.881163 0.802121 0.702876
0.893156 0.796170 0.691585
0.904814 0.789883 0.680751
0.916106 0.783444 0.670588
0.615564 0.824613 0.730159
0.616785 0.824521 0.730526
0.618311 0.824338 0.730892
0.621210 0.823758 0.731441
0.625452 0.822782 0.732204
0.627802 0.821408 0.731472
0.627222 0.819730 0.728725
0.626551 0.817716 0.725490
0.625544 0.815305 0.721462
0.624537 0.812497 0.716915
0.623468 0.809384 0.711910
0.622095 0.805814 0.706111
0.620294 0.801755 0.699550
0.618189 0.797238 0.692226
0.615625 0.792203 0.684077
0.612757 0.786709 0.675227
0.614893 0.784268 0.667414
0.643458 0.788357 0.676753
0.671778 0.792386 0.687739
0.698360 0.796628 0.698421
0.723445 0.800992 0.708827
0.747372 0.805386 0.718837
0.770352 0.809751 0.728634
0.792630 0.814176 0.738430
0.815244 0.819730 0.748989
0.833219 0.823911 0.763943
0.846769 0.823423 0.752163
0.859800 0.821073 0.740505
0.872313 0.817502 0.729549
0.884367 0.813169 0.719448
0.896025 0.808377 0.710170
0.907225 0.803220 0.701411
0.628565 0.832059 0.739559
0.629633 0.831998 0.739895
0.630976 0.831846 0.740230
0.633600 0.831357 0.740780
0.637324 0.830472 0.741451
0.639734 0.829252 0.740993
0.639155 0.827756 0.738582
0.638453 0.825925 0.735622
0.637659 0.823758 0.732143
0.636805 0.821286 0.728206
0.635676 0.818479 0.723659
0.634455 0.815335 0.718593
0.632959 0.811734 0.712886
0.631159 0.807706 0.706569
0.629084 0.803311 0.699550
0.626642 0.798459 0.691859
0.623896 0.793210 0.683497
0.632776 0.793759 0.679896
0.660395 0.797421 0.690028
0.686244 0.801236 0.700008
0.710811 0.805234 0.709743
0.734157 0.809323 0.719295
0.756649 0.813382 0.728695
0.778286 0.817411 0.737881
0.798459 0.820829 0.746120
0.819394 0.825650 0.755795
0.838041 0.830747 0.769986
0.851102 0.831083 0.763851
0.863737 0.829587 0.753384
0.875975 0.826963 0.743618
0.887816 0.823697 0.734951
0.899138 0.819821 0.727016
0.642115 0.839933 0.749447
0.643122 0.839902 0.749752
0.644312 0.839750 0.750057
0.646479 0.839231 0.750484
0.649622 0.838407 0.751034
0.651850 0.837278 0.750637
0.651179 0.835904 0.748409
0.650416 0.834195 0.745693
0.649592 0.832212 0.742519
0.648585 0.829923 0.738888
0.647517 0.827359 0.734829
0.646296 0.824430 0.730251
0.644862 0.821195 0.725093
0.643244 0.817594 0.719448
0.641169 0.813565 0.713100
0.638941 0.809140 0.706233
0.636439 0.804318 0.698787
0.633814 0.799252 0.690913
0.649897 0.802213 0.692164
0.675105 0.805661 0.701411
0.699062 0.809323 0.710597
0.721828 0.813077 0.719539
0.743740 0.816800 0.728420
0.764889 0.820432 0.737148
0.785153 0.824063 0.745754
0.804654 0.827695 0.754269
0.824674 0.832456 0.763699
0.843351 0.837858 0.776822
0.855894 0.838865 0.775692
0.868223 0.838254 0.766476
0.880095 0.836484 0.757900
0.891630 0.834043 0.750332
0.652644 0.846433 0.757229
0.653498 0.846403 0.757534
0.654566 0.846250 0.757809
0.656489 0.845823 0.758206
0.659388 0.845060 0.758724
0.661372 0.844022 0.758450
0.660945 0.842832 0.756527
0.660273 0.841367 0.754116
0.659602 0.839628 0.751339
0.658839 0.837644 0.748165
0.657954 0.835416 0.744594
0.656947 0.832883 0.740597
0.655818 0.830045 0.736110
0.654444 0.826871 0.731167
0.652979 0.823362 0.725795
0.651087 0.819486 0.719783
0.649042 0.815305 0.713344
0.646937 0.810819 0.706538
0.646693 0.807553 0.699947
0.666865 0.811276 0.704799
0.689967 0.814481 0.713283
0.712062 0.817868 0.721645
0.733333 0.821256 0.729946
0.753902 0.824643 0.738216
0.773770 0.828000 0.746487
0.792905 0.831327 0.754635
0.811276 0.834684 0.762722
0.830503 0.839567 0.772152
0.849302 0.845487 0.784634
0.861357 0.847044 0.788144
0.873289 0.847166 0.780056
0.884977 0.846403 0.772946
0.663020 0.852903 0.765011
0.663813 0.852811 0.765255
0.664668 0.852659 0.765499
0.666468 0.852232 0.765835
0.669001 0.851499 0.766293
0.670649 0.850584 0.765988
0.670100 0.849454 0.764126
0.669520 0.848142 0.761959
0.668818 0.846616 0.759457
0.668208 0.844877 0.756680
0.667445 0.842863 0.753445
0.666651 0.840665 0.749935
0.665675 0.838193 0.745968
0.664607 0.835416 0.741634
0.663264 0.832303 0.736843
0.661830 0.828946 0.731594
0.660090 0.825223 0.725917
0.658320 0.821256 0.719905
0.656336 0.817044 0.713497
0.660273 0.816739 0.708736
0.681971 0.819730 0.716091
0.703456 0.822751 0.723903
0.724117 0.825834 0.731777
0.744167 0.828977 0.739620
0.763607 0.832090 0.747494
0.782376 0.835233 0.755367
0.800473 0.838407 0.763210
0.817899 0.841642 0.771145
0.836454 0.846555 0.780636
0.855253 0.852903 0.792325
0.866850 0.854826 0.799771
0.878660 0.855863 0.793179
0.672572 0.858824 0.772183
0.673243 0.858732 0.772366
0.674067 0.858579 0.772549
0.675654 0.858213 0.772915
0.678187 0.857572 0.773465
0.679438 0.856779 0.773068
0.679225 0.855955 0.771633
0.679042 0.854948 0.769955
0.678767 0.853758 0.767971
0.678584 0.852354 0.765713
0.678218 0.850767 0.763088
0.677821 0.848997 0.760159
0.677363 0.846952 0.756924
0.676631 0.844663 0.753262
0.675715 0.842039 0.749142
0.674464 0.839139 0.744564
0.673152 0.835966 0.739681
0.671748 0.832547 0.734463
0.670283 0.828916 0.728969
0.668696 0.825071 0.723262
0.678492 0.826963 0.722286
0.699092 0.829648 0.729580
0.718990 0.832395 0.736934
0.738338 0.835233 0.744350
0.757198 0.838132 0.751858
0.775418 0.841093 0.759426
0.793179 0.844083 0.767056
0.810147 0.847044 0.774624
0.826505 0.850156 0.782254
0.844114 0.855039 0.791623
0.863066 0.862089 0.803037
0.874174 0.864408 0.814115
0.683894 0.865446 0.780575
0.684474 0.865354 0.780758
0.685176 0.865171 0.780911
0.686641 0.864805 0.781247
0.688960 0.864195 0.781765
0.689479 0.863493 0.781064
0.689143 0.862669 0.779690
0.688869 0.861723 0.778103
0.688533 0.860563 0.776150
0.688167 0.859281 0.774044
0.687709 0.857816 0.771572
0.687221 0.856138 0.768795
0.686641 0.854307 0.765774
0.685969 0.852201 0.762417
