data/fiter_cube/38543845/1023266/file.cube
# Created by Adobe Lightroom plugin Export LUT (1.17.0)
# www.johnrellis.com/lightroom/exportlut.htm
# Preset: 清新通透胶片预设_02 云集
# Color profile: C:\Program Files (x86)\Common Files\Adobe\Color\Profiles\Recommended\AdobeRGB1998.icc
LUT_3D_SIZE 8
DOMAIN_MIN 0.000000 0.000000 0.000000
DOMAIN_MAX 0.903226 0.903226 0.903226
0.149996 0.157656 0.150057
0.294011 0.155520 0.159121
0.645838 0.000000 0.155703
0.802945 0.000000 0.161715
0.878508 0.115785 0.212222
0.926238 0.260685 0.292424
0.956207 0.357244 0.370886
0.976867 0.431189 0.442969
0.171695 0.261906 0.202792
0.232914 0.272740 0.192782
0.614221 0.324743 0.141054
0.785245 0.291173 0.157992
0.866606 0.297734 0.219852
0.917510 0.343023 0.297246
0.950378 0.399115 0.372442
0.973297 0.454658 0.443977
0.194186 0.559442 0.375250
0.234714 0.537591 0.344121
0.461860 0.553735 0.350439
0.733028 0.586481 0.293767
0.837522 0.539757 0.269139
0.897337 0.518547 0.338170
0.937041 0.520439 0.408698
0.963439 0.535149 0.470527
0.374090 0.711452 0.561547
0.399756 0.702968 0.553613
0.407874 0.671687 0.492683
0.619257 0.697139 0.551202
0.779538 0.715633 0.569085
0.863188 0.665400 0.431830
0.914214 0.636591 0.456062
0.946563 0.623896 0.500694
0.515862 0.775845 0.661067
0.534234 0.771603 0.662318
0.530724 0.757504 0.635248
0.523369 0.732448 0.586358
0.690974 0.756893 0.652613
0.803861 0.776181 0.689174
0.870603 0.746426 0.607507
0.922148 0.709316 0.547417
0.598596 0.815457 0.718105
0.611566 0.814054 0.721401
0.610956 0.805539 0.708614
0.604486 0.790066 0.682948
0.623560 0.778317 0.661097
0.737606 0.796902 0.708339
0.828183 0.816312 0.752529
0.881163 0.802121 0.702876
0.652644 0.846433 0.757229
0.659388 0.845060 0.758724
0.659602 0.839628 0.751339
0.655818 0.830045 0.736110
0.649042 0.815305 0.713344
0.689967 0.814481 0.713283
0.773770 0.828000 0.746487
0.849302 0.845487 0.784634
0.692927 0.870970 0.787411
0.697810 0.869780 0.788602
0.697078 0.866758 0.783444
0.695918 0.861418 0.774441
0.690822 0.851896 0.758907
0.688136 0.841215 0.742367
0.744625 0.848417 0.757839
0.811337 0.859098 0.786130
0.177371 0.191775 0.260929
0.323827 0.184390 0.356603
0.621088 0.136873 0.411597
0.780758 0.167605 0.416663
0.861570 0.205814 0.391455
0.910369 0.315221 0.419898
0.943023 0.398413 0.461860
0.966918 0.460975 0.505943
0.159426 0.273716 0.284916
0.277409 0.317510 0.334752
0.607752 0.298558 0.386267
0.773251 0.274449 0.367437
0.852750 0.327550 0.389410
0.903410 0.382116 0.423468
0.938140 0.432319 0.462104
0.963745 0.479469 0.504814
0.215335 0.594202 0.469581
0.352667 0.590570 0.494636
0.493843 0.575219 0.479927
0.724544 0.585046 0.418799
0.823575 0.548272 0.419440
0.883879 0.532494 0.448096
0.925078 0.534722 0.483497
0.954498 0.549493 0.522728
0.402197 0.719448 0.599542
0.455909 0.713436 0.607111
0.492805 0.688502 0.576837
0.622827 0.696254 0.593744
0.770352 0.712062 0.597894
0.852018 0.665126 0.496651
0.903777 0.640742 0.513146
0.938933 0.630579 0.542657
0.531914 0.779110 0.678462
0.551232 0.774960 0.680354
0.572412 0.761044 0.668727
0.557488 0.735500 0.621057
0.691463 0.754849 0.667842
0.800961 0.775235 0.698604
0.866239 0.745754 0.623987
0.917174 0.711818 0.577264
0.603845 0.816312 0.725216
0.614252 0.814023 0.726833
0.629145 0.805814 0.722683
0.621912 0.790768 0.698116
0.627222 0.776181 0.670558
0.739071 0.796628 0.716976
0.827695 0.816587 0.757839
0.879484 0.801785 0.708980
0.652888 0.846128 0.759701
0.658839 0.844419 0.760555
0.668696 0.839078 0.758511
0.665064 0.829953 0.743862
0.658198 0.815610 0.721736
0.691157 0.813016 0.717769
0.773831 0.827024 0.750362
0.848386 0.844846 0.787930
0.692226 0.870939 0.788479
0.697414 0.869932 0.789883
0.703578 0.866575 0.788540
0.702266 0.861326 0.779629
0.699275 0.853147 0.766110
0.695033 0.842130 0.748775
0.746090 0.848051 0.761257
0.811917 0.858824 0.788998
0.189761 0.240665 0.534630
0.336278 0.277623 0.600732
0.650294 0.460060 0.712459
0.727321 0.508080 0.686946
0.820157 0.514366 0.681025
0.876280 0.526879 0.667597
0.911681 0.550195 0.661311
0.941619 0.566125 0.655726
0.188144 0.303502 0.474647
0.310033 0.363134 0.558038
0.637629 0.550042 0.705013
0.717617 0.559533 0.689082
0.814878 0.543389 0.680629
0.870481 0.545708 0.665034
0.907500 0.562768 0.659571
0.941283 0.566155 0.646998
0.217746 0.515465 0.558251
0.317296 0.530480 0.572503
0.512963 0.573053 0.610834
0.706020 0.636347 0.687129
0.798611 0.604028 0.664515
0.859617 0.587243 0.644678
0.901793 0.594965 0.644343
0.934112 0.606348 0.649104
0.457130 0.751400 0.693263
0.509483 0.746731 0.697597
0.606653 0.731899 0.703944
0.652369 0.709346 0.686671
0.766476 0.714076 0.673213
0.835966 0.686824 0.654414
0.884916 0.671839 0.652674
0.921752 0.665156 0.655848
0.559533 0.793912 0.721706
0.582696 0.790768 0.725185
0.635035 0.780758 0.731868
0.656397 0.759945 0.716396
0.706355 0.760769 0.717006
0.801389 0.779294 0.731228
0.858946 0.747768 0.673732
0.905394 0.727352 0.663416
0.619745 0.824582 0.749477
0.631739 0.822599 0.751736
0.661463 0.815702 0.755978
0.678676 0.802090 0.748074
0.662684 0.779019 0.714321
0.745846 0.797879 0.743404
0.828153 0.819181 0.775235
0.876768 0.803464 0.731930
0.662074 0.850919 0.774441
0.668544 0.849424 0.775570
0.687861 0.844236 0.778439
0.701106 0.835111 0.774166
0.691310 0.820890 0.751980
0.699794 0.811734 0.735988
0.779965 0.828580 0.769253
0.850858 0.848417 0.806424
0.694789 0.873564 0.796170
0.699062 0.872465 0.796902
0.715633 0.868711 0.800870
0.726253 0.863310 0.799130
0.721584 0.855253 0.785397
0.715724 0.844572 0.767971
0.753109 0.847990 0.774258
0.817288 0.860594 0.802518
0.317327 0.348791 0.692042
0.406287 0.387701 0.713069
0.606561 0.523888 0.764157
0.759426 0.651484 0.812100
0.792020 0.646967 0.786160
0.838712 0.670222 0.783047
0.889647 0.646754 0.765682
0.925750 0.635279 0.746731
0.309667 0.398535 0.667811
0.392340 0.434119 0.691920
0.593103 0.554101 0.750820
0.757870 0.677729 0.810819
0.788510 0.665919 0.786893
0.836698 0.678553 0.783230
0.887755 0.653986 0.765286
0.923339 0.643336 0.747005
0.210300 0.410346 0.556817
0.252476 0.416724 0.560021
0.513085 0.567651 0.694636
0.730587 0.707973 0.790616
0.778866 0.709407 0.787747
0.832944 0.703578 0.784207
0.883696 0.679988 0.765774
0.914916 0.673762 0.751156
0.365881 0.647364 0.687770
0.409918 0.649897 0.690486
0.520592 0.660304 0.700038
0.634607 0.682795 0.717006
0.762448 0.747555 0.782498
0.823819 0.723598 0.770016
0.867735 0.706538 0.752743
0.905547 0.698939 0.741421
0.572259 0.798581 0.770901
0.595544 0.798215 0.773373
0.656123 0.799954 0.782498
0.713375 0.796719 0.788632
0.730892 0.771237 0.769528
0.800229 0.776425 0.763668
0.851347 0.758083 0.747921
0.892302 0.746517 0.741543
0.643366 0.839689 0.788632
0.655177 0.838682 0.790707
0.684169 0.832792 0.793332
0.718379 0.822904 0.794705
0.735683 0.805325 0.784543
0.758572 0.801907 0.778470
0.829526 0.821744 0.796628
0.873381 0.802548 0.758633
0.674586 0.859037 0.798062
0.681453 0.857908 0.799191
0.701564 0.853788 0.801999
0.728115 0.846220 0.804562
0.743038 0.833768 0.798672
0.726253 0.814542 0.770382
0.789090 0.830930 0.794461
0.854276 0.852598 0.826352
0.703273 0.878477 0.812131
0.707820 0.877653 0.812924
0.721584 0.874571 0.814847
0.744594 0.868864 0.818906
0.756619 0.860716 0.815610
0.748318 0.850278 0.798123
0.763027 0.847990 0.792477
0.825284 0.863432 0.821225
0.453010 0.475074 0.768246
0.493751 0.498299 0.775387
0.602808 0.570764 0.798367
0.725917 0.666651 0.833860
0.815824 0.726436 0.861051
0.832975 0.713924 0.839719
0.864103 0.728756 0.833280
0.900298 0.718837 0.823117
0.445686 0.497780 0.755581
0.487129 0.519554 0.764034
0.596918 0.586572 0.789761
0.721065 0.676204 0.828458
0.815061 0.738125 0.860288
0.831357 0.723445 0.839902
0.862638 0.735378 0.833860
0.899748 0.722194 0.822873
0.353918 0.496376 0.700587
0.409857 0.522210 0.715999
0.553307 0.597467 0.756191
0.696773 0.689113 0.806699
0.812650 0.768185 0.857694
0.825345 0.748348 0.839017
0.857389 0.753811 0.834562
0.898039 0.730983 0.820462
0.313817 0.554467 0.675074
0.338018 0.555077 0.674311
0.409033 0.558587 0.672602
0.625940 0.671473 0.753079
0.775448 0.768643 0.830320
0.817014 0.777920 0.836820
0.852537 0.771969 0.832456
0.896880 0.741482 0.812558
0.480171 0.709560 0.748074
0.500420 0.710292 0.748745
0.558770 0.713375 0.751095
0.630549 0.721279 0.756588
0.696437 0.735897 0.767117
0.802884 0.798154 0.827665
0.847501 0.778805 0.816953
0.883848 0.761929 0.799954
0.617121 0.819333 0.806455
0.629480 0.819425 0.807645
0.665675 0.820340 0.811704
0.715999 0.824399 0.819760
0.768002 0.831418 0.830198
0.780789 0.811185 0.815518
0.828977 0.815732 0.810300
0.871580 0.802213 0.795377
0.692042 0.869963 0.830533
0.698177 0.868894 0.830961
0.717342 0.865354 0.832242
0.743038 0.859342 0.832883
0.767361 0.849638 0.830503
0.778836 0.834195 0.820859
0.797848 0.833097 0.817594
0.857084 0.853819 0.837278
0.713466 0.884733 0.833371
0.717739 0.883940 0.833829
0.731380 0.881346 0.835172
0.752163 0.877256 0.837156
0.774990 0.870115 0.838163
0.786130 0.860288 0.832914
0.774014 0.847105 0.812009
0.833433 0.866331 0.839567
0.551110 0.577417 0.816953
0.570397 0.588342 0.820005
0.628931 0.624018 0.830594
0.708064 0.677058 0.849119
0.790188 0.733272 0.872526
0.847196 0.769528 0.886595
0.861418 0.757748 0.873198
0.885557 0.766110 0.866087
0.545739 0.585138 0.808469
0.565057 0.595453 0.811978
0.624537 0.630243 0.824125
0.704311 0.681666 0.844419
0.787259 0.737392 0.869566
0.846616 0.775814 0.885954
0.860380 0.762966 0.872923
0.884642 0.769863 0.866117
0.513542 0.593225 0.783200
0.535637 0.603754 0.787778
0.603601 0.640101 0.803708
0.690761 0.692653 0.829770
0.777584 0.748745 0.860380
0.846036 0.795712 0.884855
0.857694 0.780056 0.872557
0.882139 0.782589 0.866545
0.362829 0.549248 0.715755
0.397650 0.561608 0.723873
0.510735 0.609979 0.751980
0.648890 0.687556 0.796384
0.753658 0.753292 0.840574
0.840085 0.814481 0.879789
0.853574 0.801999 0.871183
0.878538 0.799863 0.866331
0.436530 0.648310 0.741970
0.448768 0.648219 0.741176
0.486793 0.648035 0.738430
0.541009 0.649378 0.734463
0.689693 0.727291 0.792020
0.809934 0.808316 0.856901
0.846433 0.818692 0.866117
0.875212 0.810513 0.861326
0.557397 0.750271 0.787625
0.568292 0.750881 0.788052
0.599939 0.752255 0.788724
0.643915 0.755764 0.790646
0.691279 0.762570 0.795010
0.743282 0.775906 0.804379
0.835050 0.831754 0.856931
0.872251 0.815183 0.846616
0.650996 0.840482 0.835111
0.658869 0.840848 0.835904
0.683497 0.841917 0.838224
0.721401 0.845212 0.843046
0.766751 0.852201 0.851316
0.808682 0.858762 0.859556
0.814328 0.840391 0.845151
0.860472 0.850980 0.847257
0.730861 0.893980 0.862028
0.734981 0.893370 0.862242
0.748196 0.891325 0.862943
0.767971 0.888090 0.863676
0.789090 0.883085 0.863127
0.808988 0.875212 0.860685
0.817838 0.864408 0.853452
0.844358 0.871458 0.860258
0.621180 0.648341 0.852354
0.631830 0.654322 0.854154
0.663294 0.670863 0.858976
0.711971 0.698268 0.868040
0.770565 0.733669 0.880827
0.831144 0.775631 0.896025
0.868132 0.797147 0.902983
0.883757 0.788449 0.896513
0.615534 0.649104 0.846311
0.626307 0.654902 0.848295
0.658595 0.671748 0.853910
0.707973 0.699153 0.863920
0.767147 0.734585 0.877684
0.828367 0.776272 0.893767
0.866667 0.798672 0.901701
0.882078 0.788632 0.895140
0.602716 0.656825 0.832609
0.613458 0.661891 0.834653
0.647700 0.678889 0.841642
0.699886 0.707149 0.854154
0.761318 0.743160 0.870634
0.824369 0.785489 0.889555
0.867155 0.812985 0.901518
0.881437 0.802213 0.895445
0.541131 0.640558 0.800443
0.556756 0.647120 0.803311
0.608911 0.672511 0.814694
0.674891 0.707668 0.833616
0.745693 0.748898 0.856626
0.815549 0.795132 0.881437
0.867948 0.832181 0.901244
0.879576 0.818814 0.894682
0.438148 0.623529 0.757412
0.442176 0.621180 0.755245
0.461677 0.616266 0.750210
0.583368 0.667536 0.781949
0.700954 0.733883 0.825406
0.791440 0.791531 0.863432
0.862638 0.843534 0.896574
0.875914 0.833799 0.891905
0.524285 0.708064 0.786770
0.530449 0.707790 0.786069
0.550927 0.706874 0.783688
0.582391 0.705684 0.779812
0.617884 0.703365 0.773983
0.737362 0.768124 0.824887
0.842191 0.841337 0.881010
0.873289 0.850095 0.889616
0.610193 0.784329 0.820615
0.616358 0.784817 0.820951
0.634730 0.785824 0.821225
0.663233 0.788174 0.822293
0.698268 0.792050 0.824094
0.740169 0.799741 0.828794
0.789059 0.815122 0.839689
0.867185 0.862974 0.883757
0.681483 0.859586 0.858213
0.686519 0.860044 0.858762
0.705653 0.862760 0.861692
0.734707 0.868040 0.867002
0.772488 0.873564 0.872892
0.815610 0.883146 0.882750
0.848203 0.887022 0.888090
0.857511 0.878538 0.881834
0.669276 0.694820 0.878325
0.674952 0.697414 0.879118
0.692439 0.704738 0.880949
0.723537 0.719539 0.885374
0.764767 0.741238 0.892027
0.811521 0.769589 0.900786
0.858183 0.803037 0.911467
0.883360 0.814786 0.914549
0.666346 0.695460 0.875212
0.672084 0.698085 0.876036
0.690150 0.705806 0.878355
0.721309 0.720516 0.883024
0.763058 0.742458 0.890166
0.810269 0.770932 0.899504
0.857145 0.804196 0.910552
0.882933 0.816464 0.914092
0.656672 0.698116 0.866148
0.662562 0.700679 0.867124
0.681392 0.708553 0.869993
0.715785 0.725643 0.876585
0.758938 0.748196 0.885069
0.807248 0.776974 0.895811
0.855222 0.810544 0.908446
0.883055 0.825345 0.913787
0.629450 0.694514 0.849088
0.637781 0.698482 0.850523
0.660212 0.708034 0.855070
0.698787 0.726711 0.863584
0.747585 0.752651 0.875303
0.800687 0.784390 0.889342
0.851926 0.819791 0.904936
0.884031 0.839567 0.913817
0.547539 0.668025 0.813931
0.558801 0.672114 0.816220
0.593988 0.685084 0.823423
0.651972 0.711177 0.838346
0.717891 0.745815 0.856565
0.783413 0.784512 0.877012
0.843931 0.825864 0.898497
0.885588 0.856016 0.914122
0.524407 0.690669 0.802884
0.526238 0.689204 0.801572
0.533410 0.684443 0.797330
0.546044 0.675746 0.789914
0.633967 0.708644 0.811795
0.745296 0.772000 0.853086
0.829709 0.828672 0.887785
0.888487 0.874022 0.915435
0.590631 0.755886 0.826230
0.593683 0.755550 0.825742
0.604334 0.754574 0.824125
0.623529 0.753658 0.821836
0.648829 0.752346 0.818723
0.678889 0.751003 0.814939
0.788693 0.812131 0.860258
0.878752 0.877623 0.908080
0.656245 0.822049 0.854154
0.659419 0.822171 0.854185
0.671412 0.823301 0.854643
0.693294 0.826169 0.856199
0.723018 0.830900 0.858946
0.759487 0.838346 0.863798
0.803372 0.850797 0.872862
0.854215 0.871824 0.889342
