data/fiter_cube/38543845/1023266/file.cube
# Created by Adobe Lightroom plugin Export LUT (1.17.0)
# www.johnrellis.com/lightroom/exportlut.htm
# Preset: 清新通透胶片预设_02 云集
# Color profile: C:\Program Files (x86)\Common Files\Adobe\Color\Profiles\Recommended\AdobeRGB1998.icc
LUT_3D_SIZE 5
DOMAIN_MIN 0.000000 0.000000 0.000000
DOMAIN_MAX 0.903226 0.903226 0.903226
0.149996 0.157656 0.150057
0.578576 0.000000 0.157198
0.845670 0.000000 0.181949
0.935149 0.288457 0.312993
0.976867 0.431189 0.442969
0.166598 0.496223 0.321477
0.406592 0.496468 0.295964
0.806210 0.502068 0.216037
0.915129 0.478584 0.345708
0.966796 0.514885 0.466224
0.454139 0.748592 0.618738
0.474708 0.729549 0.589654
0.661067 0.732082 0.611627
0.850095 0.722133 0.560815
0.936278 0.666224 0.517021
0.615564 0.824613 0.730159
0.626551 0.817716 0.725490
0.615625 0.792203 0.684077
0.747372 0.805386 0.718837
0.872313 0.817502 0.729549
0.692927 0.870970 0.787411
0.697261 0.867704 0.785092
0.692073 0.856382 0.766079
0.691310 0.840879 0.738918
0.811337 0.859098 0.786130
0.176791 0.221561 0.471931
0.600244 0.375036 0.664057
0.791318 0.449866 0.642084
0.891539 0.489998 0.620508
0.949950 0.526299 0.611414
0.184085 0.464942 0.505913
0.465919 0.527123 0.564477
0.771359 0.553521 0.620752
0.882017 0.545068 0.599573
0.942168 0.576287 0.616907
0.502586 0.767727 0.687434
0.591669 0.753872 0.698695
0.675196 0.734340 0.684749
0.836484 0.721553 0.636622
0.918395 0.689876 0.635309
0.631159 0.830777 0.751858
0.659693 0.824735 0.756771
0.666865 0.800381 0.730709
0.753689 0.806363 0.743954
0.870268 0.819089 0.748684
0.695064 0.873259 0.794461
0.711421 0.869596 0.798459
0.717433 0.859098 0.787137
0.708431 0.840970 0.757778
0.816648 0.860807 0.799741
0.391058 0.414313 0.737026
0.559869 0.515709 0.771603
0.792477 0.695613 0.841215
0.842924 0.700404 0.812192
0.914977 0.674861 0.787106
0.304143 0.452216 0.663203
0.506859 0.553887 0.728939
0.789334 0.740505 0.838315
0.835721 0.727901 0.814054
0.912627 0.689174 0.785092
0.427588 0.683131 0.722499
0.513878 0.687556 0.726680
0.668238 0.711757 0.744320
0.823484 0.762234 0.802701
0.894133 0.731502 0.772152
0.663325 0.852293 0.811643
0.690150 0.847379 0.813443
0.744961 0.832181 0.813809
0.771878 0.810849 0.796780
0.866819 0.816373 0.784817
0.707179 0.881102 0.821530
0.721675 0.878508 0.823667
0.759396 0.869078 0.828183
0.763333 0.851286 0.809476
0.828611 0.864317 0.829587
0.569024 0.595880 0.825986
0.620966 0.625971 0.834623
0.744503 0.705562 0.863066
0.852934 0.777157 0.891142
0.884276 0.771023 0.873625
0.548882 0.609552 0.803891
0.605188 0.639155 0.815793
0.735256 0.717556 0.852354
0.852049 0.795193 0.889830
0.881834 0.782803 0.873533
0.372900 0.579828 0.722103
0.406165 0.575372 0.716365
0.671077 0.708492 0.801114
0.838224 0.819577 0.878416
0.875608 0.810880 0.871733
0.573877 0.759915 0.796963
0.600793 0.760525 0.796994
0.669429 0.766354 0.800076
0.754147 0.785153 0.812833
0.870481 0.826627 0.856321
0.721889 0.888304 0.862943
0.739925 0.889189 0.865721
0.784176 0.889464 0.871458
0.818753 0.877714 0.867399
0.847257 0.872892 0.865446
0.669276 0.694820 0.878325
0.686763 0.702266 0.880308
0.743160 0.729580 0.888457
0.823453 0.777676 0.903349
0.883360 0.814786 0.914549
0.660883 0.698268 0.869352
0.679408 0.706264 0.872160
0.738369 0.734951 0.882536
0.820615 0.783505 0.899962
0.883177 0.823056 0.914031
0.596124 0.683223 0.834257
0.625422 0.695369 0.840238
0.706874 0.735042 0.859495
0.806973 0.793606 0.888090
0.884520 0.847257 0.913787
0.542840 0.708217 0.808988
0.550958 0.704799 0.805509
0.577234 0.692897 0.793881
0.754452 0.780545 0.853513
0.887175 0.875914 0.914427
0.656245 0.822049 0.854154
0.667475 0.822904 0.854429
0.707301 0.828275 0.857420
0.769650 0.840879 0.865568
0.854215 0.871824 0.889342
