data/fiter_cube/72007313/1022720/file.cube
# Created by Adobe Lightroom plugin Export LUT (1.17.0)
# www.johnrellis.com/lightroom/exportlut.htm
# Preset: 高级电影暗青色_09 云集
# Color profile: C:\Program Files (x86)\Common Files\Adobe\Color\Profiles\Recommended\AdobeRGB1998.icc
LUT_3D_SIZE 32
DOMAIN_MIN 0.0 0.0 0.0
DOMAIN_MAX 1.0 1.0 1.0
0.059998 0.065187 0.045930
0.062959 0.065980 0.046632
0.066865 0.066194 0.047272
0.076326 0.067475 0.048920
0.084840 0.069062 0.050538
0.093996 0.070680 0.052796
0.103944 0.072145 0.054932
0.115145 0.073304 0.056855
0.127626 0.074495 0.058991
0.141848 0.074952 0.059724
0.157717 0.074861 0.060273
0.175265 0.073976 0.061036
0.194064 0.072602 0.061494
0.214084 0.070039 0.061738
0.234806 0.066590 0.062104
0.256352 0.061280 0.062196
0.278843 0.050477 0.062409
0.306126 0.027253 0.062074
0.333959 0.000000 0.061738
0.362432 0.000000 0.061311
0.391821 0.000000 0.061128
0.422004 0.000000 0.060304
0.452491 0.000000 0.059724
0.483406 0.000000 0.059205
0.514702 0.000000 0.058778
0.546868 0.000000 0.058564
0.580163 0.000000 0.058686
0.614618 0.000000 0.059663
0.649622 0.000000 0.062684
0.685023 0.000000 0.067750
0.720821 0.000000 0.075929
0.757870 0.000000 0.087587
0.061036 0.067536 0.047333
0.063020 0.068055 0.047944
0.067903 0.068544 0.047608
0.076783 0.069886 0.049287
0.085298 0.071015 0.050965
0.094118 0.072175 0.053315
0.104097 0.073640 0.054627
0.115023 0.074891 0.056580
0.127535 0.076020 0.058839
0.141573 0.076143 0.059632
0.157443 0.076081 0.060609
0.174746 0.075380 0.060945
0.193362 0.073732 0.061463
0.213199 0.071382 0.061707
0.233768 0.068177 0.062104
0.255131 0.063813 0.062165
0.277317 0.055146 0.062440
0.304112 0.034028 0.062196
0.331151 0.003845 0.062043
0.359014 0.000000 0.061769
0.388098 0.000000 0.061280
0.417884 0.000000 0.060548
0.448127 0.000000 0.059663
0.479042 0.000000 0.058869
0.510399 0.000000 0.058412
0.542596 0.000000 0.058137
0.576104 0.000000 0.058534
0.610773 0.000000 0.059632
0.646113 0.000000 0.062257
0.681819 0.000000 0.067048
0.717830 0.000000 0.075074
0.754910 0.000000 0.086732
0.061860 0.070283 0.050080
0.064363 0.070741 0.050690
0.067109 0.071870 0.050324
0.076967 0.073732 0.050202
0.085664 0.073610 0.051270
0.094759 0.074739 0.053590
0.104433 0.075471 0.055055
0.115358 0.076631 0.057008
0.127596 0.077424 0.059113
0.141634 0.077913 0.059876
0.157351 0.077546 0.060456
0.174502 0.076936 0.060792
0.193271 0.075715 0.061280
0.212863 0.073487 0.061952
0.233402 0.070130 0.061952
0.254704 0.065553 0.062074
0.276890 0.059541 0.062287
0.303441 0.039429 0.062135
0.329961 0.012238 0.062013
0.357427 0.000000 0.061799
0.386328 0.000000 0.060945
0.416022 0.000000 0.060304
0.446235 0.000000 0.059846
0.476997 0.000000 0.059083
0.508354 0.000000 0.058747
0.540551 0.000000 0.057984
0.574121 0.000000 0.058381
0.608911 0.000000 0.059174
0.644434 0.000000 0.061738
0.680262 0.000000 0.066957
0.716274 0.000000 0.074708
0.753353 0.000000 0.086213
0.064149 0.077821 0.055024
0.067842 0.078004 0.056428
0.070558 0.077974 0.057893
0.075776 0.080690 0.057038
0.086397 0.081666 0.055268
0.095552 0.080293 0.055665
0.105287 0.079866 0.056519
0.116121 0.080659 0.058564
0.128573 0.080964 0.059541
0.142367 0.081147 0.059907
0.157992 0.081147 0.060456
0.175235 0.080171 0.060822
0.193637 0.079072 0.061311
0.213046 0.077455 0.061952
0.233555 0.074281 0.061952
0.254643 0.070222 0.062104
0.277043 0.064576 0.062287
0.302831 0.052216 0.062196
0.328710 0.027832 0.061738
0.355505 0.000000 0.061219
0.383612 0.000000 0.060975
0.412909 0.000000 0.060426
0.443214 0.000000 0.059571
0.474342 0.000000 0.058778
0.506432 0.000000 0.058717
0.539513 0.000000 0.058198
0.573693 0.000000 0.058198
0.608881 0.000000 0.059236
0.644526 0.000000 0.061707
0.680232 0.000000 0.066499
0.715938 0.000000 0.074708
0.752529 0.000000 0.085847
0.067781 0.085359 0.060517
0.070954 0.085267 0.061311
0.073793 0.085481 0.062043
0.077272 0.085573 0.063661
0.083406 0.089052 0.062562
0.095247 0.091005 0.060517
0.106142 0.088991 0.060273
0.117342 0.086824 0.059968
0.129549 0.086549 0.060121
0.143404 0.086671 0.060487
0.158816 0.086091 0.060670
0.175784 0.085847 0.060975
0.194125 0.084565 0.061494
0.213535 0.082734 0.061769
0.233860 0.080232 0.061707
0.255100 0.076722 0.062257
0.278325 0.071351 0.061891
0.303746 0.063600 0.061799
0.329168 0.048249 0.061402
0.355657 0.017517 0.061341
0.383276 0.000000 0.060700
0.412268 0.000000 0.060182
0.442237 0.000000 0.059327
0.473396 0.000000 0.058961
0.505516 0.000000 0.057404
0.538750 0.000000 0.057527
0.572900 0.000000 0.057343
0.608057 0.000000 0.058808
0.643580 0.000000 0.061677
0.679194 0.000000 0.066438
0.714931 0.000000 0.073884
0.751431 0.000000 0.085420
0.071595 0.092378 0.064698
0.073213 0.092775 0.065034
0.076081 0.092683 0.065736
0.079500 0.092775 0.066773
0.084016 0.094087 0.067628
0.091829 0.097932 0.066499
0.105776 0.101015 0.064302
0.118379 0.098909 0.062623
0.131197 0.096376 0.062654
0.145327 0.093812 0.062440
0.160678 0.093538 0.062165
0.177615 0.092683 0.062531
0.195926 0.091737 0.062593
0.215244 0.090333 0.062348
0.235508 0.088014 0.062318
0.256718 0.084535 0.062440
0.280735 0.080140 0.061891
0.305608 0.073762 0.061830
0.330999 0.064942 0.061372
0.357366 0.047791 0.060853
0.385138 0.013123 0.060517
0.414313 0.000000 0.059907
0.471412 0.000000 0.058656
0.502495 0.000000 0.057252
0.534051 0.000000 0.056489
0.566033 0.000000 0.056977
0.598566 0.000000 0.058137
0.631647 0.000000 0.059998
0.664820 0.000000 0.063630
0.698299 0.000000 0.069917
0.731838 0.000000 0.079133
0.767147 0.066255 0.091005
0.074495 0.101503 0.068940
0.076112 0.101564 0.069276
0.078340 0.101808 0.069947
0.082765 0.102022 0.070893
0.087556 0.101839 0.072541
0.092866 0.104433 0.072389
0.102327 0.108888 0.071107
0.118807 0.113466 0.068177
0.134829 0.111818 0.065980
0.149416 0.108797 0.065492
0.165927 0.105165 0.065217
0.183627 0.102480 0.064912
0.201968 0.101137 0.064515
0.221378 0.099611 0.064698
0.241550 0.097292 0.064637
0.263310 0.094423 0.064118
0.288182 0.090181 0.063783
0.313359 0.084657 0.063111
0.339025 0.077363 0.062043
0.366430 0.066926 0.061189
0.395972 0.048188 0.059815
0.427558 0.005280 0.059266
0.460670 0.000000 0.058259
0.494697 0.000000 0.056458
0.528862 0.000000 0.056031
0.562524 0.000000 0.055421
0.595880 0.000000 0.056825
0.629328 0.000000 0.059449
0.662654 0.000000 0.062928
0.695979 0.000000 0.068940
0.729488 0.000000 0.077913
0.764645 0.092683 0.090303
0.076997 0.110719 0.073152
0.078523 0.110780 0.073457
0.080720 0.110994 0.074067
0.085267 0.111360 0.075288
0.089662 0.111513 0.075807
0.095888 0.110842 0.078309
0.102174 0.115236 0.077211
0.113466 0.120089 0.075807
0.132174 0.126101 0.072206
0.150698 0.125429 0.069368
0.167453 0.122133 0.068330
0.185153 0.118135 0.067903
0.204288 0.113161 0.067292
0.223789 0.110292 0.066865
0.243748 0.108217 0.066804
0.266911 0.105898 0.066468
0.290776 0.102358 0.065888
0.315007 0.097780 0.065370
0.340032 0.091890 0.064881
0.366918 0.084413 0.063600
0.395880 0.074556 0.061860
0.427008 0.060517 0.059968
0.459724 0.024994 0.057282
0.493263 0.000000 0.055482
0.527062 0.000000 0.054261
0.560540 0.000000 0.054414
0.593835 0.000000 0.055604
0.627344 0.000000 0.057893
0.660700 0.000000 0.061982
0.694087 0.000000 0.067903
0.727657 0.068666 0.076875
0.762753 0.117647 0.089326
0.079835 0.121340 0.078096
0.081239 0.121614 0.078340
0.083406 0.121798 0.078584
0.087770 0.122133 0.079713
0.093477 0.122499 0.081086
0.099245 0.121950 0.082490
0.105440 0.122744 0.084321
0.113283 0.127901 0.082734
0.126223 0.133303 0.080812
0.147097 0.140597 0.076967
0.168032 0.140719 0.073213
0.187289 0.137362 0.071626
0.206180 0.132845 0.071138
0.226230 0.127352 0.070466
0.248722 0.121736 0.069520
0.271366 0.118868 0.068971
0.294469 0.115755 0.068818
0.318151 0.111971 0.067933
0.342626 0.107424 0.067048
0.369085 0.101442 0.066285
0.397620 0.094301 0.065126
0.428199 0.085359 0.063264
0.460456 0.074037 0.060731
0.493599 0.059968 0.057465
0.527153 0.030304 0.052735
0.560418 0.000061 0.052766
0.593469 0.000000 0.053681
0.626764 0.000000 0.056367
0.659998 0.020539 0.061036
0.693202 0.070924 0.066896
0.726528 0.105013 0.076539
0.761410 0.141695 0.088655
0.083162 0.133516 0.083528
0.084565 0.133577 0.083772
0.086152 0.133974 0.084291
0.090425 0.134279 0.085023
0.097078 0.134646 0.086793
0.102052 0.134615 0.087221
0.109560 0.133791 0.089906
0.116213 0.136202 0.090455
0.126070 0.141787 0.088502
0.140475 0.147616 0.086397
0.163394 0.156527 0.082521
0.186160 0.156924 0.077760
0.208194 0.154147 0.075196
0.229648 0.149783 0.074678
0.252049 0.144594 0.073548
0.275456 0.138186 0.072572
0.299504 0.130739 0.071626
0.323125 0.127291 0.071168
0.347448 0.123476 0.070253
0.373419 0.118746 0.069093
0.401251 0.113375 0.067933
0.430579 0.107210 0.066346
0.461433 0.100160 0.064149
0.493324 0.092103 0.061646
0.525994 0.084108 0.058228
0.558892 0.076753 0.051728
0.592126 0.073884 0.051392
0.625696 0.078035 0.053407
0.659205 0.090150 0.059388
0.692775 0.109773 0.066072
0.726406 0.135592 0.075654
0.761593 0.167025 0.088777
0.086244 0.146670 0.089357
0.087556 0.146883 0.089570
0.089143 0.147066 0.090028
0.093568 0.147311 0.090700
0.099947 0.147799 0.092378
0.106783 0.148196 0.093446
0.113558 0.147555 0.094881
0.121492 0.146792 0.098268
0.128908 0.151369 0.097383
0.140352 0.157504 0.095033
0.156374 0.163943 0.092531
0.181735 0.174411 0.088197
0.207004 0.175937 0.083192
0.233127 0.174228 0.079438
0.255039 0.169131 0.078584
0.277897 0.163088 0.077180
0.301671 0.155978 0.075898
0.326207 0.147921 0.074891
0.350988 0.140627 0.073213
0.376593 0.136629 0.072511
0.403937 0.132479 0.071443
0.433082 0.127962 0.069825
0.463600 0.123262 0.067597
0.495155 0.118349 0.065583
0.527398 0.113985 0.062745
0.559930 0.110780 0.059510
0.592737 0.110170 0.052522
0.626032 0.114473 0.050935
0.659144 0.124605 0.057160
0.692348 0.140688 0.064820
0.725795 0.162417 0.074647
0.760830 0.190433 0.088228
0.089479 0.161349 0.095857
0.090730 0.161532 0.096071
0.092653 0.161685 0.096254
0.096803 0.162051 0.097108
0.103182 0.162600 0.098573
0.111543 0.163333 0.100923
0.117220 0.163180 0.100557
0.126253 0.162203 0.103944
0.134646 0.161929 0.107118
0.143587 0.168154 0.104799
0.156954 0.175418 0.102693
0.175448 0.183261 0.099825
0.212467 0.203464 0.097902
0.241184 0.205447 0.091463
0.270268 0.203464 0.086397
0.295598 0.197635 0.084047
0.319890 0.190188 0.082673
0.344610 0.182040 0.080995
0.369879 0.173220 0.079225
0.396765 0.163607 0.077424
0.424231 0.157107 0.075715
0.452338 0.153750 0.074342
0.481483 0.150301 0.072602
0.511650 0.147494 0.070588
0.542504 0.145724 0.067720
0.573724 0.145296 0.064942
0.605341 0.147311 0.061219
0.637140 0.152377 0.055909
0.668818 0.161654 0.056977
0.700710 0.176364 0.065217
0.732937 0.196231 0.076295
0.767330 0.221683 0.090455
0.093202 0.180056 0.104067
0.094697 0.180209 0.104250
0.096559 0.180179 0.104433
0.100893 0.180331 0.104982
0.107088 0.180697 0.106142
0.115938 0.181003 0.108309
0.124056 0.181064 0.109590
0.131624 0.180087 0.110597
0.141451 0.178988 0.114443
0.151156 0.182223 0.116915
0.162966 0.190677 0.115053
0.179385 0.199619 0.112764
0.200809 0.208743 0.109926
0.232883 0.223362 0.104768
0.262638 0.226230 0.097810
0.293065 0.224521 0.091676
0.320439 0.219211 0.088472
0.344732 0.211521 0.086580
0.369665 0.203433 0.084901
0.396094 0.195071 0.082856
0.424048 0.186191 0.081056
0.453529 0.176699 0.078767
0.482429 0.173190 0.076967
0.512047 0.171572 0.075044
0.542321 0.170871 0.072755
0.573205 0.171450 0.070069
0.604395 0.174228 0.066987
0.636011 0.179629 0.064240
0.667689 0.188144 0.061128
0.699763 0.201358 0.063081
0.731930 0.219760 0.074647
0.766384 0.244053 0.089479
0.097017 0.196902 0.111299
0.098390 0.197024 0.111666
0.100130 0.197147 0.111818
0.104585 0.197269 0.112337
0.110780 0.197574 0.113405
0.119326 0.197940 0.115389
0.130373 0.198703 0.118410
0.136294 0.199039 0.117769
0.147677 0.198398 0.121828
0.158907 0.197971 0.126741
0.168948 0.203525 0.126864
0.182223 0.212284 0.124880
0.199924 0.221286 0.121889
0.222171 0.230167 0.118410
0.254551 0.244236 0.112642
0.285039 0.247959 0.104829
0.315709 0.246189 0.097505
0.344884 0.241459 0.092744
0.369574 0.233921 0.090822
0.395544 0.226535 0.088838
0.423346 0.218936 0.086946
0.452399 0.211276 0.084962
0.482643 0.203342 0.082460
0.513725 0.195499 0.080018
0.543694 0.195712 0.078065
0.574212 0.197177 0.075807
0.605188 0.200687 0.073457
0.636408 0.206332 0.070802
0.667903 0.215091 0.069184
0.699886 0.227512 0.068299
0.732265 0.244388 0.073884
0.766781 0.267582 0.089265
0.101442 0.216007 0.119722
0.102724 0.216220 0.120058
0.104585 0.216403 0.120363
0.108980 0.216709 0.121004
0.115328 0.217166 0.122133
0.124056 0.217868 0.123873
0.135012 0.218723 0.126802
0.144625 0.218997 0.128115
0.153506 0.218570 0.129519
0.165530 0.217624 0.134127
0.177066 0.217227 0.139498
0.187716 0.225528 0.137575
0.202274 0.234379 0.134981
0.221103 0.243351 0.131411
0.243839 0.251835 0.127291
0.276188 0.265293 0.120699
0.307500 0.269993 0.112520
0.338201 0.268467 0.103975
0.368872 0.264683 0.097963
0.395636 0.258152 0.095583
0.422858 0.251530 0.093782
0.451606 0.245121 0.091432
0.481453 0.238407 0.089021
0.512352 0.232059 0.086793
0.544121 0.225711 0.084352
0.575860 0.222843 0.081788
0.606989 0.227085 0.080262
0.638544 0.233768 0.078431
0.670375 0.243259 0.077913
0.702632 0.256138 0.078279
0.735622 0.272831 0.080903
0.770932 0.295354 0.091035
0.106172 0.237736 0.129458
0.107637 0.238010 0.129732
0.109377 0.238163 0.130007
0.114076 0.238407 0.130587
0.120485 0.238956 0.131746
0.129641 0.239536 0.133669
0.140414 0.240421 0.136294
0.154025 0.241306 0.140078
0.160189 0.241001 0.138796
0.172702 0.239963 0.142763
0.185153 0.238895 0.147768
0.196384 0.240177 0.151400
0.207706 0.248417 0.148440
0.223026 0.256870 0.144930
0.242100 0.265049 0.140749
0.264897 0.272892 0.135958
0.296880 0.285435 0.128939
0.329351 0.291691 0.120119
0.361151 0.291356 0.111421
0.393744 0.288975 0.104463
0.423896 0.284581 0.100832
0.452735 0.279271 0.098878
0.482521 0.274174 0.096742
0.513390 0.269139 0.094392
0.545159 0.264714 0.091890
0.577478 0.260990 0.089845
0.610437 0.258518 0.087495
0.642390 0.262058 0.086397
0.673793 0.271611 0.086488
0.705470 0.284184 0.088533
0.737850 0.300237 0.091890
0.772915 0.321294 0.097810
0.110964 0.259220 0.139010
0.112398 0.259373 0.139284
0.114351 0.259434 0.139559
0.118776 0.259648 0.140230
0.125429 0.259922 0.141329
0.134463 0.260410 0.142794
0.145449 0.261021 0.145235
0.158724 0.261814 0.148745
0.169070 0.262150 0.150027
0.178195 0.261204 0.150942
0.191653 0.259892 0.155642
0.204440 0.258610 0.161013
0.215213 0.262486 0.162112
0.227695 0.270726 0.158755
0.243748 0.278935 0.154757
0.263218 0.286717 0.150149
0.286564 0.294194 0.145022
0.318334 0.306218 0.137819
0.352209 0.314092 0.128542
0.385168 0.315282 0.119600
0.419226 0.314305 0.111604
0.452125 0.311833 0.106477
0.481697 0.307591 0.104738
0.512383 0.303929 0.102663
0.544030 0.300725 0.100282
0.576349 0.298344 0.098451
0.609400 0.297459 0.096498
0.642420 0.297765 0.095857
0.675441 0.299992 0.095644
0.707301 0.311162 0.098116
0.739773 0.327092 0.102968
0.774929 0.347936 0.110414
0.116091 0.281773 0.149264
0.117830 0.282048 0.149630
0.122591 0.291722 0.154299
0.127169 0.291875 0.154910
0.134340 0.292058 0.156008
0.143496 0.292302 0.157626
0.155062 0.292515 0.159823
0.168490 0.292973 0.162814
0.184085 0.293370 0.167239
0.190494 0.292363 0.164981
0.203708 0.290562 0.168765
0.217441 0.288609 0.173831
0.230320 0.286259 0.179263
0.240879 0.292302 0.177401
0.254246 0.300145 0.173190
0.271183 0.307805 0.168521
0.291661 0.315160 0.163180
0.315373 0.322118 0.157076
0.347143 0.333440 0.149477
0.382422 0.342931 0.139834
0.416419 0.345068 0.130465
0.451575 0.345251 0.120974
0.486580 0.344457 0.114626
0.516869 0.341466 0.112734
0.547356 0.338567 0.110567
0.578485 0.336706 0.108858
0.610224 0.336065 0.107088
0.642237 0.336675 0.106416
0.674708 0.339422 0.106996
0.707637 0.344488 0.109560
0.741482 0.353338 0.114565
0.776486 0.373602 0.123110
0.122438 0.307744 0.161227
0.124300 0.309178 0.162020
0.126986 0.310643 0.163058
0.131716 0.312047 0.164187
0.139132 0.313115 0.165713
0.148653 0.313817 0.167361
0.159976 0.314244 0.169619
0.173404 0.314641 0.172549
0.188907 0.315160 0.176638
0.200168 0.314855 0.177584
0.209354 0.313329 0.177554
0.224002 0.311162 0.182467
0.237888 0.308690 0.187716
0.250156 0.307012 0.192264
0.261082 0.314702 0.188235
0.275212 0.322301 0.183719
0.292821 0.329625 0.178500
0.313756 0.336767 0.172854
0.338018 0.343999 0.166873
0.369787 0.355047 0.159121
0.406287 0.366308 0.149508
0.441840 0.370275 0.140139
0.478218 0.372107 0.130800
0.514244 0.373144 0.124056
0.546685 0.372229 0.120729
0.577874 0.371313 0.119356
0.609674 0.371679 0.118257
0.641627 0.373327 0.118105
0.674067 0.376745 0.119509
0.706905 0.382208 0.123171
0.740963 0.390845 0.128908
0.777615 0.403693 0.137636
0.128145 0.331029 0.172122
0.130007 0.332464 0.173068
0.132723 0.333928 0.174014
0.137575 0.335302 0.175174
0.144961 0.336339 0.176699
0.154360 0.336950 0.178347
0.165774 0.337255 0.180453
0.179049 0.337682 0.183261
0.194339 0.338170 0.186954
0.210971 0.338476 0.191409
0.217807 0.337499 0.188998
0.231327 0.335332 0.192172
0.245884 0.332708 0.197238
0.259770 0.330083 0.202670
0.271275 0.330907 0.204715
0.283024 0.338415 0.200137
0.297978 0.345769 0.195224
0.316289 0.353094 0.189731
0.338018 0.360327 0.184115
0.362982 0.367620 0.177951
0.394659 0.378485 0.170382
0.432746 0.391516 0.160891
0.469368 0.396979 0.151705
0.506371 0.400641 0.142519
0.543053 0.403052 0.134951
0.577447 0.404517 0.130648
0.608942 0.405524 0.130404
0.640650 0.407568 0.130831
0.672938 0.411414 0.133089
0.705623 0.417273 0.137423
0.739742 0.425971 0.144076
0.776364 0.438514 0.154299
0.134218 0.355596 0.184024
0.136324 0.357092 0.185000
0.138796 0.358495 0.185977
0.143893 0.359838 0.187259
0.151247 0.360876 0.188632
0.160678 0.361395 0.190372
0.172183 0.361700 0.192294
0.185458 0.361944 0.194827
0.200656 0.362341 0.198367
0.217838 0.362646 0.202792
0.229557 0.362188 0.203555
0.238804 0.360510 0.202731
0.254307 0.357855 0.207767
0.269017 0.354986 0.213107
0.282750 0.352056 0.218753
0.294011 0.355932 0.217960
0.307225 0.363775 0.213474
0.323796 0.371832 0.208896
0.343877 0.379919 0.203555
0.367254 0.388190 0.198215
0.393866 0.396368 0.192630
0.426551 0.407782 0.185336
0.466011 0.422553 0.176120
0.504173 0.429877 0.167453
0.542321 0.435431 0.158846
0.579889 0.439948 0.151553
0.616052 0.444007 0.146822
0.647578 0.446754 0.149050
0.679500 0.450996 0.152621
0.711818 0.456977 0.158511
0.746181 0.465858 0.166964
0.782803 0.478462 0.179141
0.143099 0.387274 0.200381
0.145113 0.387945 0.200870
0.147494 0.388495 0.201450
0.152255 0.389105 0.202304
0.159548 0.389563 0.203525
0.169100 0.389746 0.204868
0.180423 0.389929 0.206729
0.194156 0.390143 0.209323
0.209751 0.390631 0.212711
0.227298 0.391211 0.217197
0.245457 0.391730 0.222293
0.252873 0.390417 0.219364
0.266331 0.388067 0.221927
0.282139 0.385077 0.227237
0.296971 0.381933 0.232853
0.310704 0.378637 0.238743
0.321935 0.385565 0.235172
0.336187 0.393347 0.230228
0.353857 0.401251 0.225223
0.374517 0.409155 0.219852
0.398322 0.417121 0.214328
0.424781 0.424872 0.208042
0.456641 0.435187 0.200809
0.495583 0.450050 0.191501
0.533776 0.458228 0.183322
0.571984 0.465095 0.175326
0.609796 0.471015 0.168368
0.646143 0.476570 0.165652
0.678920 0.481300 0.168887
0.711238 0.487312 0.176120
0.745541 0.496315 0.186099
0.782071 0.509178 0.199588
0.151369 0.414466 0.215000
0.153262 0.415259 0.215671
0.155795 0.415900 0.216190
0.160769 0.416388 0.217075
0.167910 0.416846 0.218296
0.177554 0.416876 0.219638
0.188968 0.416938 0.221439
0.202609 0.416999 0.223758
0.218235 0.417243 0.226993
0.235813 0.417578 0.231174
0.255070 0.418067 0.236606
0.267765 0.417426 0.237278
0.276493 0.415656 0.235325
0.293248 0.412848 0.240635
0.309117 0.409766 0.246189
0.323949 0.406561 0.252171
0.337163 0.405615 0.256413
0.349462 0.413550 0.251957
0.365057 0.421637 0.247257
0.383795 0.429816 0.242313
0.405615 0.437934 0.237217
0.430304 0.445991 0.231601
0.457282 0.453956 0.225895
0.488838 0.463905 0.218723
0.523522 0.475715 0.207584
0.562066 0.485084 0.200320
0.600641 0.493233 0.193912
0.638209 0.500237 0.188754
0.674769 0.507195 0.188205
0.709224 0.514275 0.193332
0.743557 0.523583 0.204471
0.780392 0.536919 0.220035
0.163272 0.447852 0.234592
0.165225 0.448707 0.235386
0.167727 0.449195 0.235874
0.172732 0.449439 0.236515
0.180117 0.449409 0.237491
0.189395 0.449226 0.238743
0.201144 0.448829 0.240269
0.214755 0.448371 0.242344
0.230320 0.447974 0.245029
0.247623 0.447639 0.248692
0.266697 0.447333 0.253391
0.285618 0.446845 0.258122
0.292943 0.444923 0.254673
0.305821 0.442084 0.256077
0.321965 0.438422 0.261143
0.337285 0.434607 0.266606
0.351385 0.430854 0.272435
0.363622 0.432593 0.273564
0.376928 0.440467 0.268986
0.393652 0.448676 0.264500
0.413550 0.457069 0.259953
0.436164 0.465217 0.254948
0.460975 0.473030 0.249485
0.487526 0.480323 0.243442
0.517479 0.489021 0.236393
0.554955 0.503655 0.227543
0.593591 0.513970 0.221927
0.631434 0.522606 0.217685
0.668696 0.530755 0.215213
0.705379 0.539300 0.217502
0.742733 0.549920 0.224491
0.779721 0.563684 0.241886
0.174533 0.476112 0.252293
0.176638 0.476936 0.252995
0.179141 0.477455 0.253635
0.184024 0.477699 0.254398
0.191287 0.477699 0.255283
0.201022 0.477394 0.256504
0.212772 0.477089 0.258122
0.226444 0.476844 0.260258
0.242222 0.476570 0.263096
0.259922 0.476356 0.266697
0.279118 0.476234 0.271336
0.300053 0.476204 0.277287
0.312932 0.475044 0.277531
0.320714 0.473152 0.274266
0.337987 0.469795 0.279545
0.354314 0.466194 0.285069
0.369604 0.462776 0.290990
0.384100 0.459419 0.297490
0.396521 0.464546 0.295995
0.411353 0.472602 0.291814
0.429084 0.480690 0.287419
0.449592 0.488716 0.282872
0.472480 0.496468 0.278050
0.497169 0.503716 0.272679
0.523400 0.510552 0.266850
0.552361 0.518547 0.260166
0.589288 0.533043 0.251926
0.627039 0.543755 0.248966
0.664881 0.553796 0.248325
0.702052 0.563592 0.250095
0.740688 0.575555 0.256657
0.781369 0.591272 0.270085
0.189181 0.506828 0.273350
0.191135 0.507439 0.274083
0.193576 0.507652 0.274601
0.198520 0.507561 0.275029
0.205570 0.507286 0.275822
0.214939 0.506859 0.276921
0.226474 0.506371 0.278355
0.240269 0.505852 0.280278
0.256138 0.505486 0.282933
0.273777 0.505333 0.286564
0.293095 0.505089 0.291020
0.314183 0.504967 0.296788
0.334386 0.504570 0.302159
0.342138 0.502922 0.298466
0.354528 0.500389 0.299168
0.371557 0.496986 0.304631
0.387762 0.493568 0.310521
0.403082 0.490272 0.316930
0.417700 0.487678 0.323827
0.430457 0.495430 0.319829
0.446204 0.503380 0.315923
0.464820 0.511192 0.311803
0.485664 0.518730 0.307439
0.508507 0.525933 0.302708
0.532860 0.532769 0.297551
0.558160 0.539147 0.291997
0.585840 0.546410 0.286076
0.621271 0.559960 0.278935
0.658320 0.571618 0.278904
0.695827 0.582971 0.282353
0.734890 0.596124 0.289494
0.776272 0.612787 0.302220
0.205570 0.536187 0.295720
0.207370 0.536522 0.296239
0.209995 0.536675 0.296696
0.214725 0.536706 0.297276
0.222171 0.536645 0.298192
0.231937 0.536645 0.299718
0.244266 0.536950 0.301823
0.258885 0.537560 0.304845
0.275914 0.538262 0.308598
0.294865 0.539086 0.313176
0.315557 0.539910 0.318791
0.337713 0.540764 0.325383
0.361120 0.541131 0.332860
0.375158 0.540612 0.333684
0.383673 0.539391 0.330663
0.400916 0.536461 0.335607
0.418097 0.533318 0.341711
0.434394 0.530327 0.348241
0.449866 0.527520 0.355413
0.463966 0.528008 0.359930
0.477913 0.535485 0.356329
0.494331 0.542870 0.352819
0.512840 0.549859 0.348791
0.533318 0.556573 0.344823
0.555291 0.562921 0.340337
0.578546 0.569024 0.335576
0.602930 0.574945 0.330785
0.628962 0.581353 0.325566
0.662165 0.593774 0.319982
0.698238 0.606409 0.323827
0.737758 0.621363 0.333318
0.779538 0.639673 0.348882
0.232242 0.572564 0.327672
0.234195 0.572747 0.328130
0.236515 0.572625 0.328344
0.241123 0.572503 0.328862
0.248081 0.572168 0.329564
0.257786 0.571740 0.330724
0.269566 0.571496 0.332433
0.283726 0.571313 0.334844
0.300267 0.571191 0.338018
0.318547 0.571160 0.341924
0.338445 0.571069 0.346685
0.359869 0.570916 0.352453
0.382452 0.570550 0.359136
0.403540 0.569848 0.365179
