data/fiter_cube/72007313/1022720/file.cube
# Created by Adobe Lightroom plugin Export LUT (1.17.0)
# www.johnrellis.com/lightroom/exportlut.htm
# Preset: 高级电影暗青色_09 云集
# Color profile: C:\Program Files (x86)\Common Files\Adobe\Color\Profiles\Recommended\AdobeRGB1998.icc
LUT_3D_SIZE 8
DOMAIN_MIN 0.000000 0.000000 0.000000
DOMAIN_MAX 0.903226 0.903226 0.903226
0.059998 0.065187 0.045930
0.084840 0.069062 0.050538
0.127626 0.074495 0.058991
0.194064 0.072602 0.061494
0.278843 0.050477 0.062409
0.391821 0.000000 0.061128
0.514702 0.000000 0.058778
0.649622 0.000000 0.062684
0.067781 0.085359 0.060517
0.083406 0.089052 0.062562
0.129549 0.086549 0.060121
0.194125 0.084565 0.061494
0.278325 0.071351 0.061891
0.383276 0.000000 0.060700
0.505516 0.000000 0.057404
0.643580 0.000000 0.061677
0.079835 0.121340 0.078096
0.093477 0.122499 0.081086
0.126223 0.133303 0.080812
0.206180 0.132845 0.071138
0.294469 0.115755 0.068818
0.397620 0.094301 0.065126
0.527153 0.030304 0.052735
0.659998 0.020539 0.061036
0.093202 0.180056 0.104067
0.107088 0.180697 0.106142
0.141451 0.178988 0.114443
0.200809 0.208743 0.109926
0.320439 0.219211 0.088472
0.424048 0.186191 0.081056
0.542321 0.170871 0.072755
0.667689 0.188144 0.061128
0.110964 0.259220 0.139010
0.125429 0.259922 0.141329
0.169070 0.262150 0.150027
0.215213 0.262486 0.162112
0.286564 0.294194 0.145022
0.419226 0.314305 0.111604
0.544030 0.300725 0.100282
0.675441 0.299992 0.095644
0.134218 0.355596 0.184024
0.151247 0.360876 0.188632
0.200656 0.362341 0.198367
0.254307 0.357855 0.207767
0.307225 0.363775 0.213474
0.393866 0.396368 0.192630
0.542321 0.435431 0.158846
0.679500 0.450996 0.152621
0.174533 0.476112 0.252293
0.191287 0.477699 0.255283
0.242222 0.476570 0.263096
0.312932 0.475044 0.277531
0.369604 0.462776 0.290990
0.429084 0.480690 0.287419
0.523400 0.510552 0.266850
0.664881 0.553796 0.248325
0.257603 0.600855 0.355718
0.273350 0.600366 0.357702
0.325200 0.599695 0.366949
0.407935 0.599390 0.388952
0.457771 0.586786 0.388647
0.524712 0.579980 0.421057
0.588190 0.605982 0.414740
0.673213 0.629419 0.401648
0.061891 0.068208 0.066224
0.085298 0.074495 0.066957
0.126467 0.082979 0.068940
0.192264 0.084504 0.071290
0.276219 0.070924 0.070314
0.377752 0.000000 0.066957
0.499336 0.000000 0.058717
0.636835 0.000000 0.061250
0.068727 0.088380 0.072114
0.087770 0.092256 0.072938
0.129702 0.095064 0.073335
0.194491 0.094362 0.073243
0.277745 0.083680 0.072206
0.375708 0.032624 0.068971
0.493599 0.000000 0.059663
0.630579 0.000000 0.060395
0.080903 0.125002 0.085328
0.097597 0.127474 0.089174
0.130312 0.136141 0.090486
0.205295 0.134005 0.082063
0.288609 0.122194 0.079835
0.386603 0.104280 0.076753
0.507042 0.062776 0.068605
0.644190 0.001801 0.058656
0.094789 0.181643 0.110079
0.109834 0.183291 0.112886
0.146395 0.183780 0.120821
0.198215 0.204746 0.116213
0.304997 0.210330 0.097719
0.404242 0.179843 0.090150
0.520562 0.167483 0.083711
0.651881 0.181125 0.073732
0.113466 0.261540 0.145418
0.127321 0.261631 0.146975
0.173770 0.263218 0.157137
0.215457 0.258854 0.166110
0.281163 0.287846 0.148989
0.410590 0.307378 0.119234
0.534203 0.294041 0.109529
0.666560 0.293248 0.104097
0.134859 0.353429 0.187625
0.149477 0.354284 0.189609
0.196994 0.356115 0.198306
0.252415 0.354223 0.208499
0.306188 0.360388 0.216922
0.392859 0.394781 0.197696
0.539422 0.432258 0.165072
0.673976 0.445289 0.158022
0.169833 0.469001 0.251347
0.184878 0.467903 0.252171
0.235172 0.468360 0.260166
0.311406 0.470039 0.278782
0.367590 0.460334 0.291203
0.425574 0.476387 0.288762
0.516686 0.504570 0.266484
0.657252 0.546960 0.246067
0.249210 0.596887 0.353704
0.265751 0.597314 0.356664
0.318639 0.597192 0.365759
0.402167 0.597467 0.387610
0.466072 0.593042 0.398474
0.528985 0.583276 0.426612
0.587396 0.604974 0.416907
0.669947 0.626703 0.401007
0.066377 0.075563 0.093111
0.082643 0.079713 0.094575
0.134096 0.091127 0.098817
0.194064 0.104280 0.101503
0.285588 0.091402 0.099336
0.388006 0.066773 0.099580
0.509850 0.000000 0.093446
0.646265 0.000000 0.081331
0.075776 0.093935 0.099763
0.088838 0.096284 0.101259
0.136477 0.105715 0.103365
0.198215 0.111025 0.102815
0.285496 0.104799 0.102632
0.385748 0.084138 0.101289
0.506126 0.000000 0.095216
0.643610 0.000000 0.083497
0.080415 0.134829 0.115663
0.096284 0.137972 0.116274
0.142947 0.145693 0.117037
0.212039 0.144900 0.113893
0.298558 0.141695 0.112642
0.396155 0.128664 0.109529
0.513939 0.101106 0.103700
0.648005 0.078981 0.093690
0.088502 0.196872 0.134951
0.106386 0.198856 0.136233
0.160250 0.203372 0.144076
0.213962 0.217166 0.144625
0.316350 0.215366 0.130526
0.414618 0.194369 0.123720
0.529839 0.188327 0.118837
0.658320 0.198917 0.112093
0.106874 0.274022 0.165774
0.125277 0.275608 0.168093
0.178531 0.279240 0.176638
0.235080 0.276097 0.190036
0.298161 0.301274 0.177127
0.423865 0.314641 0.151003
0.542046 0.297490 0.142092
0.669734 0.303746 0.138369
0.131075 0.364721 0.206821
0.148928 0.366186 0.209506
0.200504 0.368109 0.217075
0.265507 0.367803 0.228458
0.318700 0.366186 0.238987
0.399817 0.398932 0.220279
0.544579 0.433448 0.189914
0.678340 0.446082 0.188540
0.167697 0.480415 0.271794
0.184848 0.479927 0.273014
0.236210 0.478859 0.278538
0.315404 0.478584 0.294713
0.376776 0.469795 0.305821
0.435004 0.481147 0.309087
0.526513 0.511559 0.289860
0.668208 0.553948 0.272557
0.240391 0.602228 0.368597
0.254673 0.601282 0.369055
0.308415 0.600244 0.376013
0.396490 0.602136 0.397253
0.471901 0.598016 0.412177
0.535271 0.588830 0.437598
0.592584 0.607660 0.432990
0.675227 0.630518 0.418311
0.064027 0.083558 0.135866
0.079927 0.087007 0.138338
0.131807 0.096132 0.143374
0.213809 0.107424 0.148196
0.289708 0.123812 0.148165
0.384863 0.106661 0.142550
0.506004 0.043275 0.138857
0.641932 0.000000 0.130983
0.074769 0.101442 0.145052
0.085786 0.101564 0.146456
0.136629 0.109712 0.149630
0.216617 0.121675 0.152468
0.290593 0.137575 0.152377
0.386969 0.118685 0.145235
0.505516 0.078157 0.141238
0.641749 0.000000 0.132265
0.079347 0.140200 0.160037
0.094514 0.143069 0.161318
0.142489 0.148867 0.163699
0.224033 0.165225 0.166018
0.300298 0.170596 0.162478
0.403113 0.160739 0.158755
0.524285 0.141085 0.153902
0.654108 0.112490 0.142947
0.082918 0.208164 0.185916
0.100801 0.211185 0.186465
0.155184 0.220676 0.187747
0.234501 0.232059 0.187930
0.321294 0.224826 0.179599
0.416754 0.219059 0.173922
0.531731 0.211337 0.167208
0.661219 0.213443 0.159457
0.093782 0.293828 0.211521
0.113558 0.295567 0.211612
0.171298 0.301884 0.213321
0.258640 0.305547 0.225345
0.320989 0.318456 0.221103
0.437537 0.319707 0.201175
0.553460 0.300999 0.189456
0.674006 0.315373 0.185794
0.114900 0.388434 0.247623
0.137514 0.392920 0.251286
0.197574 0.393317 0.254520
0.281437 0.394598 0.265782
0.349004 0.385962 0.281498
0.420539 0.414313 0.262394
0.560510 0.440040 0.234562
0.685389 0.442969 0.231968
0.153170 0.495949 0.306523
0.173037 0.497017 0.308324
0.231388 0.498634 0.313420
0.315007 0.499336 0.324163
0.396796 0.494911 0.337713
0.456031 0.493843 0.347662
0.539849 0.520745 0.325505
0.678370 0.557458 0.306096
0.232639 0.614893 0.402533
0.248966 0.615106 0.403754
0.298253 0.613947 0.406104
0.380194 0.611902 0.415534
0.483680 0.607477 0.441016
0.544274 0.598901 0.455726
0.599878 0.611322 0.458381
0.681605 0.635035 0.443549
0.038300 0.093721 0.196811
0.068482 0.096071 0.198856
0.125460 0.103761 0.203037
0.211429 0.114199 0.209934
0.320684 0.126986 0.214633
0.405310 0.146456 0.210361
0.499336 0.163943 0.214542
0.642817 0.092622 0.202731
0.050568 0.107027 0.204532
0.074372 0.109377 0.206363
0.130373 0.116609 0.209506
0.215549 0.127626 0.214694
0.322057 0.141848 0.217929
0.405859 0.160616 0.213901
0.502983 0.168551 0.214969
0.644648 0.109712 0.204013
0.073060 0.150515 0.220218
0.091310 0.152834 0.221622
0.138003 0.155093 0.224674
0.224826 0.169345 0.227817
0.325780 0.186435 0.228733
0.403815 0.201541 0.223606
0.512261 0.185306 0.215244
0.647303 0.155123 0.206973
0.075441 0.211887 0.243107
0.095583 0.214481 0.243778
0.151308 0.223636 0.246128
0.233677 0.234592 0.248966
0.333837 0.254520 0.248447
0.414801 0.254215 0.239261
0.531029 0.238499 0.228733
0.658656 0.218692 0.213474
0.078340 0.300816 0.274083
0.102510 0.303716 0.274601
0.164218 0.311772 0.275273
0.249210 0.324102 0.276097
0.342535 0.333165 0.273381
0.440192 0.319280 0.257877
0.549493 0.311925 0.246128
0.671656 0.313268 0.235386
0.094606 0.395697 0.302770
0.118044 0.397620 0.303075
0.179080 0.402380 0.302953
0.262608 0.410224 0.304601
0.363470 0.408728 0.314458
0.436103 0.424475 0.309758
0.570123 0.434882 0.288304
0.691707 0.425055 0.277043
0.117464 0.513512 0.359503
0.140841 0.514092 0.359411
0.208103 0.514061 0.359564
0.295903 0.514763 0.362310
0.396490 0.512779 0.371710
0.474250 0.500816 0.390234
0.549981 0.527062 0.366003
0.687160 0.554528 0.342351
0.202365 0.623255 0.441901
0.219883 0.622797 0.441779
0.272953 0.621698 0.441779
0.355627 0.623682 0.448005
0.452857 0.618921 0.455360
0.547509 0.611566 0.475868
0.605097 0.612696 0.487434
0.684291 0.636439 0.469429
0.000000 0.106477 0.280339
0.000000 0.108675 0.281743
0.112001 0.115633 0.285069
0.208927 0.125795 0.291905
0.325109 0.134859 0.297765
0.444556 0.154421 0.298619
0.544152 0.184665 0.299626
0.648341 0.224643 0.313024
0.000000 0.117983 0.283360
0.006683 0.120180 0.284092
0.116152 0.126864 0.287724
0.210056 0.137331 0.292882
0.324651 0.148043 0.298528
0.443061 0.168368 0.299779
0.542290 0.196841 0.300877
0.646601 0.233707 0.313725
0.020508 0.164828 0.302373
0.067872 0.165347 0.302556
0.125154 0.164828 0.304509
0.219974 0.177493 0.307958
0.333654 0.192172 0.311223
0.448157 0.215305 0.311131
0.543420 0.238285 0.310552
0.646143 0.266484 0.320043
0.023285 0.226810 0.324132
0.073793 0.228641 0.323919
0.143435 0.235599 0.326085
0.229953 0.242924 0.331945
0.349310 0.263340 0.335149
0.461128 0.287266 0.334142
0.548547 0.300389 0.328618
0.657588 0.294804 0.320714
0.032074 0.309819 0.348394
0.081147 0.312261 0.348882
0.152560 0.320195 0.350683
0.239963 0.331609 0.353002
0.344549 0.338598 0.353674
0.459846 0.359594 0.351019
0.547662 0.354833 0.337163
0.672450 0.335851 0.319524
0.055482 0.410254 0.380194
0.094148 0.413489 0.381628
0.168460 0.419867 0.382635
0.257389 0.429297 0.383825
0.357946 0.439246 0.383856
0.469032 0.448646 0.382147
0.579400 0.432074 0.361059
0.692256 0.427008 0.344762
0.101167 0.524712 0.431586
0.129824 0.526848 0.432685
0.198703 0.530419 0.433082
0.284520 0.536645 0.433814
0.383612 0.542901 0.433783
0.500328 0.536034 0.441108
0.572412 0.542992 0.429267
0.702937 0.552422 0.406744
0.177584 0.635157 0.502098
0.195682 0.635279 0.501762
0.249546 0.636530 0.501122
0.330053 0.638972 0.501579
0.428809 0.635950 0.500572
0.539269 0.629206 0.508537
0.619440 0.617670 0.531090
0.692897 0.642481 0.509850
0.000000 0.121981 0.387060
0.000000 0.124331 0.389471
0.068513 0.130648 0.392096
0.202029 0.139376 0.396887
0.332830 0.148013 0.401251
0.464057 0.160403 0.405554
0.576623 0.201602 0.403143
0.678523 0.259220 0.415717
0.000000 0.132021 0.386358
0.000000 0.134218 0.388373
0.073365 0.140139 0.390967
0.201511 0.149142 0.394354
0.329259 0.158846 0.398199
0.457984 0.171145 0.401465
0.569390 0.208957 0.398413
0.671565 0.260899 0.410285
0.000000 0.178286 0.402838
0.000000 0.174990 0.403449
0.080934 0.175662 0.404334
0.207889 0.186496 0.406653
0.334447 0.199191 0.408392
0.462928 0.215946 0.411444
0.575525 0.253361 0.410163
0.676570 0.298955 0.421637
0.000000 0.243381 0.424292
0.000000 0.243656 0.423499
0.106508 0.245609 0.423377
0.209049 0.245975 0.426429
0.340063 0.262577 0.427649
0.472633 0.284184 0.430762
0.585107 0.319249 0.429725
0.679774 0.350561 0.434607
0.000000 0.327001 0.442939
0.000000 0.327459 0.442084
0.106233 0.330358 0.441352
0.208988 0.333745 0.442420
0.324498 0.333257 0.443641
0.468574 0.356146 0.444953
0.584985 0.386816 0.444038
0.677333 0.406989 0.444831
0.000000 0.428779 0.470314
0.000000 0.430182 0.470527
0.126192 0.434516 0.471351
0.228367 0.440986 0.473121
0.334936 0.445899 0.474189
0.465339 0.450172 0.476265
0.594141 0.475410 0.474525
0.678248 0.473060 0.461158
0.000000 0.534539 0.506676
0.079042 0.536309 0.507836
0.169955 0.539849 0.508782
0.263371 0.545708 0.510826
0.366949 0.551232 0.511498
0.485451 0.558129 0.512749
0.601801 0.563317 0.510857
0.707881 0.543694 0.484260
0.146853 0.638849 0.565332
0.169375 0.639033 0.565087
0.237308 0.641871 0.567041
0.318853 0.645716 0.568780
0.415106 0.649592 0.569543
0.522393 0.654170 0.571069
0.634760 0.646296 0.576593
0.707240 0.653162 0.566644
0.000000 0.143648 0.518059
0.000000 0.145632 0.519280
0.000000 0.150607 0.519371
0.197665 0.157961 0.522393
0.348089 0.165377 0.525444
0.491676 0.181399 0.528405
0.615656 0.218997 0.533288
0.702510 0.292760 0.523735
0.000000 0.152499 0.517540
0.000000 0.154482 0.518822
0.000000 0.159670 0.519371
0.195926 0.167269 0.521477
0.345525 0.175784 0.524468
0.489052 0.192020 0.527276
0.612512 0.227268 0.531487
0.700282 0.298405 0.522423
0.000000 0.188785 0.523796
0.000000 0.184970 0.524498
0.000000 0.189792 0.523735
0.193271 0.200839 0.528618
0.343786 0.212131 0.530236
0.487404 0.230381 0.531243
0.611200 0.263493 0.535363
0.701045 0.328466 0.527886
0.000000 0.253696 0.535668
0.000000 0.254948 0.536584
0.000000 0.256931 0.536645
0.171420 0.252171 0.539422
0.334478 0.267674 0.541222
0.484230 0.288640 0.542596
0.612207 0.320897 0.546288
0.705592 0.378820 0.540734
0.000000 0.345464 0.551476
0.000000 0.345892 0.552422
0.000000 0.342840 0.551659
0.133913 0.333013 0.551354
0.297887 0.331365 0.552758
0.466224 0.353735 0.553948
0.608209 0.387762 0.558618
0.711971 0.443061 0.559655
0.000000 0.451728 0.572412
0.000000 0.450965 0.571649
0.000000 0.449409 0.570214
0.147219 0.446235 0.569512
0.276890 0.439765 0.569665
0.436408 0.437995 0.574548
0.608606 0.476417 0.583154
0.718746 0.514733 0.583673
0.000000 0.558251 0.601434
0.000000 0.558190 0.601129
0.065156 0.558343 0.600671
0.207645 0.559838 0.601740
0.325261 0.561364 0.603601
0.453468 0.562951 0.607172
0.594354 0.563287 0.609186
0.723262 0.586450 0.610010
0.123781 0.651209 0.640528
0.146365 0.651240 0.640314
0.209171 0.652216 0.640742
0.294438 0.655024 0.642878
0.393500 0.658259 0.645563
0.503380 0.662074 0.648585
0.618708 0.667842 0.652522
0.734005 0.673945 0.653895
