data/fiter_cube/72007313/1022720/file.cube
# Created by Adobe Lightroom plugin Export LUT (1.17.0)
# www.johnrellis.com/lightroom/exportlut.htm
# Preset: 高级电影暗青色_09 云集
# Color profile: C:\Program Files (x86)\Common Files\Adobe\Color\Profiles\Recommended\AdobeRGB1998.icc
LUT_3D_SIZE 5
DOMAIN_MIN 0.000000 0.000000 0.000000
DOMAIN_MAX 0.903226 0.903226 0.903226
0.059998 0.065187 0.045930
0.115145 0.073304 0.056855
0.234806 0.066590 0.062104
0.422004 0.000000 0.060304
0.649622 0.000000 0.062684
0.076997 0.110719 0.073152
0.113466 0.120089 0.075807
0.243748 0.108217 0.066804
0.427008 0.060517 0.059968
0.660700 0.000000 0.061982
0.101442 0.216007 0.119722
0.144625 0.218997 0.128115
0.243839 0.251835 0.127291
0.451606 0.245121 0.091432
0.670375 0.243259 0.077913
0.143099 0.387274 0.200381
0.194156 0.390143 0.209323
0.296971 0.381933 0.232853
0.424781 0.424872 0.208042
0.678920 0.481300 0.168887
0.257603 0.600855 0.355718
0.308873 0.599786 0.363592
0.432593 0.589624 0.386450
0.538262 0.585779 0.421302
0.673213 0.629419 0.401648
0.065370 0.073030 0.084596
0.118654 0.086885 0.088991
0.235630 0.091981 0.089937
0.409308 0.013397 0.088106
0.639673 0.000000 0.068299
0.078218 0.120912 0.102388
0.125978 0.129580 0.103548
0.247105 0.128115 0.100465
0.416999 0.100130 0.095674
0.645563 0.000000 0.078645
0.099641 0.228367 0.141024
0.152407 0.232303 0.148959
0.247745 0.252201 0.150332
0.443641 0.241184 0.122957
0.665461 0.250095 0.114626
0.143496 0.396124 0.219150
0.197299 0.399512 0.227604
0.309056 0.393652 0.249668
0.431250 0.428473 0.230106
0.679194 0.479377 0.196506
0.248325 0.604761 0.368566
0.301244 0.603632 0.375097
0.448127 0.600366 0.410437
0.548760 0.590509 0.440314
0.678309 0.633082 0.418585
0.058503 0.088197 0.164675
0.112703 0.096986 0.170108
0.264866 0.116670 0.179751
0.409064 0.144381 0.178836
0.643214 0.000000 0.163546
0.076814 0.133669 0.184421
0.122438 0.136721 0.187503
0.272282 0.162417 0.192599
0.421180 0.164034 0.181918
0.649409 0.108461 0.169467
0.081147 0.252140 0.227909
0.142061 0.260746 0.228672
0.286473 0.281041 0.228550
0.453986 0.266361 0.211215
0.666560 0.264988 0.196170
0.106752 0.424598 0.287083
0.175296 0.424842 0.287297
0.330419 0.427955 0.302922
0.456641 0.445808 0.298283
0.685359 0.468177 0.266911
0.217105 0.616876 0.418097
0.271305 0.617517 0.421271
0.414435 0.614740 0.433692
0.560113 0.600549 0.470192
0.680507 0.633814 0.452705
0.000000 0.109438 0.301427
0.080842 0.116396 0.305943
0.264012 0.133059 0.316503
0.475257 0.162661 0.321233
0.654536 0.231205 0.335760
0.000000 0.153658 0.317327
0.092622 0.152499 0.319677
0.270756 0.173281 0.326574
0.475898 0.208042 0.328771
0.650660 0.260533 0.338994
0.000000 0.265354 0.352667
0.119051 0.272007 0.353887
0.276310 0.283116 0.356970
0.480537 0.319921 0.354162
0.654017 0.332372 0.347295
0.038025 0.443610 0.413245
0.147189 0.447303 0.412299
0.306828 0.462257 0.414252
0.501884 0.477760 0.412299
0.693660 0.452949 0.373938
0.173739 0.636072 0.517632
0.231968 0.637995 0.518090
0.374456 0.644160 0.519432
0.564569 0.634058 0.526177
0.694942 0.643915 0.521263
0.000000 0.143648 0.518059
0.000000 0.149172 0.519127
0.273960 0.161654 0.524132
0.524285 0.188357 0.529717
0.702510 0.292760 0.523735
0.000000 0.173648 0.523125
0.000000 0.179477 0.524010
0.271427 0.195590 0.528008
0.520745 0.225528 0.531304
0.701808 0.320592 0.527245
0.000000 0.296391 0.542992
0.000000 0.292302 0.542229
0.234928 0.288243 0.543999
0.510124 0.323949 0.545190
0.707790 0.408362 0.548516
0.000000 0.482094 0.581598
0.000000 0.480995 0.580255
0.227390 0.477089 0.579370
0.475166 0.469123 0.581933
0.719478 0.531884 0.589288
0.123781 0.651209 0.640528
0.190646 0.651820 0.640467
0.342443 0.656641 0.644282
0.531731 0.663294 0.649500
0.734005 0.673945 0.653895
