data/fiter_cube/44540723/1023231/file.cube
# Created by Adobe Lightroom plugin Export LUT (1.17.0)
# www.johnrellis.com/lightroom/exportlut.htm
# Preset: 奶油色调低饱和（弱光环境）_02 云集
# Color profile: C:\Program Files (x86)\Common Files\Adobe\Color\Profiles\Recommended\AdobeRGB1998.icc
LUT_3D_SIZE 8
DOMAIN_MIN 0.000000 0.000000 0.000000
DOMAIN_MAX 0.903226 0.903226 0.903226
0.077333 0.069734 0.068421
0.142580 0.088624 0.087251
0.306310 0.121767 0.130037
0.559167 0.173404 0.199985
0.757137 0.299870 0.290593
0.876219 0.458595 0.419318
0.931548 0.588434 0.550500
0.958984 0.686366 0.657435
0.095979 0.144289 0.086885
0.132692 0.132570 0.107790
0.317693 0.172946 0.115755
0.554559 0.221836 0.187900
0.749599 0.327276 0.277379
0.868894 0.462501 0.400610
0.927306 0.580987 0.529747
0.957671 0.681270 0.645106
0.123110 0.323949 0.132753
0.160281 0.314702 0.151186
0.261936 0.281132 0.209232
0.553552 0.377691 0.209445
0.779843 0.461189 0.264439
0.881315 0.539391 0.398932
0.935760 0.631006 0.542535
0.961883 0.708125 0.653834
0.190585 0.542626 0.209293
0.227298 0.533684 0.221317
0.323064 0.513481 0.264195
0.506188 0.497841 0.359380
0.730739 0.586542 0.416022
0.900298 0.655940 0.399542
0.940917 0.686458 0.529473
0.964477 0.732906 0.639979
0.343969 0.718898 0.316258
0.370947 0.714290 0.325170
0.451850 0.701839 0.359503
0.569238 0.683894 0.422919
0.680293 0.648676 0.499336
0.786313 0.680964 0.566827
0.915801 0.743130 0.574182
0.967803 0.769924 0.617609
0.496895 0.809323 0.437751
0.523247 0.811551 0.454108
0.570489 0.803220 0.476509
0.635889 0.790555 0.515892
0.722774 0.769528 0.567620
0.790188 0.749111 0.628962
0.841825 0.764736 0.700679
0.933623 0.815518 0.717647
0.637171 0.865293 0.568048
0.648005 0.864500 0.574853
0.672511 0.858762 0.586908
0.712825 0.850736 0.612085
0.755184 0.840330 0.643641
0.819028 0.826719 0.686061
0.859739 0.816495 0.730373
0.881468 0.821073 0.788083
0.746365 0.901152 0.679561
0.750484 0.900267 0.681880
0.765805 0.897673 0.691676
0.792264 0.894255 0.711452
0.810849 0.885374 0.721187
0.845274 0.880522 0.751492
0.887541 0.874693 0.785611
0.911650 0.870024 0.814969
0.088228 0.090852 0.143832
0.137514 0.098360 0.146731
0.290074 0.145815 0.197513
0.521080 0.237186 0.287510
0.728328 0.332586 0.359899
0.852720 0.467048 0.459632
0.916564 0.586755 0.565911
0.951019 0.683101 0.662287
0.072480 0.165072 0.161105
0.153353 0.164157 0.174746
0.299046 0.209689 0.220645
0.532189 0.264164 0.278874
0.730190 0.355444 0.350683
0.851041 0.475807 0.449073
0.913695 0.582452 0.550500
0.949462 0.677211 0.649836
0.104250 0.329046 0.152651
0.186069 0.332006 0.211612
0.287175 0.306554 0.261082
0.573083 0.395575 0.260807
0.758541 0.460426 0.335943
0.861662 0.536584 0.440162
0.920134 0.619959 0.550591
0.953582 0.700221 0.653895
0.170108 0.536553 0.222232
0.252354 0.535210 0.269871
0.350286 0.521141 0.308202
0.496803 0.489967 0.379095
0.709865 0.568811 0.416419
0.876524 0.634668 0.419928
0.926024 0.671534 0.533501
0.956725 0.724636 0.639979
0.340124 0.717647 0.335393
0.388159 0.711879 0.361944
0.462226 0.697047 0.389044
0.559564 0.674342 0.437598
0.666407 0.636652 0.502251
0.779446 0.674525 0.564569
0.911070 0.738003 0.575647
0.962066 0.766506 0.627039
0.494118 0.803922 0.448829
0.517052 0.801480 0.462226
0.564355 0.793637 0.483009
0.631922 0.782712 0.522179
0.717952 0.764920 0.574090
0.788357 0.747646 0.635767
0.841489 0.764614 0.701900
0.931945 0.813199 0.716548
0.630457 0.859556 0.568505
0.636286 0.857328 0.570031
0.663447 0.852354 0.583764
0.707973 0.845823 0.612085
0.753475 0.836942 0.646052
0.815000 0.823331 0.685725
0.854673 0.811582 0.726314
0.877562 0.816281 0.781765
0.742824 0.898680 0.679042
0.748226 0.898161 0.682673
0.764248 0.895781 0.692927
0.791257 0.892607 0.712856
0.819455 0.887755 0.734798
0.848203 0.881834 0.758785
0.887083 0.874235 0.787137
0.910124 0.868498 0.813993
0.064515 0.134615 0.310307
0.144808 0.150576 0.311772
0.290715 0.182742 0.328893
0.544823 0.177157 0.388891
0.727352 0.336248 0.461646
0.841794 0.526116 0.572839
0.901488 0.652430 0.665980
0.940887 0.723995 0.726436
0.106722 0.201999 0.328374
0.163668 0.207248 0.333196
0.304814 0.238041 0.341253
0.540887 0.249760 0.394934
0.724544 0.387182 0.473243
0.833433 0.554101 0.583642
0.900023 0.648707 0.656580
0.940429 0.721950 0.720577
0.000000 0.372656 0.355444
0.131685 0.372930 0.363256
0.343236 0.366613 0.384680
0.553979 0.427466 0.439643
0.742489 0.512963 0.513725
0.844450 0.593225 0.582910
0.904845 0.666621 0.650813
0.942718 0.730617 0.715084
0.073915 0.567132 0.287022
0.186557 0.569512 0.315770
0.408179 0.571466 0.413123
0.561822 0.546441 0.487709
0.764340 0.621820 0.517967
0.862150 0.660334 0.572564
0.913512 0.704677 0.643397
0.947326 0.751095 0.708492
0.261753 0.730159 0.352178
0.327733 0.728054 0.380316
0.512627 0.715999 0.483955
0.611139 0.698848 0.533684
0.702174 0.669612 0.583154
0.808164 0.708248 0.623987
0.915618 0.755734 0.636378
0.952667 0.781338 0.695430
0.443671 0.812436 0.447364
0.490455 0.808957 0.476814
0.606317 0.796963 0.557183
0.665736 0.785275 0.586328
0.729732 0.770352 0.622797
0.794461 0.754238 0.669886
0.851987 0.776791 0.722347
0.935058 0.821530 0.740719
0.615106 0.865141 0.574609
0.637201 0.861967 0.591180
0.694362 0.853239 0.635065
0.729793 0.846036 0.653346
0.768887 0.837461 0.678645
0.821256 0.826780 0.712245
0.861051 0.818540 0.749966
0.888670 0.828611 0.798459
0.736934 0.900725 0.683375
0.747189 0.898772 0.691890
0.774563 0.894560 0.714321
0.801816 0.892454 0.734035
0.827207 0.887785 0.751949
0.852903 0.883146 0.773739
0.890043 0.876493 0.799680
0.912932 0.871794 0.824918
0.000000 0.198367 0.491310
0.155489 0.214054 0.496742
0.344396 0.260319 0.502495
0.518822 0.282383 0.525048
0.723507 0.298344 0.579004
0.839933 0.462806 0.620508
0.897063 0.619776 0.685176
0.933165 0.723873 0.751797
0.103548 0.257603 0.510826
0.182376 0.264683 0.512963
0.361334 0.301976 0.515801
0.529931 0.328985 0.533867
0.727779 0.347326 0.585412
0.836149 0.493446 0.624628
0.893858 0.632807 0.688167
0.931518 0.730282 0.754177
0.090822 0.378332 0.513878
0.184054 0.380865 0.518303
0.370214 0.399176 0.540459
0.562280 0.454231 0.559014
0.740505 0.475654 0.604822
0.835447 0.598596 0.657160
0.894316 0.697475 0.721920
0.930175 0.765682 0.776822
0.000000 0.602136 0.557427
0.109438 0.601862 0.561822
0.370123 0.597101 0.576776
0.601129 0.589014 0.601892
0.741756 0.635523 0.642023
0.831418 0.686885 0.686763
0.893309 0.733577 0.729122
0.934691 0.776150 0.770260
0.192416 0.751400 0.461402
0.272038 0.747341 0.475593
0.457313 0.736568 0.528008
0.647272 0.724147 0.616999
0.739406 0.704738 0.667903
0.842527 0.745480 0.693355
0.906615 0.773220 0.725185
0.941497 0.798672 0.763821
0.414282 0.825376 0.503868
0.465370 0.825498 0.526970
0.574060 0.814084 0.578088
0.704128 0.799588 0.659785
0.763943 0.787686 0.695613
0.813321 0.773220 0.724178
0.872374 0.799161 0.757290
0.940948 0.832273 0.771511
0.576623 0.872557 0.581231
0.601221 0.870512 0.596033
0.669306 0.863554 0.639612
0.761013 0.852476 0.709377
0.798245 0.844785 0.731136
0.834348 0.836210 0.752956
0.868833 0.827115 0.779019
0.900481 0.840879 0.814603
0.714229 0.907439 0.680964
0.727932 0.905882 0.691402
0.766110 0.900633 0.721157
0.816190 0.893767 0.763729
0.838926 0.889372 0.777432
0.862394 0.885100 0.794919
0.893706 0.879850 0.816587
0.916289 0.875853 0.839170
0.156710 0.279820 0.651270
0.234836 0.291264 0.653285
0.401801 0.326787 0.654597
0.571954 0.401007 0.658167
0.704067 0.431708 0.685023
0.823056 0.466499 0.709529
0.898528 0.570214 0.728908
0.935668 0.698207 0.771481
0.188846 0.322393 0.656916
0.258183 0.332769 0.659876
0.415320 0.363500 0.660975
0.579400 0.429572 0.663233
0.706874 0.462928 0.687343
0.823209 0.493782 0.711818
0.897002 0.590661 0.732113
0.934508 0.707271 0.773953
0.260746 0.443091 0.660365
0.322301 0.452155 0.665034
0.427192 0.450752 0.671290
0.600732 0.509422 0.679622
0.714656 0.546807 0.693111
0.819852 0.562860 0.714809
0.890776 0.644038 0.739284
0.930236 0.732052 0.779843
0.206424 0.577417 0.669368
0.270146 0.575982 0.670466
0.425666 0.573510 0.675868
0.612268 0.600305 0.697017
0.735378 0.648951 0.708705
0.825132 0.654932 0.729030
0.886503 0.717189 0.758206
0.927062 0.773892 0.796353
0.202762 0.747890 0.695583
0.276249 0.745663 0.697322
0.438422 0.736080 0.701656
0.610620 0.722530 0.710689
0.743313 0.714290 0.723262
0.826749 0.743191 0.748592
0.885191 0.778683 0.780819
0.928283 0.808438 0.809018
0.352728 0.820798 0.600702
0.395636 0.819455 0.605921
0.509422 0.813870 0.622400
0.648890 0.802792 0.666651
0.760433 0.791470 0.722042
0.823178 0.783658 0.761746
0.892546 0.816709 0.787625
0.939269 0.837430 0.808469
0.535912 0.877867 0.615961
0.559747 0.875242 0.624994
0.630793 0.867613 0.655665
0.719142 0.858274 0.701717
0.802029 0.848814 0.756985
0.841520 0.841459 0.783047
0.873625 0.832639 0.802731
0.912200 0.851041 0.827817
0.679774 0.910491 0.684016
0.691798 0.908904 0.690700
0.728817 0.904173 0.712367
0.785672 0.899687 0.751156
0.844755 0.891600 0.798734
0.869413 0.886931 0.814542
0.895018 0.882444 0.831937
0.917876 0.878050 0.851255
0.336217 0.387152 0.765743
0.378332 0.396155 0.765530
0.486824 0.424292 0.762783
0.623407 0.489021 0.766232
0.735286 0.573632 0.767361
0.805020 0.575494 0.778225
0.881529 0.606226 0.795682
0.936217 0.673274 0.810788
0.343969 0.412238 0.761624
0.382391 0.419043 0.761166
0.489693 0.446082 0.760708
0.623011 0.503929 0.763973
0.733547 0.582116 0.765225
0.803281 0.587762 0.776333
0.880034 0.616297 0.794980
0.935302 0.678950 0.810422
0.419776 0.516655 0.767514
0.435401 0.512688 0.767971
0.516411 0.522789 0.769100
0.640070 0.566125 0.770047
0.743343 0.625849 0.770809
0.807645 0.638575 0.779782
0.879973 0.657679 0.798642
0.934234 0.705409 0.813565
0.395483 0.598291 0.763333
0.432441 0.600763 0.763821
0.546105 0.618067 0.769039
0.655177 0.638911 0.778317
0.759640 0.684443 0.783078
0.820188 0.707088 0.790585
0.883513 0.715114 0.807767
0.931792 0.753750 0.822751
0.381048 0.710719 0.766995
0.414588 0.709255 0.767361
0.510643 0.704707 0.768307
0.629175 0.701015 0.770443
0.748196 0.719814 0.783719
0.825254 0.754452 0.793606
0.883726 0.757504 0.809201
0.927092 0.796292 0.829648
0.398718 0.825986 0.778622
0.435065 0.825010 0.780636
0.528710 0.817350 0.782437
0.640864 0.806119 0.785672
0.740536 0.795224 0.790463
0.828275 0.792874 0.801999
0.887449 0.818112 0.825498
0.928038 0.843137 0.849516
0.523583 0.874540 0.717128
0.548577 0.873716 0.721157
0.614221 0.869627 0.731014
0.697658 0.865171 0.746639
0.778653 0.859495 0.771908
0.847379 0.851926 0.809781
0.884489 0.844541 0.834195
0.930571 0.867369 0.852659
0.646876 0.917113 0.710140
0.659785 0.915526 0.715053
0.700740 0.910643 0.731899
0.758968 0.904570 0.759976
0.816342 0.898039 0.792081
0.872343 0.891508 0.833066
0.899107 0.887694 0.852811
0.922087 0.883116 0.868864
0.506279 0.512688 0.838193
0.527153 0.518791 0.837613
0.592859 0.542626 0.836332
0.679774 0.583703 0.834409
0.760067 0.634119 0.831174
0.822873 0.689784 0.829068
0.864714 0.678218 0.837858
0.920134 0.704341 0.855344
0.520409 0.535393 0.839231
0.539879 0.540612 0.838621
0.601862 0.561425 0.837247
0.684291 0.597650 0.834928
0.763516 0.645563 0.832456
0.825864 0.699489 0.831052
0.866514 0.689662 0.839628
0.920989 0.713924 0.857267
0.543938 0.587152 0.837583
0.556054 0.587396 0.837613
0.614374 0.604028 0.836667
0.692470 0.632929 0.835080
0.768978 0.672938 0.833768
0.829465 0.719020 0.833280
0.867674 0.714290 0.840482
0.920409 0.731899 0.857877
0.572534 0.657404 0.833555
0.592157 0.661158 0.833646
0.640131 0.668116 0.834958
0.695918 0.675166 0.835477
0.772641 0.706630 0.835477
0.833219 0.743954 0.836362
0.870176 0.747677 0.842496
0.920806 0.758999 0.859831
0.525292 0.712490 0.830869
0.543755 0.712428 0.830838
0.600610 0.712520 0.830747
0.694820 0.726467 0.834287
0.768734 0.740078 0.838987
0.836912 0.771450 0.842130
0.876585 0.785946 0.848417
0.923217 0.792294 0.864103
0.538872 0.801114 0.837369
0.555871 0.799863 0.837308
0.607416 0.795865 0.837217
0.676051 0.789456 0.836942
0.747890 0.782589 0.836698
0.829557 0.795529 0.845640
0.883665 0.821958 0.854765
0.926909 0.826139 0.868711
0.559564 0.880766 0.844205
0.574578 0.879393 0.844450
0.622431 0.875212 0.845975
0.687984 0.867735 0.847166
0.759640 0.859342 0.849607
0.827359 0.852110 0.853941
0.887022 0.850340 0.862150
0.929534 0.871244 0.882475
0.641871 0.911070 0.796262
0.653590 0.910338 0.797818
0.687312 0.907744 0.801724
0.738979 0.904753 0.809812
0.797604 0.902556 0.821683
0.854185 0.899779 0.841489
0.902831 0.895262 0.871733
0.929137 0.891356 0.891234
0.692958 0.672480 0.897887
0.701411 0.675349 0.897337
0.730129 0.687068 0.895995
0.771389 0.705653 0.893492
0.816587 0.730526 0.890501
0.857694 0.759152 0.887633
0.888701 0.781399 0.886595
0.914733 0.772824 0.892729
0.698085 0.681758 0.898039
0.706172 0.684413 0.897490
0.733639 0.694881 0.896178
0.774105 0.712581 0.893889
0.818418 0.736080 0.891081
0.858915 0.763455 0.888304
0.889921 0.785977 0.887327
0.915435 0.777554 0.893492
0.706600 0.704555 0.897826
0.714351 0.706905 0.897429
0.740749 0.715938 0.896483
0.778317 0.729702 0.894133
0.821439 0.750301 0.891875
0.861387 0.774899 0.889708
0.892485 0.798062 0.888548
0.916564 0.789609 0.894591
0.729641 0.746090 0.896513
0.733211 0.745388 0.896391
0.746914 0.744076 0.896361
0.780301 0.752255 0.895109
0.823178 0.769009 0.893248
0.863340 0.790005 0.891630
0.895537 0.813321 0.890471
0.918181 0.806821 0.896208
0.708186 0.771664 0.895567
0.716884 0.772763 0.895415
0.746365 0.777737 0.895537
0.786313 0.785000 0.895995
0.819608 0.788663 0.895872
0.863737 0.807156 0.894957
0.898528 0.828367 0.894591
0.921172 0.828580 0.899229
0.692470 0.815915 0.896635
0.700160 0.815702 0.896635
0.724147 0.814481 0.896544
0.758724 0.811734 0.896056
0.811887 0.816678 0.896880
0.857755 0.824460 0.898344
0.899809 0.843961 0.898772
0.924926 0.852232 0.903044
0.696773 0.871733 0.900084
0.704189 0.871122 0.900175
0.727321 0.868956 0.900389
0.761685 0.865141 0.900450
0.802914 0.860288 0.900481
0.845853 0.854978 0.900237
0.897063 0.862089 0.904601
0.932036 0.879820 0.910582
0.709590 0.924254 0.901549
0.716518 0.923644 0.901884
0.737911 0.921508 0.902770
0.770565 0.917876 0.904051
0.810697 0.913512 0.906218
0.853544 0.909117 0.909331
0.897154 0.903929 0.912474
0.937957 0.902983 0.919127
