data/fiter_cube/44540723/1023231/file.cube
# Created by Adobe Lightroom plugin Export LUT (1.17.0)
# www.johnrellis.com/lightroom/exportlut.htm
# Preset: 奶油色调低饱和（弱光环境）_02 云集
# Color profile: C:\Program Files (x86)\Common Files\Adobe\Color\Profiles\Recommended\AdobeRGB1998.icc
LUT_3D_SIZE 5
DOMAIN_MIN 0.000000 0.000000 0.000000
DOMAIN_MAX 0.903226 0.903226 0.903226
0.077333 0.069734 0.068421
0.256565 0.113100 0.116823
0.671839 0.231052 0.243565
0.895567 0.496742 0.456092
0.958984 0.686366 0.657435
0.114595 0.275669 0.117037
0.223636 0.240482 0.180606
0.692317 0.381567 0.215518
0.898405 0.546868 0.442054
0.961883 0.706294 0.659266
0.259281 0.641688 0.257389
0.360296 0.625360 0.295109
0.610620 0.587213 0.436439
0.882597 0.691341 0.489540
0.965789 0.748714 0.627955
0.541009 0.828824 0.477211
0.586389 0.822934 0.500084
0.688808 0.803250 0.566308
0.811093 0.768948 0.657893
0.921721 0.820401 0.738430
0.746365 0.901152 0.679561
0.760708 0.898375 0.688136
0.795285 0.887907 0.708278
0.857603 0.878843 0.760250
0.911650 0.870024 0.814969
0.076295 0.120394 0.262272
0.241093 0.157656 0.278721
0.637964 0.266911 0.392248
0.856565 0.553094 0.575586
0.942535 0.707973 0.704463
0.000000 0.316136 0.305333
0.284123 0.311650 0.329686
0.649226 0.421088 0.427924
0.864317 0.582727 0.566430
0.945098 0.718837 0.700587
0.182071 0.654688 0.292210
0.416114 0.645228 0.406561
0.621271 0.597711 0.504601
0.879942 0.698543 0.551385
0.953368 0.761776 0.688563
0.525231 0.831785 0.496834
0.627466 0.822019 0.572015
0.714900 0.804074 0.619654
0.815793 0.774289 0.688136
0.924163 0.825681 0.753872
0.749020 0.901396 0.692683
0.773587 0.897429 0.712490
0.813535 0.890867 0.739132
0.863584 0.881895 0.778378
0.914305 0.873198 0.825681
0.077119 0.237949 0.578271
0.321538 0.277134 0.582940
0.619318 0.348333 0.610529
0.857877 0.473915 0.670283
0.934386 0.712306 0.759762
0.194705 0.383368 0.595026
0.345525 0.385962 0.604791
0.645899 0.471809 0.632410
0.850553 0.565576 0.682490
0.931456 0.741421 0.772274
0.000000 0.687556 0.636347
0.341558 0.678889 0.643336
0.682826 0.660212 0.670405
0.844083 0.729702 0.731441
0.931243 0.793668 0.791318
0.435035 0.842863 0.551263
0.542321 0.832059 0.590448
0.747921 0.811978 0.704280
0.833921 0.793393 0.756924
0.935149 0.839628 0.791836
0.693996 0.908232 0.677333
0.733944 0.904143 0.704341
0.830930 0.892210 0.781765
0.870359 0.884276 0.807462
0.915953 0.875700 0.843046
0.368780 0.409155 0.781735
0.476936 0.437659 0.781094
0.689265 0.544488 0.783871
0.820371 0.600610 0.793149
0.931273 0.677455 0.821775
0.413275 0.494209 0.783200
0.500908 0.510094 0.783871
0.696101 0.589044 0.784146
0.820279 0.640162 0.792447
0.929137 0.696864 0.821439
0.400153 0.644160 0.774502
0.491432 0.643275 0.774868
0.700221 0.678035 0.788815
0.831754 0.733913 0.801633
0.928283 0.762325 0.829191
0.447730 0.842893 0.798215
0.526848 0.835080 0.798367
0.696895 0.817258 0.803037
0.843748 0.807767 0.817288
0.926757 0.848417 0.855863
0.634577 0.918914 0.717952
0.680171 0.914275 0.734798
0.784298 0.903563 0.781765
0.880949 0.892729 0.843809
0.923033 0.884306 0.873167
0.692958 0.672480 0.897887
0.721431 0.683436 0.896452
0.794003 0.717403 0.892027
0.866728 0.766445 0.886931
0.914733 0.772824 0.892729
0.704005 0.697566 0.897704
0.730129 0.706233 0.896483
0.798764 0.734554 0.892760
0.869413 0.777981 0.888670
0.916014 0.785519 0.894041
0.725338 0.760281 0.896025
0.753170 0.766812 0.896025
0.800931 0.771359 0.895506
0.873716 0.804593 0.893370
0.919615 0.817411 0.897673
0.691524 0.829160 0.896910
0.715694 0.827726 0.896941
0.777798 0.822080 0.896208
0.867369 0.833616 0.899413
0.926543 0.859098 0.904753
0.709590 0.924254 0.901549
0.731289 0.922210 0.902525
0.789944 0.915740 0.904997
0.864378 0.907744 0.909941
0.937957 0.902983 0.919127
