data/fiter_cube/44540723/1023231/file.cube
# Created by Adobe Lightroom plugin Export LUT (1.17.0)
# www.johnrellis.com/lightroom/exportlut.htm
# Preset: 奶油色调低饱和（弱光环境）_02 云集
# Color profile: C:\Program Files (x86)\Common Files\Adobe\Color\Profiles\Recommended\AdobeRGB1998.icc
LUT_3D_SIZE 32
DOMAIN_MIN 0.0 0.0 0.0
DOMAIN_MAX 1.0 1.0 1.0
0.077333 0.069734 0.068421
0.085145 0.071717 0.070314
0.094545 0.074250 0.072999
0.113893 0.080934 0.079164
0.142580 0.088624 0.087251
0.176028 0.096529 0.095735
0.213809 0.104402 0.105226
0.256565 0.113100 0.116823
0.306310 0.121767 0.130037
0.363561 0.130373 0.145113
0.427527 0.140383 0.162173
0.494148 0.154055 0.180636
0.559167 0.173404 0.199985
0.618616 0.199680 0.221164
0.671839 0.231052 0.243565
0.718074 0.264958 0.266514
0.757137 0.299870 0.290593
0.790005 0.334874 0.315740
0.817899 0.369329 0.341955
0.850797 0.415778 0.380438
0.876219 0.458595 0.419318
0.895567 0.496742 0.456092
0.910369 0.530388 0.489906
0.922057 0.560815 0.521447
0.931548 0.588434 0.550500
0.939544 0.614466 0.578363
0.946654 0.639246 0.605310
0.953094 0.663142 0.631617
0.958984 0.686366 0.657435
0.964416 0.708827 0.682582
0.969360 0.730526 0.707271
0.973877 0.751064 0.730800
0.080171 0.077852 0.070680
0.084474 0.076692 0.072786
0.094759 0.080354 0.073182
0.116548 0.086213 0.077577
0.144808 0.093935 0.085542
0.177737 0.101595 0.094148
0.215000 0.109590 0.103822
0.256809 0.117922 0.115175
0.305669 0.126223 0.128298
0.361944 0.134920 0.143343
0.424842 0.145052 0.159731
0.490547 0.158206 0.178012
0.554772 0.177432 0.197848
0.613977 0.202823 0.218997
0.667140 0.232792 0.240452
0.713649 0.265751 0.263584
0.753017 0.299504 0.287144
0.786313 0.333806 0.311864
0.814633 0.367651 0.337896
0.847654 0.413092 0.375463
0.872984 0.454292 0.413001
0.892546 0.491463 0.448981
0.907744 0.524712 0.482551
0.919829 0.554894 0.513695
0.929717 0.582666 0.542931
0.937987 0.609094 0.571496
0.945434 0.634241 0.598901
0.952056 0.658778 0.625940
0.958190 0.682368 0.652186
0.963745 0.705409 0.678218
0.968841 0.727413 0.703243
0.973419 0.748348 0.727230
0.082918 0.088533 0.073487
0.087007 0.087800 0.075532
0.093050 0.086366 0.079103
0.113710 0.094209 0.080842
0.147951 0.102571 0.083314
0.180545 0.109438 0.091920
0.216922 0.116457 0.101625
0.258091 0.124392 0.113069
0.306157 0.132631 0.126101
0.361883 0.141451 0.141238
0.423926 0.151736 0.157778
0.489052 0.165164 0.175937
0.553002 0.183841 0.195926
0.612146 0.208560 0.216800
0.665064 0.237736 0.238560
0.711635 0.269413 0.261082
0.750973 0.302770 0.284825
0.784482 0.336095 0.309361
0.813504 0.369604 0.335607
0.846342 0.413977 0.372778
0.871519 0.453986 0.409552
0.891142 0.490181 0.444984
0.906462 0.523064 0.478492
0.918700 0.552850 0.509636
0.928801 0.580407 0.538811
0.937255 0.606775 0.567498
0.944793 0.632166 0.595392
0.951598 0.656733 0.622553
0.957763 0.680659 0.649470
0.963439 0.703822 0.675654
0.968566 0.725948 0.700923
0.973236 0.747036 0.725185
0.089998 0.111604 0.079744
0.093996 0.110780 0.082185
0.098939 0.109773 0.085206
0.110994 0.106233 0.092195
0.135775 0.115908 0.095033
0.186770 0.129946 0.087526
0.223484 0.134524 0.097047
0.264012 0.140719 0.109071
0.311406 0.147890 0.122347
0.366125 0.156527 0.137606
0.427192 0.166690 0.154391
0.491157 0.180728 0.172854
0.553765 0.198978 0.192660
0.611749 0.222629 0.213962
0.664149 0.250095 0.235325
0.710384 0.280278 0.257847
0.749599 0.311620 0.281651
0.782895 0.343175 0.305943
0.813474 0.377203 0.333593
0.844602 0.417609 0.368872
0.869108 0.454932 0.403967
0.888670 0.489387 0.438331
0.904356 0.521416 0.471687
0.917205 0.551293 0.503624
0.927886 0.579461 0.534051
0.936858 0.606592 0.564080
0.944671 0.632624 0.593133
0.951598 0.657496 0.621210
0.957855 0.681361 0.648310
0.963470 0.704219 0.674464
0.968536 0.725978 0.699550
0.973175 0.746517 0.723415
0.095979 0.144289 0.086885
0.100404 0.143435 0.088869
0.105409 0.141970 0.091676
0.116854 0.138643 0.097719
0.132692 0.132570 0.107790
0.154513 0.139284 0.114870
0.212650 0.158724 0.104738
0.271244 0.168276 0.101472
0.317693 0.172946 0.115755
0.371038 0.180667 0.131502
0.430640 0.190585 0.148592
0.493080 0.204166 0.167758
0.554559 0.221836 0.187900
0.611780 0.243778 0.208713
0.663874 0.269413 0.230838
0.710170 0.297795 0.253269
0.749599 0.327276 0.277379
0.783047 0.357000 0.302281
0.815915 0.391669 0.332464
0.845365 0.428382 0.366644
0.868894 0.462501 0.400610
0.887999 0.494514 0.434211
0.903532 0.524773 0.467201
0.916472 0.553460 0.498909
0.927306 0.580987 0.529747
0.936431 0.607538 0.560052
0.944366 0.633204 0.589532
0.951385 0.657710 0.617823
0.957671 0.681270 0.645106
0.963317 0.703853 0.671443
0.968444 0.725460 0.696834
0.973083 0.746029 0.721035
0.101778 0.182406 0.094087
0.105806 0.181765 0.096437
0.111177 0.180209 0.099031
0.121035 0.176913 0.104494
0.139528 0.171145 0.114107
0.157748 0.163272 0.126925
0.173953 0.164828 0.140932
0.238895 0.190494 0.129427
0.316258 0.207919 0.117403
0.382605 0.216526 0.123232
0.441199 0.225284 0.141634
0.501762 0.237491 0.161685
0.561334 0.253819 0.182315
0.616815 0.273838 0.203891
0.667903 0.297185 0.225620
0.713161 0.323064 0.249058
0.751919 0.349950 0.273289
0.785000 0.376898 0.298619
0.819883 0.411933 0.331853
0.847807 0.444770 0.365484
0.870603 0.475929 0.399268
0.889342 0.505821 0.433295
0.920592 0.573877 0.510033
0.930632 0.599908 0.541466
0.938750 0.624048 0.570947
0.945739 0.646326 0.598016
0.951873 0.667353 0.623529
0.957458 0.687495 0.647883
0.962554 0.707057 0.671473
0.967254 0.726040 0.694362
0.971588 0.744167 0.716243
0.975525 0.761318 0.736934
0.107790 0.231357 0.104860
0.112093 0.230167 0.106813
0.118074 0.228733 0.109804
0.129213 0.225681 0.115938
0.143587 0.221103 0.125429
0.170230 0.212650 0.138216
0.191318 0.203555 0.154055
0.199741 0.197238 0.176181
0.277012 0.231418 0.164187
0.369665 0.257359 0.151339
0.471107 0.280339 0.135866
0.532433 0.290929 0.156497
0.588525 0.305089 0.179080
0.640558 0.322515 0.201633
0.687526 0.342199 0.224613
0.728237 0.363470 0.248661
0.763638 0.385840 0.273716
0.799863 0.414374 0.304295
0.831937 0.445167 0.338354
0.858305 0.475227 0.373999
0.880491 0.505577 0.411353
0.899229 0.536095 0.449714
0.914580 0.566155 0.487709
0.926940 0.594720 0.524193
0.936767 0.621424 0.558190
0.944640 0.645228 0.588495
0.951171 0.666835 0.616022
0.956970 0.686885 0.641260
0.962188 0.706325 0.665644
0.966949 0.724910 0.688808
0.971344 0.742885 0.711116
0.975372 0.759945 0.732265
0.114595 0.275669 0.117037
0.118990 0.274693 0.119356
0.124514 0.273136 0.121859
0.135561 0.270146 0.127596
0.150851 0.265751 0.136355
0.169711 0.259709 0.148135
0.201083 0.250217 0.163272
0.223636 0.240482 0.180606
0.230686 0.230900 0.203922
0.308659 0.266972 0.198703
0.408820 0.299992 0.186435
0.513268 0.329351 0.171786
0.597192 0.352728 0.166903
0.646998 0.365911 0.191165
0.692317 0.381567 0.215518
0.731502 0.398169 0.240085
0.769406 0.419532 0.268040
0.805264 0.444923 0.300542
0.834226 0.469337 0.333471
0.858946 0.494148 0.368231
0.880217 0.520134 0.404639
0.898405 0.546868 0.442054
0.913573 0.573693 0.479408
0.925963 0.599695 0.515373
0.935943 0.624292 0.549310
0.943877 0.646998 0.580346
0.950622 0.667689 0.608301
0.956542 0.687251 0.634211
0.961883 0.706294 0.659266
0.966766 0.724605 0.683040
0.971221 0.742428 0.706020
0.975280 0.759457 0.727810
0.123110 0.323949 0.132753
0.127474 0.322942 0.134768
0.133089 0.321752 0.137270
0.144411 0.318914 0.142794
0.160281 0.314702 0.151186
0.178164 0.309178 0.161685
0.204623 0.301457 0.175051
0.237675 0.291203 0.191012
0.261936 0.281132 0.209232
0.269383 0.269230 0.231724
0.344213 0.304295 0.235386
0.450721 0.343450 0.223178
0.553552 0.377691 0.209445
0.644160 0.409796 0.193912
0.700130 0.427741 0.204379
0.741054 0.442298 0.232792
0.779843 0.461189 0.264439
0.811551 0.479469 0.296208
0.837980 0.497871 0.328710
0.861082 0.517784 0.363073
0.881315 0.539391 0.398932
0.898863 0.562066 0.435737
0.913634 0.585473 0.472816
0.925872 0.608667 0.508446
0.935760 0.631006 0.542535
0.943725 0.651881 0.573693
0.950530 0.671321 0.601984
0.956481 0.689967 0.628504
0.961883 0.708125 0.653834
0.966766 0.725795 0.678004
0.971221 0.743069 0.701228
0.975311 0.759670 0.723384
0.134005 0.375250 0.150088
0.138155 0.374304 0.152010
0.143648 0.373022 0.154086
0.155184 0.370306 0.159243
0.171267 0.366003 0.166659
0.190005 0.360723 0.176516
0.210117 0.354284 0.188449
0.245060 0.345006 0.203006
0.280034 0.334356 0.219791
0.305760 0.323674 0.238163
0.312505 0.309056 0.259434
0.381048 0.340978 0.271641
0.489418 0.384497 0.260319
0.589197 0.422431 0.247837
0.681239 0.461006 0.236942
0.755123 0.493385 0.227512
0.790890 0.506004 0.258610
0.819608 0.518090 0.291814
0.843900 0.531273 0.325231
0.865141 0.546075 0.359380
0.883757 0.562554 0.394690
0.899931 0.580468 0.430304
0.913756 0.599176 0.465309
0.925383 0.618219 0.499458
0.935119 0.637446 0.532494
0.943175 0.656336 0.563928
0.950134 0.674678 0.593103
0.956329 0.692653 0.620752
0.961852 0.710475 0.647486
0.966918 0.727993 0.672847
0.971466 0.745083 0.697108
0.975616 0.761593 0.720150
0.146304 0.426184 0.167361
0.150515 0.425269 0.168795
0.156374 0.424353 0.170962
0.167941 0.422065 0.175631
0.184085 0.418463 0.182559
0.203799 0.413886 0.191592
0.225681 0.408331 0.203037
0.248417 0.401862 0.215946
0.292241 0.391241 0.231693
0.328985 0.380224 0.249210
0.355718 0.369177 0.268467
0.363409 0.353643 0.289525
0.422461 0.380774 0.311498
0.537041 0.432532 0.303807
0.636957 0.476478 0.295048
0.718868 0.512016 0.286259
0.782162 0.538842 0.278202
0.824979 0.555901 0.283268
0.847440 0.563684 0.317205
0.867460 0.573724 0.351751
0.885252 0.586084 0.386877
0.900877 0.600122 0.422766
0.914427 0.615625 0.458198
0.925841 0.631891 0.492805
0.935454 0.648493 0.525933
0.943481 0.664973 0.557092
0.950317 0.681422 0.586725
0.956481 0.697780 0.614405
0.962036 0.714260 0.641230
0.967071 0.730739 0.667018
0.971679 0.747066 0.691737
0.975830 0.763027 0.715328
0.163088 0.479225 0.185580
0.167178 0.478584 0.187015
0.172976 0.477485 0.188998
0.184176 0.475502 0.193118
0.200992 0.472419 0.199588
0.220981 0.468421 0.208103
0.243992 0.463508 0.218662
0.268223 0.457679 0.230930
0.300603 0.449989 0.245090
0.345861 0.439216 0.261967
0.384955 0.429572 0.281559
0.418738 0.423926 0.305272
0.468238 0.441474 0.352300
0.512474 0.459632 0.385626
0.622095 0.513573 0.378485
0.710170 0.554467 0.371130
0.776211 0.583215 0.364385
0.826291 0.603571 0.358221
0.864622 0.618372 0.353613
0.886778 0.626093 0.373846
0.900847 0.632715 0.409247
0.913207 0.641505 0.444251
0.923919 0.651575 0.477424
0.933196 0.663142 0.509880
0.941161 0.675502 0.540948
0.947997 0.688563 0.570489
0.954040 0.701686 0.597925
0.959472 0.715023 0.623774
0.964416 0.728725 0.648798
0.969024 0.742794 0.672908
0.973236 0.756954 0.696223
0.977081 0.771145 0.718654
0.190585 0.542626 0.209293
0.194797 0.542077 0.210513
0.200229 0.540490 0.212192
0.211124 0.537713 0.215610
0.227298 0.533684 0.221317
0.247196 0.528496 0.228580
0.270054 0.523125 0.238132
0.294957 0.517357 0.249699
0.323064 0.513481 0.264195
0.370977 0.510948 0.283665
0.424872 0.506706 0.306432
0.470619 0.502098 0.331823
0.506188 0.497841 0.359380
0.525414 0.490303 0.388434
0.548852 0.496529 0.428595
0.651575 0.549096 0.422492
0.730739 0.586542 0.416022
0.790127 0.612360 0.409888
0.835599 0.630915 0.404883
0.871427 0.644923 0.401404
0.900298 0.655940 0.399542
0.913237 0.661341 0.432013
0.923766 0.668238 0.465644
0.932952 0.676753 0.498329
0.940917 0.686458 0.529473
0.947845 0.697139 0.559350
0.953918 0.708522 0.587549
0.959411 0.720424 0.614374
0.964477 0.732906 0.639979
0.969146 0.746120 0.665156
0.973449 0.759518 0.689174
0.977356 0.773220 0.712612
0.217868 0.587823 0.229374
0.221775 0.587152 0.230533
0.226780 0.585809 0.231693
0.237064 0.583459 0.235019
0.253330 0.581018 0.240665
0.274540 0.579126 0.248814
0.299290 0.576959 0.259098
0.326757 0.574609 0.271550
0.356573 0.572076 0.286412
0.387701 0.569970 0.303716
0.442481 0.564263 0.324437
0.492622 0.558465 0.347906
0.532982 0.552300 0.373053
0.562768 0.545830 0.399054
0.578912 0.537194 0.425696
0.589075 0.533745 0.463600
0.674983 0.578576 0.462348
0.746090 0.612726 0.456336
0.800778 0.637110 0.451514
0.843412 0.655177 0.448280
0.877226 0.669001 0.446662
0.904601 0.679713 0.446052
0.924041 0.687221 0.454749
0.933257 0.692897 0.487617
0.941253 0.700099 0.519280
0.948150 0.708553 0.549889
0.954223 0.717952 0.578698
0.959777 0.728206 0.606073
0.964843 0.739406 0.632624
0.969574 0.751369 0.658320
0.973907 0.763943 0.683345
0.977844 0.776852 0.707485
0.259281 0.641688 0.257389
0.263218 0.641444 0.258885
0.267674 0.640620 0.260227
0.278080 0.638788 0.263279
0.293065 0.636133 0.268376
0.312047 0.632654 0.275120
0.334874 0.629145 0.284306
0.360296 0.625360 0.295109
0.388403 0.622034 0.308721
0.418097 0.619013 0.324529
0.454200 0.615534 0.343145
0.507164 0.609033 0.364904
0.551141 0.602472 0.388190
0.585779 0.595239 0.412421
0.610620 0.587213 0.436439
0.624262 0.577783 0.459632
0.628534 0.569512 0.492805
0.694606 0.604425 0.499245
0.760189 0.636713 0.494484
0.811093 0.660395 0.491463
0.850950 0.677974 0.489998
0.882597 0.691341 0.489540
0.908232 0.701442 0.489479
0.929320 0.709407 0.489906
0.941619 0.715175 0.508812
0.948638 0.721584 0.540215
0.954894 0.729427 0.570672
0.960601 0.738552 0.599817
0.965789 0.748714 0.627955
0.970581 0.759915 0.655177
0.974914 0.771817 0.681544
0.978882 0.784024 0.706600
0.303166 0.685786 0.287388
0.307042 0.685725 0.288853
0.311192 0.685054 0.290196
0.320500 0.683680 0.293339
0.334386 0.681300 0.297887
0.352422 0.678462 0.304509
0.373754 0.675349 0.312779
0.398108 0.672053 0.323278
0.424567 0.668544 0.335973
0.452125 0.665003 0.350652
0.479774 0.661189 0.367071
0.519036 0.655268 0.385504
0.563378 0.647059 0.405676
0.599756 0.638422 0.426520
0.628016 0.629389 0.447669
0.648096 0.620050 0.468605
0.660334 0.610925 0.489357
0.661158 0.600031 0.518425
0.712154 0.627771 0.533654
0.773892 0.659876 0.531823
0.821836 0.683406 0.531395
0.859190 0.700923 0.532280
0.888762 0.714015 0.533440
0.912688 0.723995 0.534813
0.932525 0.731807 0.536309
0.949157 0.737972 0.537804
0.956298 0.743862 0.565789
0.961852 0.751186 0.595789
0.966949 0.759640 0.624384
0.971588 0.769100 0.651667
0.975830 0.779294 0.677882
0.979644 0.790066 0.702876
0.343969 0.718898 0.316258
0.346838 0.718563 0.317296
0.350530 0.717830 0.318334
0.358587 0.716426 0.321111
0.370947 0.714290 0.325170
0.386969 0.711543 0.331029
0.406134 0.708614 0.338842
0.427771 0.705318 0.348058
0.451850 0.701839 0.359503
0.476905 0.698299 0.372595
0.502556 0.694667 0.387793
0.527764 0.690852 0.404364
0.569238 0.683894 0.422919
0.607843 0.675685 0.442054
0.639063 0.666987 0.461311
0.663081 0.657862 0.480446
0.680293 0.648676 0.499336
0.691218 0.640009 0.518486
0.690791 0.628534 0.544152
0.728756 0.649866 0.566949
0.786313 0.680964 0.566827
0.830716 0.703609 0.567681
0.865476 0.720455 0.569543
0.893187 0.733211 0.571710
0.915801 0.743130 0.574182
0.934600 0.750912 0.576654
0.950561 0.757321 0.579278
0.962707 0.762997 0.588067
0.967803 0.769924 0.617609
0.972473 0.778042 0.646052
0.976715 0.787045 0.673030
0.980499 0.796780 0.698939
0.384985 0.747219 0.346624
0.388434 0.747372 0.348150
0.420294 0.763760 0.371771
0.427192 0.762448 0.374090
0.437324 0.760342 0.377691
0.450324 0.757504 0.382483
0.465949 0.754177 0.388647
0.483772 0.750515 0.396277
0.503868 0.746700 0.406104
0.525322 0.742824 0.417762
0.547295 0.738827 0.430762
0.569207 0.734524 0.444953
0.592493 0.729274 0.460029
0.630335 0.720821 0.476509
0.661799 0.712062 0.493141
0.687129 0.703120 0.509606
0.706844 0.694118 0.526390
0.721096 0.685267 0.543236
0.730098 0.677089 0.560204
0.728176 0.665156 0.581842
0.753353 0.679683 0.608972
0.804715 0.708095 0.609491
0.844297 0.728725 0.610803
0.875242 0.743862 0.612604
0.900053 0.755123 0.614160
0.920439 0.763729 0.615717
0.937560 0.770596 0.617395
0.952392 0.776455 0.619745
0.965362 0.781674 0.622827
0.973388 0.787533 0.639490
0.977569 0.795132 0.667262
0.981292 0.803555 0.693721
0.431525 0.774868 0.382910
0.437476 0.776547 0.386847
0.444129 0.778073 0.390997
0.453529 0.778775 0.396124
0.464820 0.778378 0.401404
0.477516 0.776669 0.406958
0.491859 0.774105 0.412970
0.507744 0.770962 0.420142
0.525750 0.767636 0.429023
0.544945 0.764126 0.439338
0.564935 0.760433 0.450904
0.585199 0.756558 0.463783
0.604761 0.752132 0.477302
0.630884 0.745968 0.491432
0.663294 0.737789 0.506462
0.690425 0.729458 0.521660
0.712581 0.721065 0.537072
0.729946 0.712886 0.552697
0.743008 0.705257 0.568933
0.751858 0.698421 0.585168
0.749966 0.687251 0.604150
0.767208 0.697780 0.636194
0.815000 0.725216 0.638087
0.851835 0.745174 0.640528
0.880827 0.759884 0.642969
0.904204 0.771084 0.645472
0.923583 0.779904 0.648219
0.940032 0.787228 0.651484
0.954223 0.793637 0.655573
0.966674 0.799344 0.660151
0.977447 0.804471 0.665309
0.982208 0.811246 0.688472
0.464729 0.793027 0.410224
0.470100 0.794400 0.413977
0.475898 0.795621 0.417792
0.484230 0.796170 0.422492
0.494179 0.795804 0.427558
0.505303 0.794339 0.432593
0.517876 0.792081 0.438148
0.532006 0.789364 0.444617
0.548058 0.786496 0.452613
0.565301 0.783322 0.461799
0.583673 0.780087 0.472602
0.602350 0.776638 0.484321
0.620478 0.772641 0.496498
0.637903 0.768307 0.509117
0.665827 0.761563 0.522698
0.693904 0.753902 0.536675
0.717464 0.746120 0.550744
0.736965 0.738674 0.565393
0.752590 0.731533 0.580163
0.764706 0.725246 0.595514
0.773220 0.719661 0.611109
0.772152 0.709865 0.628138
0.784085 0.717342 0.661097
0.825650 0.742123 0.665827
0.859739 0.761074 0.668727
0.886687 0.775265 0.671626
0.908629 0.786252 0.674830
0.927031 0.795224 0.678614
0.942718 0.802884 0.683131
0.956268 0.809567 0.688228
0.968017 0.815518 0.693843
0.978210 0.820768 0.699702
0.496895 0.809323 0.437751
0.501640 0.810452 0.441169
0.507103 0.811490 0.445075
0.514397 0.811917 0.449531
0.523247 0.811551 0.454108
0.533074 0.810239 0.458656
0.543969 0.808286 0.463630
0.556420 0.805905 0.469459
0.570489 0.803220 0.476509
0.585840 0.800351 0.484718
0.602380 0.797360 0.494331
0.619226 0.794125 0.504875
0.635889 0.790555 0.515892
0.652247 0.786740 0.527550
0.668605 0.782589 0.539788
0.697536 0.775937 0.553429
0.722774 0.769528 0.567620
0.744472 0.763516 0.582330
0.762875 0.758022 0.597436
0.778073 0.753201 0.613031
0.790188 0.749111 0.628962
0.799161 0.745571 0.644862
0.799924 0.738582 0.661494
0.809720 0.744533 0.691096
0.841825 0.764736 0.700679
0.872313 0.782528 0.704585
0.896727 0.795956 0.708492
0.916747 0.806668 0.712886
0.933623 0.815518 0.717647
0.947967 0.823056 0.722927
0.960327 0.829526 0.728481
0.970886 0.835172 0.734249
0.541009 0.828824 0.477211
0.543816 0.829160 0.479225
0.546654 0.829282 0.480995
0.551568 0.828977 0.483558
0.558038 0.828122 0.486671
0.565789 0.826719 0.490181
0.575219 0.824949 0.494575
0.586389 0.822934 0.500084
0.599145 0.820798 0.506889
0.613367 0.818479 0.514977
0.628534 0.816068 0.524315
0.644099 0.813291 0.534234
0.659419 0.810239 0.544579
0.674403 0.806882 0.555291
0.688808 0.803250 0.566308
0.707210 0.798672 0.577783
0.731807 0.792813 0.590295
0.753384 0.787137 0.603174
0.772000 0.781918 0.616510
0.787839 0.777157 0.630213
0.800809 0.772793 0.644007
0.811093 0.768948 0.657893
0.818631 0.765499 0.671687
0.819425 0.759213 0.685817
0.826749 0.762997 0.711421
0.851591 0.779416 0.724239
0.879911 0.796414 0.728542
0.902831 0.809659 0.733211
0.921721 0.820401 0.738430
0.937652 0.829282 0.743893
0.951202 0.836790 0.749599
0.962799 0.843320 0.755673
0.571252 0.841428 0.504967
0.573846 0.841703 0.506828
0.576684 0.841886 0.508812
0.580987 0.841581 0.511223
0.586603 0.840848 0.514153
0.593286 0.839567 0.517144
0.601312 0.837949 0.520897
0.610712 0.836057 0.525658
0.621881 0.834012 0.531579
0.634363 0.831846 0.538689
0.647852 0.829618 0.547112
0.661830 0.827146 0.556054
0.675685 0.824460 0.565423
0.689601 0.821561 0.575402
0.703151 0.818448 0.585565
0.716182 0.815244 0.595941
0.736385 0.810758 0.607416
0.758206 0.805814 0.619684
0.777432 0.801175 0.632197
0.794186 0.796933 0.645258
0.808438 0.793149 0.658412
0.820310 0.789853 0.671778
0.829740 0.786954 0.684962
0.836851 0.784390 0.697963
0.834836 0.775723 0.705623
0.840726 0.778317 0.728389
0.860044 0.791989 0.744289
0.886687 0.808560 0.749203
0.908324 0.821653 0.754574
0.926329 0.832364 0.760372
0.941497 0.841398 0.766567
0.954376 0.849210 0.773281
0.610864 0.855802 0.542657
0.613458 0.856107 0.544732
0.615717 0.856168 0.546227
0.619013 0.855741 0.548028
0.623041 0.854856 0.549889
0.628199 0.853605 0.552117
0.634394 0.851987 0.554894
0.641627 0.850065 0.558160
0.650263 0.847959 0.562371
0.660121 0.845731 0.567742
0.670771 0.843259 0.573785
0.682277 0.840818 0.580865
0.694118 0.838163 0.588708
0.705806 0.835294 0.596582
0.717250 0.832120 0.604639
0.728420 0.828885 0.613001
0.739498 0.825559 0.621973
0.760250 0.820706 0.632471
0.779416 0.816373 0.643854
0.796750 0.812497 0.656153
0.811917 0.809201 0.668879
0.824918 0.806180 0.681575
0.835477 0.803311 0.693812
0.843717 0.800534 0.705531
0.849668 0.797848 0.716609
0.850950 0.793240 0.727657
0.855711 0.794949 0.747768
0.870085 0.805905 0.765591
0.894652 0.821653 0.770718
0.914824 0.834318 0.776425
0.931762 0.844938 0.782803
0.946044 0.854002 0.789670
0.637171 0.865293 0.568048
0.639551 0.865537 0.570031
0.641566 0.865599 0.571466
0.644404 0.865263 0.573144
0.648005 0.864500 0.574853
0.652461 0.863432 0.576806
0.658045 0.862089 0.579492
0.664607 0.860502 0.582696
0.672511 0.858762 0.586908
0.681453 0.856901 0.592035
0.691249 0.854948 0.597864
0.701900 0.852903 0.604730
0.712825 0.850736 0.612085
0.723690 0.848386 0.619684
0.734401 0.845792 0.627344
0.744808 0.843107 0.635248
0.755184 0.840330 0.643641
0.768276 0.837217 0.652827
0.786923 0.833310 0.663325
0.803891 0.829862 0.674525
0.819028 0.826719 0.686061
0.832242 0.823911 0.697688
0.843412 0.821317 0.708980
0.852567 0.818845 0.719875
0.859739 0.816495 0.730373
0.865110 0.814237 0.740322
0.866758 0.810605 0.750301
0.870909 0.812009 0.768368
0.881468 0.821073 0.788083
0.904112 0.836179 0.793942
0.922850 0.848600 0.800381
0.938537 0.858946 0.807218
0.665705 0.874998 0.596307
0.667445 0.875120 0.597742
0.668757 0.875029 0.598627
0.670771 0.874601 0.599573
0.673365 0.873869 0.600610
0.676967 0.872831 0.602136
0.681453 0.871580 0.604120
0.686976 0.870146 0.606836
0.693751 0.868620 0.610407
0.701686 0.867033 0.615106
0.710323 0.865354 0.620417
0.719966 0.863615 0.626795
0.729885 0.861784 0.633600
0.739895 0.859739 0.640650
0.749599 0.857511 0.647639
0.759121 0.855161 0.654841
0.768582 0.852720 0.662348
0.778103 0.850370 0.670466
0.792630 0.847379 0.679774
0.809140 0.844175 0.689967
0.824094 0.841276 0.700526
0.837400 0.838682 0.711269
0.848875 0.836271 0.721798
0.858610 0.834043 0.731960
0.866636 0.831907 0.741756
0.873045 0.829862 0.751186
0.877989 0.828092 0.760372
0.879942 0.825223 0.769528
0.883482 0.826322 0.785794
0.891569 0.834195 0.806943
0.912352 0.848661 0.813657
0.929747 0.860655 0.820371
0.689906 0.883238 0.620600
0.691066 0.883299 0.621515
0.692226 0.883207 0.622309
0.694026 0.882902 0.623285
0.696834 0.882353 0.624811
0.700649 0.881682 0.626947
0.705928 0.880980 0.630243
0.712459 0.880217 0.634577
0.720089 0.879423 0.639734
0.728756 0.878599 0.645960
0.738003 0.877745 0.652766
0.747677 0.876738 0.660060
0.757443 0.875639 0.667567
0.766873 0.874266 0.674769
0.776028 0.872679 0.681941
0.784604 0.870848 0.688655
0.792996 0.868925 0.695460
0.801389 0.867033 0.702693
0.809873 0.865263 0.710506
0.824338 0.862577 0.719326
0.838071 0.860044 0.728481
0.850462 0.857755 0.737819
0.861295 0.855589 0.746853
0.870726 0.853574 0.755764
0.878782 0.851682 0.764401
0.885496 0.849943 0.772793
0.891020 0.848356 0.780972
0.895354 0.847013 0.789120
0.897581 0.845121 0.797391
0.900603 0.846128 0.811612
0.907988 0.853422 0.830838
0.924132 0.865415 0.839139
0.724758 0.893919 0.656855
0.725582 0.893919 0.657465
0.726253 0.893767 0.657832
0.727474 0.893400 0.658381
0.729397 0.892882 0.659236
0.732113 0.892180 0.660639
0.735805 0.891386 0.662715
0.740475 0.890532 0.665522
0.746029 0.889586 0.669032
0.752529 0.888609 0.673487
0.759518 0.887541 0.678340
0.767086 0.886412 0.683742
0.774807 0.885161 0.689418
