data/fiter_cube/21023058/1023008/file.cube
# Created by Adobe Lightroom plugin Export LUT (1.17.0)
# www.johnrellis.com/lightroom/exportlut.htm
# Preset: 温暖焦糖婚礼婚纱_04 云集
# Color profile: C:\Program Files (x86)\Common Files\Adobe\Color\Profiles\Recommended\AdobeRGB1998.icc
LUT_3D_SIZE 8
DOMAIN_MIN 0.000000 0.000000 0.000000
DOMAIN_MAX 0.903226 0.903226 0.903226
0.050294 0.046693 0.059266
0.082307 0.061311 0.065431
0.201358 0.069856 0.069947
0.421881 0.006073 0.065064
0.604822 0.141482 0.064912
0.721370 0.281987 0.096407
0.811032 0.402930 0.174441
0.890623 0.513573 0.302708
0.062989 0.066346 0.067536
0.077485 0.074922 0.074556
0.198917 0.100587 0.071443
0.423468 0.106813 0.066529
0.605524 0.187808 0.067628
0.722072 0.308568 0.101198
0.811246 0.418372 0.181216
0.890532 0.522637 0.308843
0.076753 0.111849 0.084993
0.098726 0.133639 0.097108
0.193088 0.186984 0.128359
0.430365 0.270420 0.120485
0.592584 0.291875 0.074556
0.712276 0.374060 0.112490
0.803098 0.455451 0.191562
0.884672 0.544823 0.316838
0.106905 0.228702 0.125124
0.135531 0.255528 0.137423
0.265171 0.318395 0.189120
0.437812 0.409339 0.266880
0.614557 0.509575 0.320043
0.715969 0.505669 0.234165
0.792599 0.515099 0.216617
0.877623 0.584833 0.338354
0.182956 0.406561 0.201389
0.217380 0.425635 0.216068
0.361151 0.481819 0.291203
0.484535 0.511955 0.345037
0.615076 0.588525 0.452461
0.727993 0.662959 0.555932
0.804929 0.660182 0.481483
0.874022 0.665339 0.456214
0.321538 0.559533 0.320317
0.336645 0.564630 0.327916
0.432105 0.594385 0.379004
0.556725 0.623407 0.463386
0.632776 0.641474 0.503136
0.726558 0.697932 0.600885
0.807340 0.760281 0.698299
0.875608 0.780117 0.672938
0.482246 0.675257 0.463020
0.485176 0.677119 0.466102
0.531151 0.689693 0.496040
0.629297 0.709590 0.570367
0.691707 0.721798 0.608484
0.746761 0.740475 0.645411
0.814054 0.787015 0.714076
0.875181 0.839200 0.790982
0.630884 0.764767 0.605493
0.633173 0.766262 0.607874
0.640772 0.771267 0.615991
0.693904 0.785153 0.654536
0.759701 0.802487 0.705745
0.799008 0.813657 0.727718
0.844480 0.836515 0.765530
0.890471 0.870726 0.818814
0.061891 0.059327 0.074678
0.087556 0.064393 0.083711
0.232822 0.067842 0.095796
0.452155 0.072175 0.106233
0.619623 0.179294 0.118379
0.729458 0.306157 0.149020
0.814542 0.416724 0.217350
0.892363 0.521996 0.333379
0.066377 0.071229 0.077790
0.090455 0.087922 0.091951
0.227298 0.112184 0.102541
0.449042 0.130678 0.109102
0.617639 0.216129 0.120699
0.728176 0.328008 0.152468
0.814206 0.430304 0.222324
0.892302 0.530724 0.339055
0.081331 0.120912 0.097932
0.112825 0.150729 0.116182
0.220584 0.209018 0.158083
0.448249 0.279026 0.147372
0.605737 0.312871 0.128481
0.719356 0.389532 0.163088
0.807431 0.467018 0.232975
0.887083 0.552697 0.346624
0.121645 0.245731 0.145907
0.157809 0.274876 0.163119
0.294591 0.344366 0.223636
0.459297 0.429389 0.302037
0.625330 0.518791 0.340887
0.719783 0.508476 0.257023
0.797299 0.524498 0.255436
0.880156 0.591485 0.366217
0.202609 0.417731 0.225376
0.238560 0.436713 0.241184
0.368688 0.490761 0.307408
0.499886 0.525017 0.372992
0.623682 0.597223 0.473335
0.732204 0.666529 0.563561
0.806088 0.660914 0.489570
0.874693 0.664576 0.461372
0.325231 0.562707 0.336187
0.354498 0.571527 0.350011
0.445258 0.599908 0.398627
0.566857 0.630549 0.482033
0.639277 0.647089 0.518273
0.729519 0.700862 0.609918
0.810391 0.764004 0.705531
0.876768 0.780667 0.675410
0.483497 0.677180 0.472541
0.487343 0.679713 0.476448
0.538964 0.692653 0.508202
0.631434 0.712093 0.576165
0.696010 0.724910 0.617304
0.749355 0.742763 0.651606
0.816464 0.789639 0.719539
0.877684 0.842313 0.796353
0.631586 0.765713 0.609705
0.633570 0.767025 0.611810
0.641077 0.771939 0.619654
0.693446 0.786252 0.656275
0.760006 0.802640 0.708064
0.799710 0.814359 0.730434
0.845335 0.837369 0.767971
0.891478 0.871885 0.821347
0.073396 0.073762 0.131197
0.093904 0.077028 0.145449
0.262455 0.086366 0.190463
0.502892 0.075929 0.208927
0.643488 0.219852 0.231754
0.738521 0.344213 0.266606
0.816098 0.439368 0.315373
0.891264 0.534478 0.401862
0.095277 0.106386 0.149264
0.115938 0.113405 0.163760
0.269047 0.134646 0.203159
0.503441 0.145052 0.217197
0.641718 0.260807 0.241001
0.737362 0.363989 0.271122
0.815366 0.451240 0.319615
0.890745 0.541955 0.405310
0.107088 0.159182 0.155825
0.142489 0.182528 0.174990
0.276493 0.252873 0.235325
0.485878 0.293187 0.243565
0.628992 0.352697 0.256260
0.729122 0.418158 0.280949
0.809781 0.485725 0.329015
0.886961 0.564233 0.413581
0.140047 0.262364 0.193606
0.181155 0.291386 0.215366
0.326879 0.378759 0.288182
0.489967 0.458808 0.375280
0.630365 0.511009 0.367559
0.714900 0.494575 0.300725
0.799832 0.538445 0.346349
0.880034 0.600427 0.427771
0.225376 0.429419 0.275120
0.267887 0.449470 0.295445
0.393103 0.503227 0.359258
0.529107 0.550774 0.438392
0.635676 0.609186 0.515923
0.735866 0.665248 0.568505
0.803311 0.652399 0.497810
0.871733 0.651637 0.460243
0.347906 0.568322 0.379126
0.380865 0.578180 0.395331
0.469184 0.606653 0.442908
0.583001 0.643366 0.520439
0.654566 0.659876 0.557671
0.736477 0.707790 0.633845
0.816037 0.768978 0.714687
0.877379 0.777096 0.675868
0.475685 0.675990 0.490852
0.491371 0.680049 0.499641
0.549187 0.694148 0.532708
0.629175 0.714992 0.585229
0.705715 0.731807 0.639551
0.753536 0.746181 0.665644
0.819608 0.793057 0.730861
0.881468 0.847288 0.806912
0.627893 0.765103 0.617975
0.630426 0.766659 0.620081
0.638422 0.771817 0.627832
0.693080 0.786404 0.663539
0.763821 0.806394 0.719020
0.803098 0.817777 0.740475
0.846769 0.838804 0.774228
0.893004 0.873655 0.826841
0.093080 0.111849 0.280766
0.129152 0.118318 0.295872
0.265721 0.128664 0.344152
0.531334 0.191470 0.399725
0.675471 0.311406 0.412024
0.756680 0.379156 0.407446
0.822019 0.475288 0.443183
0.893126 0.558129 0.497780
0.135378 0.156069 0.301976
0.165103 0.161807 0.314977
0.281834 0.173831 0.358099
0.530968 0.239384 0.407019
0.672724 0.337987 0.417121
0.753017 0.405615 0.417853
0.820706 0.486122 0.446998
0.892576 0.563622 0.498695
0.220890 0.259739 0.318059
0.258000 0.280217 0.339483
0.341985 0.307744 0.388190
0.530388 0.361517 0.431250
0.662776 0.407843 0.428931
0.743252 0.461097 0.432807
0.813870 0.515068 0.452369
0.888334 0.581109 0.500481
0.215061 0.338903 0.323491
0.255253 0.359197 0.340917
0.379004 0.418860 0.393347
0.524620 0.493629 0.463172
0.643427 0.509178 0.453254
0.731258 0.531243 0.451667
0.806027 0.563470 0.466194
0.882414 0.615320 0.511315
0.260655 0.445563 0.354559
0.300877 0.463386 0.372930
0.419257 0.513390 0.429175
0.551446 0.575525 0.503441
0.652155 0.625422 0.570794
0.736019 0.651698 0.566949
0.795010 0.623926 0.491585
0.873808 0.659113 0.526757
0.373877 0.574121 0.439094
0.402350 0.582086 0.450843
0.486366 0.610803 0.492683
0.586297 0.648341 0.551110
0.673732 0.676143 0.607111
0.744686 0.715999 0.663447
0.819455 0.766323 0.711116
0.877348 0.765713 0.669551
0.486580 0.677699 0.529625
0.504234 0.681758 0.537865
0.558221 0.694972 0.565209
0.632715 0.714900 0.607813
0.716884 0.741146 0.668574
0.760769 0.753628 0.688624
0.824796 0.798734 0.748257
0.889006 0.856779 0.825010
0.620050 0.763577 0.633265
0.622187 0.764920 0.634730
0.635462 0.770382 0.642359
0.687770 0.784939 0.672541
0.752834 0.807065 0.717708
0.807767 0.823301 0.756100
0.848539 0.840818 0.783444
0.895750 0.876890 0.835904
0.191592 0.186526 0.473732
0.229374 0.193027 0.481727
0.343236 0.212406 0.508446
0.517144 0.253666 0.538170
0.682734 0.390539 0.567407
0.770596 0.495888 0.573419
0.832975 0.533654 0.574151
0.893797 0.598505 0.606439
0.238651 0.234104 0.484840
0.267277 0.238712 0.490730
0.364050 0.257023 0.514244
0.520348 0.295201 0.543725
0.681605 0.415015 0.570977
0.768734 0.507012 0.576104
0.831449 0.540124 0.575280
0.893217 0.602655 0.606836
0.341375 0.361425 0.503410
0.355138 0.362951 0.510826
0.420905 0.380102 0.530968
0.527764 0.405829 0.560449
0.678492 0.483345 0.583001
0.763272 0.541497 0.585412
0.826627 0.560388 0.578027
0.891630 0.616846 0.607752
0.389441 0.454566 0.496956
0.417823 0.467292 0.506554
0.495003 0.505486 0.536919
0.561334 0.532067 0.576257
0.673213 0.565728 0.600366
0.753170 0.583948 0.593469
0.816220 0.600977 0.587854
0.888487 0.636439 0.602747
0.381994 0.518853 0.497749
0.408911 0.528191 0.506859
0.485939 0.557214 0.535546
0.580774 0.598718 0.577447
0.668238 0.640955 0.621485
0.739284 0.638514 0.603052
0.806851 0.645289 0.592950
0.881651 0.673884 0.608087
0.413886 0.586175 0.512779
0.438911 0.594507 0.523064
0.510948 0.620478 0.555474
0.601923 0.655329 0.601129
0.686275 0.691676 0.648554
0.755306 0.726711 0.695674
0.818357 0.749325 0.694453
0.874266 0.732235 0.640009
0.508049 0.681819 0.581994
0.524254 0.685939 0.588678
0.573785 0.698634 0.610040
0.640681 0.717403 0.641688
0.707851 0.742794 0.679194
0.772152 0.766903 0.720211
0.832059 0.806668 0.769924
0.894133 0.856840 0.822293
0.611688 0.763607 0.658350
0.614405 0.765072 0.659907
0.644831 0.772702 0.673548
0.686488 0.784878 0.692744
0.740352 0.804807 0.722286
0.812924 0.831113 0.776089
0.851499 0.845029 0.797116
0.900175 0.881987 0.848447
0.355871 0.304601 0.621057
0.378912 0.311711 0.624445
0.448676 0.336004 0.636561
0.541924 0.371862 0.653681
0.669001 0.433295 0.665919
0.773739 0.541222 0.677424
0.844205 0.627283 0.696071
0.902953 0.658747 0.709438
0.387030 0.349615 0.626886
0.405951 0.355444 0.630091
0.464942 0.374395 0.640497
0.549828 0.404028 0.656550
0.670069 0.455818 0.668757
0.773281 0.553521 0.679957
0.843626 0.632319 0.697688
0.902586 0.661372 0.709834
0.447883 0.448798 0.633814
0.460670 0.452552 0.636652
0.502556 0.464515 0.645808
0.569604 0.483467 0.660761
0.670649 0.515923 0.675013
0.770718 0.587915 0.686397
0.840696 0.646662 0.701228
0.900786 0.668391 0.708949
0.524804 0.553155 0.634943
0.538628 0.560204 0.640192
0.565362 0.568841 0.653132
0.603357 0.575097 0.666957
0.671473 0.590021 0.684077
0.766567 0.632990 0.695674
0.835447 0.665980 0.703944
0.897490 0.676722 0.703029
0.529198 0.598230 0.628931
0.543542 0.603784 0.633234
0.588159 0.621942 0.647272
0.649165 0.648890 0.668788
0.691005 0.663203 0.693965
0.765133 0.682185 0.709895
0.829129 0.687251 0.702754
0.891539 0.697841 0.698268
0.523003 0.641810 0.629297
0.536492 0.645624 0.633234
0.580041 0.658839 0.647059
0.640589 0.679194 0.668391
0.702174 0.703914 0.694484
0.762234 0.733577 0.725460
0.816495 0.724453 0.701839
0.884916 0.734676 0.696407
0.532647 0.685908 0.634974
0.546380 0.689387 0.639582
0.590478 0.701167 0.655604
0.650385 0.719478 0.679896
0.711971 0.744625 0.710384
0.775509 0.776883 0.746609
0.839109 0.814359 0.793454
0.894194 0.839841 0.800107
0.618067 0.764614 0.694209
0.626764 0.766842 0.697658
0.654078 0.774441 0.708766
0.693141 0.787167 0.725216
0.740627 0.805539 0.747097
0.797848 0.830350 0.778439
0.858000 0.854398 0.819669
0.905608 0.888273 0.863828
0.510613 0.466712 0.732052
0.523003 0.472877 0.734463
0.557549 0.486519 0.738735
0.611810 0.507317 0.746426
0.684260 0.535851 0.756497
0.777218 0.580224 0.761898
0.849180 0.651606 0.769711
0.909880 0.729671 0.795468
0.517967 0.483955 0.728969
0.529107 0.488991 0.731197
0.561303 0.500450 0.735744
0.612879 0.518425 0.743435
0.680812 0.542473 0.753536
0.772671 0.582757 0.758236
0.845029 0.650813 0.765927
0.906950 0.726619 0.791745
0.556695 0.548211 0.733730
0.563958 0.550103 0.734859
0.588373 0.556298 0.738369
0.631037 0.568200 0.745815
0.687282 0.583032 0.755856
0.772244 0.612665 0.761990
0.845548 0.669581 0.771481
0.908049 0.737911 0.796963
0.614954 0.625544 0.737606
0.616632 0.624262 0.738613
0.627344 0.622919 0.742061
0.659144 0.630488 0.750179
0.703456 0.639368 0.760861
0.773556 0.656367 0.770748
0.846769 0.698390 0.780667
0.908141 0.751644 0.801602
0.644251 0.669398 0.727138
0.649653 0.671473 0.728817
0.669276 0.679988 0.736568
0.694636 0.689235 0.750118
0.716365 0.687709 0.761563
0.766934 0.695430 0.775387
0.842466 0.726284 0.785519
0.905638 0.764065 0.801968
0.635950 0.695399 0.723415
0.643397 0.697963 0.725460
0.666987 0.706477 0.732631
0.702358 0.720668 0.745357
0.744625 0.739193 0.762631
0.778927 0.751064 0.785550
0.843778 0.769863 0.800412
0.902342 0.778805 0.798703
0.631159 0.727687 0.725154
0.639002 0.730220 0.727840
0.661830 0.737087 0.734890
0.696101 0.749020 0.747127
0.737270 0.764950 0.763149
0.786709 0.787137 0.785245
0.841703 0.817197 0.814878
0.891875 0.806973 0.790890
0.630274 0.765621 0.732692
0.636561 0.766659 0.734005
0.662989 0.775265 0.744228
0.699947 0.788724 0.759213
0.745510 0.806821 0.778958
0.799527 0.831296 0.805570
0.857237 0.861143 0.838163
0.911437 0.895079 0.881346
0.628840 0.595575 0.814878
0.635157 0.598077 0.815946
0.653071 0.602930 0.817350
0.685908 0.613794 0.822019
0.728847 0.627375 0.828641
0.789670 0.648493 0.834287
0.858976 0.677943 0.840360
0.911070 0.740871 0.846036
0.631983 0.603204 0.813138
0.638087 0.605585 0.814237
0.655604 0.610193 0.816068
0.686580 0.619348 0.820371
0.728481 0.631861 0.827115
0.787839 0.651362 0.833158
0.856901 0.679408 0.839017
0.910002 0.741726 0.845426
0.647181 0.631525 0.812467
0.651911 0.632868 0.813260
0.665980 0.635035 0.814511
0.695979 0.644434 0.820798
0.733364 0.653162 0.827176
0.785794 0.666590 0.833738
0.854795 0.691951 0.839963
0.909728 0.750973 0.847745
0.669154 0.670405 0.813321
0.673243 0.671626 0.814389
0.684901 0.673121 0.816190
0.708064 0.678096 0.821225
0.740932 0.684565 0.828336
0.783932 0.692744 0.837522
0.853117 0.715053 0.844144
0.910552 0.768521 0.853483
0.715450 0.726436 0.812100
0.719448 0.728267 0.814023
0.721248 0.724758 0.816587
0.720211 0.713710 0.821073
0.747066 0.717952 0.827970
0.785306 0.724575 0.837919
0.848600 0.742580 0.848417
0.910399 0.789883 0.859678
0.717952 0.748501 0.803677
0.721065 0.749264 0.804166
0.732723 0.752895 0.806882
0.751156 0.760067 0.814603
0.774472 0.768643 0.828031
0.794186 0.767056 0.840970
0.846616 0.783108 0.858396
0.910826 0.818570 0.868833
0.710842 0.773007 0.803555
0.714046 0.773770 0.804196
0.725490 0.777035 0.807034
0.747097 0.784573 0.813809
0.777951 0.796597 0.824521
0.818235 0.815091 0.840848
0.854276 0.831540 0.865690
0.909545 0.851102 0.878264
0.704463 0.801541 0.805600
0.707546 0.802274 0.806302
0.720027 0.806271 0.810208
0.744076 0.815213 0.818997
0.777981 0.828794 0.832151
0.819089 0.846372 0.848875
0.863188 0.866667 0.867735
0.910002 0.893584 0.893004
