data/fiter_cube/21023058/1023008/file.cube
# Created by Adobe Lightroom plugin Export LUT (1.17.0)
# www.johnrellis.com/lightroom/exportlut.htm
# Preset: 温暖焦糖婚礼婚纱_04 云集
# Color profile: C:\Program Files (x86)\Common Files\Adobe\Color\Profiles\Recommended\AdobeRGB1998.icc
LUT_3D_SIZE 5
DOMAIN_MIN 0.000000 0.000000 0.000000
DOMAIN_MAX 0.903226 0.903226 0.903226
0.050294 0.046693 0.059266
0.159915 0.070192 0.069551
0.524926 0.066499 0.062348
0.745754 0.314214 0.111116
0.890623 0.513573 0.302708
0.072663 0.094423 0.079225
0.148196 0.145754 0.108217
0.514855 0.222385 0.068605
0.739284 0.376532 0.123781
0.885679 0.536492 0.312139
0.136782 0.315129 0.157900
0.278264 0.394659 0.224308
0.539055 0.510582 0.362493
0.746883 0.592676 0.376593
0.873350 0.609461 0.353429
0.361059 0.590478 0.354162
0.430793 0.612238 0.392676
0.610864 0.654322 0.509880
0.749294 0.720394 0.631800
0.876555 0.802609 0.715450
0.630884 0.764767 0.605493
0.638422 0.769680 0.613489
0.733425 0.795773 0.687312
0.809049 0.817044 0.734066
0.890471 0.870726 0.818814
0.070619 0.069276 0.110933
0.200381 0.079774 0.153414
0.573083 0.143343 0.186923
0.758083 0.360754 0.243931
0.892058 0.531670 0.383276
0.091981 0.127565 0.128023
0.211215 0.197971 0.185336
0.560266 0.277684 0.205509
0.751156 0.411933 0.253910
0.888121 0.553613 0.391302
0.170474 0.341497 0.215396
0.311376 0.421698 0.284916
0.566430 0.538476 0.434211
0.747189 0.588128 0.406470
0.875029 0.619623 0.418982
0.372503 0.594476 0.393103
0.457069 0.619165 0.437201
0.628779 0.666346 0.549767
0.755489 0.726741 0.652491
0.878538 0.801755 0.717006
0.627680 0.764401 0.613703
0.635401 0.769345 0.621424
0.727474 0.795560 0.687251
0.811612 0.819791 0.742947
0.891966 0.872496 0.824277
0.127016 0.144991 0.380743
0.257969 0.162631 0.420447
0.618097 0.295567 0.493751
0.780880 0.444526 0.492958
0.893278 0.576654 0.552422
0.258122 0.282078 0.418341
0.333898 0.298161 0.448981
0.614923 0.398444 0.509606
0.774197 0.481788 0.500481
0.890806 0.591241 0.552331
0.297185 0.438727 0.417823
0.405737 0.482490 0.458381
0.606012 0.578851 0.552819
0.752316 0.590265 0.530632
0.881315 0.644404 0.561089
0.418891 0.606409 0.494881
0.493538 0.630335 0.528893
0.647089 0.684413 0.612543
0.769986 0.741573 0.698756
0.881315 0.786404 0.706691
0.616876 0.764004 0.645441
0.630335 0.769070 0.652461
0.713832 0.794369 0.697017
0.820340 0.830442 0.771023
0.898070 0.879545 0.842130
0.401556 0.347234 0.654627
0.460334 0.368902 0.663050
0.608301 0.428626 0.685756
0.793729 0.573480 0.702388
0.905119 0.677638 0.734310
0.463020 0.451453 0.661372
0.502373 0.462684 0.668391
0.617762 0.497780 0.691005
0.792111 0.603510 0.708522
0.904082 0.685664 0.735470
0.565148 0.599603 0.658961
0.600122 0.616541 0.672236
0.660243 0.632715 0.699580
0.784726 0.668452 0.721157
0.898894 0.701228 0.727871
0.552514 0.665553 0.655634
0.591485 0.676661 0.667323
0.683070 0.707393 0.699611
0.783383 0.755306 0.749111
0.887144 0.752560 0.720424
0.622034 0.765286 0.704189
0.648524 0.772427 0.714260
0.716945 0.795926 0.743557
0.812589 0.837461 0.793057
0.907286 0.890227 0.868345
0.628840 0.595575 0.814878
0.647211 0.601221 0.816770
0.706386 0.620478 0.825162
0.807492 0.655787 0.835569
0.911070 0.740871 0.846036
0.643824 0.624323 0.813321
0.659419 0.628138 0.815366
0.711818 0.642176 0.824002
0.804288 0.668421 0.834989
0.910155 0.748775 0.847532
0.693050 0.699519 0.813199
0.692134 0.692897 0.815152
0.726040 0.696437 0.823148
0.796201 0.708522 0.838376
0.910582 0.778683 0.856504
0.718410 0.756191 0.805356
0.729580 0.759487 0.807858
0.767117 0.773465 0.820401
0.807645 0.781277 0.845548
0.910369 0.825742 0.870726
0.704463 0.801541 0.805600
0.715785 0.804776 0.808743
0.759884 0.821408 0.825040
0.829618 0.850919 0.853086
0.910002 0.893584 0.893004
