data/fiter_cube/21023058/1023008/file.cube
# Created by Adobe Lightroom plugin Export LUT (1.17.0)
# www.johnrellis.com/lightroom/exportlut.htm
# Preset: 温暖焦糖婚礼婚纱_04 云集
# Color profile: C:\Program Files (x86)\Common Files\Adobe\Color\Profiles\Recommended\AdobeRGB1998.icc
LUT_3D_SIZE 32
DOMAIN_MIN 0.0 0.0 0.0
DOMAIN_MAX 1.0 1.0 1.0
0.050294 0.046693 0.059266
0.055695 0.048432 0.059968
0.061433 0.050538 0.061067
0.069520 0.056550 0.063172
0.082307 0.061311 0.065431
0.100526 0.065309 0.067170
0.126619 0.067750 0.068788
0.159915 0.070192 0.069551
0.201358 0.069856 0.069947
0.250797 0.065461 0.069856
0.306523 0.052827 0.068849
0.364446 0.025635 0.067140
0.421881 0.006073 0.065064
0.476265 0.016327 0.063264
0.524926 0.066499 0.062348
0.567468 0.104036 0.062562
0.604822 0.141482 0.064912
0.637934 0.178500 0.069306
0.667475 0.213931 0.076143
0.695308 0.248447 0.084504
0.721370 0.281987 0.096407
0.745754 0.314214 0.111116
0.768765 0.345190 0.128969
0.790433 0.374609 0.149844
0.811032 0.402930 0.174441
0.831205 0.430762 0.201816
0.851194 0.458320 0.232059
0.871000 0.485847 0.265599
0.890623 0.513573 0.302708
0.909972 0.541894 0.343816
0.929015 0.571038 0.388678
0.947478 0.601740 0.437263
0.051637 0.049104 0.059998
0.054963 0.050233 0.061219
0.060456 0.054322 0.061799
0.069673 0.058869 0.063935
0.081697 0.063325 0.065675
0.100374 0.066590 0.067445
0.126467 0.070344 0.068605
0.159945 0.072511 0.069734
0.201694 0.073152 0.070405
0.251438 0.069581 0.070222
0.307317 0.061219 0.069093
0.365698 0.042359 0.067201
0.423285 0.026032 0.065309
0.477546 0.041871 0.063325
0.526238 0.077089 0.062593
0.568750 0.112093 0.063416
0.605921 0.147890 0.065553
0.638972 0.183810 0.069825
0.668482 0.218723 0.076448
0.696284 0.252811 0.085267
0.722225 0.285618 0.097108
0.746548 0.317540 0.111879
0.769528 0.348180 0.130343
0.791073 0.377356 0.151431
0.811643 0.405188 0.175967
0.831754 0.433021 0.203464
0.851682 0.460304 0.233402
0.871458 0.487709 0.267399
0.891051 0.515160 0.304295
0.910399 0.543328 0.345434
0.929320 0.572381 0.390326
0.947784 0.603021 0.438788
0.054444 0.052949 0.061524
0.057679 0.054994 0.062684
0.060365 0.056855 0.063844
0.067597 0.061555 0.065461
0.081392 0.065644 0.065888
0.100069 0.069612 0.067597
0.126192 0.073091 0.069123
0.159670 0.076387 0.070192
0.201755 0.077577 0.070375
0.251530 0.075349 0.070497
0.307652 0.068788 0.069215
0.366064 0.060822 0.067536
0.423835 0.052369 0.065522
0.478065 0.064820 0.063294
0.526696 0.088655 0.062837
0.569207 0.120363 0.063508
0.606256 0.155123 0.065797
0.639246 0.190066 0.070314
0.668940 0.224216 0.076997
0.696559 0.257359 0.085817
0.722499 0.289555 0.097597
0.746761 0.320989 0.112764
0.769650 0.351049 0.130953
0.791287 0.379919 0.152224
0.811795 0.407599 0.176883
0.831937 0.434974 0.204593
0.851835 0.462074 0.234714
0.871611 0.489265 0.268559
0.891142 0.516747 0.305699
0.910491 0.544610 0.346471
0.929442 0.573541 0.391180
0.947936 0.604120 0.439734
0.059327 0.060182 0.064546
0.060487 0.061341 0.065644
0.063294 0.062257 0.066651
0.067536 0.064729 0.068330
0.076936 0.070161 0.070344
0.097322 0.075624 0.069886
0.124666 0.079744 0.069764
0.158633 0.083986 0.070649
0.200443 0.086854 0.071046
0.250767 0.086641 0.070588
0.306981 0.083955 0.069856
0.365667 0.080201 0.067903
0.423621 0.079744 0.065858
0.477882 0.088594 0.064302
0.526665 0.108461 0.063447
0.569177 0.137148 0.063691
0.606348 0.168795 0.066468
0.639399 0.201602 0.071107
0.668971 0.234257 0.077607
0.696803 0.266300 0.087343
0.722744 0.297765 0.099001
0.746975 0.328008 0.114443
0.769833 0.357183 0.132937
0.791318 0.385107 0.154299
0.811673 0.412024 0.178714
0.831724 0.438575 0.205936
0.851560 0.465095 0.236210
0.871275 0.491890 0.269688
0.890867 0.518853 0.306615
0.910216 0.546654 0.347692
0.929290 0.575433 0.392340
0.947845 0.605921 0.440986
0.062989 0.066346 0.067536
0.062837 0.066773 0.067872
0.066621 0.068635 0.069978
0.071046 0.070741 0.071870
0.077485 0.074922 0.074556
0.089509 0.082185 0.077943
0.119570 0.091951 0.075593
0.156497 0.097322 0.073274
0.198917 0.100587 0.071443
0.249760 0.103182 0.071351
0.306249 0.103548 0.070314
0.365362 0.103975 0.068635
0.423468 0.106813 0.066529
0.477760 0.116548 0.065278
0.526421 0.134371 0.064424
0.568505 0.159091 0.064454
0.605524 0.187808 0.067628
0.638422 0.218143 0.072328
0.668086 0.248356 0.079347
0.696010 0.278477 0.088563
0.722072 0.308568 0.101198
0.746456 0.337682 0.116884
0.769284 0.365515 0.135103
0.790829 0.392187 0.156527
0.811246 0.418372 0.181216
0.831296 0.444038 0.208347
0.851133 0.469947 0.238560
0.870939 0.496101 0.271611
0.890532 0.522637 0.308843
0.909972 0.549981 0.349584
0.929107 0.578515 0.394385
0.947692 0.608667 0.442847
0.066285 0.072663 0.070771
0.066499 0.073365 0.071412
0.068330 0.075349 0.072267
0.074617 0.078950 0.075685
0.081483 0.082887 0.078126
0.092805 0.090852 0.082460
0.108797 0.100618 0.089265
0.149172 0.115755 0.084810
0.196353 0.123720 0.079866
0.248295 0.126070 0.075013
0.303532 0.126741 0.071351
0.362860 0.130190 0.069642
0.421118 0.135683 0.067781
0.475868 0.145937 0.066316
0.524498 0.162264 0.065431
0.566583 0.184756 0.066102
0.603662 0.210544 0.068513
0.636591 0.237980 0.074067
0.666346 0.265568 0.081209
0.694301 0.294041 0.090852
0.720485 0.321813 0.103151
0.744961 0.348974 0.118715
0.762539 0.367987 0.131899
0.784726 0.394049 0.153017
0.805722 0.419562 0.176974
0.826169 0.444892 0.204196
0.846464 0.470405 0.233829
0.866667 0.496162 0.267094
0.886717 0.522545 0.303899
0.906584 0.549737 0.344701
0.926146 0.577966 0.389593
0.945220 0.608148 0.438544
0.069520 0.081788 0.074495
0.069306 0.082460 0.074800
0.070710 0.083925 0.075685
0.077302 0.089754 0.079561
0.085969 0.094820 0.082918
0.097444 0.101320 0.086397
0.114931 0.113313 0.092958
0.135409 0.124880 0.101106
0.185000 0.146548 0.098695
0.243076 0.157290 0.090761
0.301915 0.161379 0.083162
0.357794 0.161135 0.075105
0.412665 0.163668 0.069642
0.468208 0.174502 0.067628
0.517723 0.190005 0.066560
0.560693 0.210391 0.067475
0.598627 0.233707 0.070222
0.632105 0.258152 0.075196
0.662104 0.283452 0.082521
0.690211 0.309209 0.092042
0.716335 0.334722 0.104250
0.740688 0.359533 0.119478
0.763485 0.383612 0.137392
0.785031 0.407111 0.157961
0.805539 0.430579 0.181613
0.825772 0.454261 0.208133
0.845975 0.478645 0.237980
0.866178 0.503380 0.271153
0.886290 0.528985 0.307866
0.906249 0.555505 0.348333
0.925872 0.583246 0.393103
0.945068 0.613001 0.442054
0.072663 0.094423 0.079225
0.072877 0.095247 0.079469
0.073671 0.096803 0.080262
0.079744 0.103609 0.083406
0.092348 0.112428 0.089662
0.104677 0.119081 0.093202
0.122408 0.129091 0.098909
0.148196 0.145754 0.108217
0.176699 0.161379 0.119203
0.236515 0.188968 0.121828
0.303868 0.203189 0.108553
0.366186 0.210025 0.097505
0.421393 0.212558 0.085969
0.469581 0.213840 0.074891
0.514855 0.222385 0.068605
0.558099 0.240940 0.069032
0.596216 0.262058 0.072328
0.629816 0.284337 0.077577
0.659968 0.307164 0.085267
0.688380 0.330449 0.095521
0.714778 0.353796 0.108644
0.739284 0.376532 0.123781
0.762234 0.398596 0.142061
0.783993 0.420569 0.162570
0.804593 0.442481 0.186496
0.824887 0.464912 0.213199
0.845151 0.488014 0.242771
0.865476 0.511803 0.275395
0.885679 0.536492 0.312139
0.905669 0.562188 0.352605
0.925414 0.589319 0.397070
0.944701 0.618524 0.445716
0.076753 0.111849 0.084993
0.076875 0.112520 0.085481
0.078492 0.115053 0.086305
0.084138 0.122103 0.089326
0.098726 0.133639 0.097108
0.114504 0.142519 0.102907
0.132967 0.151217 0.107881
0.158083 0.165652 0.116030
0.193088 0.186984 0.128359
0.233280 0.208560 0.143465
0.297368 0.241062 0.155612
0.368719 0.259983 0.135531
0.430365 0.270420 0.120485
0.481361 0.275395 0.106172
0.523156 0.278141 0.092378
0.557885 0.279911 0.078462
0.592584 0.291875 0.074556
0.626459 0.311925 0.080812
0.657038 0.332189 0.089296
0.685664 0.353246 0.099672
0.712276 0.374060 0.112490
0.737148 0.394598 0.128542
0.760403 0.414679 0.146761
0.782284 0.435065 0.167941
0.803098 0.455451 0.191562
0.823545 0.476295 0.218051
0.843992 0.498329 0.247593
0.864378 0.521050 0.280430
0.884672 0.544823 0.316838
0.904875 0.569726 0.357183
0.924743 0.596124 0.401312
0.944182 0.624720 0.449866
0.081666 0.134401 0.092805
0.082155 0.135256 0.092927
0.084047 0.138155 0.094087
0.090364 0.145815 0.097047
0.104250 0.157900 0.103792
0.127504 0.171786 0.115023
0.147097 0.180758 0.120241
0.171664 0.191379 0.126619
0.205966 0.210727 0.138430
0.250584 0.236667 0.154482
0.300664 0.265202 0.174289
0.363684 0.303288 0.202792
0.433661 0.325994 0.175784
0.489540 0.337072 0.155001
0.533623 0.342596 0.137484
0.569482 0.345220 0.121859
0.599298 0.346044 0.106752
0.624903 0.345892 0.092073
0.652949 0.357916 0.093355
0.681971 0.376440 0.104433
0.709194 0.395209 0.117769
0.734554 0.413733 0.134279
0.758236 0.432288 0.152651
0.780545 0.450874 0.174014
0.801602 0.469856 0.197971
0.822202 0.489448 0.224308
0.842741 0.509941 0.253605
0.863218 0.531456 0.286076
0.883574 0.554131 0.322179
0.903807 0.578058 0.362158
0.923766 0.603571 0.405859
0.943359 0.631434 0.453925
0.088563 0.162203 0.101930
0.088502 0.163210 0.102235
0.091676 0.166842 0.103792
0.098939 0.174655 0.107057
0.111635 0.187289 0.112673
0.138582 0.203769 0.126009
0.164279 0.215671 0.135317
0.190066 0.226108 0.141970
0.220859 0.238163 0.150149
0.264408 0.263462 0.166140
0.315435 0.294347 0.187259
0.370611 0.328313 0.212894
0.426886 0.365423 0.250675
0.491371 0.393011 0.229862
0.540154 0.403784 0.203037
0.578424 0.408362 0.182467
0.609674 0.409064 0.164157
0.636011 0.408148 0.147616
0.659052 0.406561 0.131930
0.680446 0.405432 0.117678
0.705989 0.417548 0.124392
0.731624 0.433936 0.140291
0.755642 0.450660 0.159152
0.778164 0.467536 0.180758
0.799405 0.484871 0.204044
0.820249 0.503044 0.230533
0.840970 0.522332 0.260014
0.861601 0.542596 0.292149
0.882170 0.564263 0.328008
0.902617 0.587213 0.367590
0.922789 0.611933 0.411170
0.942535 0.639185 0.459083
0.097017 0.194858 0.113130
0.097810 0.196323 0.113893
0.101472 0.200198 0.115480
0.109529 0.207828 0.118929
0.123079 0.220493 0.124788
0.147829 0.237339 0.136080
0.184543 0.255833 0.153475
0.211490 0.265782 0.160250
0.243168 0.277470 0.168551
0.279515 0.292393 0.179446
0.328283 0.322179 0.200595
0.381140 0.355200 0.226352
0.425544 0.381140 0.249882
0.472786 0.412726 0.287358
0.532250 0.446021 0.285527
0.575799 0.455695 0.254795
0.610742 0.459510 0.231693
0.639368 0.459358 0.211398
0.663905 0.457465 0.193240
0.686275 0.455695 0.177066
0.706874 0.454536 0.163027
0.726253 0.454261 0.150607
0.749722 0.466438 0.163424
0.772946 0.482002 0.184329
0.794919 0.497993 0.207858
0.816037 0.514946 0.233921
0.837156 0.532982 0.263157
0.858183 0.552300 0.295140
0.879149 0.572992 0.330785
0.899962 0.595209 0.370336
0.920531 0.619257 0.413703
0.940703 0.645899 0.461555
0.106905 0.228702 0.125124
0.108644 0.230686 0.126040
0.112581 0.234623 0.127687
0.121096 0.242771 0.131441
0.135531 0.255528 0.137423
0.157412 0.272435 0.146700
0.198276 0.293065 0.166995
0.233860 0.307530 0.180545
0.265171 0.318395 0.189120
0.299107 0.330114 0.198825
0.339025 0.347967 0.213413
0.387884 0.377691 0.238071
0.437812 0.409339 0.266880
0.486397 0.441962 0.299748
0.522271 0.465949 0.334966
0.575982 0.501732 0.353521
0.614557 0.509575 0.320043
0.645899 0.511315 0.292546
0.672145 0.510399 0.270329
0.695216 0.508110 0.250858
0.715969 0.505669 0.234165
0.735225 0.503563 0.219547
0.753475 0.502495 0.207279
0.771054 0.502251 0.197024
0.792599 0.515099 0.216617
0.813962 0.530541 0.242588
0.835264 0.547204 0.271061
0.856504 0.565332 0.302922
0.877623 0.584833 0.338354
0.898619 0.606134 0.377539
0.919402 0.629236 0.420172
0.939788 0.655177 0.467933
0.120241 0.270268 0.140444
0.122774 0.272648 0.141573
0.126894 0.276280 0.143221
0.136385 0.284367 0.147127
0.151583 0.296696 0.153353
0.174044 0.313664 0.162600
0.212192 0.333623 0.181094
0.260777 0.353948 0.205631
0.291447 0.363653 0.214389
0.324559 0.374029 0.224216
0.359106 0.384894 0.235325
0.400275 0.404913 0.254185
0.447059 0.433814 0.282383
0.492592 0.463355 0.314336
0.535180 0.493019 0.349401
0.564599 0.512383 0.381872
0.613611 0.549493 0.418891
0.648249 0.556115 0.385565
0.676936 0.556695 0.355474
0.701259 0.555383 0.332982
0.722744 0.552850 0.313298
0.742184 0.549950 0.295811
0.760342 0.547692 0.281498
0.777676 0.546227 0.269322
0.794553 0.545739 0.259831
0.811673 0.547021 0.252842
0.832975 0.561822 0.279576
0.854368 0.578607 0.310948
0.875731 0.597101 0.345983
0.896941 0.617273 0.384466
0.917967 0.639582 0.426856
0.938628 0.664820 0.474189
0.136782 0.315129 0.157900
0.139498 0.317205 0.158999
0.143923 0.320684 0.160739
0.153933 0.328466 0.165011
0.170596 0.340337 0.171878
0.193759 0.355962 0.181521
0.227420 0.374578 0.197086
0.278264 0.394659 0.224308
0.318578 0.408148 0.242496
0.350134 0.416785 0.252171
0.382452 0.425605 0.262638
0.415747 0.435401 0.274846
0.456428 0.456825 0.298253
0.498817 0.483497 0.329076
0.539055 0.510582 0.362493
0.576898 0.537499 0.397559
0.604669 0.556176 0.429175
0.647059 0.590723 0.478370
0.677852 0.596185 0.446448
0.704158 0.596674 0.418250
0.726802 0.595209 0.395819
0.746883 0.592676 0.376593
0.765286 0.590082 0.360357
0.782498 0.587640 0.346105
0.799313 0.586297 0.334722
0.816312 0.586450 0.326146
0.833738 0.588251 0.320500
0.851926 0.592218 0.319219
0.873350 0.609461 0.353429
0.894743 0.628504 0.391211
0.915984 0.649836 0.432776
0.936919 0.674281 0.479713
0.157534 0.360937 0.177890
0.159884 0.362829 0.179202
0.164462 0.365759 0.180941
0.175204 0.372747 0.185458
0.192020 0.383185 0.192386
0.215824 0.397345 0.202457
0.245335 0.413581 0.215427
0.292210 0.431128 0.240879
0.345342 0.448585 0.271519
0.374792 0.455421 0.280735
0.405280 0.462837 0.291295
0.436316 0.471168 0.303105
0.466651 0.479744 0.315740
0.505486 0.502831 0.344213
0.543389 0.527520 0.376165
0.579492 0.552178 0.409277
0.613642 0.576287 0.442664
0.640162 0.594110 0.472389
0.674739 0.621241 0.516442
0.704280 0.631495 0.503258
0.728145 0.631952 0.477089
0.749142 0.630488 0.455055
0.767880 0.628290 0.437537
0.785428 0.626032 0.422126
0.802457 0.624384 0.409552
0.819425 0.623713 0.399329
0.836515 0.624506 0.392279
0.854215 0.627222 0.389014
0.872679 0.631922 0.389593
0.892424 0.640284 0.398230
0.914031 0.660914 0.439704
0.935424 0.684810 0.486427
0.182956 0.406561 0.201389
0.184298 0.407782 0.202152
0.189548 0.410651 0.204288
0.200229 0.416541 0.208835
0.217380 0.425635 0.216068
0.240452 0.437476 0.226230
0.269474 0.451545 0.239322
0.309270 0.466468 0.260288
0.361151 0.481819 0.291203
0.401068 0.492103 0.312016
0.429023 0.498177 0.322210
0.456977 0.504692 0.333043
0.484535 0.511955 0.345037
0.512230 0.521050 0.359258
0.547997 0.543633 0.389624
0.582116 0.566125 0.420691
0.615076 0.588525 0.452461
0.646235 0.610040 0.483650
0.671412 0.626886 0.512718
0.699641 0.648402 0.551446
0.727993 0.662959 0.555932
0.749752 0.663966 0.532158
0.769467 0.662898 0.511040
0.787625 0.661555 0.495155
0.804929 0.660182 0.481483
0.821866 0.659480 0.470466
0.838804 0.659754 0.462074
0.856077 0.661616 0.457160
0.874022 0.665339 0.456214
0.892790 0.671565 0.460273
0.912718 0.680903 0.470588
0.933562 0.695430 0.492836
0.211856 0.448646 0.226871
0.212253 0.449104 0.227146
0.212528 0.445991 0.225589
0.223087 0.451301 0.229984
0.239841 0.459052 0.237461
0.262028 0.469032 0.247440
0.289921 0.481178 0.260441
0.322728 0.494545 0.276768
0.371588 0.507652 0.306279
0.422065 0.521386 0.339605
0.447578 0.526635 0.349096
0.473274 0.532341 0.359380
0.498604 0.538567 0.370611
0.523644 0.545525 0.382971
0.550683 0.556847 0.400610
0.583490 0.577905 0.430274
0.615351 0.598871 0.460365
0.645502 0.618921 0.490486
0.673701 0.637903 0.520043
0.697627 0.654108 0.548394
0.720882 0.671626 0.582513
0.748470 0.689998 0.601038
0.768917 0.692195 0.580774
0.787991 0.692500 0.562463
0.805875 0.692226 0.547662
0.823148 0.692317 0.536339
0.840116 0.692836 0.527520
0.857237 0.694392 0.521538
0.874662 0.697688 0.519371
0.892821 0.703151 0.521782
0.911864 0.711604 0.530114
0.931487 0.722988 0.544854
0.243717 0.486854 0.254215
0.243717 0.486854 0.254215
0.244663 0.487160 0.254612
0.254582 0.490883 0.258885
0.270176 0.496712 0.265721
0.291447 0.504875 0.275456
0.317784 0.514794 0.288151
0.348486 0.526238 0.303593
0.390021 0.537743 0.328435
0.436439 0.549462 0.359747
0.471473 0.558038 0.381750
0.494636 0.562921 0.391302
0.517540 0.568200 0.401678
0.540398 0.573999 0.412665
0.563165 0.580499 0.424628
0.589532 0.593439 0.444648
0.619867 0.612604 0.473213
0.648707 0.630976 0.501823
0.675807 0.648493 0.530297
0.700771 0.665187 0.558068
0.722927 0.680507 0.584497
0.741909 0.694545 0.613214
0.769741 0.716640 0.642329
0.788907 0.720027 0.625116
0.807034 0.721492 0.609583
0.824460 0.722347 0.596704
0.841276 0.723629 0.587793
0.858061 0.725429 0.581353
0.874998 0.728481 0.578058
0.892485 0.733333 0.578912
0.910796 0.740841 0.585016
0.929320 0.750637 0.596033
0.281285 0.524376 0.285985
0.281254 0.524376 0.286107
0.281437 0.524559 0.286229
0.287907 0.526940 0.289342
0.302708 0.531884 0.296056
0.322759 0.538659 0.305516
0.347234 0.546899 0.317815
0.375738 0.556390 0.332525
0.409461 0.566674 0.352148
0.452247 0.576745 0.381628
0.493935 0.587427 0.413031
0.515953 0.591943 0.423163
0.536858 0.596521 0.432563
0.557916 0.601495 0.442542
0.578851 0.606897 0.453315
0.599420 0.612726 0.464698
0.625330 0.626459 0.486854
0.652888 0.643275 0.514122
0.678828 0.659388 0.541253
0.702937 0.674922 0.567773
0.724971 0.689662 0.592828
0.745510 0.704097 0.616663
0.761929 0.716243 0.641047
0.789975 0.740932 0.675990
0.808530 0.746273 0.663996
0.825864 0.748898 0.651148
0.842679 0.750820 0.640345
0.859098 0.753262 0.633570
0.875608 0.756466 0.629664
0.892485 0.761135 0.629389
0.910094 0.768032 0.633783
0.927489 0.776272 0.641474
0.321538 0.559533 0.320317
0.321538 0.559533 0.320317
0.321630 0.559564 0.320439
0.322789 0.560510 0.321416
0.336645 0.564630 0.327916
0.355169 0.570245 0.337133
0.377722 0.577234 0.348699
0.403784 0.585290 0.362707
0.432105 0.594385 0.379004
0.469368 0.603143 0.404791
0.507561 0.612451 0.433722
0.537682 0.619654 0.454841
0.556725 0.623407 0.463386
0.575830 0.627436 0.472572
0.595087 0.631861 0.482216
0.613977 0.636530 0.492378
0.632776 0.641474 0.503136
0.657740 0.655360 0.526818
0.682368 0.670069 0.552453
0.705409 0.684260 0.577325
0.726558 0.697932 0.600885
0.746426 0.711421 0.623133
0.765652 0.725399 0.644678
0.781857 0.737789 0.666926
0.807340 0.760281 0.698299
0.826596 0.769986 0.697353
0.843168 0.773526 0.686488
0.859403 0.776547 0.677943
0.875608 0.780117 0.672938
0.891936 0.784787 0.671717
0.908629 0.791012 0.674250
0.925170 0.798337 0.679896
0.361059 0.590478 0.354162
0.361303 0.590753 0.354498
0.361669 0.591089 0.354742
0.363012 0.592004 0.355962
0.369879 0.594598 0.359869
0.387060 0.599420 0.368688
0.407599 0.605371 0.379644
0.430793 0.612238 0.392676
0.456092 0.619928 0.407568
0.486244 0.627893 0.427832
0.521660 0.635492 0.454536
0.556237 0.643610 0.482460
0.575799 0.647333 0.492805
0.593194 0.650629 0.500908
0.610864 0.654322 0.509880
0.628473 0.658198 0.519127
0.645838 0.662379 0.529015
0.663325 0.667384 0.540032
0.686946 0.681025 0.564477
0.709071 0.694270 0.587945
0.729732 0.707301 0.610468
0.749294 0.720394 0.631800
0.767880 0.733577 0.651942
0.786069 0.747158 0.671534
0.802548 0.760189 0.692836
0.825162 0.780484 0.721706
0.844907 0.794003 0.730648
0.860807 0.798489 0.721828
0.876555 0.802609 0.715450
0.892424 0.807370 0.712459
0.908110 0.813138 0.713527
0.923735 0.820035 0.717861
0.403143 0.621454 0.391028
0.403418 0.621546 0.391119
0.403723 0.621790 0.391547
0.404852 0.622705 0.392645
0.406775 0.624079 0.394568
0.419287 0.627710 0.401465
0.437720 0.632807 0.411597
0.458473 0.638483 0.423468
0.481361 0.645014 0.437415
0.505547 0.652003 0.452979
0.538018 0.658320 0.477638
0.570306 0.665034 0.503532
0.596429 0.670558 0.523278
0.612482 0.673274 0.530816
0.628504 0.676234 0.538720
0.644648 0.679500 0.547234
0.660517 0.682948 0.556023
0.676143 0.686610 0.565209
0.693080 0.692775 0.577996
0.714168 0.705074 0.600122
0.734188 0.717556 0.621241
0.753231 0.730098 0.641291
0.771328 0.742672 0.660365
0.788632 0.755215 0.678401
0.806241 0.768826 0.697353
0.822629 0.782345 0.718502
0.842649 0.800626 0.745174
0.862516 0.817288 0.762844
0.877714 0.822782 0.756222
0.892973 0.828183 0.752468
0.907713 0.833341 0.750759
0.922454 0.839872 0.753597
0.442359 0.648798 0.426123
0.442542 0.648859 0.426276
0.442786 0.649073 0.426520
0.443824 0.649897 0.427741
0.445655 0.651179 0.429541
0.449683 0.653132 0.432746
0.466072 0.657282 0.442176
0.484962 0.662226 0.453346
0.505791 0.667720 0.466255
0.527886 0.673732 0.480812
0.555169 0.679469 0.500938
0.585107 0.685206 0.524926
0.614893 0.691188 0.549767
0.632197 0.694301 0.560052
0.646937 0.696925 0.567376
0.661677 0.699794 0.575219
0.676265 0.702907 0.583185
0.690486 0.706203 0.591485
0.704494 0.709682 0.599817
0.721004 0.717067 0.613703
0.740322 0.729000 0.633417
0.758724 0.741024 0.652308
0.776394 0.753201 0.670436
0.793332 0.765347 0.687861
0.809567 0.777371 0.705013
0.825193 0.789548 0.722225
0.841459 0.803525 0.743313
0.859312 0.820188 0.768246
0.879026 0.839414 0.793210
0.893431 0.845731 0.788785
0.907225 0.851255 0.786160
0.921172 0.857481 0.787045
0.482246 0.675257 0.463020
0.482338 0.675257 0.463111
0.482673 0.675502 0.463416
0.483528 0.676081 0.464454
0.485176 0.677119 0.466102
0.487495 0.678584 0.468421
0.495735 0.681209 0.473915
0.512566 0.685237 0.484230
0.531151 0.689693 0.496040
0.551507 0.694697 0.509483
0.573846 0.699825 0.525383
0.601770 0.704616 0.547631
0.629297 0.709590 0.570367
0.652064 0.714046 0.588159
0.665187 0.716365 0.594690
0.678462 0.718959 0.601434
0.691707 0.721798 0.608484
0.704738 0.724910 0.615778
0.717708 0.728176 0.623194
0.730343 0.731746 0.630762
0.746761 0.740475 0.645411
0.764584 0.752102 0.663325
0.781735 0.763790 0.680476
0.798215 0.775448 0.697353
0.814054 0.787015 0.714076
0.829068 0.798520 0.730556
0.843290 0.809781 0.746609
0.859281 0.823972 0.767575
0.875181 0.839200 0.790982
0.893523 0.858274 0.817502
0.906889 0.865873 0.817655
0.919982 0.872404 0.817472
0.520439 0.699123 0.499092
0.520714 0.699214 0.499336
0.520928 0.699489 0.499641
0.521874 0.700008 0.500603
0.523369 0.700984 0.502190
0.525536 0.702266 0.504356
0.528191 0.703822 0.507134
0.540276 0.706844 0.515068
0.557366 0.710658 0.526085
0.575677 0.714778 0.538415
0.595361 0.719234 0.552148
0.619715 0.723476 0.571069
0.644862 0.727993 0.591547
0.669276 0.733120 0.611902
0.684016 0.736202 0.621210
0.696040 0.738643 0.627253
0.708125 0.741390 0.633539
0.720180 0.744320 0.640040
0.732204 0.747494 0.646723
0.744045 0.750881 0.653559
0.755734 0.754482 0.660487
0.772000 0.764462 0.675746
0.788602 0.775662 0.692195
0.804593 0.786831 0.708614
0.819944 0.797971 0.724819
0.834562 0.808957 0.740841
0.848417 0.819760 0.756527
0.861479 0.830350 0.771817
0.876707 0.844358 0.792294
0.890105 0.857420 0.813077
0.906554 0.874907 0.837797
0.919646 0.885100 0.845090
0.558587 0.721767 0.535668
0.558801 0.721859 0.535851
0.559045 0.722011 0.536187
0.559960 0.722499 0.536980
0.561212 0.723293 0.538323
0.563043 0.724300 0.540215
0.565057 0.725490 0.542382
0.567651 0.727016 0.545037
0.582666 0.730007 0.554803
0.599329 0.733486 0.565942
0.616754 0.737362 0.577996
0.636591 0.741482 0.592706
0.659297 0.745602 0.610864
0.681727 0.750301 0.629297
0.701045 0.754818 0.644617
0.711910 0.757107 0.649928
0.723018 0.759701 0.655604
0.734188 0.762509 0.661402
0.745357 0.765560 0.667536
0.756558 0.768765 0.673732
0.767636 0.772213 0.680140
0.778927 0.776181 0.687251
0.795041 0.786954 0.703273
0.810636 0.797726 0.719234
0.825589 0.808438 0.735103
0.839841 0.818997 0.750729
0.853391 0.829435 0.766110
0.866178 0.839628 0.781155
0.877592 0.848966 0.794980
0.891173 0.861631 0.813474
0.903349 0.873808 0.833219
0.918242 0.890135 0.856657
0.594171 0.742336 0.569818
0.594415 0.742397 0.570001
0.594751 0.742641 0.570367
0.595575 0.743099 0.571283
0.596887 0.743893 0.572564
0.598566 0.744900 0.574395
0.600610 0.746120 0.576471
0.603021 0.747616 0.579065
0.608240 0.749599 0.583307
0.623346 0.752956 0.593500
0.639216 0.756771 0.604517
0.655695 0.761074 0.616266
0.676387 0.765103 0.632593
0.696956 0.769619 0.649378
