data/fiter_cube/48671653/1023253/file.cube
# Created by Adobe Lightroom plugin Export LUT (1.17.0)
# www.johnrellis.com/lightroom/exportlut.htm
# Preset: 青橙风光风景_02 云集
# Color profile: C:\Program Files (x86)\Common Files\Adobe\Color\Profiles\Recommended\AdobeRGB1998.icc
LUT_3D_SIZE 5
DOMAIN_MIN 0.000000 0.000000 0.000000
DOMAIN_MAX 0.903226 0.903226 0.903226
0.076020 0.094453 0.099977
0.296239 0.115297 0.103548
0.812345 0.142428 0.000000
1.000000 0.412696 0.000000
1.000000 0.550866 0.000000
0.111360 0.169039 0.138613
0.297490 0.187259 0.106661
0.839475 0.313725 0.000000
1.000000 0.481086 0.000000
1.000000 0.579461 0.000000
0.204440 0.331121 0.213840
0.318486 0.316228 0.228824
0.830808 0.475959 0.000000
1.000000 0.659754 0.000000
1.000000 0.667597 0.000000
0.380255 0.599145 0.325750
0.515526 0.586236 0.356817
0.778378 0.628168 0.291142
1.000000 0.741787 0.000000
1.000000 0.785000 0.000000
0.658106 0.902495 0.565270
0.765988 0.894285 0.635004
0.893980 0.870726 0.653712
1.000000 0.867247 0.495460
1.000000 0.831083 0.031464
0.060914 0.170809 0.191104
0.174228 0.168490 0.189822
0.760098 0.178470 0.166323
1.000000 0.438453 0.000000
1.000000 0.561028 0.000000
0.066316 0.205264 0.202121
0.239689 0.227298 0.219425
0.782986 0.304479 0.165286
1.000000 0.496254 0.000000
1.000000 0.588220 0.000000
0.138766 0.358648 0.257786
0.328405 0.375525 0.296818
0.804318 0.498909 0.193912
1.000000 0.661555 0.000000
1.000000 0.673854 0.000000
0.274296 0.630488 0.331914
0.507958 0.638148 0.422950
0.768215 0.654261 0.388464
1.000000 0.759548 0.212009
1.000000 0.791531 0.000000
0.568597 0.916777 0.547051
0.724636 0.906767 0.639796
0.885557 0.882811 0.690913
1.000000 0.881712 0.587335
1.000000 0.844144 0.293248
0.000000 0.349126 0.386114
0.090852 0.316289 0.385809
0.368322 0.273442 0.329229
0.983551 0.459113 0.453101
1.000000 0.642481 0.446662
0.000000 0.393256 0.399451
0.115267 0.407996 0.421027
0.451820 0.322820 0.381567
0.985870 0.521996 0.467445
1.000000 0.659968 0.438392
0.000000 0.465217 0.433265
0.170993 0.481941 0.455177
0.686091 0.559014 0.509575
0.994385 0.685817 0.502617
1.000000 0.725978 0.427466
0.000000 0.691798 0.580499
0.295232 0.712795 0.575891
0.718379 0.716518 0.610132
0.992462 0.820035 0.587518
1.000000 0.826688 0.453956
0.387427 0.943297 0.701045
0.540124 0.939513 0.699611
0.844724 0.920439 0.786740
0.977142 0.916472 0.769711
1.000000 0.889036 0.638392
0.000000 0.655299 0.688350
0.000000 0.684688 0.693385
0.350896 0.361730 0.599054
0.613519 0.405188 0.507347
1.000000 0.798642 0.808103
0.000000 0.705165 0.701717
0.000000 0.708522 0.705257
0.371588 0.427466 0.642390
0.649500 0.446967 0.539849
1.000000 0.826200 0.825834
0.000000 0.758145 0.721859
0.000000 0.763912 0.731167
0.551324 0.749538 0.757198
0.803220 0.627192 0.683772
1.000000 0.860410 0.837583
0.000000 0.832181 0.753170
0.000000 0.835874 0.762295
0.592126 0.835355 0.789761
0.921843 0.878904 0.838956
1.000000 0.897307 0.833158
0.000000 0.968078 0.849485
0.173465 0.968627 0.857023
0.685786 0.959503 0.880125
0.925963 0.941192 0.886900
1.000000 0.946380 0.878477
0.093263 0.924559 0.929320
0.020935 0.935729 0.929625
0.568048 0.879057 0.924743
0.777035 0.587915 0.852995
0.919524 0.774533 0.842039
0.090578 0.949920 0.932677
0.023346 0.958892 0.932921
0.576165 0.904997 0.928710
0.780575 0.633326 0.865293
0.921233 0.787625 0.847288
0.184909 0.973480 0.938659
0.179324 0.973571 0.938231
0.534051 0.961883 0.938537
0.786984 0.771450 0.903868
0.927245 0.827268 0.864897
0.300786 0.994965 0.946502
0.298192 0.995239 0.946227
0.428351 0.989960 0.945830
0.859464 0.956909 0.950408
0.959442 0.901884 0.914275
0.427192 1.000000 0.955474
0.427100 1.000000 0.954681
0.485206 1.000000 0.952422
0.863218 0.981872 0.959167
0.992554 0.984314 0.977050
