data/fiter_cube/48671653/1023253/file.cube
# Created by Adobe Lightroom plugin Export LUT (1.17.0)
# www.johnrellis.com/lightroom/exportlut.htm
# Preset: 青橙风光风景_02 云集
# Color profile: C:\Program Files (x86)\Common Files\Adobe\Color\Profiles\Recommended\AdobeRGB1998.icc
LUT_3D_SIZE 8
DOMAIN_MIN 0.000000 0.000000 0.000000
DOMAIN_MAX 0.903226 0.903226 0.903226
0.076020 0.094453 0.099977
0.159762 0.107362 0.102510
0.359808 0.111147 0.100984
0.672877 0.062379 0.029206
0.911620 0.235355 0.000000
1.000000 0.383429 0.000000
1.000000 0.484413 0.000000
1.000000 0.550866 0.000000
0.090944 0.128817 0.117861
0.160647 0.131075 0.101778
0.376226 0.145022 0.083650
0.685908 0.147951 0.000000
0.916228 0.279759 0.000000
1.000000 0.407660 0.000000
1.000000 0.498756 0.000000
1.000000 0.559442 0.000000
0.120699 0.185763 0.147555
0.161440 0.182284 0.155947
0.364324 0.210849 0.104555
0.725612 0.310460 0.000000
0.930877 0.403540 0.000000
1.000000 0.484504 0.000000
1.000000 0.546410 0.000000
1.000000 0.588708 0.000000
0.171511 0.273625 0.189700
0.215579 0.271183 0.199252
0.326940 0.277256 0.176699
0.693812 0.366766 0.000000
0.946990 0.561151 0.000000
1.000000 0.597131 0.000000
1.000000 0.621485 0.000000
1.000000 0.637537 0.000000
0.243778 0.396887 0.240299
0.295659 0.395789 0.254856
0.392493 0.375067 0.259129
0.604761 0.406043 0.181674
0.921447 0.573022 0.000000
1.000000 0.699672 0.000000
1.000000 0.710780 0.000000
1.000000 0.700160 0.000000
0.347753 0.553216 0.305455
0.408331 0.554498 0.329931
0.509697 0.532219 0.334325
0.659907 0.560784 0.302464
0.879088 0.592218 0.173434
1.000000 0.716640 0.000000
1.000000 0.770596 0.000000
1.000000 0.767453 0.000000
0.489815 0.745815 0.402289
0.544610 0.745998 0.430518
0.647272 0.730831 0.448829
0.746120 0.701320 0.457191
0.893889 0.761410 0.381567
1.000000 0.752102 0.231998
1.000000 0.795407 0.000000
1.000000 0.804471 0.000000
0.658106 0.902495 0.565270
0.698909 0.899962 0.593225
0.784268 0.891264 0.636591
0.859831 0.877531 0.646235
0.933074 0.883452 0.634516
1.000000 0.878508 0.538262
1.000000 0.837064 0.355474
1.000000 0.831083 0.031464
0.075593 0.129061 0.142367
0.119387 0.129305 0.142733
0.328069 0.136904 0.137209
0.648768 0.129976 0.095033
0.905638 0.266178 0.000000
1.000000 0.403082 0.000000
1.000000 0.494362 0.000000
1.000000 0.554894 0.000000
0.072206 0.143893 0.145968
0.138216 0.151553 0.152804
0.335302 0.167483 0.141238
0.659205 0.175784 0.089052
0.909270 0.300267 0.000000
1.000000 0.425147 0.000000
1.000000 0.507988 0.000000
1.000000 0.563256 0.000000
0.104829 0.195315 0.165225
0.164797 0.203555 0.182559
0.343725 0.226841 0.151553
0.695003 0.304906 0.033722
0.921324 0.403967 0.000000
1.000000 0.494057 0.000000
1.000000 0.553613 0.000000
1.000000 0.591943 0.000000
0.147189 0.285435 0.193576
0.216190 0.291203 0.222568
0.328710 0.292882 0.207584
0.680934 0.375921 0.110903
0.939239 0.555688 0.000000
1.000000 0.596796 0.000000
1.000000 0.626429 0.000000
1.000000 0.639948 0.000000
0.222477 0.409216 0.245518
0.290410 0.413336 0.272557
0.400031 0.391760 0.281102
0.603845 0.421027 0.215671
0.916655 0.579217 0.000000
1.000000 0.704280 0.000000
1.000000 0.712428 0.000000
1.000000 0.701839 0.000000
0.325048 0.564050 0.309422
0.391760 0.566278 0.336461
0.512200 0.548089 0.354467
0.658381 0.568841 0.330114
0.874540 0.601068 0.219059
1.000000 0.722042 0.000000
1.000000 0.774746 0.000000
1.000000 0.769711 0.000000
0.465156 0.753597 0.403265
0.524132 0.753597 0.431495
0.644556 0.741817 0.467536
0.749355 0.714473 0.474128
0.890684 0.766903 0.410681
1.000000 0.757687 0.277806
1.000000 0.799863 0.084199
1.000000 0.807858 0.000000
0.636011 0.906523 0.561089
0.680110 0.903807 0.589258
0.779873 0.895323 0.650019
0.856870 0.881315 0.658564
0.929717 0.884855 0.651148
1.000000 0.882261 0.564477
1.000000 0.841398 0.393011
1.000000 0.834897 0.163241
0.037140 0.188083 0.210910
0.090394 0.181918 0.212131
0.196384 0.182895 0.207492
0.573327 0.154482 0.220951
0.869596 0.250126 0.180789
1.000000 0.409491 0.122805
1.000000 0.511528 0.000000
1.000000 0.563043 0.000000
0.016205 0.207248 0.214817
0.105837 0.212284 0.222599
0.220371 0.198978 0.222995
0.582361 0.191623 0.224826
0.872892 0.287572 0.184085
1.000000 0.429450 0.120455
1.000000 0.523980 0.000000
1.000000 0.571038 0.000000
0.053773 0.231357 0.225803
0.121096 0.236759 0.233677
0.289006 0.260197 0.248112
0.617304 0.294804 0.229831
0.887114 0.389746 0.181949
1.000000 0.494545 0.107729
1.000000 0.566461 0.000000
1.000000 0.598840 0.000000
0.082124 0.306065 0.271397
0.149660 0.317906 0.270726
0.320043 0.330022 0.293584
0.640803 0.405341 0.245274
0.910643 0.539391 0.164096
1.000000 0.596674 0.081239
1.000000 0.635218 0.000000
1.000000 0.647456 0.000000
0.149844 0.432654 0.299077
0.207156 0.442969 0.300023
0.405768 0.451240 0.348180
0.592645 0.466316 0.316106
0.898802 0.600977 0.233646
1.000000 0.718288 0.064118
1.000000 0.719966 0.000000
1.000000 0.709926 0.000000
0.233982 0.590478 0.342657
0.288365 0.598199 0.343694
0.508019 0.602960 0.421515
0.647303 0.590173 0.415259
0.855070 0.630152 0.342046
1.000000 0.741543 0.255985
1.000000 0.790402 0.000000
1.000000 0.777279 0.000000
0.352514 0.777310 0.411688
0.418921 0.778927 0.426856
0.622644 0.776761 0.522728
0.746792 0.748867 0.531914
0.877775 0.783627 0.498817
1.000000 0.776669 0.405676
1.000000 0.816068 0.306767
1.000000 0.820737 0.000000
0.530755 0.921843 0.541161
0.590204 0.918364 0.568719
0.742702 0.908141 0.661067
0.845274 0.894224 0.697902
0.917388 0.888151 0.700740
0.990967 0.894133 0.641932
1.000000 0.856413 0.505913
1.000000 0.848631 0.340520
0.000000 0.283391 0.316442
0.000000 0.298405 0.318303
0.171389 0.206058 0.298955
0.305272 0.242710 0.286290
0.781979 0.227024 0.348363
0.978393 0.406012 0.345953
1.000000 0.538048 0.331518
1.000000 0.599542 0.284215
0.000000 0.307927 0.321630
0.000000 0.311833 0.326757
0.180545 0.228367 0.314611
0.329259 0.257084 0.301793
0.797665 0.280400 0.365698
0.979187 0.429084 0.350561
1.000000 0.551202 0.334356
1.000000 0.605951 0.280766
0.000000 0.333867 0.334264
0.000000 0.339727 0.341741
0.234348 0.338872 0.361639
0.425910 0.310094 0.354803
0.817685 0.376898 0.379278
0.982269 0.501427 0.365057
1.000000 0.593683 0.341283
1.000000 0.631037 0.275975
0.000000 0.373297 0.352239
0.000000 0.379065 0.359289
0.254093 0.394263 0.383032
0.554955 0.443061 0.408606
0.848356 0.521843 0.399329
0.988556 0.605035 0.381476
1.000000 0.659388 0.348791
1.000000 0.676265 0.276677
0.000000 0.457923 0.400458
0.073274 0.472389 0.414679
0.306432 0.510185 0.436957
0.560204 0.523308 0.458564
0.861112 0.640558 0.432746
0.996460 0.725734 0.401282
1.000000 0.740383 0.363561
1.000000 0.734218 0.280888
0.028138 0.625971 0.481697
0.182101 0.633906 0.480171
0.388098 0.656214 0.475410
0.638331 0.651850 0.528313
0.823484 0.684718 0.502129
0.988800 0.776516 0.471534
1.000000 0.821439 0.400092
1.000000 0.796658 0.292271
0.251499 0.802609 0.545159
0.318334 0.805631 0.543145
0.484565 0.813260 0.539757
0.726619 0.803555 0.626459
0.849302 0.802884 0.618219
0.975158 0.812345 0.572412
1.000000 0.844999 0.517144
1.000000 0.845670 0.371496
0.451575 0.935088 0.638758
0.495460 0.934112 0.639460
0.618006 0.930236 0.646937
0.815488 0.915770 0.751003
0.899321 0.899016 0.758907
0.972229 0.910216 0.736660
1.000000 0.881041 0.655543
1.000000 0.873411 0.540703
0.000000 0.424659 0.463416
0.000000 0.441413 0.466041
0.084565 0.376959 0.460212
0.319097 0.251804 0.382879
0.433265 0.305119 0.373663
0.892638 0.360357 0.492134
1.000000 0.604120 0.576837
1.000000 0.700954 0.597864
0.000000 0.452644 0.470588
0.000000 0.452979 0.469215
0.102663 0.405371 0.471626
0.331365 0.270024 0.397192
0.450507 0.319280 0.386389
0.901122 0.384955 0.500267
1.000000 0.615808 0.580133
1.000000 0.705562 0.597498
0.000000 0.476600 0.479072
0.000000 0.481941 0.485573
0.126223 0.494148 0.504845
0.369665 0.337407 0.448249
0.534417 0.372503 0.441840
0.922026 0.504997 0.553368
1.000000 0.653590 0.590448
1.000000 0.719814 0.592920
0.000000 0.515648 0.498238
0.000000 0.520836 0.504417
0.174563 0.534997 0.524895
0.458228 0.500969 0.541894
0.680232 0.488289 0.537163
0.936309 0.623194 0.593317
1.000000 0.708766 0.601465
1.000000 0.737118 0.569055
0.000000 0.565087 0.520439
0.000000 0.569970 0.526329
0.215061 0.583551 0.546044
0.497322 0.598566 0.579553
0.785489 0.673426 0.615747
0.951080 0.738155 0.622736
1.000000 0.774929 0.612696
1.000000 0.778622 0.566400
0.000000 0.644434 0.561913
0.000000 0.656062 0.573541
0.276890 0.691371 0.611872
0.547875 0.729397 0.640162
0.769192 0.737606 0.656825
0.954437 0.821164 0.667567
1.000000 0.849119 0.647181
1.000000 0.832120 0.586664
0.000000 0.834257 0.703761
0.000000 0.838773 0.708736
0.373785 0.845365 0.698726
0.616297 0.849699 0.687831
0.812528 0.833280 0.726955
0.935149 0.852628 0.721614
1.000000 0.882078 0.709102
1.000000 0.883116 0.628748
0.285191 0.952636 0.765805
0.354833 0.951659 0.763699
0.525780 0.947265 0.758694
0.703761 0.939696 0.758236
0.869871 0.925597 0.816831
0.946654 0.922637 0.814420
1.000000 0.909911 0.783383
1.000000 0.905730 0.726223
0.000000 0.605402 0.640955
0.000000 0.618891 0.643275
0.000000 0.599176 0.641932
0.241032 0.404425 0.593469
0.471046 0.308415 0.485237
0.573632 0.380987 0.475990
0.957519 0.570764 0.669520
1.000000 0.808164 0.802884
0.000000 0.640070 0.650477
0.000000 0.640192 0.649042
0.000000 0.623499 0.651087
0.267094 0.434882 0.606439
0.482124 0.323613 0.495583
0.581567 0.393500 0.484077
0.960113 0.587274 0.676753
1.000000 0.811276 0.803738
0.000000 0.660914 0.656764
0.000000 0.661036 0.655695
0.000000 0.669306 0.669673
0.352392 0.543603 0.650172
0.519402 0.377508 0.531640
0.639155 0.441932 0.529534
0.968231 0.642908 0.702052
1.000000 0.821256 0.805722
0.000000 0.692134 0.669184
0.000000 0.694636 0.672145
0.000000 0.703304 0.686275
0.408057 0.703761 0.706386
0.581567 0.484474 0.604120
0.740017 0.542657 0.614893
0.976989 0.742306 0.754665
1.000000 0.835508 0.805844
0.000000 0.736202 0.689387
0.000000 0.739071 0.693355
0.000000 0.746334 0.706203
0.434607 0.751705 0.726558
0.666621 0.690852 0.728023
0.845029 0.702174 0.725124
0.983886 0.817929 0.790860
1.000000 0.851377 0.798886
0.000000 0.782834 0.709712
0.000000 0.785122 0.713222
0.030884 0.790738 0.724910
0.469062 0.794736 0.743954
0.711910 0.797452 0.769650
0.903044 0.849912 0.804166
0.991821 0.875303 0.811032
1.000000 0.877440 0.794614
0.000000 0.838621 0.734829
0.000000 0.843778 0.741238
0.194583 0.858152 0.762173
0.519646 0.873777 0.794491
0.746731 0.884398 0.817227
0.888396 0.881498 0.824491
0.991913 0.918273 0.842130
1.000000 0.918273 0.818051
0.000000 0.966949 0.842649
0.000000 0.967041 0.845518
0.342565 0.965942 0.855314
0.605097 0.959594 0.861692
0.793240 0.950011 0.851774
0.915709 0.937774 0.873747
0.985077 0.939818 0.872587
1.000000 0.938781 0.855253
0.000000 0.795407 0.814969
0.000000 0.803586 0.815793
0.000000 0.830533 0.818570
0.275700 0.716152 0.805783
0.453925 0.451240 0.735653
0.644923 0.397620 0.627497
0.750698 0.507012 0.627497
0.991760 0.787015 0.833371
0.000000 0.820188 0.819791
0.000000 0.827176 0.820462
0.000000 0.836576 0.820584
0.287602 0.734401 0.810147
0.457954 0.469551 0.744472
0.651759 0.410742 0.635004
0.754177 0.516594 0.632502
0.992370 0.792905 0.836149
0.000000 0.847776 0.826108
0.000000 0.848020 0.825528
0.000000 0.848600 0.825620
0.316564 0.794369 0.824430
0.480873 0.541527 0.773617
0.674372 0.456794 0.660945
0.766049 0.550958 0.650446
0.994537 0.812558 0.845701
0.000000 0.867063 0.832486
0.000000 0.867247 0.831968
0.000000 0.867308 0.832883
0.340002 0.862089 0.841794
0.590143 0.710872 0.815640
0.709560 0.538079 0.704524
0.813535 0.624384 0.703670
0.998260 0.843656 0.861875
0.000000 0.892241 0.841672
0.000000 0.892393 0.841184
0.000000 0.891936 0.842679
0.333135 0.885557 0.850034
0.658473 0.869169 0.858732
0.751125 0.655879 0.764096
0.869810 0.730770 0.775753
1.000000 0.884855 0.886534
0.000000 0.921447 0.853269
0.000000 0.921599 0.852873
0.000000 0.920348 0.855009
0.371893 0.912963 0.861570
0.661433 0.900267 0.870329
0.824796 0.858396 0.868009
0.927489 0.854276 0.858518
1.000000 0.921904 0.909270
0.000000 0.947448 0.862394
0.000000 0.947204 0.861662
0.000000 0.944579 0.864012
0.422278 0.936492 0.870359
0.688106 0.923613 0.879759
0.853666 0.916655 0.893645
0.963378 0.940154 0.916655
1.000000 0.944823 0.915648
0.000000 0.978790 0.880888
0.000000 0.978729 0.880308
0.000000 0.977935 0.878691
0.440894 0.971771 0.888518
0.717403 0.964080 0.906920
0.872770 0.962188 0.924865
0.954925 0.955169 0.925353
1.000000 0.966796 0.933013
0.093263 0.924559 0.929320
0.080751 0.927886 0.929412
0.000000 0.939361 0.929717
0.391180 0.920073 0.928313
0.619043 0.810819 0.917296
0.736416 0.623621 0.875273
0.838407 0.588983 0.811521
0.919524 0.774533 0.842039
0.089937 0.933104 0.930358
0.077943 0.936156 0.930449
0.000000 0.946746 0.930724
0.395361 0.926970 0.929351
0.632898 0.824430 0.918822
0.737575 0.637140 0.878416
0.840574 0.598077 0.814847
0.920043 0.778470 0.843595
0.093141 0.956786 0.933745
0.082734 0.959289 0.933776
0.047669 0.962799 0.933440
0.396582 0.949981 0.932952
0.677577 0.866178 0.924315
0.740902 0.682948 0.889189
0.847990 0.628626 0.826474
0.921782 0.791806 0.849027
0.152560 0.968536 0.936950
0.149783 0.968780 0.936797
0.141451 0.969543 0.936187
0.353826 0.965515 0.936065
0.693294 0.915190 0.932982
0.745174 0.756802 0.907286
0.858305 0.678279 0.844663
0.925017 0.813504 0.858518
0.217594 0.979156 0.940612
0.216129 0.979217 0.940490
0.211551 0.979278 0.940063
0.201877 0.979065 0.939330
0.659693 0.958953 0.941375
0.798886 0.873442 0.928008
0.867185 0.743160 0.865629
0.934997 0.845548 0.876463
0.283757 0.991669 0.945220
0.282963 0.991760 0.945129
0.279789 0.992004 0.944793
0.273808 0.992187 0.944182
0.591363 0.975860 0.945342
0.830411 0.957855 0.948699
0.879454 0.831174 0.898528
0.954131 0.889647 0.905730
0.353735 1.000000 0.950652
0.353185 1.000000 0.950591
0.351415 1.000000 0.950347
0.347936 1.000000 0.949859
0.612940 0.990661 0.950927
0.818387 0.972625 0.953796
0.924651 0.953918 0.954498
0.976715 0.941283 0.943328
0.427192 1.000000 0.955474
0.427192 1.000000 0.955230
0.427131 1.000000 0.954437
0.426978 1.000000 0.952880
0.637324 1.000000 0.953704
0.831266 0.984863 0.957763
0.934844 0.976471 0.964599
0.992554 0.984314 0.977050
