data/fiter_cube/48671653/1023253/file.cube
# Created by Adobe Lightroom plugin Export LUT (1.17.0)
# www.johnrellis.com/lightroom/exportlut.htm
# Preset: 青橙风光风景_02 云集
# Color profile: C:\Program Files (x86)\Common Files\Adobe\Color\Profiles\Recommended\AdobeRGB1998.icc
LUT_3D_SIZE 32
DOMAIN_MIN 0.0 0.0 0.0
DOMAIN_MAX 1.0 1.0 1.0
0.076020 0.094453 0.099977
0.087373 0.096254 0.100099
0.101869 0.098573 0.100282
0.126009 0.102541 0.101381
0.159762 0.107362 0.102510
0.198367 0.111666 0.103456
0.243290 0.114626 0.104005
0.296239 0.115297 0.103548
0.359808 0.111147 0.100984
0.432807 0.100099 0.095521
0.512749 0.081178 0.086305
0.593683 0.061402 0.070985
0.672877 0.062379 0.029206
0.747402 0.096529 0.000000
0.812345 0.142428 0.000000
0.866972 0.189670 0.000000
0.911620 0.235355 0.000000
0.947509 0.277684 0.000000
0.976410 0.316258 0.000000
1.000000 0.351293 0.000000
1.000000 0.383429 0.000000
1.000000 0.412696 0.000000
1.000000 0.439216 0.000000
1.000000 0.463111 0.000000
1.000000 0.484413 0.000000
1.000000 0.503593 0.000000
1.000000 0.520928 0.000000
1.000000 0.536614 0.000000
1.000000 0.550866 0.000000
1.000000 0.564019 0.000000
1.000000 0.576410 0.000000
1.000000 0.588006 0.018494
0.077241 0.098665 0.101289
0.087861 0.099428 0.100069
0.102937 0.102876 0.098909
0.127382 0.106050 0.099825
0.161135 0.110628 0.100954
0.199710 0.114687 0.101900
0.244755 0.117617 0.102419
0.297795 0.118288 0.101930
0.361334 0.114748 0.099733
0.434699 0.104555 0.094026
0.514336 0.087984 0.084840
0.595239 0.072480 0.068818
0.674159 0.076081 0.022400
0.748531 0.106691 0.000000
0.813291 0.149783 0.000000
0.867643 0.195621 0.000000
0.912078 0.240116 0.000000
0.947845 0.281682 0.000000
0.976623 0.319554 0.000000
1.000000 0.354131 0.000000
1.000000 0.385779 0.000000
1.000000 0.414771 0.000000
1.000000 0.441077 0.000000
1.000000 0.464607 0.000000
1.000000 0.485847 0.000000
1.000000 0.504936 0.000000
1.000000 0.522026 0.000000
1.000000 0.537560 0.000000
1.000000 0.551751 0.000000
1.000000 0.564813 0.000000
1.000000 0.577020 0.000000
1.000000 0.588586 0.010254
0.078187 0.104677 0.103395
0.088808 0.104829 0.103639
0.102846 0.105592 0.100160
0.129244 0.111482 0.097536
0.162905 0.115236 0.098726
0.201602 0.118959 0.099702
0.246647 0.121614 0.100221
0.299840 0.122408 0.099886
0.363653 0.119234 0.097505
0.436713 0.110536 0.092042
0.516472 0.096620 0.082307
0.597253 0.084688 0.065370
0.675959 0.090517 0.012848
0.750027 0.118746 0.000000
0.814359 0.159182 0.000000
0.868589 0.203067 0.000000
0.912749 0.246586 0.000000
0.948302 0.287053 0.000000
0.976989 0.324102 0.000000
1.000000 0.358038 0.000000
1.000000 0.389197 0.000000
1.000000 0.417670 0.000000
1.000000 0.443641 0.000000
1.000000 0.466865 0.000000
1.000000 0.487861 0.000000
1.000000 0.506554 0.000000
1.000000 0.523583 0.000000
1.000000 0.538933 0.000000
1.000000 0.552880 0.000000
1.000000 0.565850 0.000000
1.000000 0.577905 0.000000
1.000000 0.589349 0.000366
0.083925 0.117311 0.109865
0.094575 0.116762 0.113741
0.102724 0.116060 0.109133
0.128084 0.116793 0.100496
0.166659 0.126436 0.093782
0.205753 0.128847 0.094575
0.250828 0.130770 0.095369
0.304570 0.131594 0.094820
0.368353 0.129305 0.092653
0.441688 0.122835 0.087312
0.521202 0.113344 0.076356
0.601617 0.107424 0.055695
0.679835 0.116030 0.000000
0.753140 0.141909 0.000000
0.816953 0.178256 0.000000
0.870451 0.219089 0.000000
0.914153 0.260014 0.000000
0.949310 0.298497 0.000000
0.977691 0.333867 0.000000
1.000000 0.366400 0.000000
1.000000 0.396490 0.000000
1.000000 0.424079 0.000000
1.000000 0.449195 0.000000
1.000000 0.471778 0.000000
1.000000 0.492103 0.000000
1.000000 0.510338 0.000000
1.000000 0.526787 0.000000
1.000000 0.541833 0.000000
1.000000 0.555413 0.000000
1.000000 0.568078 0.000000
1.000000 0.579858 0.000000
1.000000 0.590997 0.000000
0.090944 0.128817 0.117861
0.100008 0.128817 0.121614
0.107088 0.127871 0.122469
0.121370 0.126284 0.113497
0.160647 0.131075 0.101778
0.209751 0.143343 0.088899
0.257511 0.146487 0.086915
0.311772 0.146609 0.086213
0.376226 0.145022 0.083650
0.449500 0.141268 0.077577
0.528557 0.136782 0.065309
0.608240 0.136660 0.025422
0.685908 0.147951 0.000000
0.758114 0.172274 0.000000
0.820737 0.205112 0.000000
0.873320 0.242313 0.000000
0.916228 0.279759 0.000000
0.950774 0.315526 0.000000
0.978759 0.348486 0.000000
1.000000 0.379126 0.000000
1.000000 0.407660 0.000000
1.000000 0.433936 0.000000
1.000000 0.457801 0.000000
1.000000 0.479408 0.000000
1.000000 0.498756 0.000000
1.000000 0.516258 0.000000
1.000000 0.532036 0.000000
1.000000 0.546288 0.000000
1.000000 0.559442 0.000000
1.000000 0.571557 0.000000
1.000000 0.582849 0.000000
1.000000 0.593591 0.000000
0.097139 0.140993 0.124544
0.105653 0.141512 0.128359
0.112642 0.140658 0.129000
0.124727 0.141024 0.126314
0.146670 0.136202 0.115663
0.198306 0.147555 0.103578
0.259342 0.161624 0.086305
0.321538 0.168612 0.072755
0.386389 0.167208 0.068727
0.459907 0.165347 0.059907
0.538506 0.164950 0.030091
0.617182 0.170138 0.000000
0.693782 0.183902 0.000000
0.764614 0.207309 0.000000
0.825895 0.237278 0.000000
0.877195 0.270817 0.000000
0.919036 0.304845 0.000000
0.952789 0.337407 0.000000
0.980194 0.367529 0.000000
1.000000 0.395880 0.000000
1.000000 0.422400 0.000000
1.000000 0.446754 0.000000
1.000000 0.469032 0.000000
1.000000 0.489326 0.000000
1.000000 0.507591 0.000000
1.000000 0.524071 0.000000
1.000000 0.538933 0.000000
1.000000 0.552422 0.000000
1.000000 0.564752 0.000000
1.000000 0.576226 0.000000
1.000000 0.586877 0.000000
1.000000 0.597101 0.000000
0.103395 0.154360 0.131075
0.111879 0.155032 0.135500
0.118898 0.154208 0.136110
0.130709 0.152804 0.137453
0.147585 0.154208 0.129274
0.181613 0.149752 0.117708
0.243137 0.166445 0.105806
0.318181 0.182986 0.084474
0.396429 0.196994 0.053162
0.472786 0.196017 0.002106
0.550744 0.198489 0.000000
0.628138 0.206699 0.000000
0.703700 0.223239 0.000000
0.772702 0.246098 0.000000
0.832212 0.273716 0.000000
0.881865 0.303899 0.000000
0.922454 0.334325 0.000000
0.955261 0.363287 0.000000
0.981994 0.390509 0.000000
1.000000 0.416022 0.000000
1.000000 0.440192 0.000000
1.000000 0.462501 0.000000
1.000000 0.483070 0.000000
1.000000 0.501640 0.000000
1.000000 0.518547 0.000000
1.000000 0.533684 0.000000
1.000000 0.547448 0.000000
1.000000 0.559960 0.000000
1.000000 0.571466 0.000000
1.000000 0.582086 0.000000
1.000000 0.592004 0.000000
1.000000 0.601526 0.000000
0.111360 0.169039 0.138613
0.118959 0.169833 0.142580
0.126131 0.169406 0.144045
0.138094 0.167880 0.145144
0.153292 0.168551 0.142184
0.175906 0.167727 0.132021
0.223301 0.167880 0.120272
0.297490 0.187259 0.106661
0.387884 0.208316 0.082307
0.479377 0.230564 0.008209
0.562524 0.237552 0.000000
0.640406 0.247623 0.000000
0.715358 0.265141 0.000000
0.782040 0.288121 0.000000
0.839475 0.313725 0.000000
0.887358 0.340429 0.000000
0.926421 0.367346 0.000000
0.958099 0.392950 0.000000
0.984039 0.416754 0.000000
1.000000 0.439490 0.000000
1.000000 0.461036 0.000000
1.000000 0.481086 0.000000
1.000000 0.499489 0.000000
1.000000 0.516258 0.000000
1.000000 0.531487 0.000000
1.000000 0.545312 0.000000
1.000000 0.557733 0.000000
1.000000 0.569055 0.000000
1.000000 0.579461 0.000000
1.000000 0.589075 0.000000
1.000000 0.598169 0.000000
1.000000 0.606836 0.000000
0.120699 0.185763 0.147555
0.128115 0.186404 0.151095
0.135348 0.186313 0.153170
0.147189 0.184878 0.154177
0.161440 0.182284 0.155947
0.182162 0.186343 0.146761
0.210605 0.182589 0.135286
0.274998 0.188540 0.122316
0.364324 0.210849 0.104555
0.467842 0.237400 0.070680
0.565698 0.268956 0.000000
0.651423 0.292699 0.000000
0.725612 0.310460 0.000000
0.791623 0.332403 0.000000
0.847684 0.356603 0.000000
0.893492 0.380468 0.000000
0.930877 0.403540 0.000000
0.961395 0.425696 0.000000
0.986389 0.446204 0.000000
1.000000 0.465797 0.000000
1.000000 0.484504 0.000000
1.000000 0.501946 0.000000
1.000000 0.518120 0.000000
1.000000 0.533013 0.000000
1.000000 0.546410 0.000000
1.000000 0.558556 0.000000
1.000000 0.569543 0.000000
1.000000 0.579553 0.000000
1.000000 0.588708 0.000000
1.000000 0.597284 0.000000
1.000000 0.605341 0.000000
1.000000 0.613092 0.000000
0.131868 0.204379 0.157321
0.138766 0.205081 0.160586
0.146090 0.205234 0.163119
0.157900 0.203708 0.164096
0.173281 0.201450 0.165530
0.191379 0.203220 0.161837
0.217929 0.205600 0.151095
0.253208 0.198215 0.137972
0.339666 0.212375 0.122835
0.442145 0.238712 0.098512
0.552728 0.273625 0.028412
0.649775 0.315465 0.000000
0.734829 0.357824 0.000000
0.800046 0.377905 0.000000
0.854429 0.399420 0.000000
0.899413 0.421332 0.000000
0.935790 0.442451 0.000000
0.964904 0.460853 0.000000
0.988922 0.478004 0.000000
1.000000 0.494392 0.000000
1.000000 0.510277 0.000000
1.000000 0.525109 0.000000
1.000000 0.538903 0.000000
1.000000 0.551507 0.000000
1.000000 0.562982 0.000000
1.000000 0.573419 0.000000
1.000000 0.582849 0.000000
1.000000 0.591394 0.000000
1.000000 0.599298 0.000000
1.000000 0.606592 0.000000
1.000000 0.613550 0.000000
1.000000 0.620264 0.000000
0.143771 0.225315 0.167453
0.150332 0.225986 0.170596
0.158633 0.226413 0.173922
0.170077 0.224887 0.174685
0.185916 0.222477 0.175998
0.202518 0.219577 0.177310
0.228153 0.226169 0.167483
0.261662 0.226108 0.155062
0.317082 0.219455 0.139712
0.416266 0.240055 0.120668
0.526574 0.273075 0.085939
0.637049 0.318639 0.000000
0.729824 0.369787 0.000000
0.806851 0.423987 0.000000
0.861784 0.444343 0.000000
0.904631 0.462837 0.000000
0.939696 0.480629 0.000000
0.968231 0.497292 0.000000
0.991638 0.511894 0.000000
1.000000 0.525109 0.000000
1.000000 0.537987 0.000000
1.000000 0.550072 0.000000
1.000000 0.561395 0.000000
1.000000 0.571801 0.000000
1.000000 0.581231 0.000000
1.000000 0.589807 0.000000
1.000000 0.597528 0.000000
1.000000 0.604547 0.000000
1.000000 0.610986 0.000000
1.000000 0.616999 0.000000
1.000000 0.622736 0.000000
1.000000 0.628290 0.000000
0.156954 0.248417 0.178286
0.163516 0.249027 0.181308
0.172335 0.249790 0.185367
0.183810 0.248234 0.186069
0.199985 0.245701 0.187289
0.218173 0.242649 0.188815
0.240360 0.245487 0.184176
0.272862 0.250828 0.172488
0.314946 0.248051 0.158175
0.394659 0.242924 0.139254
0.500664 0.273533 0.114199
0.611444 0.315892 0.060945
0.718288 0.371862 0.000000
0.799832 0.426246 0.000000
0.864286 0.478798 0.000000
0.910033 0.506065 0.000000
0.943694 0.520287 0.000000
0.971069 0.533318 0.000000
0.993805 0.545495 0.000000
1.000000 0.557305 0.000000
1.000000 0.567285 0.000000
1.000000 0.576684 0.000000
1.000000 0.585382 0.000000
1.000000 0.593439 0.000000
1.000000 0.600732 0.000000
1.000000 0.607385 0.000000
1.000000 0.613397 0.000000
1.000000 0.618799 0.000000
1.000000 0.623774 0.000000
1.000000 0.628382 0.000000
1.000000 0.632807 0.000000
1.000000 0.637201 0.000000
0.171511 0.273625 0.189700
0.177737 0.274235 0.192477
0.186648 0.275029 0.196567
0.199161 0.273716 0.198123
0.215579 0.271183 0.199252
0.234806 0.267887 0.200656
0.254520 0.264256 0.201572
0.286198 0.273503 0.190555
0.326940 0.277256 0.176699
0.377539 0.271489 0.159884
0.477516 0.275456 0.136904
0.586511 0.314366 0.102174
0.693812 0.366766 0.000000
0.789517 0.427588 0.000000
0.857633 0.480629 0.000000
0.909911 0.529320 0.000000
0.946990 0.561151 0.000000
0.973968 0.570916 0.000000
0.995850 0.579675 0.000000
1.000000 0.588525 0.000000
1.000000 0.597131 0.000000
1.000000 0.604303 0.000000
1.000000 0.610590 0.000000
1.000000 0.616266 0.000000
1.000000 0.621485 0.000000
1.000000 0.626123 0.000000
1.000000 0.630335 0.000000
1.000000 0.634150 0.000000
1.000000 0.637537 0.000000
1.000000 0.640711 0.000000
1.000000 0.643793 0.000000
1.000000 0.646876 0.000000
0.186984 0.301274 0.201419
0.193881 0.301793 0.204410
0.202426 0.302556 0.208164
0.216007 0.301823 0.211002
0.232731 0.299077 0.211978
0.252781 0.295506 0.213260
0.274571 0.291295 0.214908
0.301488 0.295262 0.209354
0.341131 0.303929 0.196231
0.389837 0.305882 0.179995
0.447791 0.297032 0.160128
0.563592 0.314885 0.130800
0.670008 0.363378 0.081270
0.768032 0.421668 0.000000
0.848173 0.481300 0.000000
0.903777 0.530877 0.000000
0.945373 0.574151 0.000000
0.975708 0.609155 0.000000
0.997986 0.614984 0.000000
1.000000 0.620752 0.000000
1.000000 0.626520 0.000000
1.000000 0.632105 0.000000
1.000000 0.636622 0.000000
1.000000 0.640070 0.000000
1.000000 0.643091 0.000000
1.000000 0.645838 0.000000
1.000000 0.648219 0.000000
1.000000 0.650324 0.000000
1.000000 0.652216 0.000000
1.000000 0.653895 0.000000
1.000000 0.655573 0.000000
1.000000 0.657313 0.000000
0.204440 0.331121 0.213840
0.210758 0.331701 0.216617
0.219577 0.332341 0.220310
0.234653 0.332097 0.224521
0.251865 0.329290 0.225376
0.272679 0.325566 0.226596
0.295659 0.320928 0.228122
0.318486 0.316228 0.228824
0.356970 0.328771 0.216342
0.404028 0.336584 0.200900
0.459327 0.336614 0.181888
0.531334 0.329625 0.157809
0.647272 0.361761 0.120455
0.747219 0.417517 0.022126
0.830808 0.475959 0.000000
0.895598 0.531426 0.000000
0.940002 0.575891 0.000000
0.973114 0.613062 0.000000
0.998230 0.644160 0.000000
1.000000 0.653651 0.000000
1.000000 0.656641 0.000000
1.000000 0.659754 0.000000
1.000000 0.662531 0.000000
1.000000 0.664454 0.000000
1.000000 0.665431 0.000000
1.000000 0.666224 0.000000
1.000000 0.666804 0.000000
1.000000 0.667292 0.000000
1.000000 0.667597 0.000000
1.000000 0.667842 0.000000
1.000000 0.668116 0.000000
1.000000 0.668482 0.000000
0.223117 0.363073 0.226719
0.229740 0.363622 0.229618
0.238315 0.364233 0.233127
0.255131 0.364569 0.238804
0.272801 0.361608 0.239628
0.294408 0.357641 0.240726
0.317967 0.352789 0.242069
0.342718 0.347143 0.243778
0.374182 0.352422 0.237247
0.419379 0.364721 0.222721
0.472602 0.371374 0.204501
0.532464 0.369879 0.182315
0.619165 0.370153 0.152346
0.726680 0.414832 0.104677
0.813077 0.471656 0.000000
0.881498 0.526879 0.000000
0.932860 0.576410 0.000000
0.968536 0.615167 0.000000
0.995697 0.646967 0.000000
1.000000 0.673854 0.000000
1.000000 0.687221 0.000000
1.000000 0.687739 0.000000
1.000000 0.688319 0.000000
1.000000 0.688624 0.000000
1.000000 0.688197 0.000000
1.000000 0.687160 0.000000
1.000000 0.685969 0.000000
1.000000 0.684840 0.000000
1.000000 0.683650 0.000000
1.000000 0.682399 0.000000
1.000000 0.681270 0.000000
1.000000 0.680293 0.000000
0.243778 0.396887 0.240299
0.250126 0.397345 0.243015
0.259159 0.397925 0.246677
0.277836 0.398810 0.254093
0.295659 0.395789 0.254856
0.317510 0.391821 0.255894
0.341894 0.386755 0.257115
0.367590 0.380743 0.258640
0.392493 0.375067 0.259129
0.436103 0.390814 0.245396
0.486885 0.402747 0.228336
0.543481 0.408728 0.207370
0.604761 0.406043 0.181674
0.704097 0.416388 0.143618
0.795315 0.468818 0.083803
0.866819 0.523156 0.000000
0.921447 0.573022 0.000000
0.962432 0.616144 0.000000
0.991913 0.649714 0.000000
1.000000 0.676936 0.000000
1.000000 0.699672 0.000000
1.000000 0.716030 0.000000
1.000000 0.714229 0.000000
1.000000 0.712673 0.000000
1.000000 0.710780 0.000000
1.000000 0.708309 0.000000
1.000000 0.705562 0.000000
1.000000 0.702815 0.000000
1.000000 0.700160 0.000000
1.000000 0.697566 0.000000
1.000000 0.695033 0.000000
1.000000 0.692744 0.000000
0.266026 0.432166 0.254612
0.272831 0.432563 0.257359
0.281682 0.433143 0.261051
0.301122 0.434211 0.269169
0.320195 0.431647 0.271092
0.342107 0.427405 0.271977
0.367041 0.422309 0.273106
0.393286 0.416083 0.274540
0.419745 0.409125 0.276249
0.453956 0.415808 0.269108
0.502312 0.431617 0.253178
0.556054 0.443336 0.233616
0.614343 0.448676 0.209567
0.676875 0.445930 0.179507
0.778470 0.467689 0.133791
0.853147 0.521630 0.057038
0.910887 0.571740 0.000000
0.954223 0.615412 0.000000
0.986999 0.651759 0.000000
1.000000 0.680201 0.000000
1.000000 0.703151 0.000000
1.000000 0.721950 0.000000
1.000000 0.737423 0.000000
1.000000 0.736782 0.000000
1.000000 0.733120 0.000000
1.000000 0.729427 0.000000
1.000000 0.725277 0.000000
1.000000 0.721126 0.000000
1.000000 0.717037 0.000000
1.000000 0.713069 0.000000
1.000000 0.709224 0.000000
1.000000 0.705684 0.000000
0.290990 0.469856 0.270207
0.297368 0.470192 0.272740
0.306676 0.470588 0.276555
0.325780 0.471595 0.284550
0.346777 0.469764 0.288701
0.368994 0.465644 0.289647
0.394263 0.460426 0.290623
0.420966 0.454231 0.291997
0.448096 0.447242 0.293645
0.473671 0.440833 0.294163
0.520012 0.459968 0.279362
0.571252 0.476051 0.261143
0.626917 0.487800 0.238773
0.686458 0.493263 0.210819
0.747311 0.489662 0.176425
0.840940 0.522545 0.124849
0.901305 0.572595 0.000000
0.946838 0.616693 0.000000
0.981292 0.653620 0.000000
1.000000 0.683406 0.000000
1.000000 0.706966 0.000000
1.000000 0.725826 0.000000
1.000000 0.740993 0.000000
1.000000 0.753323 0.000000
1.000000 0.755612 0.000000
1.000000 0.750179 0.000000
1.000000 0.744717 0.000000
1.000000 0.739406 0.000000
1.000000 0.734127 0.000000
1.000000 0.728847 0.000000
1.000000 0.723842 0.000000
1.000000 0.719020 0.000000
0.318059 0.510155 0.286900
0.324895 0.510430 0.289677
0.333806 0.510887 0.293431
0.352758 0.511681 0.301335
0.376257 0.510826 0.308263
0.398474 0.506645 0.309056
0.423713 0.501335 0.310094
0.450690 0.495216 0.311315
0.478126 0.488289 0.312810
0.504967 0.480568 0.314641
0.539910 0.488411 0.307286
0.588891 0.508110 0.290501
0.642359 0.524834 0.269627
0.698604 0.536431 0.244053
0.754910 0.539727 0.212833
0.819333 0.541924 0.173312
0.892912 0.575647 0.119081
0.940368 0.619928 0.000000
0.976318 0.657160 0.000000
1.000000 0.687343 0.000000
1.000000 0.711177 0.000000
1.000000 0.730037 0.000000
1.000000 0.745174 0.000000
1.000000 0.757107 0.000000
1.000000 0.766537 0.000000
1.000000 0.771328 0.000000
1.000000 0.764279 0.000000
1.000000 0.757168 0.000000
1.000000 0.751125 0.000000
1.000000 0.744839 0.000000
1.000000 0.738674 0.000000
1.000000 0.732723 0.000000
0.347753 0.553216 0.305455
0.354376 0.553399 0.308202
0.363500 0.553826 0.311955
0.382391 0.554467 0.320073
0.408331 0.554498 0.329931
0.430365 0.550408 0.330755
0.455421 0.545220 0.331640
0.482124 0.539178 0.332860
0.509697 0.532219 0.334325
0.536767 0.524651 0.336065
0.561669 0.517296 0.336980
0.608728 0.540124 0.321630
0.659907 0.560784 0.302464
0.713008 0.576623 0.279210
0.765713 0.585718 0.250980
0.816556 0.585992 0.216648
0.879088 0.592218 0.173434
0.934722 0.625055 0.119997
0.971984 0.662409 0.000000
1.000000 0.692714 0.000000
1.000000 0.716640 0.000000
1.000000 0.735225 0.000000
1.000000 0.749722 0.000000
1.000000 0.761532 0.000000
1.000000 0.770596 0.000000
1.000000 0.777432 0.000000
1.000000 0.783047 0.000000
1.000000 0.775967 0.000000
1.000000 0.767453 0.000000
1.000000 0.760769 0.000000
1.000000 0.753628 0.000000
1.000000 0.746853 0.000000
0.380255 0.599145 0.325750
0.386847 0.599298 0.328527
0.395422 0.599573 0.332189
0.414038 0.600244 0.340459
0.442023 0.601221 0.353307
0.464363 0.597284 0.354742
0.489052 0.592218 0.355657
0.515526 0.586236 0.356817
0.542840 0.579431 0.358221
0.569970 0.571984 0.359808
0.596246 0.564080 0.361791
0.630945 0.572869 0.354650
0.679561 0.596246 0.337469
0.729152 0.615137 0.316533
0.778378 0.628168 0.291142
0.825711 0.633814 0.260685
0.869810 0.630518 0.223789
0.926818 0.638666 0.178286
0.968261 0.669429 0.129030
0.997559 0.699641 0.015961
1.000000 0.723507 0.000000
1.000000 0.741787 0.000000
1.000000 0.755703 0.000000
1.000000 0.766384 0.000000
1.000000 0.775265 0.000000
1.000000 0.781827 0.000000
1.000000 0.786435 0.000000
1.000000 0.790097 0.000000
1.000000 0.785000 0.000000
1.000000 0.775875 0.000000
1.000000 0.768734 0.000000
1.000000 0.761379 0.000000
0.415198 0.648005 0.348302
0.421607 0.648127 0.351049
0.430091 0.648402 0.354742
0.448493 0.648798 0.363165
0.475288 0.649500 0.376013
0.500206 0.646906 0.381415
0.524315 0.642115 0.382269
0.550347 0.636378 0.383368
0.577630 0.629877 0.384710
0.604883 0.622675 0.386358
0.631403 0.615045 0.388251
0.654871 0.606287 0.390021
0.700374 0.631250 0.374792
0.746822 0.652277 0.356176
0.792447 0.668025 0.333776
0.836210 0.677333 0.306737
0.876860 0.678981 0.274235
0.914092 0.671962 0.234623
0.964416 0.679896 0.189456
0.995178 0.708186 0.146029
1.000000 0.731655 0.077180
1.000000 0.749569 0.000000
1.000000 0.762997 0.000000
1.000000 0.772915 0.000000
1.000000 0.780331 0.000000
1.000000 0.786679 0.000000
1.000000 0.791104 0.000000
1.000000 0.793759 0.000000
1.000000 0.795499 0.000000
1.000000 0.792721 0.000000
1.000000 0.783047 0.000000
1.000000 0.775967 0.000000
0.451850 0.697383 0.373602
0.457984 0.697536 0.376318
0.466255 0.697627 0.380224
0.483680 0.697871 0.388556
0.509575 0.698238 0.401648
0.536736 0.696925 0.411658
0.560143 0.692348 0.412512
0.585718 0.687007 0.413519
0.612543 0.680873 0.414771
0.639612 0.674098 0.416327
0.666194 0.666865 0.418250
0.691493 0.659327 0.420356
0.722713 0.666255 0.414496
0.765621 0.688350 0.398260
0.807614 0.705653 0.378698
0.847684 0.717250 0.355138
0.884947 0.722377 0.326665
0.919219 0.720058 0.292149
0.951965 0.711238 0.250401
0.993194 0.718227 0.207370
1.000000 0.741176 0.168826
1.000000 0.758541 0.112917
1.000000 0.771359 0.000000
1.000000 0.780667 0.000000
1.000000 0.787320 0.000000
1.000000 0.791989 0.000000
1.000000 0.796139 0.000000
1.000000 0.798550 0.000000
1.000000 0.799496 0.000000
1.000000 0.799130 0.000000
1.000000 0.799893 0.000000
1.000000 0.790280 0.000000
0.489815 0.745815 0.402289
0.495552 0.745876 0.405035
0.503502 0.745876 0.408942
0.519982 0.745968 0.417395
0.544610 0.745998 0.430518
0.574182 0.745571 0.445777
0.596612 0.741390 0.446601
0.621210 0.736477 0.447608
0.647272 0.730831 0.448829
0.673701 0.724666 0.450355
0.699733 0.718074 0.452186
0.725032 0.711086 0.454322
0.746120 0.701320 0.457191
0.785306 0.723629 0.443275
0.823636 0.741543 0.426490
0.859953 0.754299 0.406226
0.893889 0.761410 0.381567
0.925170 0.762325 0.351446
0.953887 0.756191 0.314763
0.984314 0.747951 0.272251
1.000000 0.752102 0.231998
1.000000 0.768734 0.195621
1.000000 0.780819 0.146395
1.000000 0.789425 0.047913
1.000000 0.795407 0.000000
1.000000 0.799313 0.000000
1.000000 0.801663 0.000000
1.000000 0.803799 0.000000
1.000000 0.804471 0.000000
1.000000 0.803738 0.000000
1.000000 0.801389 0.000000
1.000000 0.803342 0.000000
0.529015 0.791867 0.435004
0.534661 0.791806 0.437934
0.542077 0.791684 0.441840
0.557733 0.791562 0.450233
0.580865 0.791226 0.463264
0.610101 0.790890 0.480751
0.633539 0.787655 0.485145
0.656886 0.783261 0.486122
0.681758 0.778225 0.487404
0.706996 0.772763 0.488930
0.732296 0.766812 0.490730
0.756832 0.760708 0.492897
0.780209 0.754452 0.495491
0.805875 0.758145 0.491737
0.840299 0.775692 0.477546
0.872923 0.788754 0.460365
0.903471 0.796750 0.439155
0.931823 0.799466 0.413275
0.958038 0.796414 0.381231
0.982208 0.786923 0.341650
1.000000 0.778012 0.298619
1.000000 0.780117 0.260105
1.000000 0.791379 0.224582
1.000000 0.799191 0.178134
1.000000 0.804379 0.107088
1.000000 0.807553 0.000000
1.000000 0.809171 0.000000
1.000000 0.809628 0.000000
1.000000 0.809873 0.000000
1.000000 0.808896 0.000000
1.000000 0.806699 0.000000
1.000000 0.805081 0.000000
0.570001 0.834043 0.472511
0.575158 0.833890 0.475349
0.582208 0.833677 0.479377
0.596674 0.833280 0.487739
0.618647 0.832609 0.500847
0.645960 0.831815 0.518242
0.671412 0.829618 0.529076
0.693080 0.825772 0.530175
0.716243 0.821439 0.531518
0.739986 0.816709 0.533227
0.763760 0.811643 0.535180
0.786984 0.806455 0.537530
0.809201 0.801114 0.540276
0.828824 0.794553 0.543755
0.857298 0.808164 0.533013
0.886259 0.820523 0.518395
0.913573 0.828641 0.500267
0.938964 0.832273 0.477882
0.962554 0.831144 0.450172
0.984558 0.824735 0.415503
1.000000 0.812436 0.372503
1.000000 0.802274 0.328679
1.000000 0.803067 0.290898
1.000000 0.809964 0.254368
1.000000 0.814298 0.207980
1.000000 0.816648 0.142397
1.000000 0.817441 0.000000
1.000000 0.817105 0.000000
1.000000 0.815946 0.000000
1.000000 0.814481 0.000000
1.000000 0.811948 0.000000
1.000000 0.808774 0.000000
0.613001 0.871031 0.515587
0.617700 0.870848 0.518425
0.624109 0.870573 0.522332
0.637690 0.869963 0.530907
0.658045 0.868986 0.544244
0.683406 0.867735 0.561822
0.710445 0.866087 0.579614
0.729793 0.862821 0.580774
0.750729 0.859129 0.582177
0.772366 0.855161 0.583978
0.794064 0.850919 0.586023
0.815335 0.846616 0.588525
0.835782 0.842252 0.591485
0.855192 0.837949 0.594842
