data/fiter_cube/81078425/1022769/file.cube
# Created by Adobe Lightroom plugin Export LUT (1.17.0)
# www.johnrellis.com/lightroom/exportlut.htm
# Preset: 旅拍情绪景观_03 云集视觉
# Color profile: C:\Program Files (x86)\Common Files\Adobe\Color\Profiles\Recommended\AdobeRGB1998.icc
LUT_3D_SIZE 8
DOMAIN_MIN 0.000000 0.000000 0.000000
DOMAIN_MAX 0.903226 0.903226 0.903226
0.125246 0.143526 0.152255
0.126009 0.142916 0.151369
0.236088 0.147951 0.146731
0.489113 0.170748 0.121309
0.703487 0.194675 0.067933
0.884001 0.215702 0.000000
0.978759 0.232731 0.000000
1.000000 0.258885 0.092500
0.123445 0.141268 0.150088
0.124849 0.142458 0.150118
0.226688 0.158755 0.145296
0.473396 0.193820 0.120394
0.690120 0.219516 0.069368
0.866209 0.237705 0.000000
0.968688 0.250187 0.000000
1.000000 0.272404 0.096223
0.126253 0.152041 0.158877
0.134432 0.158328 0.165316
0.198398 0.196048 0.146487
0.495979 0.280949 0.111452
0.719478 0.308141 0.058961
0.879759 0.316197 0.000000
0.980713 0.323400 0.096559
1.000000 0.342809 0.188235
0.152834 0.213718 0.214511
0.168582 0.224155 0.224735
0.209964 0.245426 0.254307
0.456245 0.410468 0.147616
0.773831 0.467659 0.149172
0.904601 0.448127 0.180362
0.980224 0.436927 0.230106
1.000000 0.445838 0.299748
0.231662 0.356359 0.348394
0.255680 0.369085 0.361730
0.340917 0.417731 0.419196
0.389746 0.458869 0.452399
0.672450 0.597162 0.257145
0.881834 0.591089 0.311925
0.967193 0.575982 0.385931
1.000000 0.572900 0.438514
0.373236 0.521447 0.513939
0.402136 0.540246 0.533715
0.462715 0.569085 0.567102
0.528222 0.599542 0.608057
0.569055 0.674800 0.599084
0.829465 0.742092 0.444221
0.947539 0.709529 0.510491
0.992279 0.711818 0.598871
0.538262 0.691066 0.681666
0.554498 0.698482 0.689754
0.595727 0.712459 0.707027
0.665400 0.742489 0.745693
0.696895 0.750088 0.763455
0.740261 0.826413 0.737911
0.910491 0.833524 0.621790
0.971435 0.800656 0.670802
0.716823 0.828183 0.822049
0.723659 0.829740 0.824186
0.748684 0.836942 0.833799
0.789944 0.852293 0.853544
0.807675 0.853819 0.859495
0.832059 0.863584 0.876341
0.862364 0.911162 0.854215
0.948089 0.899992 0.785580
0.123507 0.141451 0.149752
0.124880 0.141024 0.150973
0.199283 0.136538 0.149905
0.432258 0.144198 0.138643
0.662074 0.170748 0.109926
0.845670 0.199619 0.075959
0.958923 0.226505 0.082795
1.000000 0.261082 0.145480
0.123262 0.141299 0.149935
0.124910 0.143221 0.151980
0.199649 0.148928 0.152193
0.433417 0.171298 0.139223
0.662562 0.200473 0.111543
0.839048 0.224552 0.081636
0.951415 0.245090 0.086549
1.000000 0.273228 0.145052
0.126345 0.154116 0.162142
0.135897 0.162570 0.170169
0.191989 0.195071 0.161044
0.457801 0.260777 0.146883
0.680537 0.290562 0.125246
0.849729 0.305791 0.116365
0.958526 0.318059 0.145998
1.000000 0.343236 0.215640
0.151675 0.213657 0.217227
0.168429 0.226658 0.229435
0.219272 0.258518 0.266270
0.418158 0.383032 0.182193
0.715084 0.437873 0.194339
0.865171 0.432380 0.209751
0.958709 0.429419 0.247654
1.000000 0.443763 0.312200
0.232578 0.359747 0.355230
0.254398 0.369940 0.365576
0.332891 0.412665 0.414191
0.385260 0.437812 0.452796
0.636530 0.572290 0.280827
0.859861 0.583642 0.338354
0.955200 0.576104 0.404883
1.000000 0.574578 0.451118
0.363073 0.512261 0.506828
0.381720 0.520500 0.515770
0.441474 0.549248 0.548211
0.515465 0.587701 0.596216
0.559197 0.659510 0.599420
0.819059 0.738552 0.465461
0.940520 0.712612 0.531182
0.987793 0.714229 0.608789
0.516228 0.672755 0.664576
0.526390 0.674830 0.667140
0.570794 0.692348 0.687282
0.647944 0.728847 0.731685
0.689021 0.743832 0.756680
0.731289 0.817990 0.734951
0.902586 0.828183 0.620844
0.967498 0.796780 0.668116
0.702663 0.820371 0.813993
0.711788 0.823270 0.817563
0.739010 0.831479 0.828122
0.782864 0.847990 0.849027
0.816373 0.860990 0.866575
0.835630 0.866911 0.879149
0.860929 0.909850 0.855497
0.946044 0.899077 0.786679
0.123445 0.144778 0.169131
0.130526 0.144167 0.179660
0.195010 0.140536 0.205112
0.421027 0.000000 0.221897
0.631525 0.105379 0.203555
0.826902 0.197574 0.234012
0.950866 0.269505 0.273320
1.000000 0.336187 0.328252
0.127138 0.151308 0.170138
0.134035 0.156985 0.181613
0.190768 0.156344 0.206699
0.407843 0.094972 0.209293
0.626642 0.161379 0.213138
0.820218 0.226322 0.238346
0.945586 0.285649 0.274784
1.000000 0.347631 0.330999
0.130617 0.163210 0.178958
0.140169 0.172549 0.188205
0.194125 0.221683 0.234897
0.413733 0.244022 0.239597
0.652125 0.289158 0.261173
0.831266 0.327642 0.284733
0.945892 0.365850 0.321691
1.000000 0.410101 0.374029
0.149844 0.225040 0.240024
0.167239 0.243412 0.256504
0.246830 0.305486 0.314916
0.416175 0.406622 0.307713
0.691005 0.461921 0.362066
0.846311 0.472694 0.380285
0.945892 0.487068 0.411749
1.000000 0.509178 0.453071
0.224704 0.373663 0.379889
0.253361 0.388800 0.394171
0.341405 0.435950 0.441871
0.430854 0.485725 0.503593
0.632380 0.594995 0.420111
0.846464 0.619409 0.482826
0.939330 0.618433 0.520348
0.993439 0.622492 0.551720
0.360479 0.522210 0.523613
0.382116 0.531914 0.533471
0.443244 0.560449 0.563043
0.534630 0.610254 0.619684
0.574517 0.651362 0.639765
0.800565 0.742306 0.543786
0.925536 0.737087 0.614435
0.975708 0.748592 0.679316
0.519402 0.683955 0.679835
0.531609 0.687373 0.683528
0.572686 0.701137 0.698543
0.643885 0.731289 0.733883
0.697566 0.754025 0.765255
0.736721 0.815579 0.761929
0.895659 0.839628 0.684352
0.958953 0.823728 0.735164
0.698512 0.822324 0.817411
0.703792 0.822812 0.818173
0.729793 0.829526 0.826627
0.778622 0.848203 0.849058
0.818967 0.864164 0.869627
0.839475 0.871244 0.882200
0.862943 0.909880 0.867185
0.942321 0.905028 0.813840
0.131655 0.170779 0.253147
0.147677 0.174807 0.277501
0.241794 0.160250 0.353307
0.411109 0.156497 0.393439
0.634668 0.152895 0.413031
0.802090 0.123171 0.366491
0.913909 0.327184 0.416815
0.997711 0.421454 0.476051
0.143740 0.189914 0.257176
0.157504 0.198917 0.282597
0.237034 0.194034 0.354650
0.408392 0.196506 0.398016
0.628595 0.201083 0.414343
0.793179 0.190982 0.371893
0.911131 0.346502 0.423499
0.996460 0.430854 0.478645
0.155795 0.215244 0.265476
0.171359 0.228000 0.278660
0.235325 0.278447 0.342504
0.397711 0.301030 0.415381
0.614527 0.310033 0.422370
0.781369 0.368231 0.431617
0.921630 0.444923 0.485603
0.996063 0.497230 0.524102
0.168856 0.256931 0.295903
0.187076 0.271427 0.309514
0.258335 0.328099 0.361364
0.401465 0.448676 0.471504
0.611658 0.467781 0.479377
0.793942 0.501946 0.504509
0.916808 0.538689 0.537743
0.987915 0.577050 0.576898
0.231601 0.380438 0.411292
0.254490 0.394079 0.423316
0.333471 0.445747 0.469795
0.461494 0.532799 0.549981
0.616175 0.620142 0.556268
0.820951 0.662013 0.616785
0.916197 0.668299 0.634668
0.975952 0.680293 0.657282
0.361120 0.538689 0.556542
0.388159 0.557061 0.573419
0.447059 0.585687 0.598138
0.542992 0.634485 0.645167
0.626673 0.679469 0.699367
0.787808 0.762387 0.653742
0.908659 0.778439 0.720363
0.960876 0.786984 0.752407
0.510826 0.693111 0.697993
0.526452 0.699214 0.703609
0.574456 0.717098 0.720424
0.647608 0.746395 0.750454
0.725582 0.782712 0.792538
0.756344 0.816892 0.804501
0.885435 0.853056 0.754391
0.948150 0.849638 0.796933
0.701228 0.831357 0.830442
0.709255 0.833433 0.832609
0.731655 0.838499 0.837949
0.770748 0.849668 0.850706
0.817624 0.867002 0.871733
0.845121 0.877989 0.886961
0.865324 0.908904 0.882567
0.937346 0.911894 0.844846
0.173465 0.248020 0.422248
0.203037 0.259953 0.445258
0.284977 0.262089 0.503685
0.466987 0.245090 0.590692
0.627680 0.322240 0.597742
0.792081 0.387427 0.609857
0.905333 0.413367 0.588922
0.978820 0.500114 0.611078
0.185550 0.268284 0.420691
0.217380 0.286778 0.446204
0.293065 0.299504 0.504936
0.467659 0.289097 0.596338
0.621942 0.351690 0.599451
0.788602 0.407782 0.612726
0.903288 0.429725 0.592248
0.976837 0.514733 0.616846
0.222263 0.312474 0.414801
0.243442 0.326726 0.425940
0.312505 0.373785 0.488594
0.445502 0.396368 0.584131
0.603601 0.427741 0.604303
0.770748 0.456245 0.612970
0.893553 0.468452 0.594202
0.969482 0.552667 0.628016
0.243687 0.356970 0.439490
0.264073 0.369360 0.448493
0.331456 0.414343 0.482460
0.439185 0.495644 0.561028
0.591547 0.530144 0.626551
0.757168 0.531670 0.622248
0.879820 0.555505 0.618463
0.966735 0.616327 0.658534
0.279210 0.415717 0.474739
0.299290 0.427314 0.483742
0.360754 0.464820 0.512749
0.454353 0.531487 0.568078
0.582605 0.633295 0.657435
0.754879 0.645075 0.662104
0.882506 0.674525 0.687282
0.958770 0.706355 0.717464
0.353155 0.514885 0.554711
0.369879 0.524437 0.562768
0.420233 0.554284 0.587854
0.502647 0.609827 0.636347
0.617243 0.684718 0.701747
0.757870 0.765743 0.725734
0.890379 0.803922 0.787503
0.948089 0.807889 0.797665
0.495796 0.680079 0.705928
0.507012 0.685145 0.709346
0.547875 0.705501 0.724208
0.617121 0.740505 0.752377
0.703517 0.777523 0.786923
0.770443 0.810513 0.826322
0.871153 0.859739 0.803189
0.938231 0.867216 0.840085
0.678523 0.825803 0.833036
0.684718 0.827787 0.834409
0.707179 0.834104 0.839170
0.754208 0.849180 0.852995
0.799893 0.863005 0.867124
0.847593 0.882994 0.890379
0.865690 0.903380 0.895964
0.931121 0.916045 0.868498
0.309331 0.394781 0.598291
0.337041 0.410132 0.613092
0.387884 0.415839 0.650141
0.510948 0.428138 0.720546
0.674861 0.429389 0.766354
0.786526 0.503044 0.748836
0.885130 0.601434 0.763363
0.952728 0.652766 0.769436
0.308873 0.400153 0.585840
0.333654 0.414282 0.599786
0.391791 0.433387 0.642023
0.502403 0.444007 0.709377
0.666224 0.446387 0.761196
0.779782 0.514092 0.746914
0.882017 0.607050 0.763027
0.951324 0.655634 0.769009
0.343145 0.441138 0.570428
0.355840 0.449714 0.583551
0.414496 0.486793 0.632898
0.507012 0.512718 0.702235
0.664485 0.523217 0.768551
0.772763 0.569177 0.755856
0.877012 0.640406 0.771481
0.948608 0.676967 0.775296
0.367254 0.480171 0.588586
0.379889 0.486976 0.592096
0.425971 0.515984 0.611048
0.520104 0.583825 0.684016
0.658869 0.626337 0.774350
0.770321 0.653590 0.777493
0.873014 0.691493 0.786740
0.946502 0.710323 0.785122
0.386664 0.517723 0.604456
0.400122 0.525597 0.609674
0.443915 0.552117 0.628016
0.514336 0.598444 0.661799
0.617365 0.671809 0.728939
0.749416 0.711025 0.782620
0.859831 0.716457 0.779477
0.940703 0.736110 0.782315
0.416358 0.565545 0.629908
0.431067 0.574945 0.637232
0.471656 0.597894 0.653651
0.536034 0.637079 0.682765
0.619898 0.692500 0.725765
0.738155 0.779843 0.799069
0.859251 0.794095 0.809354
0.936950 0.816648 0.829374
0.509331 0.677119 0.720027
0.522576 0.684718 0.726131
0.558465 0.703243 0.739986
0.616541 0.734676 0.764126
0.688197 0.775753 0.796811
0.775967 0.824857 0.837552
0.861418 0.870542 0.851926
0.931853 0.887846 0.882200
0.675929 0.817227 0.839414
0.680995 0.818936 0.840482
0.700099 0.826169 0.845487
0.737118 0.842588 0.856809
0.782132 0.862882 0.871183
0.834440 0.881285 0.887816
0.874418 0.899351 0.909300
0.925566 0.921813 0.894560
0.459083 0.543816 0.745907
0.482368 0.558465 0.757382
0.519402 0.567803 0.779904
0.590021 0.578363 0.815793
0.701534 0.587304 0.855344
0.811978 0.594507 0.865232
0.871946 0.664942 0.841184
0.927337 0.759274 0.860929
0.445899 0.536187 0.730220
0.467384 0.549737 0.741634
0.511894 0.567620 0.767178
0.578119 0.576745 0.803677
0.688014 0.585199 0.845426
0.800076 0.588556 0.857176
0.863371 0.653742 0.833310
0.923247 0.746761 0.852995
0.466529 0.566613 0.723751
0.476783 0.572229 0.731868
0.523705 0.598352 0.758328
0.588891 0.619562 0.797330
0.684810 0.631067 0.839384
0.796567 0.638514 0.859586
0.862455 0.693507 0.843076
0.924132 0.772641 0.863432
0.491981 0.601282 0.725368
0.497902 0.603326 0.725093
0.524254 0.616358 0.730129
0.599817 0.664393 0.782345
0.686061 0.693050 0.831754
0.798123 0.713527 0.867948
0.861997 0.747372 0.857572
0.923949 0.798795 0.872557
0.499611 0.623560 0.729274
0.504753 0.624933 0.728786
0.528985 0.636194 0.733211
0.575860 0.662318 0.747982
0.662074 0.717494 0.797787
0.776883 0.758541 0.860441
0.850156 0.779477 0.860319
0.921202 0.816373 0.874907
0.523888 0.661921 0.745937
0.531914 0.665827 0.748043
0.558831 0.679316 0.755367
0.605158 0.704433 0.770199
0.664149 0.737789 0.790616
0.754543 0.797269 0.838468
0.850370 0.832364 0.876371
0.921080 0.840116 0.878569
0.570703 0.716304 0.776730
0.580499 0.721553 0.780209
0.605371 0.733059 0.786709
0.646326 0.753323 0.798886
0.695674 0.778103 0.813779
0.759335 0.814603 0.838895
0.840909 0.870237 0.883391
0.920623 0.881376 0.892088
0.660273 0.798062 0.834287
0.666255 0.800687 0.835935
0.697963 0.816922 0.847929
0.733089 0.833616 0.859312
0.773770 0.853208 0.872862
0.820706 0.877714 0.891173
0.872435 0.903777 0.911650
0.920043 0.927062 0.918090
0.623865 0.693416 0.850645
0.637201 0.701564 0.854856
0.655695 0.705470 0.862669
0.690791 0.710994 0.878569
0.745296 0.715908 0.897276
0.822263 0.720455 0.916442
0.889128 0.730282 0.916564
0.918730 0.782925 0.898619
0.614099 0.687831 0.844511
0.627344 0.695918 0.848936
0.653254 0.706569 0.858366
0.685878 0.710628 0.874083
0.740475 0.716335 0.893767
0.817746 0.721584 0.913848
0.885191 0.728817 0.914336
0.916625 0.780941 0.896910
0.607935 0.691341 0.834531
0.615930 0.695613 0.838499
0.645167 0.710140 0.847715
0.693202 0.731685 0.869535
0.741207 0.736995 0.889403
0.812131 0.741512 0.909819
0.880064 0.747585 0.913512
0.914702 0.793332 0.899260
0.613458 0.706233 0.822507
0.621729 0.711177 0.824643
0.640894 0.720516 0.835172
0.692622 0.749722 0.858335
0.743496 0.766506 0.882628
0.808408 0.776455 0.906035
0.876310 0.783444 0.915496
0.913909 0.817746 0.905608
0.624475 0.726040 0.827909
0.631647 0.730159 0.830014
0.644343 0.735103 0.831083
0.669581 0.746700 0.835630
0.731350 0.781552 0.865171
0.795102 0.801968 0.896025
0.870237 0.817563 0.916930
0.913176 0.845701 0.913176
0.644984 0.753933 0.837644
0.646174 0.753628 0.836790
0.654749 0.755703 0.836271
0.676265 0.764492 0.839292
0.711818 0.781704 0.847349
0.784848 0.825864 0.880980
0.869566 0.861204 0.921660
0.914305 0.877897 0.923125
0.683162 0.793301 0.855619
0.684962 0.793606 0.855375
0.693477 0.796262 0.855711
0.715053 0.805783 0.859892
0.747036 0.820951 0.867308
0.789853 0.843412 0.879911
0.853330 0.882292 0.909300
0.911131 0.901518 0.928557
0.735225 0.837797 0.879057
0.737331 0.838499 0.879271
0.749050 0.843717 0.882017
0.773526 0.855680 0.889097
0.797299 0.866300 0.894560
0.826322 0.879789 0.901976
0.861418 0.897734 0.913054
0.907103 0.925750 0.933928
