data/fiter_cube/81078425/1022769/file.cube
# Created by Adobe Lightroom plugin Export LUT (1.17.0)
# www.johnrellis.com/lightroom/exportlut.htm
# Preset: 旅拍情绪景观_03 云集视觉
# Color profile: C:\Program Files (x86)\Common Files\Adobe\Color\Profiles\Recommended\AdobeRGB1998.icc
LUT_3D_SIZE 32
DOMAIN_MIN 0.0 0.0 0.0
DOMAIN_MAX 1.0 1.0 1.0
0.125246 0.143526 0.152255
0.124361 0.143465 0.152255
0.123201 0.143465 0.152285
0.122438 0.143069 0.151888
0.126009 0.142916 0.151369
0.138003 0.143038 0.150973
0.159457 0.143801 0.150057
0.191501 0.145296 0.148775
0.236088 0.147951 0.146731
0.293339 0.152102 0.142977
0.359075 0.157687 0.137575
0.426215 0.164187 0.130190
0.489113 0.170748 0.121309
0.547723 0.177188 0.111055
0.602899 0.183383 0.099245
0.654871 0.189181 0.085084
0.703487 0.194675 0.067933
0.755734 0.200504 0.024567
0.805966 0.206302 0.000000
0.848203 0.211093 0.000000
0.884001 0.215702 0.000000
0.914183 0.219883 0.000000
0.939178 0.224125 0.000000
0.960418 0.228275 0.000000
0.978759 0.232731 0.000000
0.995148 0.237583 0.000000
1.000000 0.243198 0.000000
1.000000 0.250156 0.052033
1.000000 0.258885 0.092500
1.000000 0.270451 0.127901
1.000000 0.286107 0.166232
1.000000 0.307622 0.209995
0.125307 0.143343 0.152102
0.124636 0.143069 0.152285
0.123293 0.143099 0.152163
0.122499 0.142885 0.151766
0.126070 0.142733 0.151247
0.137423 0.143313 0.150668
0.158572 0.144137 0.149905
0.189792 0.146029 0.148775
0.233249 0.148959 0.146639
0.289769 0.153536 0.143069
0.354589 0.159335 0.137606
0.421271 0.165957 0.130343
0.483894 0.172763 0.121798
0.542290 0.179416 0.111696
0.597314 0.185763 0.100343
0.649134 0.191226 0.086610
0.697841 0.196841 0.069734
0.749966 0.202823 0.031250
0.799191 0.208225 0.000000
0.841215 0.213046 0.000000
0.877409 0.217472 0.000000
0.908202 0.221622 0.000000
0.933867 0.225376 0.000000
0.955779 0.229313 0.000000
0.974792 0.233463 0.000000
0.991730 0.238132 0.000000
1.000000 0.243503 0.000000
1.000000 0.250126 0.035523
1.000000 0.258518 0.086030
1.000000 0.269566 0.121889
1.000000 0.284459 0.159854
1.000000 0.304997 0.203220
0.124819 0.142916 0.151705
0.124453 0.142794 0.151431
0.123720 0.142367 0.151919
0.122652 0.142367 0.151492
0.125887 0.142763 0.151095
0.137026 0.143557 0.150484
0.157473 0.144869 0.149722
0.188205 0.146914 0.148440
0.230961 0.150393 0.146456
0.286656 0.155398 0.142947
0.351202 0.161837 0.137484
0.417945 0.169039 0.130373
0.480598 0.175967 0.121828
0.539208 0.182712 0.111727
0.594110 0.188998 0.100496
0.646143 0.194888 0.087007
0.694820 0.200351 0.070375
0.747158 0.206149 0.033143
0.795590 0.211612 0.000000
0.837522 0.216098 0.000000
0.873960 0.220462 0.000000
0.905119 0.224308 0.000000
0.931212 0.228183 0.000000
0.953429 0.231846 0.000000
0.972686 0.235752 0.000000
0.989899 0.240177 0.000000
1.000000 0.245304 0.000000
1.000000 0.251743 0.030823
1.000000 0.259739 0.084474
1.000000 0.270542 0.120424
1.000000 0.285100 0.158236
1.000000 0.305119 0.201083
0.124147 0.141848 0.150607
0.123720 0.141726 0.150484
0.123537 0.141756 0.150332
0.122927 0.141482 0.151125
0.126040 0.142611 0.150668
0.136995 0.144259 0.150149
0.157168 0.146456 0.149294
0.187411 0.149386 0.148135
0.229740 0.153780 0.145907
0.285100 0.159915 0.142306
0.349035 0.167514 0.136904
0.415473 0.175570 0.129702
0.477882 0.183200 0.121065
0.536187 0.190127 0.111360
0.591272 0.196567 0.100008
0.643091 0.202609 0.086458
0.691829 0.207736 0.070527
0.744503 0.213657 0.033173
0.791287 0.218784 0.000000
0.832181 0.223117 0.000000
0.868315 0.226993 0.000000
0.899718 0.230625 0.000000
0.926696 0.233951 0.000000
0.950011 0.237613 0.000000
0.970428 0.241276 0.000000
0.988586 0.245609 0.000000
1.000000 0.250706 0.000000
1.000000 0.257115 0.047120
1.000000 0.265080 0.090394
1.000000 0.275486 0.124849
1.000000 0.289586 0.161501
1.000000 0.308751 0.203006
0.123445 0.141268 0.150088
0.123293 0.141299 0.149783
0.123293 0.141299 0.149783
0.123293 0.141299 0.149783
0.124849 0.142458 0.150118
0.135439 0.145510 0.149630
0.155734 0.148867 0.148714
0.185245 0.153079 0.147433
0.226688 0.158755 0.145296
0.280980 0.166506 0.141573
0.344457 0.175784 0.136233
0.410651 0.185153 0.128847
0.473396 0.193820 0.120394
0.532189 0.201266 0.110445
0.587762 0.207950 0.099062
0.640558 0.214206 0.085634
0.690120 0.219516 0.069368
0.744320 0.225711 0.029755
0.790311 0.230472 0.000000
0.830625 0.234165 0.000000
0.866209 0.237705 0.000000
0.897398 0.241001 0.000000
0.924407 0.243839 0.000000
0.947967 0.246952 0.000000
0.968688 0.250187 0.000000
0.987121 0.254093 0.000000
1.000000 0.258946 0.000000
1.000000 0.264744 0.061158
1.000000 0.272404 0.096223
1.000000 0.282383 0.129549
1.000000 0.296025 0.165652
1.000000 0.314855 0.206851
0.123232 0.141482 0.149905
0.123171 0.141634 0.150057
0.123323 0.141787 0.150179
0.123690 0.141909 0.150484
0.123842 0.142947 0.150088
0.131350 0.146639 0.149325
0.152651 0.152468 0.148196
0.184939 0.158907 0.146639
0.226352 0.166384 0.144289
0.280766 0.176272 0.140444
0.344121 0.187655 0.134707
0.410407 0.198795 0.127443
0.473152 0.208347 0.118593
0.532158 0.216464 0.108644
0.588037 0.223545 0.097230
0.641016 0.229648 0.083558
0.693874 0.235599 0.066041
0.746395 0.241489 0.025238
0.791684 0.245823 0.000000
0.831754 0.249332 0.000000
0.867277 0.252445 0.000000
0.898589 0.254948 0.000000
0.955901 0.266636 0.000000
0.974975 0.269749 0.000000
0.991455 0.273259 0.033234
1.000000 0.277501 0.074891
1.000000 0.282902 0.100801
1.000000 0.289921 0.126833
1.000000 0.299260 0.154574
1.000000 0.311681 0.185672
1.000000 0.327886 0.220615
1.000000 0.348943 0.260166
0.123507 0.143099 0.151278
0.123629 0.143435 0.151553
0.124117 0.143862 0.151949
0.125460 0.144991 0.153017
0.126040 0.145052 0.153414
0.128023 0.149172 0.151308
0.146761 0.157168 0.148226
0.184726 0.168582 0.146029
0.234501 0.180972 0.142885
0.296880 0.195407 0.137850
0.363256 0.209537 0.131044
0.430365 0.222293 0.122744
0.492287 0.232212 0.113466
0.550164 0.240177 0.103151
0.604486 0.246708 0.091279
0.655329 0.252079 0.077546
0.712001 0.258824 0.054658
0.762997 0.263951 0.006744
0.807126 0.267613 0.000000
0.846891 0.270756 0.000000
0.883055 0.273625 0.000000
0.915190 0.276341 0.000000
0.942870 0.279362 0.000000
0.966339 0.282628 0.000000
0.985992 0.286442 0.051209
1.000000 0.290532 0.084199
1.000000 0.295750 0.109834
1.000000 0.302312 0.135103
1.000000 0.310887 0.162264
1.000000 0.322515 0.192355
1.000000 0.337743 0.225986
1.000000 0.357671 0.264775
0.124239 0.146456 0.154086
0.124758 0.146883 0.154482
0.125429 0.147433 0.155001
0.127260 0.148928 0.156405
0.129366 0.150057 0.157687
0.130770 0.150149 0.158907
0.136507 0.160433 0.153262
0.167727 0.172427 0.147280
0.221653 0.190219 0.143374
0.286687 0.209415 0.138033
0.362860 0.229191 0.130220
0.430152 0.243503 0.121492
0.492378 0.254246 0.112062
0.550195 0.262455 0.101839
0.604456 0.268925 0.090120
0.659449 0.275273 0.075502
0.714473 0.281590 0.054658
0.762936 0.285832 0.013611
0.805600 0.288731 0.000000
0.844511 0.291112 0.000000
0.880125 0.293278 0.000000
0.911925 0.295415 0.000000
0.939483 0.297795 0.000000
0.962982 0.300206 0.031159
0.982757 0.303288 0.073579
0.999329 0.306889 0.099001
1.000000 0.311284 0.122255
1.000000 0.317082 0.146426
1.000000 0.325261 0.172976
1.000000 0.336004 0.202029
1.000000 0.350652 0.235477
1.000000 0.369726 0.273381
0.126253 0.152041 0.158877
0.126925 0.152560 0.159365
0.127932 0.153353 0.159976
0.130159 0.155184 0.161868
0.134432 0.158328 0.165316
0.136446 0.158480 0.166171
0.137697 0.161135 0.166476
0.152102 0.178897 0.156374
0.198398 0.196048 0.146487
0.272068 0.223026 0.139315
0.349096 0.247532 0.131319
0.430457 0.268772 0.121218
0.495979 0.280949 0.111452
0.553826 0.289097 0.101289
0.609369 0.295872 0.089845
0.667445 0.303258 0.075166
0.719478 0.308141 0.058961
0.765927 0.311376 0.025971
0.807034 0.313237 0.000183
0.844999 0.314794 0.000000
0.879759 0.316197 0.000000
0.910948 0.317571 0.000092
0.937987 0.319005 0.039246
0.961089 0.321019 0.073304
0.980713 0.323400 0.096559
0.997223 0.326207 0.118318
1.000000 0.330083 0.140169
1.000000 0.335363 0.163027
1.000000 0.342809 0.188235
1.000000 0.352941 0.216617
1.000000 0.366735 0.248997
1.000000 0.384833 0.285740
0.129671 0.160555 0.166415
0.130465 0.161196 0.167025
0.131563 0.162203 0.167819
0.134371 0.164248 0.169955
0.139406 0.167910 0.173739
0.144167 0.170504 0.176913
0.147158 0.170718 0.179049
0.148867 0.180423 0.175265
0.176791 0.206149 0.160586
0.240024 0.229557 0.145022
0.331151 0.264073 0.133974
0.412543 0.289647 0.124025
0.489937 0.307836 0.113680
0.558251 0.319493 0.103059
0.620386 0.328740 0.091554
0.676600 0.334966 0.079622
0.727749 0.338933 0.067018
0.772976 0.340948 0.053315
0.812833 0.341802 0.039643
0.849058 0.342046 0.035676
0.881865 0.342290 0.045106
0.910948 0.342382 0.063569
0.936400 0.342687 0.079652
0.958404 0.343359 0.098085
0.977508 0.344762 0.116976
0.993988 0.346838 0.136965
1.000000 0.350072 0.157809
1.000000 0.355077 0.180484
1.000000 0.362402 0.206058
1.000000 0.372503 0.234775
1.000000 0.386297 0.267338
1.000000 0.404425 0.304417
0.134188 0.171939 0.176516
0.135317 0.172763 0.177157
0.136629 0.173770 0.178286
0.140108 0.176364 0.180667
0.145876 0.180484 0.184939
0.154513 0.186587 0.191897
0.158297 0.187137 0.193668
0.162997 0.187839 0.197879
0.167483 0.209384 0.186954
0.213626 0.245090 0.166171
0.294102 0.274052 0.143282
0.395727 0.311040 0.128054
0.476265 0.334173 0.117922
0.555383 0.352178 0.107942
0.629267 0.364752 0.099428
0.683894 0.369421 0.090761
0.733120 0.371710 0.082643
0.776577 0.372381 0.077607
0.815122 0.371771 0.075349
0.850278 0.370825 0.077180
0.882170 0.370062 0.084291
0.910674 0.369238 0.095033
0.935637 0.368933 0.109712
0.957275 0.368994 0.126314
0.976013 0.369726 0.144137
0.992157 0.371191 0.162600
1.000000 0.373754 0.181949
1.000000 0.378088 0.203433
1.000000 0.384649 0.227604
1.000000 0.393988 0.254917
1.000000 0.407019 0.286564
1.000000 0.424414 0.322728
0.141146 0.187442 0.190646
0.142245 0.188510 0.191440
0.144137 0.189731 0.192752
0.147860 0.192569 0.195407
0.154574 0.197391 0.200259
0.164248 0.204349 0.207706
0.172946 0.209293 0.213779
0.178744 0.210452 0.217441
0.185458 0.211826 0.224338
0.197177 0.251164 0.202213
0.264195 0.297124 0.173617
0.360693 0.329656 0.141695
0.507958 0.393469 0.123384
0.590967 0.413275 0.118502
0.666590 0.425788 0.117250
0.733516 0.432349 0.120821
0.783139 0.431800 0.124178
0.820005 0.427466 0.125887
0.851987 0.422675 0.129915
0.881010 0.418433 0.136538
0.906920 0.414740 0.145754
0.929931 0.411841 0.157565
0.950164 0.409552 0.170626
0.968109 0.408362 0.185397
0.983917 0.408087 0.201114
0.997894 0.409003 0.217716
1.000000 0.411078 0.235264
1.000000 0.414832 0.254459
1.000000 0.420844 0.276158
1.000000 0.429786 0.301396
1.000000 0.442176 0.330510
1.000000 0.458656 0.363928
0.152834 0.213718 0.214511
0.154391 0.214908 0.215549
0.156374 0.216098 0.216770
0.161013 0.219120 0.219669
0.168582 0.224155 0.224735
0.179507 0.231601 0.232578
0.194675 0.242130 0.244388
0.201572 0.243381 0.247532
0.209964 0.245426 0.254307
0.215244 0.260288 0.255680
0.248478 0.317327 0.228550
0.345312 0.379797 0.191440
0.456245 0.410468 0.147616
0.566583 0.439277 0.130800
0.645594 0.455695 0.132540
0.715023 0.464820 0.138857
0.773831 0.467659 0.149172
0.820188 0.465522 0.161593
0.851286 0.459083 0.165743
0.879362 0.453071 0.171878
0.904601 0.448127 0.180362
0.927153 0.443915 0.190890
0.946929 0.440589 0.202945
0.964569 0.438209 0.216190
0.980224 0.436927 0.230106
0.994079 0.436683 0.245121
1.000000 0.437903 0.261357
1.000000 0.440803 0.279393
1.000000 0.445838 0.299748
1.000000 0.453986 0.324010
1.000000 0.465339 0.351781
1.000000 0.480873 0.384253
0.164981 0.239902 0.238437
0.166690 0.241245 0.239750
0.169039 0.242588 0.240940
0.174105 0.245914 0.244205
0.182467 0.251255 0.249454
0.194522 0.259098 0.257664
0.211215 0.270115 0.269993
0.225132 0.277623 0.279454
0.235508 0.281315 0.286473
0.249882 0.288243 0.300603
0.258305 0.325292 0.295201
0.309819 0.389075 0.261936
0.414954 0.447608 0.215671
0.521019 0.465644 0.163424
0.624201 0.485176 0.148806
0.695521 0.496132 0.156771
0.756100 0.500359 0.168704
0.806180 0.499763 0.184115
0.848020 0.496773 0.201938
0.877806 0.490455 0.211307
0.902556 0.484047 0.219150
0.924651 0.478798 0.228824
0.944152 0.474372 0.239628
0.961578 0.470985 0.251591
0.977020 0.468818 0.264408
0.990723 0.467659 0.278202
1.000000 0.467842 0.292912
1.000000 0.469764 0.309422
1.000000 0.474067 0.328771
1.000000 0.481239 0.351598
1.000000 0.491890 0.378393
1.000000 0.506249 0.409247
0.180575 0.272007 0.268132
0.182467 0.273350 0.269413
0.185122 0.274754 0.270726
0.190890 0.278172 0.274144
0.200290 0.283635 0.279637
0.213474 0.291722 0.288182
0.232547 0.304509 0.302251
0.256321 0.320623 0.321050
0.268315 0.325658 0.328344
0.282414 0.332158 0.339940
0.298833 0.339971 0.356970
0.309422 0.394507 0.338262
0.371069 0.454902 0.300572
0.478096 0.507225 0.248264
0.579248 0.515557 0.189242
0.674830 0.526604 0.176028
0.738552 0.533104 0.189425
0.790768 0.533379 0.205142
0.834623 0.530877 0.223575
0.871672 0.527367 0.244419
0.900603 0.522454 0.261540
0.922087 0.515648 0.269535
0.941131 0.509880 0.278660
0.958221 0.505425 0.289525
0.973480 0.502220 0.301122
0.987213 0.500420 0.313970
0.999573 0.500206 0.328435
1.000000 0.502159 0.345403
1.000000 0.506462 0.364813
1.000000 0.513725 0.387854
1.000000 0.524254 0.414496
1.000000 0.538781 0.445380
0.203067 0.312230 0.305974
0.205631 0.314061 0.307805
0.208713 0.316014 0.309789
0.215915 0.320348 0.314092
0.227024 0.327123 0.321080
0.242557 0.336645 0.331090
0.262516 0.348974 0.344884
0.287144 0.364630 0.363195
0.307134 0.375860 0.377295
0.320714 0.381476 0.386664
0.335821 0.387793 0.399695
0.349737 0.398840 0.413642
0.363439 0.459510 0.382788
0.428687 0.512718 0.340826
0.534112 0.558465 0.283482
0.627924 0.557855 0.220615
0.716579 0.562249 0.208011
0.773526 0.565515 0.225528
0.820554 0.564355 0.245396
0.860319 0.561852 0.267704
0.893370 0.558770 0.291539
0.920592 0.556085 0.316594
0.939574 0.549676 0.325994
0.956268 0.544244 0.335302
0.971160 0.540154 0.345892
0.984558 0.537499 0.357702
0.996612 0.536431 0.370733
1.000000 0.537438 0.385931
1.000000 0.540703 0.403754
1.000000 0.546502 0.424109
1.000000 0.555444 0.448096
1.000000 0.568231 0.476356
0.231662 0.356359 0.348394
0.234134 0.357549 0.349798
0.237308 0.359289 0.351476
0.244450 0.363012 0.355383
0.255680 0.369085 0.361730
0.271061 0.377295 0.370825
0.290440 0.388220 0.383124
0.313878 0.401740 0.399207
0.340917 0.417731 0.419196
0.353368 0.422400 0.426398
0.367163 0.427955 0.436591
0.382147 0.434058 0.450507
0.389746 0.458869 0.452399
0.412940 0.514611 0.421241
0.481514 0.563439 0.378698
0.585168 0.604456 0.320256
0.672450 0.597162 0.257145
0.753994 0.595483 0.245060
0.804959 0.596399 0.265629
0.846830 0.594171 0.288060
0.881834 0.591089 0.311925
0.910643 0.587884 0.336553
0.934295 0.585351 0.361059
0.952422 0.581262 0.376989
0.967193 0.575982 0.385931
0.980438 0.572381 0.396307
0.992432 0.570459 0.408118
1.000000 0.570550 0.422095
1.000000 0.572900 0.438514
1.000000 0.577996 0.457923
1.000000 0.586145 0.480812
1.000000 0.598413 0.508446
0.264500 0.400336 0.391730
0.267491 0.402289 0.393744
0.292760 0.429267 0.421027
0.300175 0.432471 0.424567
0.311437 0.437385 0.430182
0.326299 0.443915 0.437842
0.344427 0.452552 0.448127
0.365850 0.463355 0.461189
0.390234 0.476905 0.478096
0.408820 0.486305 0.490333
0.420844 0.490455 0.497719
0.433692 0.495064 0.507530
0.446937 0.499489 0.520043
0.450141 0.535271 0.509239
0.480262 0.585748 0.476905
0.550134 0.629206 0.434302
0.651728 0.665003 0.377386
0.730587 0.649317 0.315770
0.800900 0.638788 0.303746
0.843381 0.636042 0.326268
0.877745 0.631464 0.348821
0.906310 0.627070 0.372290
0.929900 0.623163 0.395117
0.949310 0.620142 0.417334
0.965087 0.617273 0.436194
0.977386 0.611292 0.442390
0.988586 0.606897 0.450050
0.998810 0.604822 0.460365
1.000000 0.605463 0.473945
1.000000 0.609308 0.491554
1.000000 0.616510 0.513115
1.000000 0.627710 0.539361
0.306218 0.448676 0.440436
0.311650 0.453162 0.445045
0.318212 0.457923 0.450050
0.327886 0.463844 0.456428
0.340185 0.470527 0.463813
0.354711 0.477516 0.471748
0.371466 0.485389 0.480995
0.390845 0.494881 0.492439
0.413123 0.506828 0.507012
0.437629 0.520653 0.524254
0.448554 0.524346 0.530022
0.460456 0.528496 0.537835
0.472572 0.532403 0.547662
0.484688 0.536126 0.559533
0.487068 0.582666 0.538018
0.522911 0.628748 0.505180
0.593927 0.667933 0.463355
0.692073 0.699580 0.409125
0.762997 0.678889 0.352880
0.826688 0.664729 0.341711
0.864408 0.661097 0.365423
0.895201 0.656733 0.389380
0.920531 0.652522 0.412818
0.941344 0.649012 0.435554
0.958373 0.646326 0.456977
0.972564 0.644831 0.477546
0.983978 0.641199 0.488319
0.993988 0.638300 0.497536
1.000000 0.638117 0.510002
1.000000 0.641016 0.526299
1.000000 0.647395 0.546715
1.000000 0.657893 0.572015
0.339788 0.485206 0.477455
0.345006 0.489387 0.481788
0.351019 0.493874 0.486427
0.359716 0.499153 0.492134
0.371008 0.505241 0.498756
0.384070 0.511437 0.505760
0.399207 0.518517 0.514000
0.416846 0.527001 0.524041
0.437324 0.537591 0.536736
0.460395 0.550317 0.552300
0.477699 0.559106 0.563500
0.488899 0.562829 0.569879
0.500298 0.566400 0.577722
0.512169 0.569848 0.587854
0.519768 0.580529 0.593622
0.526513 0.628870 0.567590
0.566735 0.670893 0.534874
0.637659 0.706020 0.494331
0.731746 0.733333 0.443214
0.794583 0.708186 0.392554
0.851225 0.690608 0.382422
0.884215 0.686152 0.406683
0.911223 0.681697 0.430793
0.933257 0.677638 0.453956
0.951293 0.674281 0.475654
0.966186 0.672053 0.496407
0.978546 0.671321 0.516899
0.988739 0.671077 0.534173
0.997498 0.669917 0.545251
1.000000 0.671809 0.560052
1.000000 0.677211 0.579095
1.000000 0.686702 0.603052
0.373236 0.521447 0.513939
0.378149 0.525383 0.517998
0.383734 0.529656 0.522393
0.391943 0.534661 0.527733
0.402136 0.540246 0.533715
0.414038 0.545861 0.539971
0.427832 0.552148 0.547173
0.443885 0.559747 0.555993
0.462715 0.569085 0.567102
0.484077 0.580255 0.580621
0.507347 0.593042 0.596643
0.517693 0.596277 0.601740
0.528222 0.599542 0.608057
0.539300 0.602869 0.616083
0.550927 0.606165 0.626337
0.554467 0.629145 0.623529
0.569055 0.674800 0.599084
0.613642 0.714076 0.569268
0.684199 0.745968 0.532708
0.774594 0.770260 0.487465
0.829465 0.742092 0.444221
0.878965 0.721828 0.436896
0.906432 0.716823 0.462226
0.929168 0.712795 0.487068
0.947539 0.709529 0.510491
0.962432 0.707393 0.532555
0.974609 0.706722 0.554070
0.984497 0.708034 0.575891
0.992279 0.711818 0.598871
0.998840 0.713649 0.613367
1.000000 0.718502 0.630976
1.000000 0.726894 0.652674
0.419440 0.571191 0.563409
0.422583 0.573388 0.565698
0.426001 0.575525 0.567956
0.431861 0.578515 0.571130
0.440223 0.582300 0.575280
0.450507 0.586664 0.580255
0.463203 0.592218 0.586572
0.478492 0.599176 0.594629
0.496590 0.607965 0.604944
0.517144 0.618524 0.617609
0.539940 0.630732 0.632532
0.556695 0.638849 0.642878
0.566918 0.642023 0.648341
0.577325 0.645136 0.654963
0.588006 0.648096 0.663081
0.598932 0.651179 0.672938
0.600183 0.684016 0.662135
0.619257 0.724269 0.638605
0.663325 0.757412 0.610315
0.728969 0.783413 0.575555
0.810269 0.801175 0.532464
0.856687 0.769680 0.491066
0.898466 0.746181 0.481666
0.920806 0.739773 0.504173
0.940032 0.735500 0.527367
0.955749 0.732631 0.549920
0.968566 0.731380 0.571984
0.978943 0.732082 0.594263
0.987091 0.735164 0.617426
0.992981 0.740902 0.641993
0.997192 0.747250 0.663539
0.999908 0.753964 0.682612
0.454231 0.608240 0.599908
0.457343 0.610346 0.602106
0.460761 0.612573 0.604425
0.466499 0.615381 0.607477
0.474189 0.618769 0.611170
0.483619 0.622492 0.615473
0.495094 0.627131 0.620844
0.508873 0.632959 0.627619
0.525383 0.640436 0.636500
0.544305 0.649592 0.647425
0.565332 0.660334 0.660456
0.587640 0.672023 0.675013
0.597192 0.675013 0.679622
0.607202 0.678065 0.685328
0.617395 0.681147 0.692195
0.628321 0.684291 0.700862
0.638911 0.687861 0.710628
0.640040 0.728206 0.693721
0.662165 0.763210 0.672358
0.705135 0.791531 0.646571
0.766018 0.813230 0.614923
0.838132 0.825620 0.575799
0.878935 0.794156 0.537713
0.915221 0.769741 0.527733
0.931456 0.758877 0.539422
0.948241 0.755123 0.562280
0.961944 0.753170 0.585016
0.973022 0.753140 0.607660
0.981750 0.755398 0.631037
0.988128 0.760311 0.655879
0.992065 0.768368 0.682734
0.993622 0.777981 0.708797
0.502068 0.656306 0.647395
0.505272 0.658564 0.649714
0.508354 0.660365 0.651545
0.512993 0.662287 0.653712
0.519371 0.664515 0.656245
0.527337 0.667140 0.659419
0.537194 0.670405 0.663416
0.549035 0.674556 0.668452
0.563012 0.679927 0.675044
0.579187 0.686671 0.683375
0.597223 0.694575 0.693324
0.616999 0.703792 0.705257
0.631037 0.709468 0.713100
0.639155 0.711238 0.716793
0.647181 0.712734 0.721187
0.655482 0.714321 0.726680
0.664546 0.716182 0.734005
0.669673 0.727626 0.736629
0.674647 0.763577 0.720150
0.698512 0.793790 0.700923
0.739528 0.817960 0.677699
0.795346 0.835935 0.648707
0.858732 0.843778 0.612238
0.894652 0.812497 0.574823
0.926329 0.787015 0.561913
0.941680 0.779904 0.580560
0.955871 0.776883 0.602960
0.967376 0.775723 0.625116
0.976471 0.776883 0.647974
0.983215 0.780758 0.672389
0.987518 0.787198 0.697902
0.989288 0.795987 0.724086
0.538262 0.691066 0.681666
0.541344 0.693202 0.683833
0.544335 0.694820 0.685573
0.548669 0.696529 0.687526
0.554498 0.698482 0.689754
0.561913 0.700862 0.692622
0.571221 0.703822 0.696284
0.582391 0.707576 0.700954
0.595727 0.712459 0.707027
0.611109 0.718502 0.714656
0.628046 0.725521 0.723629
0.646571 0.733730 0.734188
0.665400 0.742489 0.745693
0.673121 0.744442 0.748989
0.680842 0.746212 0.752865
0.688655 0.748074 0.757565
0.696895 0.750088 0.763455
0.705806 0.752651 0.770871
0.708614 0.771725 0.768429
0.717128 0.801907 0.754543
0.740261 0.826413 0.737911
0.776761 0.845548 0.717403
0.825437 0.859373 0.691005
0.879332 0.863279 0.657252
0.910491 0.833524 0.621790
0.937987 0.808316 0.607507
0.950378 0.801724 0.624964
0.962158 0.799985 0.647578
0.971435 0.800656 0.670802
0.978271 0.803861 0.695125
0.982666 0.808865 0.719112
0.984527 0.816403 0.744198
0.580652 0.728450 0.718959
0.583246 0.729885 0.720485
0.585412 0.730831 0.721553
0.588769 0.731807 0.722744
0.593469 0.732906 0.724208
0.599756 0.734401 0.726223
0.607691 0.736446 0.729000
0.617639 0.739315 0.732753
0.629541 0.743252 0.737819
0.643244 0.748257 0.744289
0.658473 0.754238 0.751980
0.675135 0.761318 0.761074
0.692439 0.769039 0.771115
0.704372 0.773770 0.777646
0.711269 0.775387 0.780789
0.718227 0.776974 0.784482
0.725307 0.778683 0.788998
0.733242 0.780850 0.794858
0.741482 0.783749 0.801846
0.742794 0.807279 0.795285
0.752956 0.831907 0.783291
0.774502 0.851621 0.768734
0.806699 0.866758 0.750362
0.849302 0.877684 0.726741
0.895201 0.878782 0.696284
0.922454 0.851133 0.663020
0.946593 0.826841 0.647883
0.956725 0.820890 0.664088
0.966308 0.820340 0.686702
0.973541 0.822110 0.709834
0.978363 0.825834 0.732906
0.980652 0.831937 0.756954
0.620691 0.760311 0.751369
0.622583 0.761227 0.752407
0.624567 0.761990 0.753323
0.627680 0.762936 0.754452
0.632502 0.764279 0.756191
0.639094 0.766323 0.758785
0.648096 0.769497 0.762631
0.659022 0.773587 0.767636
0.671962 0.778683 0.773831
0.686336 0.784695 0.781186
0.701869 0.791348 0.789334
0.717983 0.798489 0.798215
0.734188 0.805814 0.807462
0.749722 0.812924 0.816678
0.756435 0.815061 0.819791
0.762570 0.816709 0.822873
0.768673 0.818296 0.826383
0.775051 0.820127 0.830594
0.782162 0.822385 0.835996
0.788571 0.826291 0.841123
0.789456 0.848356 0.833036
0.799008 0.866453 0.823362
0.816739 0.880797 0.811337
0.842618 0.891844 0.796139
0.877043 0.899657 0.776394
0.913207 0.898650 0.751156
0.935454 0.874784 0.723079
0.955077 0.852842 0.708431
0.962402 0.847929 0.722347
0.968963 0.847684 0.741665
0.973388 0.850187 0.762783
0.975280 0.854673 0.784329
0.678096 0.801907 0.794522
0.679438 0.802457 0.795163
0.680568 0.802762 0.795560
0.682734 0.803159 0.796139
0.686152 0.803799 0.797116
0.690913 0.804868 0.798611
0.697292 0.806546 0.800870
0.705226 0.808896 0.803983
0.714717 0.811948 0.807980
0.725490 0.815702 0.812802
0.737118 0.819913 0.818265
0.749508 0.824643 0.824460
0.762142 0.829709 0.831083
0.774807 0.834989 0.838041
