data/fiter_cube/81078425/1022769/file.cube
# Created by Adobe Lightroom plugin Export LUT (1.17.0)
# www.johnrellis.com/lightroom/exportlut.htm
# Preset: 旅拍情绪景观_03 云集视觉
# Color profile: C:\Program Files (x86)\Common Files\Adobe\Color\Profiles\Recommended\AdobeRGB1998.icc
LUT_3D_SIZE 5
DOMAIN_MIN 0.000000 0.000000 0.000000
DOMAIN_MAX 0.903226 0.903226 0.903226
0.125246 0.143526 0.152255
0.191501 0.145296 0.148775
0.602899 0.183383 0.099245
0.914183 0.219883 0.000000
1.000000 0.258885 0.092500
0.124239 0.146456 0.154086
0.167727 0.172427 0.147280
0.604456 0.268925 0.090120
0.911925 0.295415 0.000000
1.000000 0.325261 0.172976
0.180575 0.272007 0.268132
0.256321 0.320623 0.321050
0.579248 0.515557 0.189242
0.922087 0.515648 0.269535
1.000000 0.506462 0.364813
0.419440 0.571191 0.563409
0.478492 0.599176 0.594629
0.588006 0.648096 0.663081
0.856687 0.769680 0.491066
0.987091 0.735164 0.617426
0.716823 0.828183 0.822049
0.740475 0.834318 0.830381
0.796933 0.850248 0.854154
0.834409 0.875090 0.875578
0.948089 0.899992 0.785580
0.122927 0.142519 0.159213
0.163973 0.139773 0.179721
0.519738 0.101839 0.174319
0.863249 0.200870 0.190738
1.000000 0.302129 0.268925
0.126528 0.152865 0.165621
0.163973 0.187533 0.198825
0.539757 0.232609 0.204135
0.868223 0.294957 0.228641
1.000000 0.368872 0.316747
0.176089 0.287053 0.293217
0.259007 0.340429 0.344762
0.524743 0.491646 0.315129
0.882597 0.535271 0.401801
1.000000 0.553246 0.475227
0.416449 0.576837 0.575036
0.476814 0.605127 0.604547
0.602502 0.665797 0.678370
0.840726 0.775174 0.568292
0.974640 0.765072 0.685176
0.710445 0.828336 0.823270
0.734524 0.834165 0.830808
0.804807 0.858793 0.862211
0.844724 0.876310 0.885893
0.944244 0.905913 0.812955
0.144137 0.201816 0.333562
0.224155 0.206088 0.407324
0.525292 0.225986 0.499947
0.831632 0.281132 0.493355
0.984771 0.472938 0.549065
0.178866 0.251530 0.333043
0.242222 0.296056 0.399908
0.512078 0.338903 0.513512
0.816892 0.355322 0.498116
0.983551 0.515496 0.571557
0.213474 0.334569 0.386664
0.282292 0.379583 0.424262
0.494423 0.545220 0.569665
0.810361 0.584619 0.595087
0.973053 0.647364 0.654688
0.392340 0.570489 0.598016
0.442878 0.597314 0.618616
0.605158 0.687495 0.699641
0.808042 0.794369 0.718074
0.950500 0.816068 0.790585
0.685359 0.827085 0.829221
0.712581 0.834287 0.836027
0.784024 0.855283 0.857939
0.850095 0.881163 0.890715
0.933715 0.912840 0.854215
0.338293 0.424353 0.629175
0.397131 0.446326 0.668635
0.600916 0.463050 0.775814
0.811215 0.541131 0.773678
0.945190 0.679713 0.795285
0.357733 0.456367 0.610010
0.414374 0.490455 0.653101
0.588281 0.524834 0.762173
0.800137 0.582513 0.776577
0.941436 0.690913 0.795865
0.393133 0.514092 0.617426
0.431983 0.536553 0.631159
0.564935 0.625635 0.712215
0.771969 0.678035 0.785641
0.936248 0.733272 0.802609
0.458595 0.610132 0.674739
0.490211 0.625177 0.683833
0.594934 0.686671 0.727840
0.767941 0.806607 0.824277
0.931426 0.832517 0.844968
0.675471 0.814847 0.839841
0.696071 0.823239 0.845731
0.759396 0.851560 0.866270
0.846250 0.888457 0.895354
0.923949 0.922881 0.900206
0.623865 0.693416 0.850645
0.650782 0.705226 0.859983
0.715724 0.713985 0.887907
0.841337 0.722957 0.918395
0.918730 0.782925 0.898619
0.611749 0.692164 0.839780
0.644862 0.710262 0.850462
0.714687 0.729610 0.881315
0.835996 0.738705 0.915892
0.915953 0.791806 0.899535
0.617731 0.714961 0.824735
0.630640 0.720027 0.825711
0.706905 0.761288 0.858946
0.817288 0.787198 0.905608
0.912993 0.829984 0.908568
0.662745 0.769986 0.846342
0.670100 0.771572 0.845670
0.708339 0.787625 0.851560
0.800259 0.838590 0.886534
0.913268 0.883330 0.924224
0.735225 0.837797 0.879057
0.744839 0.841764 0.880919
0.784909 0.860777 0.891722
0.834562 0.883818 0.904356
0.907103 0.925750 0.933928
