data/filter_cube/11206988/1023414/file.cube
# Created by Adobe Lightroom plugin Export LUT (1.17.0)
# www.johnrellis.com/lightroom/exportlut.htm
# Preset: 焦糖暖色调人像产品_03 云集
# Color profile: C:\Program Files (x86)\Common Files\Adobe\Color\Profiles\Recommended\AdobeRGB1998.icc
LUT_3D_SIZE 8
DOMAIN_MIN 0.000000 0.000000 0.000000
DOMAIN_MAX 0.903226 0.903226 0.903226
0.000000 0.000000 0.000000
0.198642 0.055146 0.000000
0.412177 0.128359 0.000000
0.536461 0.201022 0.000000
0.654261 0.285466 0.119448
0.743923 0.352239 0.172580
0.848814 0.418952 0.209812
0.969390 0.493874 0.251926
0.059266 0.079591 0.047578
0.203891 0.141604 0.020264
0.428260 0.093874 0.000000
0.557549 0.194766 0.076173
0.667781 0.286168 0.141238
0.753597 0.352758 0.184543
0.856321 0.419043 0.218051
0.973693 0.494057 0.260014
0.146792 0.240238 0.155489
0.234318 0.261723 0.164065
0.390570 0.298283 0.164828
0.529931 0.295445 0.140047
0.701778 0.301488 0.194675
0.796506 0.355016 0.224887
0.892332 0.423804 0.250309
0.993927 0.500359 0.294957
0.280125 0.331273 0.240604
0.312169 0.338811 0.245243
0.390417 0.361059 0.261265
0.503288 0.406958 0.247623
0.620325 0.425330 0.209384
0.776394 0.432471 0.247196
0.930510 0.445624 0.300450
1.000000 0.515221 0.362676
0.345342 0.402716 0.298619
0.361028 0.409369 0.300755
0.408240 0.436988 0.306218
0.496834 0.457649 0.320134
0.610559 0.510887 0.296574
0.690822 0.517693 0.261845
0.860441 0.550134 0.298222
1.000000 0.590021 0.394049
0.385992 0.487465 0.356085
0.398230 0.493751 0.357610
0.438727 0.514275 0.361852
0.514122 0.542412 0.377661
0.603540 0.557153 0.390143
0.701472 0.605402 0.362066
0.790768 0.627863 0.335271
0.959838 0.682673 0.387518
0.433875 0.587854 0.428565
0.445869 0.591241 0.429572
0.484993 0.602533 0.433387
0.547509 0.623987 0.446265
0.624475 0.642206 0.467353
0.709743 0.661006 0.482948
0.817380 0.726131 0.452399
0.922972 0.767727 0.445411
0.507591 0.701289 0.524987
0.518700 0.703944 0.526390
0.553674 0.714321 0.531914
0.604395 0.736263 0.541131
0.675319 0.765347 0.561181
0.761166 0.788540 0.581140
0.864347 0.819059 0.605280
0.964538 0.874998 0.585901
0.087739 0.000000 0.090333
0.229862 0.043519 0.142306
0.389075 0.180758 0.085878
0.513054 0.240787 0.132845
0.635523 0.307469 0.166659
0.729458 0.363104 0.196201
0.836728 0.424537 0.222934
0.961578 0.498360 0.259922
0.078096 0.081422 0.088075
0.229282 0.176577 0.139590
0.411566 0.171847 0.124361
0.534081 0.242863 0.153933
0.651026 0.309758 0.181125
0.740414 0.364874 0.206424
0.844938 0.425483 0.230747
0.966033 0.498756 0.267735
0.205020 0.244938 0.191196
0.279515 0.271397 0.207706
0.390875 0.308415 0.212894
0.528893 0.309911 0.191073
0.697475 0.311681 0.224460
0.783413 0.368231 0.240970
0.880339 0.430976 0.260929
0.986603 0.505882 0.302007
0.304387 0.332525 0.257206
0.333257 0.342046 0.262974
0.398749 0.368505 0.276890
0.502037 0.409827 0.265690
0.619348 0.427710 0.230838
0.772915 0.433875 0.263310
0.926909 0.448524 0.315038
1.000000 0.522179 0.368963
0.358221 0.404822 0.309209
0.371954 0.411658 0.311254
0.416022 0.439429 0.317388
0.499336 0.461982 0.330358
0.609003 0.512139 0.309331
0.690394 0.519493 0.273594
0.859800 0.552087 0.312169
1.000000 0.593225 0.406439
0.393988 0.488014 0.363531
0.405402 0.493538 0.364843
0.444404 0.514214 0.369696
0.517235 0.544640 0.386023
0.603815 0.559503 0.398291
0.700587 0.606867 0.372808
0.789548 0.629175 0.346044
0.959838 0.684413 0.398932
0.439002 0.586481 0.433692
0.450263 0.589502 0.434394
0.488380 0.601129 0.438544
0.549859 0.623194 0.451637
0.625330 0.643275 0.472755
0.708980 0.661891 0.487495
0.815518 0.725795 0.458564
0.921111 0.767391 0.451362
0.509392 0.699611 0.528435
0.520317 0.702510 0.529992
0.554925 0.713100 0.535485
0.605097 0.735317 0.544732
0.676967 0.767819 0.566705
0.761532 0.790311 0.585840
0.863523 0.819150 0.609735
0.963592 0.875151 0.590326
0.231052 0.000000 0.255863
0.264561 0.092775 0.249912
0.420752 0.253819 0.289708
0.455268 0.293675 0.199466
0.585534 0.341375 0.216434
0.695155 0.389502 0.235569
0.807797 0.443061 0.251743
0.942596 0.515679 0.281712
0.266545 0.171542 0.252201
0.304631 0.212924 0.254673
0.411536 0.273625 0.272007
0.479133 0.307225 0.221195
0.604517 0.349310 0.230594
0.706264 0.392828 0.244480
0.816831 0.445472 0.259251
0.948241 0.517601 0.290227
0.267643 0.243595 0.238132
0.322423 0.278172 0.253178
0.411078 0.342535 0.286351
0.553124 0.331121 0.269841
0.664820 0.363043 0.270695
0.750362 0.403754 0.276463
0.852689 0.456458 0.289921
0.969604 0.527398 0.324407
0.338354 0.334691 0.288090
0.360479 0.348089 0.295354
0.419104 0.391974 0.315435
0.512016 0.429786 0.313634
0.634668 0.442817 0.286687
0.780453 0.447303 0.316899
0.914794 0.478401 0.356451
1.000000 0.550408 0.393683
0.376562 0.407660 0.333196
0.391669 0.416815 0.337469
0.437995 0.449104 0.350774
0.512688 0.483070 0.366155
0.612757 0.525078 0.352361
0.697017 0.531975 0.311894
0.866911 0.565484 0.361547
1.000000 0.608057 0.451087
0.410681 0.490364 0.385595
0.423957 0.497200 0.388525
0.463966 0.519768 0.397223
0.530755 0.556695 0.415503
0.608118 0.570611 0.427008
0.699947 0.614221 0.408270
0.789059 0.636286 0.381292
0.964721 0.694026 0.439246
0.454780 0.586938 0.453559
0.466316 0.590387 0.454841
0.502831 0.602258 0.459541
0.560113 0.624720 0.472084
0.630213 0.650385 0.492348
0.710048 0.669215 0.505089
0.815763 0.731258 0.482795
0.922423 0.773281 0.476905
0.516991 0.698207 0.543450
0.525902 0.700679 0.544182
0.559075 0.711482 0.549187
0.607843 0.734707 0.558648
0.673579 0.770321 0.575372
0.761166 0.794736 0.599969
0.862303 0.821286 0.626551
0.962951 0.878721 0.609674
0.327886 0.103975 0.350347
0.351080 0.172000 0.344518
0.421057 0.265812 0.342718
0.567895 0.349004 0.413916
0.563134 0.336553 0.272770
0.627161 0.400153 0.252232
0.750088 0.454292 0.270115
0.900755 0.530694 0.297581
0.358801 0.225925 0.343755
0.374243 0.246677 0.342626
0.425025 0.297551 0.344305
0.558160 0.358343 0.399268
0.547936 0.357458 0.270329
0.642634 0.408850 0.263432
0.760739 0.459815 0.279362
0.908110 0.534112 0.305699
0.355505 0.280919 0.344854
0.382055 0.304326 0.347601
0.447028 0.366247 0.362707
0.528557 0.377295 0.345403
0.591547 0.405982 0.301640
0.691615 0.435981 0.305058
0.801083 0.481697 0.315709
0.935302 0.549798 0.341009
0.363409 0.332250 0.319005
0.384710 0.348272 0.326635
0.450874 0.400946 0.357733
0.540429 0.475380 0.394995
0.662379 0.469551 0.375952
0.773373 0.480659 0.386023
0.868101 0.519738 0.387610
0.975219 0.580499 0.412970
0.408850 0.402197 0.358465
0.420630 0.416327 0.366979
0.462837 0.459785 0.392462
0.540642 0.521752 0.426154
0.622461 0.550317 0.419745
0.717678 0.558099 0.389807
0.883421 0.589410 0.439216
1.000000 0.625635 0.513817
0.435401 0.495125 0.419226
0.447822 0.502739 0.423194
0.486854 0.526818 0.434638
0.548821 0.566094 0.454444
0.618830 0.591730 0.472633
0.703548 0.630213 0.461738
0.799100 0.654261 0.432410
0.975555 0.706752 0.497292
0.476478 0.587091 0.483253
0.487251 0.590875 0.484688
0.521843 0.603693 0.490211
0.573144 0.627344 0.501884
0.638056 0.665461 0.522881
0.713191 0.683558 0.533104
0.817319 0.740505 0.517723
0.924346 0.780728 0.512291
0.535180 0.697353 0.570581
0.542962 0.700282 0.571435
0.567407 0.710658 0.574151
0.608331 0.732387 0.580224
0.671839 0.769558 0.595453
0.759396 0.802487 0.623377
0.861234 0.829465 0.650446
0.961700 0.884459 0.640711
0.421271 0.197604 0.453223
0.432441 0.226200 0.448310
0.462135 0.286778 0.437293
0.549798 0.349004 0.452674
0.681605 0.462715 0.529564
0.682673 0.366705 0.351324
0.659785 0.443427 0.268437
0.828122 0.532616 0.303380
0.434180 0.256962 0.447974
0.443030 0.271519 0.445533
0.469306 0.311955 0.438483
0.550317 0.368750 0.453590
0.674983 0.466804 0.519615
0.673060 0.384253 0.349126
0.671870 0.451667 0.278386
0.837186 0.538384 0.312413
0.451850 0.334020 0.445686
0.461799 0.345037 0.446265
0.490211 0.374151 0.448310
0.554070 0.426520 0.459876
0.655177 0.475380 0.485451
0.637476 0.433967 0.335515
0.712886 0.480629 0.316320
0.868040 0.558099 0.344854
0.402625 0.351568 0.436988
0.420630 0.366827 0.439857
0.481849 0.421180 0.454597
0.577325 0.514824 0.484382
0.613489 0.507408 0.426551
0.687709 0.508904 0.398840
0.787930 0.535912 0.393072
0.921630 0.593164 0.405737
0.421698 0.406989 0.400763
0.437446 0.419532 0.406806
0.490211 0.462501 0.429450
0.569116 0.536492 0.476814
0.641993 0.589746 0.502495
0.755276 0.595239 0.490517
0.894652 0.609644 0.508873
0.985168 0.646967 0.511711
0.476692 0.475196 0.436927
0.486061 0.486336 0.443610
0.517510 0.523308 0.466377
0.570642 0.573144 0.496895
0.635279 0.621698 0.524498
0.712917 0.653315 0.519341
0.827115 0.679286 0.497810
0.992309 0.721950 0.573846
0.509239 0.579675 0.511284
0.517357 0.586572 0.515221
0.545525 0.604944 0.524865
0.588678 0.629450 0.536461
0.638392 0.670192 0.552392
0.716396 0.703578 0.572045
0.820401 0.754269 0.564263
0.931212 0.790860 0.556085
0.557275 0.694942 0.602564
0.563684 0.697902 0.603540
0.583978 0.708888 0.606897
0.615290 0.730251 0.612970
0.665492 0.763424 0.622248
0.754757 0.812924 0.654627
0.855436 0.839628 0.680995
0.959472 0.891844 0.681178
0.493965 0.248295 0.554772
0.500786 0.264317 0.551629
0.521843 0.308049 0.542596
0.572869 0.369848 0.539361
0.676997 0.458350 0.575250
0.791897 0.566217 0.650660
0.810880 0.467445 0.487892
0.837125 0.512993 0.384955
0.499611 0.283513 0.550622
0.505669 0.294682 0.548211
0.525902 0.330327 0.540948
0.572351 0.387366 0.537621
0.674403 0.471687 0.572869
0.786465 0.567895 0.642390
0.803952 0.467536 0.477913
0.828916 0.518944 0.379644
0.513787 0.357397 0.545129
0.519860 0.364935 0.544488
0.540948 0.391791 0.542046
0.574762 0.439643 0.536950
0.668177 0.512657 0.568170
0.770291 0.573693 0.616815
0.779141 0.479835 0.452155
0.800015 0.538201 0.357763
0.505669 0.394110 0.545373
0.518395 0.411170 0.545129
0.562402 0.469581 0.546838
0.602136 0.514244 0.550927
0.663813 0.567559 0.567559
0.743740 0.577234 0.570245
0.728359 0.523400 0.422461
0.821988 0.581964 0.385657
0.454383 0.428473 0.526604
0.468696 0.440131 0.527886
0.515801 0.480354 0.534203
0.589532 0.547631 0.551659
0.676173 0.630640 0.589746
0.696193 0.607202 0.517082
0.781125 0.609003 0.488106
0.910948 0.651392 0.487160
0.480659 0.486427 0.490272
0.493538 0.496071 0.494179
0.535454 0.527764 0.507042
0.596735 0.575677 0.530663
0.658869 0.640345 0.575952
0.738613 0.698268 0.604456
0.881773 0.717342 0.609979
0.995605 0.743954 0.647089
0.546258 0.560662 0.528191
0.555871 0.566186 0.530632
0.583856 0.585321 0.540368
0.614740 0.625635 0.566369
0.657038 0.678737 0.600397
0.730220 0.739864 0.634760
0.830747 0.780392 0.633783
0.956512 0.815030 0.637598
0.592767 0.670527 0.617639
0.596979 0.675959 0.620905
0.610529 0.695338 0.632593
0.634730 0.730556 0.654261
0.677760 0.763760 0.668452
0.742550 0.811917 0.687373
0.850187 0.856229 0.727138
0.957366 0.904021 0.739284
0.563928 0.288396 0.672267
0.569604 0.301396 0.670100
0.587060 0.342443 0.660304
0.616693 0.405585 0.647242
0.692836 0.482643 0.655451
0.810483 0.565087 0.721126
0.905974 0.673030 0.785183
0.962219 0.604578 0.666743
0.565820 0.313573 0.666346
0.571283 0.324651 0.664424
0.588739 0.361059 0.656092
0.617823 0.418952 0.644007
0.689662 0.491371 0.651484
0.805325 0.569665 0.715694
0.901976 0.675196 0.781125
0.957946 0.601892 0.658259
0.578088 0.382788 0.661585
0.583185 0.390509 0.660334
0.600397 0.417884 0.654749
0.629175 0.465431 0.645502
0.687465 0.525078 0.649714
0.799313 0.594720 0.711421
0.896880 0.687678 0.773373
0.950683 0.603571 0.638361
0.596521 0.467842 0.657923
0.601221 0.473396 0.656825
0.617700 0.492317 0.654658
0.646387 0.526513 0.653101
0.683040 0.569421 0.650568
0.789700 0.634424 0.705745
0.884672 0.694759 0.748501
0.933898 0.596246 0.591363
0.551171 0.470710 0.654170
0.562036 0.481239 0.653437
0.598047 0.515892 0.653712
0.651637 0.574578 0.659174
0.695064 0.618128 0.666133
0.769894 0.676722 0.692195
0.859098 0.690669 0.697627
0.884550 0.632258 0.544396
0.513298 0.512139 0.624018
0.523766 0.520256 0.624842
0.557031 0.546899 0.628779
0.604822 0.587121 0.640650
0.670710 0.645075 0.667323
0.777340 0.744259 0.717067
0.796933 0.705531 0.616663
0.898375 0.718288 0.577050
0.541772 0.568048 0.586023
0.550530 0.573938 0.587213
0.578271 0.594049 0.593500
0.619532 0.628443 0.610712
0.678065 0.678401 0.639979
0.757656 0.755367 0.697810
0.855100 0.829618 0.746426
0.981933 0.865629 0.798032
0.602991 0.656947 0.643732
0.608759 0.660914 0.645747
0.631006 0.676844 0.655207
0.668452 0.702327 0.669673
0.710262 0.749538 0.702113
0.763882 0.818173 0.751308
0.851530 0.881559 0.793088
0.955840 0.922728 0.818631
0.646174 0.343420 0.829282
0.651392 0.355871 0.827207
0.667872 0.395392 0.817746
0.696315 0.457649 0.804776
0.744015 0.524895 0.796963
0.828000 0.593683 0.812009
0.936614 0.698512 0.877012
0.981109 0.819455 0.907683
0.647791 0.362432 0.825681
0.652888 0.373754 0.823758
0.669398 0.410437 0.815183
0.697139 0.468147 0.802518
0.741360 0.531548 0.794186
0.825742 0.598688 0.810086
0.934813 0.701961 0.875395
0.980316 0.821775 0.907347
0.654749 0.417182 0.820279
0.659449 0.425452 0.819028
0.675105 0.454322 0.811215
0.702815 0.502403 0.802213
0.735195 0.554711 0.790433
0.820829 0.618341 0.808194
0.931060 0.718196 0.873777
0.978607 0.833280 0.908507
0.663752 0.486824 0.815030
0.668421 0.493050 0.814359
0.683162 0.512200 0.810330
0.708400 0.545129 0.804654
0.740566 0.588312 0.795529
0.812863 0.649226 0.807767
0.925658 0.744961 0.872862
0.976410 0.852659 0.911559
0.659968 0.539422 0.809934
0.667262 0.549004 0.809751
0.690211 0.578271 0.807431
0.708400 0.588373 0.807279
0.744564 0.626764 0.804410
0.795102 0.681697 0.804471
0.912993 0.775753 0.865843
0.972564 0.859403 0.901579
0.587732 0.542077 0.807675
0.595972 0.548516 0.807492
0.624414 0.570642 0.806241
0.672419 0.606958 0.807095
0.741787 0.672328 0.812345
0.801755 0.732052 0.822202
0.891936 0.814450 0.853422
0.966339 0.863951 0.881407
0.555962 0.599451 0.776120
0.562371 0.603693 0.776272
0.583520 0.618036 0.778195
0.622217 0.645808 0.784787
0.681392 0.690913 0.799710
0.772457 0.764584 0.828275
0.887419 0.866331 0.866575
0.943236 0.854765 0.817838
0.588312 0.670954 0.743893
0.593805 0.674311 0.744289
0.613458 0.686702 0.745907
0.649714 0.710811 0.751034
0.704585 0.751064 0.766629
0.782925 0.811826 0.800290
0.882078 0.887388 0.856413
0.960998 0.952911 0.919951
