data/filter_cube/11206988/1023414/file.cube
# Created by Adobe Lightroom plugin Export LUT (1.17.0)
# www.johnrellis.com/lightroom/exportlut.htm
# Preset: 焦糖暖色调人像产品_03 云集
# Color profile: C:\Program Files (x86)\Common Files\Adobe\Color\Profiles\Recommended\AdobeRGB1998.icc
LUT_3D_SIZE 5
DOMAIN_MIN 0.000000 0.000000 0.000000
DOMAIN_MAX 0.903226 0.903226 0.903226
0.000000 0.000000 0.000000
0.378241 0.113710 0.000000
0.599023 0.244877 0.081056
0.768582 0.368627 0.182773
0.969390 0.493874 0.251926
0.109285 0.206119 0.129305
0.360571 0.269108 0.131106
0.646571 0.259586 0.161044
0.805936 0.372381 0.219516
0.988556 0.498878 0.284123
0.317967 0.365667 0.270756
0.379736 0.392859 0.280278
0.559808 0.461036 0.272343
0.774441 0.485512 0.258610
1.000000 0.540398 0.394965
0.396490 0.512444 0.373022
0.435706 0.530175 0.376837
0.562280 0.570855 0.401129
0.727352 0.632624 0.382238
0.942870 0.702235 0.383825
0.507591 0.701289 0.524987
0.542992 0.710780 0.530083
0.632105 0.749996 0.544366
0.785702 0.795132 0.587366
0.964538 0.874998 0.585901
0.204623 0.000000 0.225193
0.387304 0.217624 0.261295
0.538018 0.307836 0.197055
0.730922 0.394903 0.230442
0.948150 0.510185 0.275517
0.228305 0.212070 0.211429
0.379400 0.311833 0.260319
0.608850 0.326024 0.245365
0.770565 0.404150 0.259648
0.968811 0.518273 0.307195
0.351720 0.369482 0.302495
0.406134 0.403662 0.317449
0.561913 0.472755 0.317296
0.778012 0.495369 0.308385
1.000000 0.561212 0.436561
0.416724 0.514885 0.396002
0.456092 0.534020 0.402808
0.571466 0.580346 0.429419
0.726131 0.638880 0.416083
0.947265 0.710414 0.422583
0.514855 0.699641 0.539513
0.548547 0.709468 0.544182
0.636469 0.751553 0.560113
0.785763 0.800168 0.601953
0.963806 0.878416 0.605005
0.377203 0.160433 0.400793
0.420905 0.260319 0.386816
0.631830 0.403113 0.475502
0.608515 0.407477 0.258000
0.869322 0.534966 0.303471
0.415503 0.306340 0.393805
0.448981 0.339757 0.397009
0.607935 0.419684 0.434638
0.660456 0.440131 0.296239
0.897368 0.550988 0.333532
0.393194 0.369177 0.358801
0.450538 0.415381 0.383215
0.597101 0.538170 0.451881
0.811032 0.542809 0.454871
0.979461 0.613519 0.463081
0.461524 0.514366 0.448524
0.495064 0.540795 0.463050
0.595178 0.603113 0.496193
0.731258 0.663600 0.500053
0.969116 0.731106 0.523613
0.545342 0.695613 0.585626
0.568353 0.706081 0.588891
0.634821 0.746059 0.598932
0.779934 0.813138 0.642786
0.960327 0.887327 0.658442
0.510094 0.258579 0.579706
0.529625 0.302434 0.569970
0.622126 0.415259 0.567285
0.821225 0.589807 0.683040
0.877287 0.512718 0.444739
0.523857 0.342382 0.570886
0.543053 0.370245 0.566766
0.621668 0.463172 0.565393
0.807095 0.597162 0.661372
0.852445 0.534264 0.428809
0.500999 0.419104 0.566644
0.544823 0.462379 0.568231
0.641871 0.569818 0.582544
0.755428 0.597559 0.575097
0.828733 0.603601 0.418769
0.496437 0.506523 0.512779
0.535119 0.534752 0.522759
0.632044 0.612848 0.563195
0.765774 0.728847 0.635157
0.996094 0.775845 0.691249
0.602472 0.662409 0.619837
0.615625 0.681056 0.631342
0.660700 0.746334 0.672602
0.767025 0.827726 0.709682
0.956786 0.907836 0.756771
0.646174 0.343420 0.829282
0.662562 0.383093 0.820523
0.713161 0.491981 0.797604
0.850309 0.614527 0.817899
0.981109 0.819455 0.907683
0.653071 0.401251 0.822995
0.669032 0.432502 0.815702
0.717189 0.520409 0.796078
0.845274 0.632410 0.815396
0.979248 0.830198 0.908415
0.671443 0.531060 0.810697
0.681209 0.537469 0.809232
0.724178 0.583642 0.802029
0.829374 0.682582 0.813107
0.974670 0.856077 0.907378
0.571191 0.552087 0.802182
0.598077 0.572076 0.802914
0.687068 0.638727 0.811063
0.821714 0.765042 0.831449
0.963470 0.862608 0.871550
0.588312 0.670954 0.743893
0.606989 0.682582 0.745144
0.674159 0.727596 0.755550
0.806271 0.829709 0.811673
0.960998 0.952911 0.919951
