data/filter_cube/11206988/1023414/file.cube
# Created by Adobe Lightroom plugin Export LUT (1.17.0)
# www.johnrellis.com/lightroom/exportlut.htm
# Preset: 焦糖暖色调人像产品_03 云集
# Color profile: C:\Program Files (x86)\Common Files\Adobe\Color\Profiles\Recommended\AdobeRGB1998.icc
LUT_3D_SIZE 32
DOMAIN_MIN 0.0 0.0 0.0
DOMAIN_MAX 1.0 1.0 1.0
0.000000 0.000000 0.000000
0.010315 0.000610 0.000763
0.039948 0.003876 0.001892
0.100313 0.017823 0.004028
0.198642 0.055146 0.000000
0.280339 0.080476 0.000000
0.336980 0.098939 0.000000
0.378241 0.113710 0.000000
0.412177 0.128359 0.000000
0.442969 0.143282 0.000000
0.473487 0.160678 0.000000
0.504967 0.180240 0.000000
0.536461 0.201022 0.000000
0.567651 0.222507 0.052827
0.599023 0.244877 0.081056
0.627985 0.265995 0.101595
0.654261 0.285466 0.119448
0.677668 0.303441 0.135195
0.698756 0.319799 0.149020
0.720638 0.335882 0.161471
0.743923 0.352239 0.172580
0.768582 0.368627 0.182773
0.794125 0.385046 0.192111
0.820890 0.401740 0.201175
0.848814 0.418952 0.209812
0.878386 0.436530 0.218418
0.908629 0.454932 0.227878
0.939391 0.473945 0.238651
0.969390 0.493874 0.251926
0.998138 0.515038 0.269108
1.000000 0.538109 0.291814
1.000000 0.563775 0.321477
0.003143 0.002930 0.001831
0.013336 0.005951 0.001343
0.036164 0.010346 0.002533
0.101503 0.013306 0.006439
0.202670 0.034546 0.000000
0.284642 0.069032 0.000000
0.340246 0.090822 0.000000
0.380682 0.108186 0.000000
0.414252 0.123903 0.000000
0.445014 0.140047 0.000000
0.475563 0.158480 0.000000
0.506889 0.178988 0.000000
0.538323 0.200443 0.006897
0.569360 0.222232 0.060212
0.600519 0.244663 0.084077
0.629389 0.265721 0.104158
0.655238 0.285313 0.121431
0.678279 0.303136 0.136812
0.699367 0.319432 0.150332
0.720974 0.335698 0.162814
0.744472 0.351843 0.173465
0.768887 0.368292 0.183627
0.794400 0.384680 0.192813
0.820890 0.401465 0.201755
0.848936 0.418524 0.210391
0.878416 0.436316 0.219120
0.908751 0.454566 0.228489
0.939330 0.473610 0.239231
0.969390 0.493538 0.252415
0.998047 0.514763 0.269749
1.000000 0.537743 0.292363
1.000000 0.563500 0.321843
0.009308 0.011200 0.004242
0.021424 0.014984 0.006867
0.049561 0.024262 0.006439
0.095644 0.042145 0.006897
0.201938 0.045045 0.000000
0.289494 0.041779 0.000000
0.344182 0.076814 0.000000
0.383917 0.098756 0.000000
0.417273 0.117250 0.000000
0.447730 0.135653 0.000000
0.478370 0.155764 0.000000
0.509728 0.177554 0.000000
0.541283 0.199466 0.021363
0.572229 0.222019 0.066011
0.603052 0.244572 0.088930
0.631403 0.265721 0.107576
0.657038 0.285283 0.124300
0.679957 0.303075 0.139193
0.700618 0.319463 0.152621
0.722286 0.335637 0.164523
0.745571 0.351934 0.175296
0.770047 0.368231 0.184970
0.795407 0.384741 0.194308
0.821958 0.401343 0.202976
0.849760 0.418463 0.211460
0.879149 0.436194 0.220066
0.909392 0.454475 0.229496
0.939849 0.473518 0.240177
0.969818 0.493507 0.253483
0.998413 0.514641 0.270756
1.000000 0.537774 0.293339
1.000000 0.563470 0.322850
0.030976 0.042329 0.017365
0.044251 0.053193 0.020294
0.068879 0.060700 0.023499
0.112764 0.078492 0.016938
0.182315 0.098848 0.000000
0.279240 0.098543 0.000000
0.348363 0.065797 0.000000
0.391608 0.069306 0.000000
0.423987 0.099031 0.000000
0.454353 0.124544 0.000000
0.485145 0.149142 0.000000
0.516411 0.173831 0.003937
0.547631 0.197910 0.052888
0.578424 0.221530 0.078889
0.608637 0.244602 0.098329
0.636347 0.266087 0.115633
0.661158 0.285679 0.131258
0.683406 0.303441 0.145052
0.703883 0.319646 0.157534
0.725307 0.335912 0.168765
0.748501 0.352148 0.178866
0.772641 0.368353 0.188144
0.797818 0.384833 0.197208
0.824277 0.401526 0.205600
0.852171 0.418677 0.214054
0.881468 0.436378 0.222538
0.911650 0.454658 0.231815
0.941833 0.473732 0.242679
0.971496 0.493690 0.255985
0.999603 0.514946 0.273411
1.000000 0.538170 0.296178
1.000000 0.563897 0.325566
0.059266 0.079591 0.047578
0.066072 0.085389 0.050050
0.081086 0.096498 0.049683
0.129335 0.110292 0.056733
0.203891 0.141604 0.020264
0.253849 0.149935 0.000000
0.328344 0.145724 0.000000
0.383154 0.123781 0.000000
0.428260 0.093874 0.000000
0.464607 0.101320 0.000000
0.495460 0.137179 0.007935
0.526787 0.167239 0.051301
0.557549 0.194766 0.076173
0.588098 0.220493 0.095064
0.617273 0.244541 0.112032
0.643946 0.266331 0.127230
0.667781 0.286168 0.141238
0.689296 0.303929 0.153475
0.709346 0.320348 0.165072
0.730831 0.336584 0.175296
0.753597 0.352758 0.184543
0.777554 0.368994 0.193393
0.802457 0.385321 0.201907
0.828733 0.401923 0.209903
0.856321 0.419043 0.218051
0.885191 0.436744 0.226505
0.914855 0.454994 0.235721
0.944671 0.473976 0.246433
0.973693 0.494057 0.260014
1.000000 0.515373 0.277592
1.000000 0.538659 0.300420
1.000000 0.564569 0.330022
0.069886 0.122530 0.075868
0.077302 0.128664 0.076753
0.093324 0.138155 0.075807
0.140352 0.153719 0.079957
0.205295 0.165286 0.087404
0.274266 0.194827 0.058625
0.310887 0.194583 0.000000
0.362707 0.187289 0.000000
0.410590 0.170474 0.000000
0.454353 0.155673 0.004456
0.499763 0.146365 0.057557
0.540764 0.156313 0.081727
0.571221 0.189487 0.098512
0.601160 0.218235 0.114199
0.629175 0.243687 0.128298
0.654322 0.266331 0.141787
0.676936 0.286412 0.153750
0.697322 0.304265 0.164736
0.717250 0.321080 0.174716
0.738643 0.337469 0.183810
0.761196 0.353674 0.192325
0.784573 0.370062 0.200473
0.813931 0.389349 0.210086
0.839811 0.405921 0.217777
0.867094 0.422827 0.225315
0.895323 0.440314 0.233646
0.923980 0.458473 0.242893
0.952575 0.477333 0.253971
0.980407 0.497322 0.268009
1.000000 0.518730 0.286137
1.000000 0.542199 0.309545
1.000000 0.568383 0.339635
0.081453 0.166629 0.102602
0.094575 0.171542 0.103029
0.113741 0.178317 0.103578
0.151186 0.192630 0.104341
0.210391 0.202976 0.114199
0.270298 0.211887 0.122438
0.324376 0.236118 0.094179
0.355535 0.235019 0.064515
0.390417 0.225162 0.008881
0.435584 0.214572 0.046265
0.480629 0.208347 0.075868
0.528130 0.205966 0.097322
0.576043 0.206058 0.117617
0.619318 0.214450 0.135653
0.645441 0.242344 0.147829
0.668544 0.266117 0.158877
0.689387 0.286656 0.169009
0.708675 0.305089 0.178286
0.728756 0.322332 0.186679
0.749752 0.339086 0.194614
0.772213 0.355627 0.202274
0.795621 0.372107 0.209751
0.820401 0.388739 0.217075
0.846311 0.405615 0.224399
0.873533 0.422889 0.231937
0.901274 0.440528 0.240024
0.929381 0.458747 0.249393
0.957092 0.477760 0.260746
0.984070 0.497932 0.275090
1.000000 0.519554 0.293492
1.000000 0.543206 0.317021
1.000000 0.569696 0.347265
0.109285 0.206119 0.129305
0.123018 0.209476 0.129763
0.139864 0.213901 0.130434
0.172274 0.223697 0.132326
0.220890 0.235233 0.141451
0.269139 0.241642 0.148257
0.317479 0.249332 0.153841
0.360571 0.269108 0.131106
0.388952 0.269505 0.108980
0.413519 0.259770 0.077333
0.458045 0.254856 0.093812
0.505241 0.253788 0.111208
0.554284 0.255528 0.128481
0.602716 0.257908 0.144991
0.646571 0.259586 0.161044
0.682948 0.261936 0.176303
0.701961 0.284276 0.184726
0.721187 0.303716 0.192172
0.740932 0.321599 0.199252
0.761440 0.338933 0.206119
0.783200 0.355627 0.212833
0.805936 0.372381 0.219516
0.830045 0.389105 0.226200
0.855467 0.406043 0.233005
0.881895 0.423316 0.240208
0.908965 0.441016 0.248386
0.936004 0.459266 0.257664
0.962737 0.478462 0.269230
0.988556 0.498878 0.284123
1.000000 0.520775 0.302678
1.000000 0.544823 0.326574
1.000000 0.571649 0.356786
0.146792 0.240238 0.155489
0.157961 0.242374 0.155917
0.171969 0.245518 0.156954
0.199069 0.251774 0.159274
0.234318 0.261723 0.164065
0.277134 0.268162 0.174533
0.316472 0.273381 0.181308
0.354833 0.282200 0.182650
0.390570 0.298283 0.164828
0.418219 0.301488 0.147768
0.436286 0.291295 0.126375
0.480903 0.292210 0.126009
0.529931 0.295445 0.140047
0.579370 0.299046 0.153841
0.626093 0.301457 0.167697
0.666773 0.302068 0.181216
0.701778 0.301488 0.194675
0.736202 0.301244 0.207401
0.755764 0.319646 0.213321
0.775692 0.337591 0.218875
0.796506 0.355016 0.224887
0.818662 0.372076 0.230594
0.842161 0.389044 0.236637
0.866819 0.406317 0.243168
0.892332 0.423804 0.250309
0.918181 0.441627 0.258091
0.944030 0.460212 0.267857
0.969360 0.479652 0.279850
0.993927 0.500359 0.294957
1.000000 0.522576 0.313939
1.000000 0.547173 0.338079
1.000000 0.574395 0.368414
0.186862 0.268650 0.180056
0.195224 0.270115 0.180819
0.206088 0.272129 0.181674
0.227756 0.276524 0.184268
0.255955 0.283635 0.188785
0.291020 0.291539 0.198459
0.321355 0.295811 0.203433
0.353674 0.300206 0.209018
0.385443 0.310033 0.207187
0.417365 0.324804 0.192569
0.446540 0.331548 0.177523
0.460731 0.322393 0.162631
0.503838 0.326696 0.151949
0.553552 0.332006 0.163119
0.602564 0.336492 0.174228
0.646754 0.338689 0.185885
0.684779 0.338567 0.197757
0.719478 0.337530 0.209751
0.754696 0.337346 0.221256
0.790066 0.337285 0.232273
0.812436 0.353033 0.237980
0.833585 0.370886 0.243198
0.856199 0.388434 0.248753
0.879667 0.406073 0.254826
0.903929 0.423987 0.261814
0.928374 0.442329 0.270085
0.952850 0.461250 0.280034
0.976806 0.481209 0.292424
0.999969 0.502342 0.307927
1.000000 0.525170 0.327276
1.000000 0.550256 0.351812
1.000000 0.578149 0.382300
0.223239 0.292180 0.202670
0.229770 0.293187 0.203494
0.238132 0.294713 0.204166
0.254551 0.298009 0.206516
0.276616 0.303380 0.209903
0.301152 0.310887 0.214817
0.330175 0.315984 0.223087
0.356268 0.319799 0.227176
0.384405 0.323919 0.231724
0.412940 0.335485 0.227207
0.444526 0.351202 0.214542
0.476509 0.361852 0.200778
0.490791 0.355200 0.189456
0.526421 0.358038 0.171817
0.576287 0.365057 0.181003
0.623560 0.369940 0.190890
0.665095 0.371313 0.200992
0.700740 0.370703 0.212253
0.736751 0.370275 0.222843
0.773281 0.370428 0.233280
0.809903 0.371099 0.244419
0.847074 0.372045 0.255894
0.872068 0.387213 0.262669
0.894438 0.405707 0.268681
0.917235 0.424414 0.275792
0.940185 0.443366 0.284306
0.962921 0.462867 0.294591
0.985199 0.483375 0.307378
1.000000 0.505119 0.323217
1.000000 0.528527 0.342870
1.000000 0.554253 0.367559
1.000000 0.582818 0.398260
0.254246 0.312474 0.222538
0.259037 0.313237 0.223209
0.265568 0.314488 0.224063
0.278080 0.316960 0.225742
0.295415 0.321386 0.228611
0.315190 0.327581 0.232395
0.340551 0.334905 0.240299
0.362005 0.338384 0.243473
0.385992 0.342229 0.246952
0.412116 0.346624 0.250919
0.440375 0.361089 0.244327
0.472938 0.378241 0.232364
0.510002 0.394537 0.220432
0.524498 0.389441 0.211215
0.553399 0.390295 0.194675
0.601251 0.398230 0.197421
0.645930 0.402411 0.206241
0.684291 0.402899 0.216007
0.720394 0.402655 0.226078
0.758022 0.403204 0.235996
0.795804 0.404089 0.246586
0.833646 0.405524 0.257969
0.871916 0.407599 0.270207
0.909117 0.410925 0.284245
0.933867 0.426703 0.293736
0.954803 0.446540 0.302647
0.975372 0.466957 0.313298
0.995544 0.487953 0.326360
1.000000 0.510430 0.342565
1.000000 0.534386 0.362463
1.000000 0.560906 0.387579
1.000000 0.589746 0.417548
0.280125 0.331273 0.240604
0.283604 0.331975 0.241001
0.288548 0.332891 0.241581
0.298344 0.335119 0.243076
0.312169 0.338811 0.245243
0.328405 0.344244 0.248142
0.346502 0.351629 0.251591
0.369268 0.357031 0.258366
0.390417 0.361059 0.261265
0.413916 0.365515 0.264408
0.440040 0.370520 0.267887
0.469764 0.388403 0.259007
0.503288 0.406958 0.247623
0.538689 0.422522 0.235080
0.554162 0.419318 0.227207
0.576867 0.417639 0.214267
0.620325 0.425330 0.209384
0.662348 0.428840 0.218021
0.699306 0.429267 0.227390
0.737514 0.430732 0.237064
0.776394 0.432471 0.247196
0.815427 0.434485 0.258122
0.854643 0.437171 0.270207
0.893614 0.440772 0.284184
0.930510 0.445624 0.300450
0.964233 0.452186 0.319371
0.986267 0.470100 0.333104
1.000000 0.492042 0.346319
1.000000 0.515221 0.362676
1.000000 0.540093 0.382788
1.000000 0.567407 0.407843
1.000000 0.596307 0.436835
0.300633 0.348486 0.256199
0.303593 0.349187 0.256565
0.307317 0.350011 0.257145
0.315160 0.352087 0.258213
0.326482 0.355413 0.259922
0.340215 0.360357 0.262303
0.355749 0.367376 0.265232
0.376928 0.375952 0.271580
0.395697 0.379889 0.273991
0.417121 0.384405 0.276677
0.441169 0.389197 0.279606
0.466743 0.394293 0.282231
0.498299 0.415412 0.271885
0.531792 0.434150 0.260441
0.566430 0.449775 0.248356
0.583307 0.448310 0.240635
0.599420 0.443030 0.230381
0.637690 0.450080 0.220005
0.677516 0.453162 0.228641
0.715633 0.455238 0.238132
0.755581 0.458167 0.247776
0.795621 0.461341 0.258488
0.836027 0.464790 0.270298
0.876432 0.469276 0.284062
0.915435 0.474372 0.300145
0.951415 0.480751 0.318822
0.983581 0.488991 0.340642
1.000000 0.500237 0.365881
1.000000 0.521752 0.385504
1.000000 0.547601 0.405737
1.000000 0.575097 0.429999
1.000000 0.603845 0.457679
0.317967 0.365667 0.270756
0.320226 0.366339 0.271031
0.323308 0.367102 0.271427
0.329931 0.369299 0.272435
0.339361 0.372625 0.273899
0.351171 0.377478 0.275761
0.364630 0.384161 0.278050
0.379736 0.392859 0.280278
0.401434 0.399603 0.286351
0.421180 0.403906 0.288609
0.443549 0.408515 0.291051
0.468421 0.413458 0.293828
0.494911 0.421180 0.294285
0.526665 0.442390 0.283696
0.559808 0.461036 0.272343
0.593011 0.475929 0.260472
0.610224 0.475257 0.252964
0.623835 0.469245 0.244480
0.654292 0.473274 0.230777
0.692866 0.476814 0.238865
0.733333 0.480995 0.248234
0.774441 0.485512 0.258610
0.815915 0.490120 0.270146
0.857664 0.495552 0.283635
0.898680 0.501488 0.299626
0.937041 0.508202 0.318090
0.971679 0.516258 0.340063
1.000000 0.526665 0.365667
1.000000 0.540398 0.394965
1.000000 0.558465 0.428412
1.000000 0.584405 0.454261
1.000000 0.612879 0.480323
0.332616 0.383856 0.284886
0.334722 0.384558 0.285222
0.337163 0.385412 0.285588
0.342748 0.387457 0.286351
0.350866 0.390723 0.287541
0.361120 0.395544 0.289006
0.373144 0.401892 0.290745
0.386755 0.410132 0.292638
0.406073 0.419715 0.297520
0.425940 0.424292 0.300755
0.446998 0.428626 0.302983
0.470375 0.433265 0.305425
0.495735 0.438117 0.308263
0.522820 0.448280 0.306371
0.554314 0.469001 0.295537
0.586267 0.486763 0.284092
0.617090 0.500053 0.272496
0.634485 0.500084 0.265141
0.647456 0.494392 0.257633
0.672511 0.495583 0.246403
0.709987 0.500877 0.248539
0.752316 0.507012 0.258762
0.794858 0.513207 0.270054
0.837766 0.519860 0.283391
0.880613 0.527092 0.299077
0.921386 0.534722 0.317723
0.958709 0.542931 0.339513
0.991363 0.552819 0.364965
1.000000 0.565484 0.394873
1.000000 0.581628 0.428382
1.000000 0.600824 0.464240
1.000000 0.622950 0.501549
0.345342 0.402716 0.298619
0.346868 0.403296 0.298772
0.349157 0.404211 0.299199
0.353887 0.406195 0.299779
0.361028 0.409369 0.300755
0.370123 0.413916 0.301915
0.381018 0.419867 0.303410
0.393683 0.427527 0.304662
0.408240 0.436988 0.306218
0.430945 0.444556 0.312932
0.450813 0.448585 0.315038
0.472847 0.452979 0.317388
0.496834 0.457649 0.320134
0.522576 0.462379 0.322911
0.549950 0.474952 0.319127
0.580682 0.494881 0.307836
0.610559 0.510887 0.296574
0.639002 0.522545 0.285313
0.656794 0.523400 0.277836
0.669642 0.518486 0.271366
0.690822 0.517693 0.261845
0.728328 0.525353 0.258396
0.771939 0.533349 0.269657
0.815915 0.541588 0.282872
0.860441 0.550134 0.298222
0.903655 0.559045 0.316533
0.943725 0.568109 0.338262
0.979278 0.578088 0.363897
1.000000 0.590021 0.394049
1.000000 0.604852 0.427985
1.000000 0.621942 0.463905
1.000000 0.641993 0.501823
0.356329 0.422187 0.312322
0.357855 0.422919 0.312505
0.360723 0.425422 0.313848
0.364935 0.427314 0.314305
0.371435 0.430426 0.315099
0.379675 0.434638 0.316045
0.389868 0.440314 0.317144
0.401740 0.447303 0.318334
0.415778 0.455970 0.319768
0.435370 0.465797 0.324529
0.456672 0.470710 0.328923
0.477516 0.474800 0.331243
0.500328 0.479133 0.333715
0.524743 0.483680 0.336492
0.550683 0.488350 0.339452
0.577996 0.502892 0.333379
0.606897 0.521172 0.322393
0.634546 0.535271 0.311254
0.660670 0.545251 0.299931
0.679042 0.547021 0.292485
0.692866 0.543633 0.286687
0.711971 0.542046 0.278325
0.748745 0.551293 0.269352
0.793790 0.561273 0.282200
0.839353 0.571466 0.297673
0.884611 0.581811 0.315587
0.927398 0.592096 0.337041
0.965850 0.602533 0.362707
0.998871 0.614191 0.392737
1.000000 0.627893 0.426978
1.000000 0.643336 0.463355
1.000000 0.661402 0.501732
0.366827 0.443183 0.326452
0.368292 0.444007 0.326787
0.370153 0.445014 0.327153
0.374121 0.447120 0.327703
0.380072 0.450233 0.328374
0.387976 0.454261 0.329229
0.397620 0.459571 0.330266
0.409155 0.466133 0.331456
0.422675 0.474098 0.332830
0.438087 0.483619 0.334569
0.462257 0.491768 0.342504
0.481910 0.495674 0.344823
0.503593 0.499794 0.347204
0.526818 0.504021 0.349889
0.551385 0.508415 0.352728
0.577081 0.512749 0.355962
0.603388 0.528557 0.347997
0.630304 0.544915 0.337224
0.655879 0.557427 0.326482
0.680903 0.566888 0.315648
0.701808 0.571130 0.307530
0.717037 0.569482 0.302464
0.734127 0.567193 0.295415
0.770626 0.577539 0.284459
0.815976 0.589441 0.296025
0.863310 0.601801 0.313878
0.908965 0.613947 0.335210
0.950713 0.625605 0.360784
0.987030 0.637690 0.391180
1.000000 0.650690 0.425574
1.000000 0.664881 0.462287
1.000000 0.681361 0.501366
0.376379 0.464698 0.340826
0.377722 0.465492 0.341161
0.379583 0.466529 0.341405
0.383246 0.468452 0.341863
0.388983 0.471321 0.342504
0.396490 0.475166 0.343267
0.405951 0.480110 0.344244
0.417182 0.486183 0.345464
0.430274 0.493538 0.346777
0.445289 0.502251 0.348516
0.464851 0.511986 0.353155
0.487800 0.517266 0.359442
0.508202 0.521050 0.361761
0.530175 0.524956 0.364477
0.553460 0.528923 0.367407
0.577722 0.532982 0.370611
0.601801 0.535943 0.374243
0.627649 0.553491 0.364294
0.652644 0.568139 0.353857
0.677211 0.579919 0.343389
0.703426 0.590692 0.332280
0.726406 0.596918 0.323796
0.742855 0.596918 0.319890
0.761074 0.596277 0.314000
0.795132 0.605371 0.304967
0.840116 0.619165 0.311711
0.888609 0.633478 0.332830
0.933776 0.647059 0.358312
0.973632 0.660182 0.388891
1.000000 0.673030 0.423377
1.000000 0.686488 0.460822
1.000000 0.701534 0.500542
0.385992 0.487465 0.356085
0.387243 0.488197 0.356329
0.389044 0.489174 0.356573
0.392645 0.491066 0.357061
0.398230 0.493751 0.357610
0.405707 0.497353 0.358373
0.414893 0.501884 0.359228
0.425818 0.507500 0.360388
0.438727 0.514275 0.361852
0.453346 0.522087 0.363684
0.469642 0.531121 0.365759
0.494789 0.539055 0.375311
0.514122 0.542412 0.377661
0.534844 0.545983 0.380346
0.556756 0.549584 0.383246
0.579706 0.553368 0.386542
0.603540 0.557153 0.390143
0.626520 0.561486 0.392462
0.650935 0.578027 0.382788
0.675319 0.592096 0.372625
0.701472 0.605402 0.362066
0.728573 0.617121 0.351141
0.753201 0.624933 0.342382
0.770993 0.626612 0.339544
0.790768 0.627863 0.335271
0.822934 0.636378 0.328710
0.867613 0.651850 0.330999
0.916289 0.667903 0.356512
0.959838 0.682673 0.387518
0.996063 0.696101 0.422492
1.000000 0.709285 0.460639
1.000000 0.723476 0.501305
0.396490 0.512444 0.373022
0.397742 0.513054 0.373205
0.399420 0.513817 0.373419
0.402869 0.515465 0.373785
0.408331 0.517906 0.374182
0.415717 0.521080 0.374884
0.424872 0.525170 0.375799
0.435706 0.530175 0.376837
0.448371 0.536126 0.378210
0.462898 0.543114 0.380133
0.478889 0.551049 0.382391
0.498207 0.559564 0.387060
0.522362 0.564416 0.395422
0.541711 0.567620 0.398169
0.562280 0.570855 0.401129
0.583703 0.574212 0.404486
0.605951 0.577600 0.407996
0.628840 0.581170 0.411994
0.650599 0.587121 0.412634
0.674769 0.603296 0.403052
0.700649 0.618799 0.392889
0.727352 0.632624 0.382238
0.754696 0.644678 0.371283
0.780636 0.653681 0.362188
0.799863 0.657008 0.360784
0.821347 0.660487 0.358495
0.851713 0.668452 0.354650
0.895476 0.685176 0.352941
0.942870 0.702235 0.383825
0.983215 0.717037 0.419226
1.000000 0.730678 0.458137
1.000000 0.744503 0.499611
0.407446 0.537346 0.390417
0.408637 0.537896 0.390600
0.410285 0.538598 0.390845
0.413916 0.539940 0.391119
0.419379 0.542138 0.391608
0.426642 0.544884 0.392096
0.435706 0.548486 0.392950
0.446418 0.552789 0.393988
0.459022 0.557977 0.395483
0.473213 0.564019 0.397314
0.488930 0.570886 0.399786
0.506035 0.578454 0.402899
0.531548 0.585473 0.414130
0.549828 0.588281 0.416999
0.568902 0.591302 0.420081
0.588891 0.594385 0.423438
0.609644 0.597589 0.426978
0.631037 0.600946 0.430915
0.653223 0.604791 0.435218
0.675410 0.613611 0.434150
0.701167 0.631220 0.424537
0.727779 0.647303 0.414618
0.754971 0.661677 0.404425
0.782773 0.674189 0.393805
0.809567 0.683711 0.383642
0.830564 0.689174 0.384161
0.853941 0.694759 0.384161
0.882109 0.702449 0.384314
0.924865 0.719722 0.384894
0.968353 0.736568 0.414832
1.000000 0.751461 0.454444
1.000000 0.765591 0.497200
0.420264 0.563165 0.409400
0.421485 0.563684 0.409583
0.423163 0.564263 0.409766
0.426703 0.565484 0.409979
0.432136 0.567193 0.410468
0.439307 0.569604 0.410925
0.448249 0.572534 0.411719
0.458930 0.576165 0.412726
0.471412 0.580529 0.414069
0.485298 0.585534 0.415930
0.500755 0.591272 0.418463
0.517388 0.597650 0.421759
0.535790 0.604578 0.426642
0.560143 0.608911 0.437354
0.577661 0.611658 0.440162
0.596094 0.614832 0.443305
0.615534 0.618280 0.446693
0.635950 0.622156 0.450355
0.657404 0.626368 0.454261
0.679835 0.631006 0.458534
0.702937 0.642847 0.455665
0.729427 0.660945 0.446693
0.756558 0.677394 0.437354
0.784268 0.692134 0.427436
0.812589 0.705104 0.417334
0.841215 0.716274 0.407446
0.863828 0.723598 0.410407
0.888334 0.731044 0.413489
0.914183 0.738216 0.417151
0.954345 0.755337 0.423499
0.992645 0.771817 0.450294
1.000000 0.786709 0.494148
0.433875 0.587854 0.428565
0.435126 0.588281 0.428717
0.436896 0.588861 0.428870
0.440467 0.589776 0.429175
0.445869 0.591241 0.429572
0.453071 0.593256 0.430060
0.462043 0.595789 0.430884
0.472602 0.598871 0.431983
0.484993 0.602533 0.433387
0.498817 0.606775 0.435523
0.514000 0.611719 0.438270
0.530388 0.617273 0.441871
0.547509 0.623987 0.446265
0.570245 0.630976 0.456458
0.588525 0.634760 0.461250
0.605921 0.638331 0.464118
0.624475 0.642206 0.467353
0.644129 0.646357 0.470802
0.664881 0.650904 0.474525
0.686793 0.655787 0.478584
0.709743 0.661006 0.482948
0.733883 0.675380 0.478553
0.761013 0.693812 0.470161
0.788876 0.710750 0.461311
0.817380 0.726131 0.452399
0.846098 0.739437 0.443183
0.874510 0.750423 0.433967
0.898222 0.759121 0.438911
0.922972 0.767727 0.445411
0.948730 0.776455 0.453864
0.982849 0.791623 0.466743
1.000000 0.808103 0.491402
0.449928 0.612451 0.448859
0.451240 0.612787 0.448951
0.452857 0.613245 0.449134
0.456245 0.614038 0.449378
0.461616 0.615229 0.449744
0.468788 0.616846 0.450355
0.477638 0.618891 0.451148
0.488228 0.621546 0.452338
0.500359 0.624842 0.454047
0.513848 0.628901 0.456428
0.528618 0.633814 0.459358
0.544213 0.639673 0.462989
0.560357 0.646509 0.467079
0.576776 0.654383 0.471290
0.600336 0.660578 0.482582
0.616999 0.664271 0.485298
0.634821 0.668360 0.488319
0.653895 0.672663 0.491463
0.674159 0.677455 0.495064
0.695705 0.682460 0.498878
0.718471 0.687892 0.502983
0.742489 0.693629 0.507408
0.767758 0.710506 0.501671
0.795926 0.729488 0.493935
0.824613 0.746944 0.486000
0.853330 0.762203 0.477943
0.881163 0.774716 0.469917
0.907927 0.784421 0.462043
0.931853 0.793729 0.468757
0.956207 0.803311 0.479225
0.980774 0.813352 0.493507
1.000000 0.827604 0.516381
0.467475 0.637720 0.470558
0.468757 0.638025 0.470710
0.470405 0.638392 0.470954
0.473762 0.639246 0.471199
0.479103 0.640497 0.471778
0.486213 0.642267 0.472633
0.495033 0.644556 0.473854
0.505516 0.647517 0.475441
0.517540 0.651118 0.477668
0.530816 0.655573 0.480354
0.544976 0.660731 0.483436
0.559808 0.666743 0.486915
0.575097 0.673701 0.490578
0.590631 0.681544 0.494240
0.610285 0.689723 0.501762
0.629999 0.694911 0.508232
0.647608 0.699123 0.511070
0.666438 0.703731 0.514153
0.686641 0.708644 0.517571
0.708248 0.713954 0.521386
0.731197 0.719631 0.525780
0.755550 0.725673 0.530632
0.779385 0.730800 0.536065
0.807980 0.751736 0.528740
0.836637 0.770657 0.521324
0.864988 0.787167 0.513756
0.892515 0.800992 0.506371
0.918639 0.811917 0.499733
0.942962 0.819913 0.493751
0.965423 0.828946 0.503655
0.987823 0.839658 0.522332
1.000000 0.852018 0.549462
0.487495 0.668360 0.496742
0.488624 0.668727 0.496895
0.490181 0.669093 0.497078
0.493599 0.669795 0.497475
0.498817 0.671046 0.498146
0.505760 0.672724 0.499092
0.514336 0.674983 0.500267
0.524346 0.677821 0.501854
0.535668 0.681300 0.503777
0.548119 0.685542 0.506188
0.561364 0.690517 0.508873
0.575280 0.696284 0.511833
0.589532 0.702998 0.514794
0.604028 0.710689 0.517540
