data/fiter_cube/44540723/1023234/file.cube
# Created by Adobe Lightroom plugin Export LUT (1.17.0)
# www.johnrellis.com/lightroom/exportlut.htm
# Preset: 奶油色调低饱和（弱光环境）_05 云集
# Color profile: C:\Program Files (x86)\Common Files\Adobe\Color\Profiles\Recommended\AdobeRGB1998.icc
LUT_3D_SIZE 5
DOMAIN_MIN 0.000000 0.000000 0.000000
DOMAIN_MAX 0.903226 0.903226 0.903226
0.074922 0.071351 0.069123
0.259434 0.100862 0.101839
0.656489 0.178531 0.191104
0.872313 0.422339 0.363134
0.974426 0.607233 0.545403
0.103212 0.266270 0.128237
0.231174 0.275456 0.147158
0.604944 0.387366 0.278111
0.850340 0.520012 0.416846
0.966674 0.661402 0.585962
0.252659 0.602106 0.305730
0.338750 0.585077 0.344121
0.604181 0.610529 0.368750
0.811368 0.671321 0.533959
0.934508 0.755306 0.665187
0.517174 0.785336 0.508690
0.556085 0.779599 0.528710
0.647822 0.760189 0.585565
0.794034 0.772091 0.567468
0.925719 0.821042 0.696712
0.724971 0.893858 0.688930
0.739254 0.891020 0.697200
0.774594 0.879026 0.718318
0.837888 0.879240 0.751461
0.923827 0.892790 0.754116
0.000000 0.098878 0.270329
0.264775 0.077729 0.289982
0.651820 0.169406 0.330449
0.858030 0.413916 0.438972
0.967315 0.596735 0.572656
0.058869 0.301427 0.262974
0.288609 0.314427 0.314611
0.635126 0.397162 0.381567
0.841215 0.513695 0.476143
0.958373 0.646265 0.600336
0.265721 0.612421 0.350988
0.414069 0.601373 0.425330
0.603357 0.601373 0.447822
0.798276 0.673091 0.583398
0.933593 0.753079 0.679255
0.543572 0.786618 0.542565
0.592584 0.781033 0.570489
0.671809 0.762509 0.617151
0.796506 0.771878 0.606622
0.923430 0.822843 0.719417
0.734707 0.894224 0.703151
0.748135 0.891478 0.710567
0.790890 0.884764 0.738796
0.845609 0.881743 0.769070
0.926360 0.894987 0.770047
0.000000 0.168704 0.592309
0.090700 0.139712 0.609369
0.645747 0.119387 0.605646
0.830594 0.441108 0.612818
0.963134 0.576776 0.662379
0.116640 0.422919 0.578485
0.226383 0.354711 0.599573
0.649958 0.357000 0.608606
0.830228 0.509728 0.620203
0.963378 0.612329 0.667109
0.228580 0.640406 0.554131
0.397040 0.635309 0.569360
0.660487 0.631678 0.621393
0.824186 0.677211 0.660853
0.943908 0.740169 0.717525
0.496376 0.797543 0.563317
0.572198 0.788754 0.596765
0.719814 0.774868 0.681239
0.809537 0.777432 0.693874
0.920592 0.830381 0.777493
0.710933 0.897520 0.703822
0.740963 0.895445 0.722927
0.804807 0.889342 0.765530
0.853208 0.879942 0.800656
0.926238 0.893675 0.798337
0.000000 0.283635 0.779141
0.000000 0.251713 0.784482
0.592828 0.143313 0.799649
0.835874 0.356298 0.779873
0.932158 0.637751 0.788724
0.180209 0.483589 0.766934
0.217838 0.420142 0.774594
0.595911 0.357153 0.790433
0.829160 0.455238 0.774411
0.930846 0.657038 0.788266
0.417365 0.684199 0.741634
0.501061 0.678706 0.742153
0.623194 0.631220 0.765957
0.818143 0.635065 0.766354
0.935363 0.717769 0.793149
0.492164 0.804501 0.725612
0.554070 0.798703 0.729793
0.693843 0.788571 0.748074
0.829068 0.787228 0.783139
0.938201 0.821714 0.815671
0.663172 0.910094 0.720089
0.695491 0.907317 0.733791
0.780362 0.901152 0.776089
0.870665 0.893126 0.834531
0.931609 0.897032 0.846799
0.000000 0.426154 0.904936
0.101656 0.382208 0.907256
0.538262 0.329442 0.911925
0.814908 0.201602 0.920745
0.944305 0.510094 0.899565
0.284825 0.547662 0.895384
0.297215 0.500847 0.898924
0.548058 0.436378 0.905669
0.807645 0.350195 0.914733
0.940856 0.551476 0.896788
0.543084 0.734066 0.874601
0.574548 0.724361 0.877226
0.592950 0.644038 0.889189
0.790524 0.584680 0.901701
0.935973 0.659174 0.894835
0.593957 0.842161 0.870512
0.622034 0.836698 0.869627
0.704341 0.820890 0.869993
0.784756 0.772976 0.890440
0.937438 0.790524 0.902495
0.656977 0.918395 0.857359
0.678126 0.916167 0.859007
0.747646 0.911162 0.867887
0.841672 0.904082 0.883970
0.941650 0.904112 0.915801
