data/fiter_cube/44540723/1023234/file.cube
# Created by Adobe Lightroom plugin Export LUT (1.17.0)
# www.johnrellis.com/lightroom/exportlut.htm
# Preset: 奶油色调低饱和（弱光环境）_05 云集
# Color profile: C:\Program Files (x86)\Common Files\Adobe\Color\Profiles\Recommended\AdobeRGB1998.icc
LUT_3D_SIZE 32
DOMAIN_MIN 0.0 0.0 0.0
DOMAIN_MAX 1.0 1.0 1.0
0.074922 0.071351 0.069123
0.082399 0.072633 0.070680
0.092348 0.074769 0.072328
0.110811 0.080415 0.077363
0.138155 0.087251 0.083772
0.171817 0.093111 0.089601
0.211887 0.097963 0.095216
0.259434 0.100862 0.101839
0.314641 0.101747 0.109071
0.375586 0.100679 0.117525
0.439277 0.100191 0.128206
0.501244 0.105501 0.140597
0.558648 0.122042 0.155184
0.610468 0.147311 0.172213
0.656489 0.178531 0.191104
0.697566 0.211521 0.210941
0.733516 0.244968 0.231418
0.764553 0.278233 0.252903
0.793301 0.312505 0.276493
0.823972 0.352605 0.305882
0.849943 0.389136 0.334905
0.872313 0.422339 0.363134
0.891508 0.452461 0.389929
0.908446 0.480079 0.415808
0.923644 0.505913 0.440955
0.937469 0.531029 0.465797
0.950500 0.556085 0.491279
0.962799 0.581384 0.517754
0.974426 0.607233 0.545403
0.985290 0.633875 0.574640
0.995483 0.660609 0.604669
1.000000 0.686732 0.634638
0.077089 0.078340 0.071778
0.081880 0.079286 0.072633
0.090242 0.082124 0.075624
0.107881 0.089570 0.081483
0.135073 0.096437 0.086915
0.168002 0.102632 0.092226
0.208011 0.107546 0.097932
0.254673 0.111849 0.104097
0.309056 0.114076 0.111391
0.369451 0.115175 0.119875
0.432776 0.116335 0.130220
0.494759 0.121920 0.142245
0.552575 0.135500 0.157015
0.604578 0.158816 0.173739
0.650752 0.186984 0.191989
0.692317 0.217777 0.211704
0.728573 0.249638 0.231785
0.760159 0.281254 0.252811
0.789548 0.315068 0.276158
0.819669 0.353124 0.304356
0.845518 0.388067 0.332097
0.867979 0.420478 0.359686
0.887510 0.449744 0.385992
0.904753 0.477058 0.411688
0.920256 0.502892 0.436683
0.934478 0.528069 0.461707
0.947936 0.553033 0.487129
0.960540 0.578546 0.513848
0.972473 0.604608 0.541741
0.983673 0.631312 0.571130
0.994079 0.658167 0.601221
1.000000 0.684535 0.631403
0.080018 0.088624 0.074983
0.084138 0.087892 0.077577
0.090852 0.089876 0.077211
0.106844 0.096590 0.084535
0.130922 0.106081 0.091463
0.163821 0.113497 0.096345
0.202792 0.119814 0.101472
0.249210 0.124941 0.107820
0.303136 0.128634 0.114809
0.363714 0.130709 0.123384
0.426734 0.133700 0.133547
0.489021 0.140322 0.145815
0.547448 0.153201 0.160098
0.599847 0.174044 0.176974
0.646326 0.200137 0.194949
0.688106 0.228244 0.213809
0.724880 0.258579 0.233890
0.756802 0.288640 0.254582
0.787076 0.321355 0.277989
0.816831 0.357519 0.305241
0.842649 0.391333 0.332403
0.865293 0.422492 0.359350
0.884977 0.451301 0.385687
0.902403 0.478035 0.410742
0.918120 0.503410 0.435676
0.932586 0.528161 0.460456
0.946227 0.553155 0.486061
0.959075 0.578485 0.512688
0.971191 0.604425 0.540490
0.982574 0.631037 0.569909
0.993133 0.657862 0.600153
1.000000 0.684138 0.630243
0.086427 0.108675 0.083589
0.090242 0.108125 0.085908
0.094453 0.107485 0.088441
0.108156 0.112032 0.087526
0.131960 0.120546 0.093935
0.155489 0.131258 0.106172
0.194766 0.140749 0.110842
0.240635 0.148531 0.116548
0.294316 0.155001 0.123110
0.354742 0.159915 0.131777
0.418067 0.165530 0.141817
0.480629 0.173220 0.153597
0.539361 0.185855 0.168154
0.592401 0.203647 0.184451
0.639582 0.225711 0.201633
0.681788 0.251041 0.220340
0.719295 0.277745 0.239567
0.751705 0.305333 0.259495
0.783017 0.335943 0.282841
0.811978 0.368475 0.308507
0.837461 0.398932 0.334112
0.860166 0.428046 0.360174
0.880339 0.455726 0.385840
0.898558 0.482155 0.411261
0.915099 0.507713 0.436591
0.930388 0.532647 0.462196
0.944610 0.557671 0.488289
0.957794 0.583062 0.515160
0.970123 0.608637 0.543053
0.981537 0.634668 0.572015
0.992096 0.660609 0.601526
1.000000 0.686030 0.631006
0.092256 0.137392 0.092134
0.095583 0.136446 0.094270
0.099947 0.135012 0.097169
0.108797 0.135683 0.100313
0.130404 0.142519 0.097993
0.161501 0.151583 0.103304
0.188693 0.161776 0.118441
0.226535 0.175021 0.130739
0.279911 0.185306 0.136843
0.339757 0.194553 0.144961
0.403357 0.202945 0.154482
0.466926 0.212345 0.166537
0.526787 0.224826 0.180270
0.581140 0.241001 0.195834
0.629725 0.260258 0.212802
0.673457 0.282414 0.230411
0.712428 0.306035 0.249332
0.745907 0.330480 0.268925
0.779080 0.359564 0.292424
0.807797 0.387976 0.316747
0.833066 0.415320 0.341314
0.855802 0.441718 0.365942
0.876219 0.467262 0.390906
0.894743 0.491981 0.415595
0.911711 0.516289 0.440620
0.927398 0.540429 0.465827
0.941924 0.564569 0.491585
0.955413 0.588952 0.517967
0.967926 0.613733 0.545403
0.979522 0.639033 0.574029
0.990326 0.664302 0.603235
1.000000 0.689174 0.632319
0.096193 0.172519 0.101411
0.099977 0.171633 0.103578
0.104402 0.170199 0.106416
0.112795 0.167269 0.112703
0.128115 0.170901 0.113893
0.156680 0.179416 0.110231
0.197391 0.190219 0.113985
0.229648 0.200015 0.132387
0.267948 0.215274 0.153658
0.324681 0.230137 0.164858
0.389075 0.242557 0.173953
0.453651 0.254398 0.185061
0.514519 0.267521 0.198184
0.570397 0.282506 0.212802
0.620172 0.299840 0.228489
0.665126 0.319493 0.245701
0.705013 0.340307 0.263584
0.741268 0.363500 0.283513
0.774777 0.388891 0.306218
0.803708 0.413855 0.329473
0.829313 0.438270 0.353246
0.852567 0.462318 0.377417
0.894224 0.518730 0.435004
0.911009 0.540917 0.459297
0.926055 0.562066 0.482643
0.939696 0.582818 0.505791
0.952239 0.603510 0.529229
0.963897 0.624506 0.553338
0.974731 0.646082 0.578393
0.985016 0.667964 0.604120
0.994659 0.689509 0.629755
1.000000 0.710719 0.655268
0.099825 0.220035 0.113832
0.103731 0.218906 0.116396
0.108827 0.217472 0.119326
0.118746 0.214511 0.126223
0.131807 0.210056 0.135866
0.155764 0.218875 0.132387
0.193576 0.228763 0.127657
0.247471 0.242039 0.129366
0.287602 0.251957 0.152590
0.333715 0.268132 0.178439
0.385595 0.288548 0.205142
0.452186 0.304112 0.215122
0.514214 0.318578 0.227298
0.570245 0.333440 0.240452
0.619684 0.348943 0.254551
0.663783 0.365759 0.269871
0.703365 0.383337 0.286259
0.743252 0.406744 0.307866
0.776730 0.429206 0.330266
0.806332 0.451698 0.353704
0.833341 0.475227 0.378729
0.858274 0.499397 0.404883
0.880766 0.523644 0.431769
0.900847 0.547356 0.458473
0.918517 0.570153 0.484474
0.933806 0.591394 0.508843
0.947326 0.611933 0.532860
0.959594 0.632227 0.556786
0.970977 0.652949 0.581537
0.981598 0.673701 0.606500
0.991547 0.694392 0.631586
1.000000 0.714839 0.656641
0.103212 0.266270 0.128237
0.107240 0.265385 0.130465
0.112581 0.263706 0.133303
0.123201 0.260685 0.139803
0.137301 0.256107 0.149599
0.155886 0.255772 0.156191
0.186770 0.265385 0.152346
0.231174 0.275456 0.147158
0.296880 0.290684 0.145846
0.342107 0.300481 0.172641
0.390753 0.316411 0.201602
0.440742 0.336584 0.232364
0.495918 0.356329 0.253880
0.553643 0.372107 0.265324
0.604944 0.387366 0.278111
0.650599 0.402472 0.291569
0.695460 0.421973 0.309239
0.734676 0.441138 0.328374
0.767941 0.459632 0.348119
0.797726 0.478584 0.369451
0.825010 0.498848 0.392645
0.850340 0.520012 0.416846
0.873228 0.541558 0.442084
0.893797 0.562951 0.467170
0.912016 0.583673 0.491768
0.927855 0.603449 0.515312
0.941985 0.622522 0.538476
0.954803 0.641688 0.561730
0.966674 0.661402 0.585962
0.977783 0.681117 0.610285
0.988159 0.700984 0.634974
0.997833 0.720607 0.659541
0.108309 0.316411 0.145998
0.112734 0.315312 0.148287
0.118013 0.314214 0.151095
0.129580 0.311131 0.157259
0.144839 0.307042 0.166506
0.162356 0.301183 0.178683
0.187228 0.305852 0.180240
0.224674 0.315831 0.175540
0.276219 0.325475 0.170138
0.351171 0.342107 0.166567
0.399817 0.351598 0.194919
0.448341 0.366278 0.226169
0.495552 0.385046 0.258274
0.539910 0.406256 0.290990
0.590112 0.423407 0.305943
0.641077 0.441657 0.320409
0.686885 0.459327 0.336095
0.725795 0.475502 0.352422
0.759274 0.491066 0.369940
0.789487 0.507347 0.389227
0.817197 0.524712 0.410224
0.842832 0.543236 0.432563
0.866178 0.562402 0.455818
0.887144 0.581598 0.479408
0.905791 0.600427 0.502678
0.922179 0.618372 0.525017
0.936767 0.636042 0.547204
0.950042 0.653864 0.569726
0.962341 0.672267 0.592950
0.973846 0.690669 0.616327
0.984619 0.709255 0.640009
0.994629 0.727840 0.663752
0.116701 0.367681 0.166873
0.121248 0.366735 0.168795
0.126741 0.365454 0.171298
0.138460 0.362615 0.177005
0.154330 0.358709 0.185763
0.173251 0.353521 0.197391
0.193912 0.347692 0.210361
0.226261 0.356664 0.206210
0.270054 0.365911 0.201389
0.326513 0.375036 0.195804
0.404669 0.391974 0.191135
0.454932 0.400153 0.218082
0.500999 0.413642 0.251102
0.544732 0.431159 0.284581
0.589349 0.454414 0.320653
0.631464 0.477485 0.352880
0.677821 0.494484 0.366430
0.717586 0.509117 0.380621
0.751736 0.523156 0.396094
0.782132 0.537102 0.412787
0.809781 0.551965 0.431312
0.835172 0.567498 0.450904
0.858213 0.583490 0.471290
0.879149 0.599817 0.492042
0.898100 0.616236 0.513146
0.914977 0.632624 0.534234
0.930327 0.649195 0.555718
0.944366 0.666194 0.577874
0.957458 0.683650 0.600610
0.969665 0.701381 0.623651
0.981018 0.719265 0.646998
0.991516 0.737148 0.670497
0.129610 0.416388 0.189151
0.133791 0.415625 0.190921
0.139834 0.414466 0.193393
0.151278 0.412390 0.198917
0.167544 0.409003 0.207034
0.187076 0.404547 0.217685
0.208804 0.398962 0.230838
0.234928 0.398474 0.238499
0.273106 0.407172 0.234409
0.321538 0.415869 0.229160
0.379522 0.423713 0.223606
0.454688 0.437812 0.218448
0.510918 0.449744 0.244907
0.555840 0.464179 0.280430
0.597253 0.481392 0.316381
0.635309 0.500420 0.351629
0.670314 0.520378 0.385809
0.705806 0.537255 0.408270
0.740749 0.550286 0.421149
0.772061 0.563104 0.435828
0.800443 0.576501 0.452430
0.826474 0.590448 0.469978
0.850278 0.605066 0.488869
0.871794 0.619959 0.508293
0.891234 0.634852 0.527886
0.908659 0.649653 0.547570
0.924376 0.664698 0.567681
0.938872 0.680201 0.588495
0.952361 0.696193 0.609857
0.965026 0.712520 0.631647
0.976837 0.729274 0.654047
0.987793 0.746120 0.676722
0.148898 0.464698 0.214084
0.152926 0.464088 0.215793
0.158480 0.463172 0.218204
0.169650 0.461189 0.222995
0.185855 0.458289 0.230533
0.205509 0.454383 0.240299
0.228031 0.449622 0.252476
0.251591 0.443915 0.266758
0.283726 0.447944 0.268376
0.325719 0.455909 0.263890
0.378210 0.465675 0.260685
0.439704 0.475441 0.256962
0.540307 0.511742 0.270390
0.596796 0.524926 0.295293
0.635798 0.536919 0.333410
0.670985 0.550988 0.370153
0.701839 0.565759 0.404913
0.728756 0.580957 0.438239
0.752682 0.596551 0.469612
0.780911 0.608301 0.484291
0.807645 0.619318 0.497566
0.831998 0.630732 0.512016
0.854154 0.642329 0.527153
0.874327 0.654414 0.543389
0.892668 0.666712 0.560235
0.909270 0.679255 0.577722
0.924437 0.691829 0.595209
0.938445 0.704799 0.613214
0.951537 0.718227 0.631769
0.963897 0.732204 0.651026
0.975402 0.746700 0.671015
0.986236 0.761593 0.691646
0.180484 0.519432 0.246159
0.184207 0.518944 0.247776
0.189120 0.517510 0.249424
0.199557 0.515068 0.253330
0.214755 0.511589 0.259709
0.233219 0.506828 0.267918
0.254826 0.501884 0.278904
0.278660 0.496162 0.291905
0.306401 0.493690 0.307469
0.347082 0.504387 0.306615
0.396582 0.515465 0.305730
0.453254 0.526360 0.304814
0.514336 0.536522 0.303166
0.579004 0.547478 0.300877
0.636622 0.562432 0.321935
0.671778 0.572961 0.359747
0.702144 0.584161 0.395361
0.728389 0.595880 0.428534
0.751949 0.608759 0.460578
0.773709 0.623041 0.491585
0.795560 0.637659 0.518059
0.820829 0.648493 0.530632
0.843687 0.659358 0.544152
0.864622 0.670527 0.558831
0.883635 0.681880 0.574212
0.900999 0.693355 0.590051
0.916869 0.704952 0.606287
0.931548 0.716945 0.622980
0.945342 0.729458 0.640589
0.958343 0.742672 0.659113
0.970489 0.756374 0.678309
0.981872 0.770687 0.698543
0.211368 0.558770 0.272831
0.214725 0.558068 0.274052
0.219211 0.556939 0.275547
0.228672 0.555230 0.279484
0.243595 0.553063 0.285801
0.262242 0.550347 0.294408
0.284123 0.547204 0.305303
0.308476 0.543694 0.318334
0.334905 0.540063 0.333745
0.366064 0.541375 0.343145
0.407721 0.550408 0.342107
0.455970 0.559625 0.341253
0.508415 0.568383 0.339696
0.562493 0.575982 0.336980
0.616602 0.582208 0.333043
0.672206 0.596490 0.348089
0.701808 0.603784 0.384100
0.727565 0.612299 0.418006
0.750942 0.622339 0.450355
0.772580 0.634180 0.481941
0.793057 0.647822 0.512871
0.812375 0.662684 0.542840
0.833402 0.675471 0.562676
0.855161 0.686366 0.576135
0.875059 0.697108 0.590021
0.893126 0.707912 0.604547
0.909697 0.718776 0.619379
0.925109 0.729946 0.635004
0.939483 0.741695 0.651514
0.953033 0.754147 0.669062
0.965789 0.767147 0.687556
0.977661 0.780789 0.707149
0.252659 0.602106 0.305730
0.255985 0.601892 0.307103
0.259586 0.600916 0.308476
0.268315 0.599207 0.311711
0.281132 0.596429 0.317052
0.297124 0.592859 0.323796
0.316686 0.589014 0.332952
0.338750 0.585077 0.344121
0.363043 0.581140 0.357610
0.389105 0.577417 0.373419
0.422889 0.582391 0.376867
0.464057 0.590326 0.375921
0.509117 0.597986 0.374670
0.556207 0.604944 0.372290
0.604181 0.610529 0.368750
0.651423 0.614374 0.363653
0.702266 0.625818 0.373297
0.727596 0.630915 0.407477
0.750546 0.638056 0.440314
0.772000 0.647303 0.472450
0.792203 0.658534 0.503532
0.811368 0.671321 0.533959
0.829129 0.685206 0.563348
0.845884 0.700160 0.592218
0.866209 0.711086 0.606226
0.885252 0.721675 0.619623
0.902831 0.732448 0.633783
0.919219 0.743648 0.649012
0.934508 0.755306 0.665187
0.948852 0.767575 0.682490
0.962219 0.780362 0.700832
0.974640 0.793637 0.720180
0.293736 0.639612 0.337133
0.296757 0.639521 0.338506
0.300267 0.638911 0.339879
0.308049 0.637354 0.342870
0.319585 0.635004 0.347631
0.334661 0.632166 0.354223
0.352789 0.628962 0.362524
0.373388 0.625513 0.372839
0.396033 0.621820 0.385199
0.419867 0.617945 0.399023
0.444648 0.614710 0.412787
0.478462 0.620661 0.411109
0.515251 0.626123 0.408484
0.554864 0.631098 0.405493
0.595758 0.635187 0.401770
0.637537 0.638270 0.396765
0.679316 0.640681 0.391302
0.727138 0.650538 0.396185
0.750423 0.655360 0.430243
0.772213 0.662531 0.463203
0.792752 0.671931 0.495583
0.812100 0.683070 0.527001
0.830076 0.695430 0.557244
0.846891 0.709010 0.586938
0.862760 0.723079 0.614862
0.878904 0.736416 0.637720
0.897185 0.746975 0.650782
0.914092 0.757778 0.665003
0.929839 0.768826 0.679957
0.944488 0.780270 0.695979
0.958099 0.792172 0.713069
0.970703 0.804501 0.731167
0.331884 0.670192 0.365850
0.334234 0.669886 0.366827
0.337346 0.669154 0.367956
0.343908 0.667750 0.370459
0.354009 0.665644 0.374578
0.367529 0.663081 0.380438
0.383429 0.660182 0.387793
0.401984 0.656825 0.396765
0.422309 0.653315 0.407507
0.444007 0.649592 0.419867
0.466438 0.645899 0.433783
0.492012 0.645686 0.441535
0.523339 0.650507 0.439551
0.557275 0.654688 0.436896
0.592889 0.658228 0.433356
0.629297 0.660761 0.428992
0.666499 0.662715 0.423835
0.704250 0.664454 0.418494
0.748989 0.673976 0.422004
0.771511 0.678096 0.452705
0.791989 0.685145 0.485328
0.811246 0.694118 0.517082
0.829343 0.704738 0.548089
0.846311 0.716823 0.578515
0.862303 0.729732 0.607385
0.877440 0.743282 0.634791
0.891783 0.757168 0.660700
0.907836 0.769223 0.678676
0.924254 0.780148 0.692927
0.939513 0.791409 0.708370
0.953674 0.803037 0.724880
0.966796 0.815030 0.742428
0.370214 0.697475 0.394598
0.373053 0.697475 0.395972
0.399969 0.712184 0.415198
0.405585 0.710903 0.417426
0.414008 0.708949 0.421057
0.424720 0.706203 0.425422
0.437995 0.702998 0.431403
0.453071 0.699397 0.438605
0.470253 0.695674 0.447517
0.488838 0.691890 0.458045
0.508049 0.687831 0.469764
0.527337 0.683467 0.482368
0.551019 0.684596 0.483253
0.578485 0.687312 0.479988
0.607630 0.689509 0.476204
0.638239 0.691127 0.471321
0.670130 0.692348 0.466255
0.702754 0.693202 0.460578
0.735836 0.693965 0.455024
0.776730 0.702876 0.457435
0.797757 0.705959 0.483864
0.816281 0.712398 0.515435
0.833707 0.720699 0.546441
0.849973 0.730526 0.576684
0.865141 0.741146 0.604974
0.879423 0.752560 0.631769
0.893004 0.764553 0.657099
0.906126 0.777249 0.681697
0.918761 0.790616 0.706020
0.934386 0.801633 0.720729
0.949004 0.812955 0.736416
0.962524 0.824521 0.753201
0.413184 0.724819 0.427008
0.418128 0.726375 0.430182
0.423713 0.727718 0.433570
0.431495 0.728359 0.437812
0.441016 0.727932 0.442573
0.451667 0.726314 0.447578
0.463630 0.723781 0.453101
0.477363 0.720668 0.459754
0.492714 0.717464 0.467750
0.509209 0.713985 0.476997
0.526726 0.710353 0.487312
0.544427 0.706447 0.498726
0.562280 0.702693 0.508965
0.585351 0.705013 0.505974
0.610315 0.706966 0.502373
0.636866 0.708370 0.498146
0.664790 0.709499 0.493599
0.693843 0.710414 0.488472
0.724025 0.711299 0.483406
0.754818 0.712459 0.478676
0.794034 0.721889 0.480964
0.815305 0.725277 0.504906
0.833036 0.731991 0.536675
0.849638 0.740383 0.567712
0.865080 0.749844 0.597436
0.879637 0.760281 0.625147
0.893431 0.771450 0.651575
0.906645 0.783413 0.677028
0.919463 0.796109 0.702022
0.931701 0.809476 0.726864
0.944396 0.822324 0.748318
0.958373 0.833677 0.764340
0.445075 0.744228 0.451545
0.449622 0.745510 0.454505
0.454597 0.746700 0.457710
0.461402 0.747250 0.461463
0.469734 0.746853 0.465766
0.479103 0.745418 0.470192
0.489754 0.743252 0.475257
0.501762 0.740536 0.481086
0.515496 0.737728 0.488289
0.530510 0.734615 0.496742
0.546502 0.731380 0.506157
0.562829 0.727932 0.516442
0.579004 0.723964 0.527306
0.596704 0.722469 0.532250
0.617853 0.724178 0.528862
0.640589 0.725521 0.524987
0.664912 0.726650 0.520806
0.690578 0.727626 0.516320
0.717556 0.728664 0.511894
0.745663 0.729915 0.507713
0.774197 0.731289 0.503807
0.810910 0.740505 0.506279
0.832883 0.744747 0.527581
0.849668 0.751553 0.559258
0.865293 0.759640 0.589593
0.879881 0.768826 0.618250
0.893767 0.778897 0.645502
0.907042 0.789853 0.671595
0.919890 0.801755 0.697230
0.932189 0.814359 0.722591
0.943877 0.827543 0.747677
0.954894 0.841062 0.772396
0.476234 0.762539 0.475959
0.480323 0.763760 0.478706
0.484657 0.764767 0.481514
0.490761 0.765255 0.485023
0.498360 0.764950 0.489143
0.506615 0.763638 0.493111
0.515862 0.761715 0.497566
0.526390 0.759365 0.502831
0.538628 0.756710 0.509209
0.551965 0.753872 0.516594
0.566308 0.750912 0.525048
0.581201 0.747616 0.534295
0.596063 0.744015 0.544060
0.610834 0.740108 0.554345
0.628412 0.740627 0.554681
0.648341 0.742336 0.551690
0.670222 0.744045 0.548730
0.693629 0.745846 0.545861
0.718502 0.747799 0.543114
0.744564 0.749905 0.540734
0.771298 0.752193 0.538628
0.798489 0.754604 0.536706
0.831632 0.762966 0.539910
0.854917 0.768978 0.559442
0.870726 0.776059 0.591211
0.885405 0.784146 0.620783
0.899229 0.793179 0.648737
0.912322 0.803159 0.675288
0.924926 0.814023 0.701350
0.936889 0.825620 0.726986
0.948180 0.837827 0.752193
0.958831 0.850370 0.776761
0.517174 0.785336 0.508690
0.519524 0.785702 0.510216
0.521935 0.785916 0.511650
0.525933 0.785611 0.513695
0.531579 0.784787 0.516594
0.538293 0.783413 0.519799
0.546471 0.781582 0.523827
0.556085 0.779599 0.528710
0.567254 0.777432 0.534722
0.579614 0.775113 0.541802
0.593072 0.772671 0.549920
0.606897 0.769986 0.558709
0.620661 0.766842 0.567773
0.634272 0.763333 0.577234
0.647822 0.760189 0.585565
0.664546 0.761807 0.582879
0.682826 0.763333 0.580133
0.702785 0.764950 0.577356
0.724025 0.766629 0.574670
0.746639 0.768399 0.572290
0.770108 0.770199 0.569726
0.794034 0.772091 0.567468
0.818387 0.773983 0.565209
0.847257 0.780453 0.567071
0.870970 0.787167 0.583093
0.885740 0.794003 0.613581
0.899718 0.801999 0.642359
0.913024 0.811032 0.669947
0.925719 0.821042 0.696712
0.937743 0.831876 0.723018
0.949126 0.843412 0.748806
0.959777 0.855344 0.773770
0.546715 0.801663 0.532891
0.548882 0.801999 0.534234
0.551385 0.802304 0.535882
0.555016 0.802029 0.537804
0.559838 0.801328 0.540307
0.565698 0.800046 0.543114
0.572686 0.798367 0.546624
0.581018 0.796445 0.550896
0.590753 0.794400 0.556115
0.601862 0.792264 0.562524
0.614008 0.790005 0.569909
0.626581 0.787503 0.577874
0.639246 0.784756 0.586175
0.651881 0.781704 0.594873
0.664363 0.778500 0.603906
0.677790 0.777432 0.608026
0.693751 0.779171 0.605982
0.711238 0.780941 0.603937
0.730159 0.782773 0.602045
0.750271 0.784787 0.600275
0.771450 0.786831 0.598657
0.793271 0.788998 0.597223
0.815579 0.791196 0.595850
0.838041 0.793393 0.594476
0.860472 0.795529 0.590478
0.884947 0.803128 0.603815
0.899168 0.810086 0.633845
0.912688 0.818204 0.662287
0.925566 0.827359 0.689815
0.937804 0.837522 0.716945
0.949462 0.848569 0.743679
0.960327 0.860105 0.769436
0.584558 0.821164 0.564355
0.586786 0.821592 0.566003
0.588769 0.821683 0.567224
0.591577 0.821317 0.568719
0.595300 0.820401 0.570520
0.599939 0.819059 0.572656
0.605524 0.817350 0.575311
0.612055 0.815274 0.578485
0.619837 0.813016 0.582544
0.628748 0.810697 0.587457
0.638483 0.808194 0.593103
0.648951 0.805631 0.599542
0.659785 0.802853 0.606409
0.670619 0.799771 0.613672
0.681270 0.796475 0.621057
0.691737 0.792966 0.628779
0.704280 0.793118 0.628504
0.718959 0.794461 0.626154
0.735409 0.796231 0.624414
0.753384 0.798276 0.623041
0.772580 0.800534 0.622187
0.792416 0.802823 0.621302
0.812589 0.804959 0.620203
0.832883 0.806821 0.618647
0.853056 0.808499 0.616724
0.875364 0.812222 0.616785
0.899992 0.820798 0.628748
0.913573 0.827451 0.656764
0.926390 0.835508 0.684657
0.938659 0.844755 0.712276
0.950286 0.854948 0.739376
0.961273 0.865934 0.765866
0.611658 0.835294 0.587427
0.613611 0.835691 0.588830
0.615473 0.835813 0.590021
0.617945 0.835508 0.591424
0.621241 0.834684 0.593042
0.625330 0.833585 0.594995
0.630335 0.832151 0.597467
0.636408 0.830442 0.600641
0.643580 0.828611 0.604456
0.651759 0.826719 0.609155
0.660731 0.824674 0.614435
0.670497 0.822599 0.620539
0.680629 0.820371 0.627131
0.690822 0.817868 0.633967
0.700893 0.815122 0.640986
0.710872 0.812222 0.648280
0.720943 0.809781 0.654719
0.733669 0.811246 0.652857
0.747982 0.812955 0.651514
0.763699 0.815000 0.650629
0.780514 0.817136 0.649989
0.798123 0.819364 0.649409
0.816190 0.821469 0.648646
0.834470 0.823453 0.647669
0.852903 0.825254 0.646387
0.871336 0.826902 0.644923
0.890959 0.829740 0.644587
0.915343 0.839475 0.657130
0.928954 0.846220 0.683070
0.941161 0.854551 0.711177
0.952697 0.863890 0.738674
0.963653 0.874205 0.765652
0.640650 0.850278 0.612604
0.642145 0.850492 0.613611
0.643336 0.850462 0.614282
0.645197 0.850034 0.615320
0.647639 0.849210 0.616388
0.650996 0.848081 0.617945
0.655116 0.846677 0.619867
0.660304 0.845121 0.622492
0.666499 0.843473 0.625849
0.673823 0.841825 0.630091
0.681941 0.840055 0.634943
0.690913 0.838346 0.640650
0.700191 0.836454 0.646754
0.709682 0.834379 0.653132
0.718959 0.832029 0.659602
0.728115 0.829496 0.666255
0.737240 0.826871 0.673152
0.747463 0.826139 0.676570
0.759854 0.827787 0.675349
0.773617 0.829709 0.674617
0.788418 0.831785 0.674098
0.804074 0.833921 0.673854
0.820249 0.836027 0.673457
0.836790 0.838041 0.672938
0.853574 0.839902 0.672114
0.870420 0.841642 0.671168
0.887480 0.843412 0.670222
0.904936 0.845640 0.669673
0.928771 0.856199 0.682612
0.942260 0.862882 0.706630
0.953826 0.871427 0.734737
0.964813 0.881041 0.762173
0.666102 0.863676 0.635035
0.667201 0.863798 0.635798
0.668269 0.863737 0.636469
0.669856 0.863432 0.637354
0.672480 0.862852 0.638697
0.676081 0.862181 0.640650
0.680995 0.861540 0.643610
0.687007 0.860899 0.647303
0.694179 0.860258 0.651911
0.702266 0.859648 0.657191
0.711055 0.858976 0.663172
0.720180 0.858183 0.669459
0.729610 0.857206 0.676081
0.738827 0.855955 0.682673
0.747860 0.854398 0.689204
0.756405 0.852476 0.695583
0.764889 0.850401 0.702144
0.773434 0.848325 0.709041
0.783658 0.849180 0.710048
0.795254 0.850980 0.709590
0.807858 0.852903 0.709407
0.821164 0.854887 0.709255
0.835019 0.856809 0.709010
0.849302 0.858732 0.708827
0.863890 0.860563 0.708461
0.878813 0.862272 0.707881
0.893950 0.864042 0.707424
0.909178 0.865782 0.706905
0.924346 0.867582 0.706600
0.946410 0.878172 0.719478
0.959228 0.884764 0.741421
0.969665 0.893248 0.768673
0.701106 0.881254 0.666712
0.701930 0.881285 0.667292
0.702571 0.881132 0.667628
0.703761 0.880705 0.668177
0.705623 0.880095 0.669093
0.708248 0.879332 0.670405
0.711849 0.878477 0.672358
0.716335 0.877623 0.675013
0.721736 0.876707 0.678340
0.728023 0.875761 0.682307
0.734859 0.874723 0.686732
0.742275 0.873655 0.691737
0.750027 0.872465 0.697078
