data/fiter_cube/44540723/1023234/file.cube
# Created by Adobe Lightroom plugin Export LUT (1.17.0)
# www.johnrellis.com/lightroom/exportlut.htm
# Preset: 奶油色调低饱和（弱光环境）_05 云集
# Color profile: C:\Program Files (x86)\Common Files\Adobe\Color\Profiles\Recommended\AdobeRGB1998.icc
LUT_3D_SIZE 8
DOMAIN_MIN 0.000000 0.000000 0.000000
DOMAIN_MAX 0.903226 0.903226 0.903226
0.074922 0.071351 0.069123
0.138155 0.087251 0.083772
0.314641 0.101747 0.109071
0.558648 0.122042 0.155184
0.733516 0.244968 0.231418
0.849943 0.389136 0.334905
0.923644 0.505913 0.440955
0.974426 0.607233 0.545403
0.092256 0.137392 0.092134
0.130404 0.142519 0.097993
0.279911 0.185306 0.136843
0.526787 0.224826 0.180270
0.712428 0.306035 0.249332
0.833066 0.415320 0.341314
0.911711 0.516289 0.440620
0.967926 0.613733 0.545403
0.108309 0.316411 0.145998
0.144839 0.307042 0.166506
0.276219 0.325475 0.170138
0.495552 0.385046 0.258274
0.686885 0.459327 0.336095
0.817197 0.524712 0.410224
0.905791 0.600427 0.502678
0.962341 0.672267 0.592950
0.180484 0.519432 0.246159
0.214755 0.511589 0.259709
0.306401 0.493690 0.307469
0.514336 0.536522 0.303166
0.702144 0.584161 0.395361
0.795560 0.637659 0.518059
0.883635 0.681880 0.574212
0.945342 0.729458 0.640589
0.331884 0.670192 0.365850
0.354009 0.665644 0.374578
0.422309 0.653315 0.407507
0.523339 0.650507 0.439551
0.666499 0.662715 0.423835
0.791989 0.685145 0.485328
0.862303 0.729732 0.607385
0.924254 0.780148 0.692927
0.476234 0.762539 0.475959
0.498360 0.764950 0.489143
0.538628 0.756710 0.509209
0.596063 0.744015 0.544060
0.670222 0.744045 0.548730
0.771298 0.752193 0.538628
0.870726 0.776059 0.591211
0.924926 0.814023 0.701350
0.611658 0.835294 0.587427
0.621241 0.834684 0.593042
0.643580 0.828611 0.604456
0.680629 0.820371 0.627131
0.720943 0.809781 0.654719
0.780514 0.817136 0.649989
0.852903 0.825254 0.646387
0.928954 0.846220 0.683070
0.724971 0.893858 0.688930
0.729061 0.892912 0.691096
0.744289 0.890318 0.700465
0.771115 0.887327 0.719142
0.790738 0.876616 0.730983
0.826932 0.877012 0.750546
0.873411 0.885740 0.753750
0.923827 0.892790 0.754116
0.063600 0.082002 0.140383
0.139528 0.078492 0.147402
0.315221 0.093751 0.165713
0.553857 0.142763 0.219333
0.723018 0.255192 0.281254
0.834012 0.381018 0.359503
0.911192 0.491798 0.447578
0.967376 0.594110 0.543267
0.081636 0.151583 0.136507
0.146609 0.158602 0.160281
0.309300 0.195956 0.194034
0.536004 0.239322 0.239628
0.709957 0.316564 0.296910
0.823636 0.413611 0.369390
0.901610 0.505791 0.449714
0.960754 0.600153 0.542168
0.113039 0.324468 0.172763
0.179995 0.326024 0.219425
0.294713 0.335088 0.232731
0.493935 0.397314 0.313848
0.681453 0.457923 0.362921
0.805509 0.515221 0.422980
0.891661 0.581415 0.496803
0.954314 0.656336 0.583490
0.202518 0.517205 0.273930
0.248356 0.513298 0.296452
0.334020 0.498085 0.339544
0.501488 0.521233 0.331273
0.673335 0.563226 0.407080
0.776120 0.616968 0.506462
0.869169 0.662348 0.560052
0.937530 0.715694 0.629694
0.355688 0.669215 0.390478
0.374640 0.663722 0.397009
0.435401 0.649592 0.424079
0.520134 0.639277 0.451820
0.653620 0.649866 0.433631
0.779843 0.675654 0.493690
0.853666 0.723018 0.609430
0.919707 0.773281 0.687800
0.481971 0.757321 0.484688
0.495064 0.755245 0.490608
0.534752 0.747646 0.509758
0.593347 0.736812 0.544823
0.667231 0.738186 0.555261
0.768887 0.749111 0.548943
0.866545 0.773129 0.599329
0.920836 0.810361 0.702022
0.605341 0.828580 0.584558
0.610651 0.826139 0.586389
0.635126 0.821042 0.599268
0.675807 0.814755 0.624598
0.718654 0.805631 0.655482
0.776364 0.812528 0.650568
0.846952 0.819394 0.644404
0.923186 0.840177 0.679286
0.720638 0.890654 0.686366
0.725917 0.890257 0.689662
0.741817 0.887999 0.699458
0.769253 0.885313 0.718441
0.799130 0.880461 0.740871
0.830503 0.878355 0.757107
0.872770 0.884703 0.755703
0.921813 0.890623 0.753536
0.000000 0.106355 0.325444
0.000000 0.094087 0.341558
0.325353 0.069398 0.344182
0.541192 0.173800 0.360204
0.730831 0.234684 0.388098
0.845060 0.386664 0.451148
0.916533 0.504448 0.517967
0.970123 0.603906 0.591547
0.007507 0.211917 0.322545
0.086183 0.182284 0.339178
0.330144 0.176638 0.347326
0.544823 0.236942 0.365423
0.730556 0.286351 0.390356
0.835203 0.420874 0.456397
0.909087 0.520775 0.519860
0.965606 0.614069 0.593835
0.026307 0.358740 0.309606
0.157565 0.362524 0.323613
0.351293 0.369970 0.367437
0.551415 0.412909 0.402197
0.715511 0.470161 0.448341
0.819120 0.527276 0.495766
0.896635 0.590448 0.551324
0.956085 0.660121 0.618189
0.168917 0.543755 0.309545
0.248844 0.544121 0.342504
0.418952 0.538048 0.427924
0.542596 0.543908 0.441810
0.689174 0.591882 0.511742
0.793576 0.634028 0.560449
0.877958 0.675257 0.605341
0.942077 0.722377 0.659632
0.344274 0.679194 0.412207
0.393378 0.676753 0.436500
0.498207 0.667384 0.491737
0.567651 0.652064 0.528222
0.677119 0.664027 0.514580
0.785061 0.689418 0.567590
0.855283 0.736202 0.656458
0.924102 0.777707 0.706661
0.491432 0.762600 0.508293
0.520317 0.760555 0.525170
0.575402 0.752834 0.555688
0.624964 0.741329 0.582391
0.683284 0.737972 0.598260
0.772030 0.748959 0.591760
0.863859 0.775143 0.638697
0.920928 0.815946 0.729000
0.623896 0.832639 0.609339
0.638361 0.830381 0.618647
0.661006 0.824552 0.629816
0.694484 0.817014 0.648371
0.732418 0.807858 0.673793
0.783963 0.813413 0.676448
0.852476 0.823301 0.674495
0.926421 0.846708 0.711910
0.731624 0.891875 0.702022
0.734615 0.890715 0.703151
0.748623 0.887938 0.710872
0.777340 0.886503 0.730709
0.805509 0.881529 0.750851
0.835874 0.878691 0.770993
0.876371 0.885924 0.770504
0.924437 0.892882 0.769650
0.000000 0.142489 0.513268
0.000000 0.131777 0.523827
0.278813 0.063783 0.547601
0.556695 0.047089 0.531456
0.693111 0.314733 0.530236
0.819944 0.393439 0.553582
0.906279 0.478370 0.580346
0.969940 0.570245 0.624292
0.000000 0.255314 0.516228
0.000000 0.219211 0.524437
0.291173 0.179019 0.545830
0.558984 0.191806 0.532830
0.697047 0.355047 0.535821
0.818479 0.419287 0.554894
0.904173 0.493660 0.580163
0.967468 0.587854 0.630152
0.082887 0.428046 0.498695
0.194522 0.428260 0.502098
0.321752 0.384009 0.531121
0.565728 0.387030 0.537255
0.711299 0.461128 0.552392
0.825681 0.508049 0.572320
0.907378 0.582483 0.614130
0.962493 0.650538 0.658381
0.139345 0.565911 0.484871
0.226688 0.565606 0.492012
0.406592 0.563012 0.514824
0.584283 0.565515 0.555596
0.713558 0.596857 0.581903
0.807950 0.629511 0.609888
0.885588 0.669825 0.645319
0.947967 0.716457 0.688380
0.308690 0.700587 0.456764
0.359106 0.696559 0.472541
0.492378 0.686946 0.525322
0.628504 0.676661 0.598993
0.702785 0.678157 0.605707
0.792020 0.709224 0.653407
0.866545 0.746548 0.695857
0.931792 0.779477 0.730037
0.477424 0.776364 0.532036
0.513054 0.777279 0.550622
0.592279 0.768154 0.591608
0.675166 0.757992 0.640955
0.718563 0.748135 0.663783
0.786801 0.757839 0.656062
0.866545 0.784298 0.696254
0.921416 0.824186 0.766293
0.609308 0.838834 0.616480
0.626795 0.837644 0.626764
0.676173 0.833310 0.657160
0.726131 0.827451 0.688319
0.760616 0.819181 0.709010
0.800168 0.819303 0.718044
0.859037 0.827573 0.713161
0.927123 0.851072 0.748898
0.725673 0.897734 0.708064
0.734676 0.897032 0.714076
0.760952 0.894011 0.731899
0.789120 0.890257 0.749996
0.816007 0.885191 0.767605
0.844236 0.880369 0.790158
0.880949 0.887358 0.791592
0.927398 0.895262 0.791379
0.000000 0.197879 0.657343
0.000000 0.180484 0.662318
0.182620 0.158663 0.672694
0.546960 0.000000 0.690425
0.719448 0.196994 0.669795
0.800534 0.421729 0.652979
0.883604 0.520500 0.675319
0.954620 0.593378 0.703822
0.000000 0.294499 0.654810
0.000000 0.265446 0.661067
0.217563 0.232303 0.671687
0.546990 0.131411 0.687526
0.717922 0.268894 0.668544
0.799313 0.452674 0.655146
0.883665 0.537011 0.677668
0.954376 0.602777 0.704646
0.198459 0.485664 0.638941
0.259678 0.482399 0.644434
0.301732 0.411536 0.659510
0.546593 0.373144 0.678950
0.713161 0.420752 0.664546
0.791684 0.532464 0.658991
0.882109 0.580346 0.681117
0.952911 0.628290 0.703578
0.253056 0.609674 0.635157
0.309483 0.607111 0.636164
0.449134 0.600000 0.641230
0.561059 0.566644 0.665003
0.715023 0.573877 0.666957
0.800565 0.618463 0.674403
0.886473 0.642817 0.689143
0.955383 0.675929 0.707881
0.316686 0.699092 0.612329
0.361578 0.697810 0.616083
0.477546 0.692134 0.627558
0.611841 0.684932 0.647456
0.719387 0.684352 0.674922
0.802701 0.705043 0.692958
0.877348 0.729488 0.714290
0.940276 0.761318 0.743404
0.425513 0.782589 0.557671
0.456855 0.780362 0.567712
0.543389 0.771695 0.598199
0.651148 0.761440 0.647089
0.736355 0.752499 0.695888
0.793179 0.758755 0.705074
0.867094 0.791348 0.748623
0.925658 0.826261 0.790707
0.579187 0.845304 0.627070
0.595666 0.843198 0.634302
0.646845 0.837675 0.658839
0.715236 0.831571 0.696803
0.774838 0.825345 0.734035
0.809598 0.819211 0.753414
0.862028 0.827970 0.747982
0.925353 0.852232 0.783536
0.699458 0.899992 0.705409
0.708034 0.898894 0.710018
0.736080 0.895689 0.726009
0.783658 0.894285 0.757656
0.822202 0.889464 0.783169
0.851102 0.883940 0.803372
0.883024 0.886687 0.812467
0.927855 0.894804 0.811124
0.000000 0.269749 0.762356
0.000000 0.244419 0.764553
0.115419 0.231266 0.767758
0.483314 0.169741 0.777584
0.710872 0.070649 0.785183
0.818265 0.332494 0.762173
0.878691 0.519127 0.750942
0.938079 0.632380 0.776455
0.000000 0.344366 0.754757
0.000000 0.319066 0.756924
0.166629 0.285435 0.762264
0.485176 0.242557 0.772183
0.707668 0.188937 0.780972
0.814420 0.368170 0.758877
0.876219 0.535698 0.750088
0.937377 0.638087 0.775875
0.278386 0.526787 0.745144
0.284489 0.511620 0.747341
0.308537 0.448646 0.756069
0.507897 0.414221 0.766415
0.710109 0.376135 0.778897
0.811002 0.474922 0.756619
0.873533 0.593591 0.753994
0.938140 0.663050 0.778683
0.395972 0.642451 0.727504
0.422095 0.639734 0.729152
0.503624 0.632593 0.738155
0.558618 0.586755 0.757259
0.709895 0.565301 0.772976
0.812955 0.601038 0.760494
0.873472 0.669032 0.764279
0.941863 0.701900 0.784146
0.408759 0.728573 0.730037
0.438697 0.726497 0.730709
0.524529 0.719631 0.732784
0.631312 0.710567 0.736965
0.703609 0.684810 0.754330
0.807034 0.689479 0.756344
0.874632 0.719905 0.766476
0.944518 0.738247 0.780484
0.456703 0.783566 0.702113
0.483284 0.783261 0.705470
0.554986 0.778775 0.712795
0.645716 0.772305 0.724300
0.730343 0.766354 0.738735
0.810452 0.769192 0.763790
0.879667 0.790005 0.783200
0.939971 0.812497 0.804440
0.550622 0.855833 0.665400
0.569238 0.855619 0.669917
0.621515 0.851957 0.684596
0.693568 0.845243 0.713832
0.766232 0.838376 0.749355
0.830167 0.831601 0.789029
0.871916 0.834348 0.793881
0.929381 0.861784 0.832090
0.672847 0.908049 0.716640
0.681819 0.906920 0.720424
0.711757 0.903655 0.733852
0.758541 0.900175 0.758022
0.811398 0.895750 0.789242
0.859129 0.891051 0.821866
0.889006 0.887968 0.841367
0.931029 0.896849 0.839475
0.000000 0.344244 0.839506
0.000000 0.323278 0.842100
0.127962 0.303868 0.844541
0.450263 0.269474 0.849119
0.661830 0.202243 0.855100
0.811551 0.245518 0.853483
0.888273 0.430060 0.834867
0.936797 0.597375 0.829404
0.000000 0.399176 0.832059
0.000000 0.380102 0.834653
0.166293 0.343023 0.838376
0.450568 0.312322 0.842649
0.655848 0.258335 0.848783
0.805509 0.281498 0.847654
0.882109 0.441627 0.828489
0.932006 0.597192 0.823728
0.298100 0.549096 0.825101
0.302770 0.535851 0.826535
0.319188 0.481697 0.831357
0.479500 0.443915 0.837003
0.658381 0.409613 0.843137
0.804990 0.407202 0.845884
0.881041 0.519097 0.828885
0.933165 0.640833 0.829221
0.469825 0.673121 0.813016
0.486336 0.669581 0.813443
0.527062 0.653468 0.817411
0.540093 0.594202 0.827909
0.667842 0.564935 0.836362
0.807065 0.546105 0.846250
0.880430 0.613886 0.830625
0.932952 0.694484 0.834348
0.501762 0.743252 0.799954
0.518425 0.740841 0.799130
0.572778 0.734768 0.798245
0.640620 0.725185 0.806058
0.677028 0.680781 0.821653
0.792782 0.660029 0.835416
0.874479 0.687953 0.826261
0.929656 0.747585 0.836698
0.516960 0.813352 0.804349
0.533837 0.811643 0.804593
0.585443 0.805936 0.805539
0.655665 0.797421 0.807950
0.729824 0.785977 0.811002
0.789944 0.763455 0.828428
0.878080 0.770413 0.832853
0.934539 0.799405 0.844968
0.567132 0.854368 0.782010
0.581720 0.853941 0.783932
0.623285 0.850980 0.788205
0.681666 0.846983 0.795590
0.746181 0.841367 0.804623
0.814633 0.836851 0.817990
0.881254 0.839475 0.840879
0.938750 0.858457 0.859586
0.639216 0.909270 0.753170
0.648432 0.908965 0.754910
0.682521 0.909667 0.763699
0.727962 0.909270 0.773892
0.786160 0.905303 0.797726
0.846952 0.900664 0.830747
0.900542 0.896361 0.868101
0.935973 0.900298 0.874998
0.000000 0.426154 0.904936
0.000000 0.408484 0.906523
0.201907 0.377478 0.907500
0.441840 0.350164 0.910155
0.626032 0.302342 0.913817
0.780392 0.226413 0.918944
0.885863 0.344152 0.914122
0.944305 0.510094 0.899565
0.000000 0.466224 0.900633
0.061616 0.450507 0.902251
0.225162 0.407874 0.904448
0.445289 0.381292 0.906798
0.624567 0.338293 0.910735
0.777157 0.272862 0.916106
0.883055 0.364385 0.911406
0.941894 0.518425 0.896971
0.334478 0.576440 0.892027
0.338109 0.565515 0.893217
0.343420 0.517357 0.895964
0.470069 0.479683 0.902007
0.628717 0.445686 0.905882
0.772152 0.397559 0.911070
0.879759 0.441016 0.908751
0.939422 0.562127 0.895445
0.517052 0.696498 0.881163
0.519188 0.690730 0.882567
0.519677 0.663813 0.885527
0.527428 0.606653 0.892973
0.637781 0.570703 0.899107
0.767727 0.537407 0.905760
0.877256 0.543297 0.907774
0.937560 0.626459 0.895537
0.567895 0.767819 0.867613
0.578088 0.766567 0.869047
0.605219 0.758541 0.871763
0.648737 0.742123 0.878416
0.653346 0.681666 0.888396
0.757565 0.651575 0.896849
0.871611 0.635370 0.905760
0.935393 0.695705 0.895750
0.584863 0.825284 0.866880
0.593317 0.823392 0.866300
0.622766 0.817472 0.865354
0.669886 0.808408 0.865324
0.723903 0.795132 0.871336
0.759335 0.754238 0.889128
0.865171 0.740993 0.905699
0.938140 0.774655 0.902556
0.606195 0.886168 0.875700
0.614130 0.884703 0.875486
0.640711 0.880125 0.875242
0.685298 0.873228 0.876432
0.742031 0.863676 0.878630
0.806210 0.852628 0.882536
0.860807 0.833036 0.900023
0.936889 0.840146 0.904479
0.656977 0.918395 0.857359
0.663020 0.917632 0.857664
0.685420 0.915618 0.859770
0.724117 0.912840 0.864591
0.772854 0.909148 0.871580
0.827359 0.905028 0.881010
0.885924 0.901701 0.894652
0.941650 0.904112 0.915801
