data/fiter_cube/69180065/1023050/file.cube
# Created by Adobe Lightroom plugin Export LUT (1.17.0)
# www.johnrellis.com/lightroom/exportlut.htm
# Preset: 室内文艺胶片_03 云集
# Color profile: C:\Program Files (x86)\Common Files\Adobe\Color\Profiles\Recommended\AdobeRGB1998.icc
LUT_3D_SIZE 8
DOMAIN_MIN 0.000000 0.000000 0.000000
DOMAIN_MAX 0.903226 0.903226 0.903226
0.035706 0.038300 0.010010
0.107851 0.064759 0.032837
0.256016 0.046906 0.056214
0.438270 0.043549 0.076143
0.639643 0.159762 0.128359
0.828336 0.303868 0.222080
0.938994 0.448768 0.360479
0.991974 0.589197 0.532128
0.066621 0.098238 0.043610
0.112428 0.104158 0.046479
0.255528 0.116487 0.064424
0.433539 0.141329 0.087129
0.633143 0.218326 0.138521
0.817807 0.333532 0.227420
0.932189 0.462074 0.361334
0.988800 0.597070 0.534051
0.087678 0.216617 0.074037
0.124880 0.224033 0.067506
0.260655 0.245182 0.078859
0.450782 0.306188 0.131228
0.660304 0.378576 0.193149
0.830930 0.456245 0.289891
0.937957 0.556146 0.435737
0.985931 0.660029 0.595544
0.130861 0.382269 0.124453
0.169314 0.386145 0.124422
0.262730 0.402380 0.108248
0.460548 0.468452 0.168948
0.698390 0.555261 0.289677
0.853178 0.612573 0.418372
0.934661 0.665278 0.538567
0.977661 0.729366 0.662837
0.184695 0.564111 0.215976
0.217441 0.566888 0.216220
0.296086 0.580133 0.199496
0.446632 0.602625 0.203922
0.663905 0.653834 0.318700
0.836606 0.702266 0.479255
0.925200 0.752377 0.628229
0.968841 0.798703 0.737453
0.257633 0.717006 0.342962
0.290654 0.723568 0.350927
0.359014 0.728664 0.337835
0.478737 0.734371 0.335027
0.643305 0.746151 0.374762
0.818112 0.776272 0.523033
0.917845 0.814450 0.686793
0.962921 0.849973 0.787747
0.383917 0.831510 0.500023
0.409216 0.832090 0.505486
0.482826 0.829984 0.517693
0.556664 0.831754 0.504356
0.667781 0.830228 0.506737
0.806821 0.838712 0.588586
0.905272 0.858457 0.710567
0.957122 0.886168 0.814694
0.565728 0.906645 0.666468
0.583276 0.905547 0.670802
0.640131 0.902556 0.687251
0.695918 0.903044 0.691768
0.752468 0.898558 0.684443
0.829343 0.899443 0.696559
0.908415 0.909270 0.775082
0.954925 0.922057 0.837888
0.070100 0.063813 0.067933
0.103456 0.070375 0.067781
0.240635 0.077577 0.088655
0.411902 0.117952 0.125856
0.609949 0.193210 0.175509
0.799344 0.308110 0.254520
0.922606 0.443305 0.377050
0.984619 0.583124 0.537713
0.074037 0.095491 0.075807
0.121462 0.106783 0.082277
0.247562 0.129641 0.102419
0.415564 0.168948 0.134951
0.611627 0.239017 0.184848
0.796536 0.339788 0.262791
0.917815 0.458839 0.380346
0.981415 0.590204 0.538445
0.109224 0.208499 0.106355
0.154330 0.218051 0.112978
0.261387 0.240421 0.122164
0.437659 0.307439 0.174594
0.635004 0.374121 0.228885
0.807889 0.449165 0.313817
0.921477 0.541924 0.438331
0.978943 0.649409 0.592065
0.152651 0.370336 0.156924
0.189548 0.376287 0.161196
0.272343 0.395819 0.152193
0.442237 0.446143 0.198947
0.660426 0.529015 0.302037
0.824674 0.589746 0.413489
0.920287 0.647700 0.528496
0.971862 0.719142 0.656214
0.203494 0.556909 0.246647
0.231846 0.558801 0.246342
0.303929 0.570306 0.232151
0.436988 0.585504 0.228153
0.643732 0.636408 0.332311
0.821561 0.691035 0.485725
0.917876 0.746334 0.631739
0.965209 0.793698 0.736019
0.264836 0.707820 0.361242
0.291447 0.709377 0.362676
0.371679 0.714565 0.366613
0.473884 0.723812 0.352087
0.634943 0.737758 0.388586
0.812589 0.771817 0.536736
0.913970 0.811643 0.693111
0.960571 0.847623 0.789090
0.377844 0.823117 0.503655
0.398688 0.821988 0.504875
0.471901 0.821408 0.517113
0.552209 0.825040 0.511559
0.664302 0.825559 0.517601
0.801175 0.834104 0.592126
0.900755 0.853880 0.709590
0.954437 0.882383 0.812284
0.557214 0.903410 0.666163
0.576349 0.902739 0.671595
0.634211 0.900114 0.688167
0.694759 0.900511 0.696132
0.761593 0.900114 0.702113
0.831968 0.899870 0.708766
0.907408 0.908202 0.777859
0.953826 0.920653 0.838315
0.101045 0.075990 0.138643
0.140871 0.080781 0.138888
0.230106 0.108156 0.144991
0.392493 0.157839 0.193179
0.587549 0.209598 0.251011
0.780148 0.333257 0.349523
0.910246 0.471534 0.468177
0.975463 0.608484 0.607416
0.111116 0.112306 0.152071
0.156924 0.122469 0.153964
0.239963 0.146883 0.158358
0.396307 0.191592 0.204349
0.588708 0.247593 0.263371
0.777798 0.360662 0.356268
0.907164 0.486915 0.472389
0.973480 0.617884 0.611658
0.134554 0.202914 0.173007
0.174197 0.212924 0.179385
0.280827 0.253544 0.209476
0.423651 0.300359 0.247135
0.616907 0.376898 0.316442
0.791318 0.460304 0.403326
0.908415 0.558343 0.516838
0.970123 0.662776 0.644404
0.181918 0.365484 0.235996
0.216037 0.372717 0.242069
0.306554 0.401587 0.259525
0.448280 0.447700 0.294499
0.657649 0.537713 0.403937
0.811460 0.594842 0.493660
0.910613 0.660334 0.597436
0.965545 0.729732 0.700221
0.223301 0.549493 0.323339
0.255711 0.553582 0.328862
0.343511 0.568444 0.342138
0.454444 0.589654 0.335882
0.646326 0.636805 0.424445
0.815396 0.696345 0.565881
0.911711 0.755337 0.687007
0.960632 0.797696 0.762936
0.284031 0.703029 0.430091
0.313725 0.704707 0.434485
0.394507 0.709346 0.444251
0.490242 0.718563 0.436683
0.630579 0.728237 0.452064
0.804532 0.765499 0.589746
0.907866 0.810971 0.726070
0.958190 0.851804 0.811276
0.398779 0.821225 0.557702
0.421088 0.820462 0.560204
0.490028 0.818753 0.570001
0.574945 0.820371 0.573846
0.673884 0.821317 0.576867
0.799863 0.830442 0.631434
0.900053 0.854459 0.741604
0.954528 0.886320 0.831998
0.562890 0.901488 0.692561
0.577203 0.900420 0.694240
0.632624 0.897490 0.707149
0.717647 0.895964 0.734493
0.768338 0.897612 0.729976
0.834836 0.898619 0.736629
0.907408 0.907683 0.793423
0.954131 0.921599 0.849607
0.137819 0.091310 0.240635
0.176181 0.098787 0.243290
0.271031 0.127596 0.247868
0.371405 0.181308 0.265568
0.548791 0.272374 0.342901
0.745235 0.344884 0.428046
0.884733 0.458991 0.526024
0.960388 0.603967 0.654047
0.162081 0.136172 0.256657
0.194491 0.142336 0.257969
0.281224 0.166262 0.261631
0.378027 0.214755 0.278050
0.554131 0.298985 0.355718
0.744991 0.366979 0.435920
0.882933 0.473823 0.531853
0.959625 0.614557 0.658778
0.160555 0.215854 0.279149
0.192569 0.224949 0.284062
0.296757 0.258671 0.301732
0.400610 0.306889 0.320073
0.576776 0.378180 0.397864
0.760067 0.445838 0.477180
0.889464 0.560510 0.590784
0.960021 0.666102 0.694057
0.195560 0.351598 0.321660
0.226169 0.359625 0.327611
0.314611 0.389471 0.352087
0.456153 0.453681 0.413519
0.618799 0.505821 0.470100
0.777249 0.573816 0.552026
0.891722 0.651911 0.646662
0.956847 0.729061 0.736538
0.254368 0.542626 0.431830
0.281743 0.545403 0.434638
0.363317 0.560479 0.449165
0.483467 0.593072 0.477394
0.643458 0.632746 0.530480
0.806729 0.701045 0.649928
0.900938 0.752438 0.728023
0.955016 0.797726 0.789914
0.312291 0.700008 0.529229
0.343420 0.705348 0.537530
0.421942 0.708553 0.545617
0.534417 0.718044 0.563073
0.644190 0.728084 0.563439
0.801816 0.763516 0.663600
0.903502 0.813779 0.771267
0.955901 0.856840 0.837491
0.421851 0.815671 0.628931
0.445289 0.816007 0.632532
0.515099 0.816403 0.643610
0.611902 0.817685 0.660487
0.697444 0.821225 0.663111
0.799954 0.827543 0.685328
0.898405 0.854063 0.778805
0.953643 0.888670 0.851926
0.587304 0.898833 0.740993
0.602045 0.898436 0.743282
0.644770 0.896880 0.748592
0.714321 0.894804 0.761318
0.778958 0.894987 0.769497
0.838376 0.897093 0.774044
0.906188 0.906279 0.812528
0.954284 0.922393 0.863890
0.182712 0.121035 0.369940
0.214725 0.128450 0.372473
0.301213 0.154757 0.377966
0.408453 0.205539 0.391485
0.524041 0.279393 0.426795
0.704372 0.401160 0.518791
0.857877 0.501122 0.613703
0.946319 0.619471 0.710292
0.200870 0.161532 0.381445
0.229252 0.168063 0.384802
0.309789 0.190311 0.389715
0.413642 0.236271 0.399786
0.527581 0.305486 0.435889
0.706477 0.422339 0.528038
0.858305 0.516655 0.621393
0.946014 0.628199 0.714595
0.196994 0.238376 0.407630
0.234165 0.252110 0.414099
0.320897 0.277348 0.420722
0.430823 0.320195 0.434943
0.540276 0.381872 0.466468
0.712154 0.475776 0.552941
0.858335 0.559350 0.641321
0.944549 0.652583 0.725002
0.204379 0.356359 0.441047
0.231479 0.363104 0.444892
0.310674 0.386908 0.461921
0.451514 0.438636 0.499245
0.574578 0.494270 0.528710
0.734310 0.560876 0.604334
0.865965 0.623804 0.676356
0.945342 0.701839 0.752193
0.247044 0.509880 0.500145
0.273930 0.515343 0.504967
0.354772 0.533288 0.521080
0.475776 0.568048 0.556664
0.631403 0.620935 0.617151
0.769558 0.663539 0.669886
0.879789 0.720241 0.736660
0.947143 0.778866 0.799405
0.326818 0.678614 0.607904
0.353338 0.680659 0.611414
0.433173 0.686732 0.622980
0.536645 0.698085 0.638148
0.650324 0.716518 0.657984
0.787747 0.751400 0.713649
0.897704 0.811643 0.804837
0.951995 0.851194 0.850370
0.452094 0.804898 0.702754
0.470588 0.804501 0.703822
0.531060 0.804532 0.709010
0.616052 0.807187 0.719020
0.707271 0.813291 0.730312
0.790677 0.819852 0.732631
0.893400 0.849454 0.807248
0.951995 0.888396 0.868193
0.601953 0.890105 0.784604
0.613703 0.889586 0.785367
0.651667 0.888457 0.788235
0.713710 0.890257 0.796780
0.779507 0.890806 0.803922
0.838499 0.894072 0.808896
0.900145 0.901946 0.827146
0.953124 0.921202 0.876402
0.229984 0.161288 0.526085
0.257694 0.168063 0.527764
0.337163 0.191012 0.530938
0.448341 0.237339 0.542962
0.568780 0.299443 0.570153
0.683742 0.389471 0.597498
0.831907 0.537194 0.684657
0.929168 0.655146 0.770687
0.239689 0.194308 0.528069
0.264805 0.199954 0.529229
0.340429 0.219944 0.533684
0.449134 0.261906 0.545556
0.567956 0.321172 0.570947
0.682704 0.406622 0.600122
0.830655 0.548577 0.687861
0.928588 0.660487 0.772366
0.250492 0.280156 0.553826
0.275090 0.285039 0.555200
0.351171 0.303380 0.560876
0.461097 0.339940 0.572320
0.580468 0.394995 0.591943
0.691646 0.469123 0.621973
0.833158 0.592737 0.706477
0.929229 0.683833 0.782895
0.204013 0.370886 0.572961
0.234531 0.376135 0.575921
0.329259 0.400549 0.594293
0.471870 0.448707 0.616907
0.605921 0.499214 0.635035
0.713832 0.563470 0.664790
0.843137 0.654292 0.738705
0.932647 0.720577 0.800473
0.243687 0.511650 0.615717
0.268711 0.515648 0.618067
0.343572 0.528923 0.626886
0.451453 0.551141 0.644678
0.614679 0.596704 0.677607
0.733455 0.647669 0.704646
0.853483 0.704372 0.764126
0.936095 0.756619 0.814176
0.315801 0.650202 0.667384
0.340551 0.654047 0.671138
0.413092 0.662806 0.679438
0.521172 0.678218 0.695094
0.644648 0.701106 0.720333
0.778439 0.742275 0.767208
0.879210 0.783413 0.811154
0.944976 0.828855 0.852811
0.464210 0.794217 0.762600
0.486366 0.795224 0.765072
0.549554 0.796506 0.770687
0.638270 0.800595 0.781674
0.721401 0.807370 0.791623
0.801389 0.818936 0.801633
0.890074 0.846006 0.838102
0.953124 0.891600 0.888640
0.635035 0.882872 0.831601
0.644587 0.882475 0.831815
0.676112 0.881804 0.833005
0.725643 0.882811 0.836301
0.781369 0.885222 0.839872
0.840208 0.890379 0.844907
0.893217 0.897673 0.848478
0.952728 0.920806 0.891783
0.294011 0.212619 0.688228
0.319127 0.219364 0.690547
0.393194 0.240391 0.693111
0.500786 0.280522 0.698695
0.619654 0.343389 0.705531
0.731014 0.410437 0.728298
0.814145 0.515251 0.738003
0.913420 0.664302 0.807980
0.295659 0.238315 0.686336
0.319799 0.244083 0.688441
0.391974 0.263157 0.691279
0.497414 0.299413 0.696071
0.615503 0.357733 0.702998
0.726131 0.421851 0.724727
0.809567 0.521172 0.735164
0.910460 0.664393 0.805264
0.299077 0.314336 0.699794
0.322210 0.318700 0.700435
0.393957 0.334661 0.702266
0.500145 0.366369 0.707118
0.618921 0.416388 0.713497
0.729854 0.477302 0.733181
0.814206 0.566400 0.748623
0.912902 0.692897 0.816373
0.247349 0.395026 0.714351
0.275151 0.398962 0.715419
0.379248 0.429145 0.719661
0.496437 0.457252 0.725734
0.624384 0.499428 0.733364
0.739193 0.558038 0.749691
0.822873 0.628779 0.769924
0.915862 0.730648 0.830411
0.235569 0.514549 0.726619
0.257481 0.515373 0.726070
0.323278 0.519310 0.726284
0.444709 0.536065 0.737606
0.613031 0.581292 0.752041
0.742733 0.630121 0.764981
0.828824 0.687282 0.788968
0.918883 0.770138 0.844724
0.317052 0.649287 0.760769
0.336797 0.650660 0.761349
0.398810 0.655360 0.763485
0.490455 0.663416 0.768185
0.597742 0.673762 0.775509
0.751675 0.710750 0.799039
0.848722 0.759640 0.822232
0.928801 0.811154 0.863279
0.440253 0.766476 0.799161
0.458503 0.767758 0.800351
0.513420 0.770504 0.803006
0.593164 0.775814 0.808377
0.685542 0.783780 0.816495
0.783871 0.799344 0.831662
0.877562 0.832090 0.860441
0.944396 0.869902 0.890105
0.611902 0.872679 0.858335
0.623621 0.872618 0.858854
0.665766 0.873930 0.862364
0.723415 0.875273 0.866575
0.789487 0.878416 0.872892
0.846189 0.885100 0.879118
0.895171 0.895781 0.883818
0.951781 0.919371 0.907683
0.411444 0.302708 0.831937
0.431617 0.308782 0.832517
0.492439 0.326909 0.831754
0.587060 0.364202 0.832456
0.693568 0.420417 0.833097
0.791684 0.496742 0.834104
0.866667 0.561334 0.847837
0.908476 0.652705 0.845609
0.408759 0.320867 0.830564
0.428595 0.326513 0.831144
0.489906 0.343847 0.830869
0.583581 0.378088 0.831205
0.690639 0.431556 0.832029
0.789273 0.504662 0.833188
0.864286 0.567193 0.846433
0.907042 0.655879 0.844968
0.399542 0.377050 0.831754
0.419074 0.381598 0.831937
0.480507 0.395666 0.831083
0.579400 0.428412 0.833616
0.687739 0.474189 0.834165
0.786954 0.538170 0.834897
0.862272 0.596185 0.847318
0.906767 0.676234 0.848386
0.364996 0.452796 0.835996
0.388098 0.457160 0.836545
0.457527 0.469551 0.836332
0.563073 0.495277 0.837522
0.680568 0.535119 0.838895
0.785183 0.588647 0.840757
0.861723 0.641718 0.851377
0.908415 0.709957 0.855924
0.270542 0.532189 0.838682
0.297368 0.534051 0.839567
0.375525 0.537987 0.840574
0.513603 0.563745 0.842618
0.653590 0.595209 0.843900
0.774258 0.638270 0.846616
0.859373 0.689876 0.855619
0.911162 0.750668 0.865843
0.338750 0.660792 0.852354
0.352270 0.660029 0.851621
0.396674 0.657710 0.849943
0.465400 0.653346 0.847990
0.581842 0.655726 0.849454
0.753964 0.697017 0.857267
0.861814 0.747677 0.866331
0.918730 0.800900 0.881376
0.470283 0.776181 0.870481
0.481453 0.775967 0.870207
0.518364 0.775479 0.869566
0.578607 0.775601 0.869505
0.653742 0.775692 0.869780
0.736324 0.775906 0.870970
0.856901 0.803006 0.881956
0.925963 0.848417 0.896178
0.613977 0.862211 0.889982
0.622126 0.862089 0.889982
0.650660 0.862119 0.890288
0.698512 0.863066 0.891447
0.757595 0.865202 0.893370
0.820096 0.869932 0.896696
0.881926 0.880705 0.903319
0.943420 0.907347 0.919738
