data/fiter_cube/69180065/1023050/file.cube
# Created by Adobe Lightroom plugin Export LUT (1.17.0)
# www.johnrellis.com/lightroom/exportlut.htm
# Preset: 室内文艺胶片_03 云集
# Color profile: C:\Program Files (x86)\Common Files\Adobe\Color\Profiles\Recommended\AdobeRGB1998.icc
LUT_3D_SIZE 32
DOMAIN_MIN 0.0 0.0 0.0
DOMAIN_MAX 1.0 1.0 1.0
0.035706 0.038300 0.010010
0.051575 0.043580 0.011292
0.065766 0.048829 0.014405
0.082643 0.059663 0.023651
0.107851 0.064759 0.032837
0.139681 0.065187 0.040955
0.176150 0.062989 0.046998
0.214908 0.058442 0.052308
0.256016 0.046906 0.056214
0.298589 0.030671 0.060243
0.343236 0.017212 0.063081
0.389776 0.018585 0.068391
0.438270 0.043549 0.076143
0.487739 0.074434 0.086671
0.538018 0.102174 0.099062
0.588800 0.130709 0.113130
0.639643 0.159762 0.128359
0.688716 0.190677 0.145144
0.738308 0.225772 0.166873
0.786709 0.265202 0.193027
0.828336 0.303868 0.222080
0.864073 0.341985 0.253880
0.893858 0.378637 0.287694
0.918608 0.414282 0.323339
0.938994 0.448768 0.360479
0.956115 0.483009 0.399542
0.970428 0.517601 0.441077
0.982330 0.552941 0.485267
0.991974 0.589197 0.532128
0.999664 0.625544 0.580255
1.000000 0.660975 0.627649
1.000000 0.695155 0.673426
0.039155 0.053132 0.012848
0.052796 0.054749 0.012268
0.065797 0.058991 0.016510
0.082704 0.064790 0.025849
0.107942 0.068910 0.035126
0.139498 0.070283 0.043061
0.175814 0.068818 0.048524
0.214298 0.065919 0.052918
0.254978 0.060822 0.057649
0.297398 0.052979 0.060517
0.341650 0.045716 0.063783
0.387854 0.048554 0.069459
0.435798 0.065492 0.077058
0.485176 0.085695 0.087495
0.535058 0.110475 0.099641
0.585473 0.137789 0.113649
0.636103 0.165103 0.128389
0.685176 0.194430 0.145144
0.734890 0.228977 0.166232
0.782528 0.266300 0.191836
0.823941 0.303685 0.220310
0.859861 0.340764 0.251316
0.890166 0.376867 0.284428
0.915435 0.411963 0.319310
0.936461 0.446326 0.355962
0.953979 0.480598 0.395209
0.968841 0.515007 0.436469
0.981048 0.550439 0.480964
0.991028 0.586664 0.527855
0.998962 0.623255 0.576287
1.000000 0.658839 0.624109
1.000000 0.693202 0.670161
0.046418 0.065431 0.017151
0.058289 0.066194 0.016571
0.066926 0.066560 0.019165
0.082582 0.070649 0.028840
0.108370 0.074678 0.037995
0.139925 0.076905 0.045624
0.175479 0.076661 0.051209
0.213870 0.074952 0.055451
0.254490 0.071962 0.059358
0.296483 0.068788 0.061738
0.340703 0.066499 0.064942
0.386755 0.070192 0.070344
0.434668 0.081147 0.078401
0.483955 0.100069 0.088777
0.533593 0.122652 0.101137
0.584100 0.147433 0.114534
0.634577 0.174166 0.129610
0.683314 0.201907 0.146456
0.733425 0.235080 0.167575
0.780514 0.271183 0.192294
0.821958 0.307378 0.220127
0.857908 0.343511 0.250797
0.888334 0.378943 0.283818
0.913848 0.413245 0.318486
0.934997 0.447364 0.355505
0.952819 0.480934 0.393835
0.967803 0.515435 0.435554
0.980255 0.550622 0.479713
0.990387 0.586786 0.526818
0.998413 0.623255 0.575372
1.000000 0.658656 0.623041
1.000000 0.692958 0.669154
0.060822 0.079255 0.029419
0.065248 0.080446 0.029877
0.072084 0.081209 0.029145
0.085847 0.082002 0.034211
0.109346 0.086030 0.043336
0.141024 0.090242 0.050172
0.176669 0.091707 0.054963
0.214817 0.092073 0.059144
0.254917 0.091157 0.061433
0.297154 0.090974 0.063905
0.340978 0.092256 0.067384
0.386694 0.097749 0.073732
0.434302 0.108888 0.082033
0.483040 0.125460 0.092561
0.532769 0.145022 0.104433
0.582879 0.167849 0.118044
0.633173 0.192172 0.133089
0.682094 0.218143 0.149477
0.732235 0.249638 0.170718
0.777737 0.282658 0.194888
0.818601 0.316197 0.221622
0.854429 0.350408 0.251652
0.885283 0.384558 0.284520
0.911498 0.418463 0.319310
0.933501 0.452308 0.356512
0.951781 0.486244 0.396460
0.967163 0.520500 0.438483
0.979706 0.555566 0.483284
0.989837 0.591363 0.530449
0.997894 0.626978 0.578241
1.000000 0.661494 0.624933
1.000000 0.694850 0.670161
0.066621 0.098238 0.043610
0.071077 0.099367 0.042847
0.075715 0.100740 0.039826
0.089815 0.102785 0.039918
0.112428 0.104158 0.046479
0.141756 0.107424 0.053590
0.177340 0.111818 0.059266
0.215702 0.114931 0.062501
0.255528 0.116487 0.064424
0.297154 0.119203 0.067475
0.340490 0.123079 0.071870
0.386145 0.130037 0.078340
0.433539 0.141329 0.087129
0.482277 0.156741 0.097627
0.532158 0.175265 0.109743
0.582544 0.195651 0.123323
0.633143 0.218326 0.138521
0.683253 0.243137 0.155489
0.733150 0.272007 0.176883
0.777829 0.302403 0.200870
0.817807 0.333532 0.227420
0.853208 0.365301 0.256962
0.883848 0.397223 0.289342
0.910124 0.429541 0.324163
0.932189 0.462074 0.361334
0.950652 0.494942 0.401038
0.966003 0.528252 0.443091
0.978637 0.562280 0.487465
0.988800 0.597070 0.534051
0.996918 0.631800 0.581353
1.000000 0.665431 0.627588
1.000000 0.698085 0.672267
0.070619 0.121767 0.054078
0.075074 0.123018 0.053346
0.078614 0.124361 0.050233
0.092164 0.126772 0.048371
0.114931 0.129122 0.049500
0.144350 0.131167 0.054963
0.178622 0.135012 0.061738
0.217044 0.140230 0.065187
0.257908 0.146792 0.069917
0.299260 0.151553 0.073945
0.342657 0.157565 0.078889
0.388006 0.166262 0.085603
0.435279 0.178500 0.094514
0.484108 0.193149 0.105440
0.533867 0.210483 0.117586
0.584405 0.229526 0.131533
0.635187 0.250614 0.146914
0.687343 0.274937 0.165042
0.736080 0.301549 0.186313
0.779843 0.329076 0.210483
0.819394 0.357824 0.237247
0.854520 0.387396 0.267338
0.906157 0.447333 0.332708
0.928161 0.477363 0.369421
0.946319 0.507103 0.407233
0.961242 0.536919 0.446571
0.973602 0.567132 0.487190
0.983673 0.598047 0.529778
0.991974 0.629053 0.572930
0.998840 0.659632 0.615717
1.000000 0.689418 0.657160
1.000000 0.718318 0.697108
0.075502 0.151858 0.061799
0.079927 0.153140 0.061311
0.085847 0.154391 0.061219
0.096101 0.157107 0.057374
0.117922 0.160189 0.054658
0.148318 0.163607 0.056580
0.183871 0.166720 0.061891
0.222904 0.171939 0.068360
0.263676 0.179599 0.074647
0.307561 0.189792 0.081300
0.353552 0.201022 0.089754
0.399542 0.211490 0.097230
0.447272 0.224430 0.107179
0.496284 0.239292 0.118441
0.545647 0.255222 0.131075
0.595422 0.272709 0.144778
0.646296 0.292393 0.160494
0.700435 0.317113 0.180636
0.747982 0.341680 0.203281
0.791470 0.367742 0.229221
0.831144 0.395819 0.259251
0.866575 0.425452 0.293339
0.897063 0.456184 0.330297
0.922179 0.487312 0.370001
0.942351 0.518059 0.410864
0.958404 0.547967 0.451820
0.971252 0.577661 0.493416
0.981628 0.607416 0.535515
0.990112 0.637171 0.578271
0.997131 0.666285 0.619745
1.000000 0.694789 0.660243
1.000000 0.722683 0.699458
0.080842 0.182712 0.066896
0.085420 0.183444 0.066560
0.091188 0.184726 0.066407
0.099886 0.187350 0.062348
0.120027 0.190433 0.060761
0.147402 0.194034 0.058686
0.182650 0.198184 0.062562
0.221347 0.203342 0.068757
0.262791 0.211154 0.079194
0.305699 0.221714 0.086763
0.352087 0.235355 0.096712
0.401099 0.251987 0.108461
0.449958 0.266911 0.119783
0.498756 0.281224 0.131258
0.547936 0.296452 0.143893
0.597894 0.312902 0.157351
0.652613 0.333898 0.175082
0.703700 0.355108 0.194766
0.749386 0.376806 0.216922
0.791440 0.399390 0.242649
0.830106 0.424140 0.272404
0.864866 0.450568 0.305730
0.894865 0.478279 0.342077
0.919677 0.506676 0.381018
0.939818 0.535058 0.420996
0.955901 0.563043 0.461433
0.968811 0.590906 0.502220
0.979370 0.619043 0.543603
0.988006 0.647272 0.585382
0.995209 0.674922 0.625849
1.000000 0.702144 0.665461
1.000000 0.728817 0.703670
0.087678 0.216617 0.074037
0.092470 0.217411 0.073671
0.098909 0.218357 0.073854
0.110414 0.220554 0.071992
0.124880 0.224033 0.067506
0.149844 0.227543 0.065156
0.181247 0.231815 0.062989
0.219486 0.237827 0.069764
0.260655 0.245182 0.078859
0.304631 0.256016 0.092256
0.350622 0.270146 0.103578
0.399298 0.286961 0.116182
0.450782 0.306188 0.131228
0.503807 0.326513 0.147189
0.553124 0.341161 0.159457
0.606653 0.359564 0.175174
0.660304 0.378576 0.193149
0.708827 0.396765 0.212863
0.752682 0.414923 0.234806
0.793423 0.434607 0.260349
0.830930 0.456245 0.289891
0.864714 0.479530 0.322789
0.893889 0.504326 0.358526
0.918212 0.530175 0.396460
0.937957 0.556146 0.435737
0.953857 0.581811 0.475196
0.966674 0.607752 0.515221
0.977111 0.633997 0.555749
0.985931 0.660029 0.595544
0.993225 0.685847 0.634607
0.999298 0.711330 0.672694
1.000000 0.736507 0.709499
0.096498 0.253330 0.082765
0.101625 0.253910 0.082734
0.107485 0.254795 0.082246
0.120180 0.256748 0.082063
0.131228 0.260166 0.075227
0.154299 0.263584 0.073304
0.182773 0.267491 0.071168
0.217777 0.272801 0.072053
0.258335 0.281041 0.081178
0.301366 0.290623 0.092653
0.347601 0.303838 0.108827
0.396735 0.321660 0.123659
0.447852 0.340764 0.139590
0.501213 0.361303 0.156130
0.560204 0.386511 0.177218
0.617456 0.408240 0.197513
0.669551 0.425360 0.215549
0.716640 0.441169 0.235477
0.758907 0.456550 0.258122
0.797818 0.473304 0.283543
0.833524 0.491432 0.312322
0.865293 0.511131 0.343786
0.892973 0.532341 0.377569
0.916014 0.554559 0.413886
0.935271 0.577447 0.451148
0.950988 0.600885 0.489357
0.963928 0.624994 0.528527
0.974609 0.649470 0.568139
0.983581 0.673976 0.607080
0.991089 0.698360 0.645228
0.997345 0.722560 0.682460
1.000000 0.746365 0.718074
0.106081 0.291356 0.093141
0.110536 0.292058 0.093294
0.116793 0.292912 0.093080
0.129244 0.294560 0.093141
0.139864 0.298009 0.087098
0.160403 0.301640 0.083833
0.187137 0.305730 0.082063
0.218051 0.310460 0.079622
0.256748 0.317998 0.084627
0.299901 0.328618 0.096040
0.344976 0.340185 0.110292
0.393011 0.355261 0.128695
0.447486 0.377630 0.149416
0.503471 0.400458 0.168643
0.561303 0.423957 0.189731
0.619898 0.447364 0.213169
0.676356 0.469734 0.239475
0.722164 0.483833 0.260807
0.762783 0.496559 0.282933
0.800412 0.510369 0.308080
0.834836 0.526085 0.336248
0.865751 0.543236 0.366918
0.892424 0.562097 0.400702
0.914946 0.581994 0.435798
0.933654 0.602564 0.472145
0.948943 0.623651 0.509178
0.961578 0.645350 0.546654
0.972137 0.667384 0.584070
0.981201 0.689448 0.620752
0.988800 0.711666 0.656855
0.995209 0.734035 0.692195
1.000000 0.756252 0.726436
0.117006 0.332586 0.106172
0.121584 0.333043 0.106111
0.127596 0.333745 0.106386
0.139498 0.335546 0.106752
0.156527 0.338384 0.106538
0.168032 0.342351 0.097230
0.193118 0.346563 0.095277
0.222599 0.351293 0.093507
0.256321 0.356756 0.090639
0.298619 0.367315 0.100893
0.344213 0.379644 0.115297
0.394659 0.396643 0.133608
0.468177 0.436133 0.166201
0.531334 0.463325 0.196231
0.591272 0.485908 0.220615
0.650233 0.507103 0.247196
0.703670 0.525902 0.276585
0.750576 0.542809 0.307408
0.790707 0.557458 0.337865
0.823819 0.568017 0.362280
0.853574 0.579858 0.389715
0.879850 0.593469 0.419135
0.902312 0.608240 0.450019
0.921447 0.624445 0.482643
0.937591 0.641413 0.515984
0.951019 0.659266 0.550256
0.962371 0.677241 0.583581
0.972107 0.695491 0.616510
0.980438 0.714137 0.649012
0.987640 0.733150 0.681056
0.993774 0.752499 0.712673
0.999084 0.772152 0.743343
0.130861 0.382269 0.124453
0.135103 0.382666 0.124392
0.140688 0.383124 0.124453
0.152499 0.384253 0.124666
0.169314 0.386145 0.124422
0.178653 0.389319 0.114076
0.202487 0.392767 0.112306
0.230411 0.397040 0.110811
0.262730 0.402380 0.108248
0.301244 0.411780 0.109285
0.350774 0.428931 0.125856
0.403937 0.448035 0.145296
0.460548 0.468452 0.168948
0.519554 0.489509 0.196139
0.586481 0.517510 0.233066
0.645289 0.538079 0.260349
0.698390 0.555261 0.289677
0.745052 0.570153 0.320226
0.786191 0.584771 0.352972
0.823056 0.600122 0.387884
0.853178 0.612573 0.418372
0.878508 0.623987 0.446174
0.900298 0.636500 0.475746
0.918914 0.650416 0.506645
0.934661 0.665278 0.538567
0.947997 0.680629 0.570245
0.959380 0.696407 0.601373
0.969146 0.712673 0.632441
0.977661 0.729366 0.662837
0.985016 0.746731 0.693385
0.991394 0.764462 0.723049
0.996887 0.782650 0.752285
0.143008 0.425238 0.142519
0.147402 0.425574 0.142489
0.152346 0.425971 0.142214
0.163272 0.427008 0.142519
0.179385 0.428504 0.142489
0.193393 0.431525 0.136965
0.210422 0.435981 0.129732
0.238041 0.441688 0.129000
0.269780 0.448432 0.128084
0.305882 0.456184 0.126680
0.349767 0.468147 0.133303
0.402045 0.485847 0.152895
0.457649 0.504570 0.176150
0.515496 0.523705 0.202365
0.574884 0.542718 0.232700
0.640589 0.567803 0.273747
0.692958 0.583337 0.302495
0.739132 0.596735 0.333288
0.780453 0.609583 0.365301
0.817472 0.623346 0.400122
0.849973 0.638300 0.437781
0.877684 0.654444 0.476753
0.898680 0.665217 0.504936
0.916838 0.677150 0.534051
0.932189 0.689998 0.564111
0.945342 0.703212 0.593469
0.956725 0.716854 0.622187
0.966552 0.731044 0.650629
0.975067 0.745968 0.679316
0.982544 0.761501 0.707668
0.989044 0.777615 0.735561
0.994720 0.794339 0.762966
0.156130 0.471870 0.163943
0.160006 0.472511 0.164065
0.165194 0.472908 0.164340
0.175723 0.474128 0.164126
0.191409 0.476234 0.164523
0.211215 0.478950 0.164797
0.220584 0.483345 0.151400
0.247044 0.487861 0.150088
0.277592 0.493324 0.149660
0.312047 0.499886 0.148806
0.350530 0.507469 0.147738
0.399329 0.521569 0.161654
0.454078 0.539055 0.184360
0.511498 0.556847 0.210300
0.570275 0.574304 0.239506
0.627893 0.590539 0.271550
0.688472 0.611292 0.317479
0.734340 0.623072 0.347356
0.775387 0.634394 0.379431
0.812436 0.646540 0.413703
0.845060 0.659724 0.450050
0.872984 0.674159 0.488838
0.896117 0.689479 0.528069
0.914794 0.703182 0.562799
0.929931 0.713924 0.590143
0.942962 0.725460 0.617517
0.954314 0.737575 0.644526
0.964202 0.750423 0.671778
0.972900 0.764065 0.698817
0.980468 0.778286 0.725612
0.987121 0.793149 0.751949
0.992920 0.808469 0.777401
0.170230 0.520256 0.189517
0.174166 0.520928 0.189578
0.178988 0.521508 0.189425
0.189609 0.522606 0.189639
0.204868 0.524224 0.190127
0.224002 0.526879 0.190066
0.234379 0.531029 0.178470
0.257877 0.535180 0.175174
0.287785 0.539788 0.174502
0.321141 0.545373 0.174136
0.358068 0.551232 0.173861
0.398413 0.557610 0.172702
0.450965 0.572351 0.193912
0.506645 0.587793 0.218631
0.563317 0.602808 0.246677
0.619501 0.616968 0.277592
0.673701 0.630396 0.311650
0.729305 0.648188 0.361608
0.770779 0.658686 0.394079
0.808408 0.669856 0.428809
0.841398 0.681910 0.465614
0.869566 0.695125 0.504417
0.892973 0.709071 0.543694
0.912474 0.723445 0.581659
0.928588 0.738033 0.618280
0.941558 0.748867 0.645350
0.952667 0.759274 0.669978
0.962402 0.770352 0.694636
0.970947 0.782193 0.719234
0.978454 0.794644 0.743343
0.985107 0.807584 0.766812
0.990967 0.821195 0.789761
0.184695 0.564111 0.215976
0.188052 0.564477 0.215732
0.192752 0.564752 0.216037
0.202579 0.565545 0.215885
0.217441 0.566888 0.216220
0.236210 0.569024 0.216312
0.253422 0.572198 0.212100
0.267308 0.576226 0.199863
0.296086 0.580133 0.199496
0.328191 0.584710 0.199374
0.363989 0.589837 0.199222
0.402655 0.595209 0.198764
0.446632 0.602625 0.203922
0.500938 0.616632 0.228519
0.556237 0.629816 0.255985
0.610834 0.642084 0.285893
0.663905 0.653834 0.318700
0.714443 0.665370 0.354406
0.764920 0.680690 0.405158
0.803525 0.691615 0.443000
0.836606 0.702266 0.479255
0.864988 0.713802 0.517235
0.888731 0.726253 0.555566
0.908568 0.739193 0.592889
0.925200 0.752377 0.628229
0.938994 0.765743 0.662135
0.950591 0.778500 0.692439
0.960296 0.788266 0.715053
0.968841 0.798703 0.737453
0.976410 0.809812 0.759548
0.983124 0.821500 0.781094
0.989105 0.833768 0.801907
0.199771 0.606531 0.244938
0.203586 0.607263 0.245335
0.215305 0.624598 0.258610
0.225406 0.625147 0.258488
0.239750 0.625910 0.258701
0.258396 0.627222 0.258305
0.280217 0.628931 0.258152
0.287510 0.632166 0.239445
0.315892 0.634638 0.238743
0.347845 0.637629 0.238499
0.382696 0.641077 0.238743
0.420081 0.644587 0.238468
0.459846 0.647608 0.238041
0.507164 0.654658 0.250126
0.561212 0.665461 0.277592
0.614466 0.675715 0.307439
0.666346 0.685389 0.340124
0.715297 0.694820 0.374670
0.760922 0.704372 0.411414
0.804471 0.717281 0.463081
0.838071 0.727687 0.505089
0.865263 0.737362 0.541527
0.888243 0.747799 0.577417
0.907530 0.758633 0.611994
0.923552 0.769589 0.644648
0.937072 0.780850 0.675624
0.948516 0.792355 0.705013
0.958434 0.804318 0.732845
0.966949 0.814694 0.755581
0.974487 0.824369 0.775204
0.981231 0.834714 0.794522
0.987304 0.845670 0.813169
0.218723 0.650538 0.279454
0.222934 0.652888 0.281529
0.228550 0.655299 0.283238
0.239109 0.657649 0.285283
0.253880 0.659785 0.286687
0.272068 0.661433 0.287358
0.293492 0.663050 0.287999
0.306615 0.665492 0.276158
0.326390 0.668025 0.267948
0.356695 0.670253 0.268132
0.389868 0.672908 0.268376
0.425605 0.675563 0.268559
0.463569 0.677882 0.268223
0.503227 0.679988 0.267857
0.552758 0.687526 0.287663
0.605097 0.696559 0.316899
0.656062 0.705287 0.348211
0.704616 0.713680 0.381994
0.750362 0.722347 0.418280
0.791989 0.731228 0.456703
0.830686 0.743069 0.507683
0.860929 0.754360 0.554253
0.884337 0.763699 0.589563
0.904021 0.773465 0.623377
0.920470 0.783413 0.655390
0.934325 0.793668 0.685634
0.946136 0.804288 0.714107
0.956298 0.815213 0.741024
0.965118 0.826658 0.766537
0.972778 0.838376 0.790280
0.979553 0.847654 0.807645
0.985657 0.857450 0.824338
0.236545 0.684901 0.310582
0.241215 0.686915 0.312352
0.246616 0.688930 0.314488
0.256657 0.690944 0.316381
0.271061 0.692714 0.318029
0.288548 0.693996 0.318944
0.309361 0.695155 0.319707
0.329808 0.696742 0.317021
0.339483 0.699519 0.299809
0.368353 0.701320 0.299992
0.400031 0.703365 0.300511
0.434058 0.705409 0.300725
0.470039 0.707118 0.300694
0.507836 0.708614 0.300664
0.546960 0.709773 0.300603
0.598230 0.717891 0.329137
0.648341 0.725521 0.359930
0.696407 0.733028 0.392828
0.741817 0.740627 0.428046
0.783749 0.748562 0.465705
0.820981 0.756863 0.504906
0.854337 0.767849 0.554650
0.880980 0.779355 0.602716
0.900908 0.788113 0.635615
0.917601 0.796994 0.666499
0.931731 0.806210 0.695644
0.943755 0.815793 0.723079
0.954131 0.825803 0.749081
0.963165 0.836271 0.773465
0.971069 0.847105 0.796139
0.978027 0.858091 0.816861
0.984131 0.868467 0.834592
0.257633 0.717006 0.342962
0.261723 0.718685 0.345098
0.267033 0.720455 0.347112
0.276890 0.722194 0.349187
0.290654 0.723568 0.350927
0.307622 0.724575 0.352087
0.327733 0.725399 0.353185
0.350591 0.726284 0.354040
0.359014 0.728664 0.337835
0.382574 0.730251 0.333989
0.412543 0.731655 0.334112
0.444739 0.733089 0.334905
0.478737 0.734371 0.335027
0.514519 0.735439 0.335424
0.551659 0.736324 0.335241
0.593194 0.738857 0.343420
0.643305 0.746151 0.374762
0.691798 0.753414 0.408362
0.737819 0.760800 0.444404
0.780301 0.768338 0.483009
0.818112 0.776272 0.523033
0.850675 0.784665 0.563745
0.878630 0.794797 0.609308
0.901274 0.806302 0.656733
0.917845 0.814450 0.686793
0.931792 0.822843 0.714809
0.943664 0.831449 0.740810
0.953948 0.840513 0.765042
0.962921 0.849973 0.787747
0.970764 0.859709 0.808438
0.977661 0.869596 0.827390
0.983734 0.879698 0.844694
0.287419 0.752956 0.384924
0.290929 0.753719 0.385901
0.295262 0.754299 0.386938
0.303746 0.754910 0.388128
0.316442 0.755428 0.389166
0.332525 0.755795 0.390478
0.351720 0.756130 0.391882
0.374304 0.756802 0.393957
0.390295 0.758480 0.387243
0.404456 0.760586 0.375463
0.432776 0.761837 0.376318
0.463478 0.762966 0.377295
0.495705 0.763851 0.377783
0.529351 0.764523 0.378454
0.564324 0.764920 0.378637
0.600397 0.765103 0.378882
0.643549 0.768521 0.395972
0.690944 0.774563 0.428962
0.735805 0.780636 0.464027
0.777340 0.786831 0.501030
0.814298 0.793271 0.539055
0.846220 0.800168 0.576776
0.873136 0.807401 0.613184
0.896056 0.815915 0.652155
0.915373 0.826810 0.697292
0.929503 0.834318 0.724208
0.941588 0.842252 0.749416
0.952087 0.850584 0.772915
0.961242 0.859251 0.794553
0.969299 0.868254 0.814389
0.976379 0.877440 0.832456
0.982574 0.886839 0.849088
0.314366 0.780117 0.420478
0.317937 0.780850 0.421485
0.322057 0.781430 0.422614
0.330480 0.781888 0.423987
0.342535 0.782193 0.425330
0.357946 0.782284 0.426825
0.376287 0.782376 0.428748
0.397681 0.782589 0.430884
0.420996 0.783078 0.432959
0.425818 0.785519 0.413977
0.452216 0.786282 0.414649
0.480812 0.787076 0.415808
0.510857 0.787625 0.416632
0.542565 0.788083 0.417517
0.575341 0.788357 0.418006
0.609339 0.788449 0.418799
0.644007 0.788571 0.419959
0.688533 0.792813 0.446571
0.732998 0.798032 0.481483
0.774136 0.803464 0.517998
0.810971 0.809201 0.555016
0.842771 0.815274 0.591547
0.869810 0.821805 0.626612
0.892485 0.828641 0.659937
0.909819 0.833829 0.688228
0.926726 0.844541 0.731594
0.939147 0.851774 0.756039
0.949920 0.859464 0.778744
0.959319 0.867521 0.799741
0.967620 0.875883 0.818875
0.974945 0.884550 0.836545
0.981353 0.893462 0.852781
0.351202 0.809384 0.463874
0.354925 0.810086 0.465461
0.358953 0.810422 0.466346
0.366552 0.810513 0.467567
0.377600 0.810391 0.468666
0.391821 0.810086 0.470039
0.409339 0.809628 0.471901
0.429725 0.809110 0.474525
0.453040 0.808652 0.477607
0.462409 0.809842 0.465949
0.478645 0.810513 0.458778
0.504021 0.810605 0.458747
0.531395 0.810605 0.459205
0.559930 0.810422 0.459449
0.589715 0.810025 0.459327
0.620294 0.809506 0.459236
0.651911 0.808957 0.459480
0.685206 0.808835 0.462379
0.728847 0.813199 0.495979
0.769650 0.817868 0.531579
0.806241 0.822843 0.567590
0.838163 0.828214 0.602655
0.865110 0.833860 0.636042
0.887846 0.839658 0.667506
0.906798 0.845579 0.696620
0.922850 0.851835 0.724605
0.937407 0.861997 0.764187
0.948333 0.869078 0.786465
0.957855 0.876341 0.806119
0.966278 0.883970 0.824338
0.973724 0.892027 0.841245
0.980285 0.900328 0.856870
0.383917 0.831510 0.500023
0.387366 0.831998 0.501335
0.391455 0.832334 0.502586
0.398718 0.832334 0.503990
0.409216 0.832090 0.505486
0.423163 0.831724 0.507256
0.440070 0.831174 0.509758
0.460029 0.830564 0.513207
0.482826 0.829984 0.517693
0.500328 0.830259 0.515892
0.507958 0.831724 0.502739
0.531456 0.831754 0.503349
0.556664 0.831754 0.504356
0.583001 0.831571 0.504845
0.610376 0.831235 0.505547
0.638666 0.830747 0.506157
0.667781 0.830228 0.506737
0.697566 0.829801 0.507927
0.731777 0.830808 0.520409
0.771389 0.834562 0.554681
0.806821 0.838712 0.588586
0.837736 0.843259 0.621729
0.864103 0.848112 0.653254
0.886442 0.853208 0.682948
0.905272 0.858457 0.710567
0.921172 0.863828 0.735988
0.934661 0.869383 0.759426
0.947295 0.878904 0.793729
0.957122 0.886168 0.814694
0.965606 0.893187 0.831846
0.973083 0.900572 0.847776
0.979706 0.908232 0.862638
0.422827 0.852873 0.539757
0.426062 0.853117 0.540887
0.429541 0.853178 0.541711
0.436225 0.852964 0.542901
0.445960 0.852506 0.544335
0.458930 0.851835 0.546410
0.474891 0.851041 0.549248
0.493904 0.850217 0.553002
0.515831 0.849363 0.557977
0.539971 0.848631 0.564019
0.543755 0.850248 0.549950
0.561730 0.850584 0.547784
0.584619 0.850553 0.549004
0.608545 0.850309 0.550134
0.633143 0.849912 0.550683
0.658686 0.849393 0.551354
0.684871 0.848814 0.552178
0.711879 0.848325 0.553521
0.739437 0.848020 0.555444
0.773007 0.849790 0.575799
0.807309 0.853178 0.607874
0.837339 0.857023 0.639063
0.863066 0.861204 0.668818
0.885008 0.865629 0.696895
0.903685 0.870237 0.722896
0.919493 0.875029 0.747005
0.933043 0.879973 0.769070
0.944579 0.885008 0.788998
0.955627 0.893675 0.817716
0.964538 0.900999 0.837217
0.972107 0.907805 0.852415
0.978790 0.914916 0.866667
0.463142 0.871214 0.577935
0.465827 0.871336 0.578882
0.469276 0.871336 0.579980
0.475563 0.871122 0.581170
0.485451 0.870726 0.583337
0.498756 0.870237 0.586633
0.515343 0.869841 0.591058
0.535088 0.869444 0.596918
0.557336 0.869047 0.603723
0.581628 0.868772 0.611780
0.594079 0.869993 0.608637
0.605493 0.871458 0.602869
0.626703 0.871733 0.605524
0.648493 0.871794 0.607721
0.670802 0.871641 0.609644
0.693233 0.871244 0.610712
0.716243 0.870756 0.611841
0.739742 0.870329 0.613519
0.763668 0.870054 0.615473
0.787686 0.869963 0.618311
0.818021 0.872251 0.643763
0.845579 0.875334 0.672053
0.869352 0.878721 0.698939
0.889708 0.882444 0.724147
0.907225 0.886351 0.747494
0.922148 0.890379 0.769009
0.935027 0.894621 0.788479
0.946105 0.898985 0.806088
0.955718 0.903441 0.822019
0.964996 0.910948 0.844572
0.972686 0.917937 0.861814
0.979156 0.924163 0.874754
0.520195 0.891539 0.628077
0.522637 0.891539 0.628962
0.525353 0.891386 0.629511
0.530877 0.891020 0.630671
0.539574 0.890440 0.632593
0.550927 0.889708 0.635157
0.565209 0.888975 0.638911
0.582025 0.888151 0.643336
0.601190 0.887297 0.648890
0.622095 0.886503 0.655390
0.639033 0.886290 0.657984
0.643030 0.887907 0.647944
0.660273 0.887846 0.649165
0.678828 0.887633 0.650599
