data/fiter_cube/69180065/1023050/file.cube
# Created by Adobe Lightroom plugin Export LUT (1.17.0)
# www.johnrellis.com/lightroom/exportlut.htm
# Preset: 室内文艺胶片_03 云集
# Color profile: C:\Program Files (x86)\Common Files\Adobe\Color\Profiles\Recommended\AdobeRGB1998.icc
LUT_3D_SIZE 5
DOMAIN_MIN 0.000000 0.000000 0.000000
DOMAIN_MAX 0.903226 0.903226 0.903226
0.035706 0.038300 0.010010
0.214908 0.058442 0.052308
0.538018 0.102174 0.099062
0.864073 0.341985 0.253880
0.991974 0.589197 0.532128
0.080842 0.182712 0.066896
0.221347 0.203342 0.068757
0.547936 0.296452 0.143893
0.864866 0.450568 0.305730
0.988006 0.647272 0.585382
0.156130 0.471870 0.163943
0.247044 0.487861 0.150088
0.570275 0.574304 0.239506
0.872984 0.674159 0.488838
0.972900 0.764065 0.698817
0.287419 0.752956 0.384924
0.374304 0.756802 0.393957
0.564324 0.764920 0.378637
0.846220 0.800168 0.576776
0.961242 0.859251 0.794553
0.565728 0.906645 0.666468
0.622522 0.903380 0.681758
0.715572 0.898711 0.680659
0.850340 0.900755 0.708675
0.954925 0.922057 0.837888
0.092439 0.073030 0.116213
0.195041 0.094942 0.120577
0.491768 0.164431 0.198459
0.820249 0.357671 0.346380
0.976989 0.597559 0.583246
0.117891 0.171847 0.143984
0.239811 0.209903 0.170901
0.511681 0.300603 0.242863
0.827848 0.452186 0.388891
0.973754 0.645808 0.619654
0.194278 0.459815 0.251743
0.291020 0.477394 0.265904
0.542687 0.545220 0.324193
0.850034 0.669612 0.552514
0.965148 0.765072 0.725429
0.312047 0.745663 0.452766
0.396918 0.749691 0.464973
0.575402 0.758968 0.460853
0.839658 0.795254 0.624750
0.958190 0.860746 0.812436
0.569207 0.904234 0.690303
0.624506 0.901152 0.703243
0.736202 0.899107 0.721462
0.852415 0.900481 0.733516
0.955169 0.923003 0.849149
0.160739 0.105287 0.303288
0.260838 0.130678 0.308782
0.445258 0.227390 0.341436
0.768826 0.396124 0.499458
0.954620 0.604608 0.677241
0.180301 0.203464 0.336767
0.281865 0.234195 0.346288
0.464546 0.318853 0.380743
0.772885 0.458442 0.527642
0.953155 0.641596 0.699367
0.220859 0.431922 0.410407
0.307408 0.453529 0.427985
0.543999 0.542779 0.519341
0.804227 0.637751 0.635279
0.951385 0.755764 0.771237
0.350072 0.726802 0.599390
0.423774 0.728298 0.604730
0.612024 0.744411 0.635157
0.827573 0.785763 0.719844
0.953460 0.864317 0.849699
0.590234 0.893797 0.760464
0.634760 0.893187 0.766445
0.746944 0.892241 0.782406
0.851957 0.895872 0.791196
0.953124 0.921019 0.868803
0.241245 0.170718 0.561822
0.323095 0.192660 0.567010
0.518395 0.276188 0.587366
0.717494 0.416907 0.633326
0.923308 0.660395 0.780148
0.258091 0.261662 0.580377
0.334020 0.278965 0.585504
0.524987 0.347509 0.603876
0.719966 0.471595 0.647089
0.922454 0.678492 0.786526
0.215824 0.435859 0.616510
0.291112 0.447761 0.622126
0.532616 0.512596 0.658686
0.738613 0.606317 0.696620
0.927642 0.736538 0.811917
0.344701 0.684230 0.707271
0.412085 0.689021 0.711177
0.592950 0.711452 0.734310
0.807187 0.766659 0.794888
0.943755 0.837797 0.861509
0.643091 0.880552 0.841611
0.674861 0.880369 0.843168
0.759182 0.882872 0.848631
0.856016 0.892027 0.856077
0.952361 0.920317 0.895384
0.411444 0.302708 0.831937
0.473457 0.321019 0.831815
0.640162 0.390021 0.832914
0.812100 0.513481 0.836881
0.908476 0.652705 0.845609
0.404578 0.361608 0.832029
0.466835 0.376837 0.832120
0.635248 0.435828 0.833494
0.808896 0.545922 0.836057
0.907378 0.671229 0.847990
0.304967 0.479438 0.837858
0.392035 0.494057 0.838346
0.605554 0.543877 0.839261
0.801419 0.623835 0.842557
0.909209 0.728756 0.860105
0.373419 0.694179 0.858274
0.416266 0.692744 0.856840
0.536248 0.687282 0.854002
0.779873 0.722927 0.862058
0.919951 0.812039 0.884550
0.613977 0.862211 0.889982
0.641444 0.862058 0.890135
0.727230 0.863981 0.892332
0.835721 0.871885 0.897917
0.943420 0.907347 0.919738
