data/fiter_cube/63078869/1022675/file.cube
# Created by Adobe Lightroom plugin Export LUT (1.17.0)
# www.johnrellis.com/lightroom/exportlut.htm
# Preset: 暗调胶片街拍_04 云集
# Color profile: C:\Program Files (x86)\Common Files\Adobe\Color\Profiles\Recommended\AdobeRGB1998.icc
LUT_3D_SIZE 8
DOMAIN_MIN 0.000000 0.000000 0.000000
DOMAIN_MAX 0.903226 0.903226 0.903226
0.056367 0.071534 0.071748
0.065461 0.072328 0.072572
0.125704 0.075288 0.076478
0.223362 0.088228 0.074067
0.405402 0.126558 0.050813
0.586816 0.163119 0.000000
0.742367 0.192874 0.000000
0.862516 0.217197 0.000000
0.056367 0.071534 0.071748
0.064240 0.073640 0.072511
0.120974 0.081209 0.076844
0.214755 0.098177 0.074891
0.363195 0.130922 0.060456
0.534203 0.165225 0.000000
0.709560 0.196628 0.000000
0.847105 0.222202 0.000000
0.073579 0.096681 0.093233
0.075319 0.096712 0.094759
0.118624 0.113771 0.085817
0.242588 0.141970 0.072267
0.379522 0.172061 0.049653
0.560815 0.209171 0.000000
0.753384 0.243442 0.000000
0.871824 0.261357 0.000000
0.094118 0.126040 0.119234
0.095064 0.123079 0.119265
0.095796 0.133272 0.116335
0.211337 0.183169 0.099947
0.443580 0.255039 0.011719
0.623621 0.283513 0.000000
0.767269 0.300420 0.000000
0.872892 0.309728 0.000000
0.114260 0.154025 0.144015
0.114534 0.150546 0.143038
0.114992 0.140475 0.140352
0.137942 0.186313 0.137057
0.304875 0.251041 0.115084
0.566339 0.333806 0.000000
0.759731 0.359197 0.000000
0.873442 0.368475 0.000000
0.138430 0.187869 0.172457
0.141024 0.187991 0.174655
0.138155 0.174075 0.168429
0.134676 0.182254 0.164858
0.207462 0.256535 0.161074
0.447181 0.348760 0.134340
0.733059 0.435920 0.000000
0.886259 0.443641 0.084565
0.173892 0.237949 0.212070
0.173342 0.234195 0.210849
0.166476 0.215366 0.201053
0.155398 0.187472 0.184878
0.166354 0.241062 0.190372
0.318517 0.357885 0.189364
0.622339 0.465248 0.166293
0.848112 0.516991 0.117403
0.232792 0.320653 0.271366
0.229801 0.313695 0.268040
0.221225 0.291814 0.257847
0.207706 0.257877 0.240757
0.183627 0.229496 0.216342
0.251072 0.359167 0.240238
0.541772 0.545708 0.247684
0.817166 0.601038 0.263218
0.056367 0.071534 0.071748
0.062501 0.071992 0.072328
0.115816 0.077729 0.076387
0.206546 0.097505 0.075013
0.346471 0.128542 0.063172
0.508202 0.159823 0.000000
0.688838 0.188937 0.000000
0.831205 0.211643 0.000000
0.056977 0.072236 0.072053
0.064302 0.075563 0.073060
0.116884 0.086152 0.076905
0.205142 0.105562 0.075227
0.334051 0.134737 0.063996
0.489662 0.165225 0.003326
0.664576 0.193454 0.000000
0.813443 0.215793 0.000000
0.073243 0.096468 0.093019
0.076539 0.095979 0.095308
0.114534 0.113313 0.087160
0.219638 0.136660 0.075593
0.338628 0.163577 0.063691
0.503868 0.197971 0.000000
0.689540 0.229435 0.000000
0.834867 0.251011 0.000000
0.093141 0.123568 0.117678
0.095094 0.122072 0.118776
0.096315 0.131716 0.116884
0.185336 0.166293 0.102205
0.359442 0.217044 0.066560
0.530114 0.250950 0.000000
0.701076 0.279484 0.000000
0.837491 0.297063 0.000000
0.115938 0.155642 0.145846
0.115724 0.151644 0.144350
0.115511 0.141115 0.140780
0.132937 0.179110 0.136019
0.274784 0.231418 0.117006
0.516869 0.310613 0.022797
0.725765 0.346075 0.000000
0.852506 0.359380 0.000000
0.137636 0.186374 0.171359
0.137362 0.183047 0.170504
0.135439 0.171084 0.165438
0.133120 0.178073 0.162997
0.200046 0.248539 0.160525
0.432227 0.340215 0.139223
0.716884 0.428351 0.005890
0.873686 0.436744 0.081514
0.168978 0.231174 0.206699
0.166506 0.225101 0.203494
0.161715 0.209598 0.195987
0.153780 0.186130 0.183261
0.163516 0.235630 0.188540
0.304631 0.344915 0.187472
0.591852 0.445716 0.163363
0.826505 0.503197 0.103700
0.226627 0.313176 0.265690
0.225223 0.308446 0.263920
0.217685 0.288151 0.254734
0.205417 0.256016 0.238743
0.190951 0.235813 0.223117
0.254826 0.364111 0.245182
0.532219 0.538628 0.247898
0.806394 0.592950 0.257328
0.060304 0.079469 0.086824
0.061494 0.077852 0.087495
0.117433 0.084230 0.092500
0.212222 0.109407 0.096742
0.353765 0.139590 0.092226
0.521172 0.173342 0.075990
0.705013 0.200534 0.013947
0.842893 0.220432 0.000000
0.061128 0.087526 0.087068
0.070283 0.090303 0.090852
0.116518 0.098939 0.095552
0.205783 0.117067 0.096895
0.335912 0.145327 0.092348
0.503014 0.178103 0.076539
0.688777 0.205875 0.011444
0.834531 0.226291 0.000000
0.077455 0.107149 0.098116
0.086458 0.111238 0.107912
0.116304 0.124636 0.108431
0.219333 0.147280 0.101839
0.353094 0.178073 0.095583
0.518639 0.210300 0.076265
0.696559 0.237613 0.015503
0.836423 0.255772 0.000000
0.102480 0.140078 0.129793
0.108339 0.141329 0.135134
0.108888 0.142489 0.134157
0.190463 0.178439 0.125338
0.371130 0.230167 0.101930
0.547448 0.264256 0.077516
0.716793 0.290593 0.033082
0.846525 0.305119 0.049256
0.126284 0.170779 0.157717
0.126986 0.167605 0.157717
0.127474 0.156710 0.154940
0.142336 0.191073 0.152926
0.286717 0.246708 0.141176
0.526635 0.321294 0.094240
0.728939 0.352728 0.060365
0.854856 0.365454 0.085664
0.148867 0.202060 0.183963
0.148806 0.198428 0.183017
0.146120 0.184909 0.177554
0.141939 0.182681 0.172335
0.200076 0.250919 0.171969
0.419104 0.336706 0.158816
0.706020 0.427070 0.101015
0.875792 0.443122 0.139498
0.183566 0.251591 0.222019
0.181247 0.245304 0.218967
0.174075 0.226108 0.209293
0.163088 0.198276 0.193668
0.167422 0.236240 0.195377
0.302953 0.347662 0.199649
0.601831 0.457313 0.188663
0.841001 0.518212 0.162661
0.241917 0.334569 0.279515
0.237522 0.326207 0.275303
0.227604 0.302800 0.264256
0.216800 0.272068 0.250309
0.193484 0.229923 0.223453
0.252689 0.360876 0.251713
0.529625 0.542443 0.262089
0.812009 0.603113 0.281498
0.067292 0.101717 0.112459
0.075227 0.104799 0.115846
0.103578 0.106569 0.123629
0.201907 0.107332 0.129702
0.324498 0.139345 0.129335
0.486397 0.167239 0.123079
0.670985 0.195529 0.113222
0.822141 0.216373 0.114290
0.074586 0.112917 0.116884
0.082948 0.114839 0.120150
0.111513 0.119173 0.130587
0.203494 0.131380 0.134157
0.325444 0.149599 0.130282
0.481422 0.176547 0.123354
0.664271 0.203677 0.112520
0.819242 0.222721 0.112276
0.086000 0.124666 0.115694
0.095277 0.130526 0.121920
0.117769 0.143648 0.138582
0.208469 0.156741 0.135958
0.339025 0.183108 0.135317
0.514183 0.217624 0.131136
0.707790 0.248112 0.126894
0.840482 0.260655 0.128511
0.111025 0.162417 0.140261
0.118196 0.163607 0.147402
0.131197 0.160647 0.158785
0.188540 0.190524 0.155154
0.354070 0.232944 0.143557
0.525444 0.265812 0.135195
0.704158 0.292729 0.127901
0.844358 0.308751 0.138155
0.138155 0.196109 0.172457
0.143252 0.195651 0.176883
0.148440 0.185946 0.179355
0.155123 0.204898 0.177981
0.293858 0.263737 0.175937
0.535973 0.335637 0.152010
0.732753 0.363134 0.144839
0.856443 0.373480 0.161135
0.167971 0.233524 0.205356
0.176577 0.238346 0.213077
0.172305 0.219852 0.206119
0.162722 0.194400 0.191989
0.211643 0.269535 0.199130
0.430518 0.354376 0.195529
0.712459 0.438880 0.168368
0.874937 0.453712 0.202731
0.204318 0.283879 0.243198
0.208499 0.283543 0.246220
0.202029 0.264164 0.238010
0.187655 0.230625 0.219883
0.181643 0.243717 0.213535
0.308446 0.362280 0.225010
0.607874 0.470283 0.224887
0.844755 0.529534 0.219181
0.273899 0.379431 0.306950
0.276890 0.377508 0.308537
0.266941 0.354742 0.299016
0.244297 0.310521 0.276585
0.211093 0.248997 0.240360
0.247745 0.350713 0.261295
0.516228 0.542565 0.282536
0.814908 0.615015 0.313756
0.080232 0.136324 0.151888
0.091096 0.139773 0.157137
0.113771 0.137362 0.164920
0.173495 0.148562 0.180240
0.315801 0.127504 0.177035
0.467170 0.172824 0.175357
0.655634 0.199649 0.177768
0.813870 0.231327 0.194186
0.089479 0.148226 0.158083
0.100130 0.152773 0.164462
0.121920 0.149996 0.171756
0.177951 0.157107 0.182681
0.313878 0.146853 0.174868
0.470558 0.183780 0.176761
0.658564 0.210452 0.179385
0.814633 0.238987 0.194827
0.102052 0.168856 0.164218
0.111269 0.172152 0.168429
0.136324 0.175631 0.176547
0.196902 0.175540 0.178744
0.313970 0.190921 0.178561
0.467872 0.213046 0.177188
0.657252 0.239872 0.180117
0.811246 0.259525 0.190951
0.119905 0.183841 0.156191
0.127352 0.187228 0.160464
0.152071 0.196170 0.182803
0.188937 0.213535 0.191928
0.340581 0.241703 0.188113
0.498390 0.267765 0.187442
0.679164 0.291295 0.188449
0.826749 0.301518 0.195865
0.148226 0.223453 0.183444
0.154879 0.224796 0.189944
0.174624 0.226474 0.208011
0.174685 0.211002 0.204898
0.279728 0.269108 0.207828
0.508934 0.330022 0.198093
0.700984 0.354253 0.196750
0.840543 0.366461 0.210971
0.174746 0.255741 0.213382
0.179629 0.255436 0.217472
0.193088 0.252293 0.227909
0.185733 0.224186 0.216648
0.200137 0.259739 0.215610
0.408179 0.352300 0.226841
0.705196 0.442664 0.224460
0.865049 0.457557 0.254032
0.218631 0.316472 0.258000
0.221408 0.313725 0.259709
0.232059 0.307530 0.266514
0.219913 0.274296 0.252445
0.194369 0.230167 0.224063
0.286412 0.353216 0.246006
0.589837 0.469795 0.257206
0.837308 0.532250 0.264195
0.284062 0.406806 0.316136
0.285740 0.403510 0.316899
0.291783 0.392950 0.319524
0.290288 0.370733 0.315923
0.247715 0.300633 0.276402
0.236667 0.316716 0.265263
0.470344 0.520287 0.298955
0.802762 0.615900 0.336767
0.107149 0.205356 0.229862
0.120821 0.207645 0.233799
0.147189 0.199039 0.233341
0.186130 0.181186 0.229191
0.284916 0.197726 0.254032
0.467384 0.151308 0.243015
0.643885 0.220127 0.247898
0.807614 0.275578 0.279393
0.110750 0.203220 0.220340
0.121126 0.203738 0.222416
0.148836 0.201419 0.226902
0.182742 0.183780 0.224247
0.282414 0.198062 0.248692
0.458900 0.158694 0.232670
0.639094 0.229465 0.246464
0.805112 0.278996 0.277256
0.127626 0.229526 0.229129
0.135683 0.228519 0.229465
0.164767 0.229221 0.235569
0.197757 0.214481 0.236515
0.307927 0.217075 0.248814
0.461372 0.235294 0.239780
0.650660 0.263432 0.253086
0.810941 0.304387 0.282200
0.140963 0.240299 0.218570
0.148440 0.240146 0.219699
0.175631 0.246067 0.229099
0.227207 0.267002 0.255314
0.348882 0.281163 0.259342
0.506950 0.298985 0.260044
0.682856 0.323033 0.271275
0.827787 0.349981 0.295476
0.165774 0.267277 0.207553
0.173800 0.270970 0.211673
0.198276 0.277592 0.230655
0.234195 0.281712 0.262272
0.288426 0.306432 0.261204
0.517510 0.352850 0.264134
0.688441 0.371832 0.272221
0.831907 0.385779 0.290379
0.197879 0.309148 0.235966
0.205844 0.312200 0.243076
0.225010 0.311620 0.259007
0.251469 0.307469 0.278935
0.229770 0.275364 0.257511
0.409735 0.375891 0.278294
0.710933 0.457343 0.293858
0.856138 0.466957 0.316289
0.249821 0.376623 0.285710
0.256382 0.377752 0.290562
0.269902 0.372045 0.299962
0.288396 0.361028 0.311620
0.256535 0.301854 0.281865
0.273960 0.348699 0.278904
0.592432 0.491981 0.310674
0.848539 0.560235 0.343969
0.317937 0.467781 0.342016
0.319951 0.464546 0.343145
0.328008 0.455299 0.347753
0.343786 0.443458 0.356817
0.321813 0.391608 0.337896
0.251041 0.287999 0.275151
0.415778 0.494667 0.323491
0.795804 0.628809 0.379187
0.138186 0.280156 0.307744
0.153048 0.282475 0.311681
0.188998 0.278080 0.314763
0.218112 0.247196 0.309575
0.286625 0.233921 0.303777
0.433539 0.252903 0.337499
0.629114 0.199741 0.326574
0.790249 0.263035 0.338140
0.141787 0.282658 0.303960
0.155184 0.284520 0.307469
0.192691 0.283482 0.313329
0.217533 0.251804 0.306828
0.283970 0.237797 0.301335
0.431128 0.254185 0.333593
0.624048 0.205936 0.320806
0.786343 0.276890 0.338201
0.154696 0.305852 0.307713
0.166384 0.306401 0.309819
0.204288 0.307469 0.316625
0.239506 0.288853 0.317601
0.294316 0.264347 0.308812
0.448341 0.273106 0.334600
0.630701 0.239078 0.311864
0.788785 0.338659 0.351904
0.163577 0.336187 0.309758
0.173190 0.334783 0.309941
0.207675 0.335485 0.315587
0.265965 0.339178 0.328435
0.312840 0.311894 0.324010
0.477363 0.308171 0.330449
0.637415 0.339696 0.328801
0.798489 0.391485 0.366278
0.183597 0.332860 0.280064
0.191226 0.333165 0.281682
0.217533 0.336950 0.289677
0.260685 0.346075 0.306065
0.326513 0.365545 0.334203
0.489448 0.379950 0.338354
0.659754 0.400000 0.344579
0.812680 0.440742 0.380255
0.227939 0.387549 0.274571
0.235843 0.389990 0.277897
0.262089 0.397894 0.289403
0.298528 0.399420 0.315923
0.337926 0.391943 0.345098
0.415137 0.424537 0.348791
0.696407 0.488136 0.375128
0.832975 0.507286 0.402289
0.281315 0.448524 0.308202
0.287327 0.448524 0.312718
0.305760 0.446540 0.326360
0.332952 0.441199 0.345678
0.360967 0.426154 0.363806
0.308690 0.346563 0.321691
0.581964 0.517571 0.375341
0.852293 0.593683 0.433600
0.354803 0.536187 0.366064
0.359350 0.535607 0.369085
0.376837 0.536004 0.380743
0.399512 0.530053 0.395636
0.420966 0.512200 0.408728
0.380743 0.434638 0.377813
0.355993 0.441413 0.348363
0.786984 0.653529 0.443458
0.242039 0.437446 0.450446
0.260227 0.439338 0.453742
0.306828 0.435798 0.456947
0.333684 0.398444 0.448432
0.376684 0.341985 0.426032
0.489235 0.343084 0.434638
0.651881 0.380682 0.466072
0.792630 0.370031 0.455116
0.241520 0.439979 0.447089
0.259159 0.441718 0.450324
0.311284 0.442908 0.457313
0.341955 0.409155 0.448341
0.377478 0.349645 0.426856
0.489387 0.349279 0.435065
0.651759 0.383612 0.465003
0.791989 0.373205 0.453712
0.241611 0.456306 0.443854
0.257847 0.457282 0.446387
0.307897 0.457649 0.452705
0.370642 0.449836 0.458991
0.389654 0.384161 0.437385
0.492805 0.372747 0.438849
0.656886 0.400488 0.466011
0.795071 0.392554 0.453681
0.229526 0.483925 0.440772
0.246647 0.485481 0.443641
0.298558 0.486824 0.450721
0.381170 0.492042 0.466072
0.417639 0.447974 0.459998
0.498116 0.412360 0.446998
0.666438 0.431617 0.469368
0.798093 0.432227 0.457191
0.237919 0.515618 0.431586
0.249882 0.518486 0.435401
0.285496 0.524041 0.445594
0.348363 0.523400 0.458289
0.456031 0.529046 0.480110
0.497047 0.463722 0.457557
0.674128 0.473121 0.471504
0.798215 0.498726 0.470710
0.278813 0.520287 0.395636
0.287022 0.521019 0.397925
0.314855 0.524041 0.406378
0.361181 0.531090 0.423255
0.426398 0.542901 0.450446
0.520836 0.556756 0.485359
0.676020 0.553307 0.486091
0.807950 0.583551 0.506462
0.350347 0.586297 0.384894
0.357214 0.586999 0.387488
0.380652 0.589410 0.396338
0.421302 0.594385 0.413245
0.478492 0.600916 0.439826
0.526360 0.587091 0.475074
0.586175 0.593622 0.489052
0.824582 0.664576 0.552117
0.436378 0.655207 0.413367
0.441077 0.654627 0.416724
0.458625 0.653529 0.429145
0.489723 0.652186 0.451331
0.527520 0.647578 0.478889
0.561669 0.633875 0.504143
0.526970 0.554589 0.476478
0.765072 0.701869 0.554803
