data/fiter_cube/63078869/1022675/file.cube
# Created by Adobe Lightroom plugin Export LUT (1.17.0)
# www.johnrellis.com/lightroom/exportlut.htm
# Preset: 暗调胶片街拍_04 云集
# Color profile: C:\Program Files (x86)\Common Files\Adobe\Color\Profiles\Recommended\AdobeRGB1998.icc
LUT_3D_SIZE 5
DOMAIN_MIN 0.000000 0.000000 0.000000
DOMAIN_MAX 0.903226 0.903226 0.903226
0.056367 0.071534 0.071748
0.109682 0.075013 0.076204
0.317815 0.107942 0.067414
0.632471 0.171786 0.000000
0.862516 0.217197 0.000000
0.069245 0.090242 0.087831
0.103395 0.101778 0.081971
0.308324 0.146334 0.066194
0.619989 0.209567 0.000000
0.876036 0.253178 0.000000
0.104128 0.139834 0.131380
0.105043 0.128908 0.128908
0.258793 0.218051 0.108034
0.654536 0.316381 0.000000
0.870817 0.336980 0.000000
0.148409 0.201663 0.183902
0.146151 0.188724 0.178805
0.148959 0.214206 0.172305
0.490547 0.377661 0.140597
0.877317 0.463447 0.093843
0.232792 0.320653 0.271366
0.223575 0.298283 0.260807
0.185489 0.222934 0.216281
0.299962 0.402960 0.245365
0.817166 0.601038 0.263218
0.058930 0.076020 0.079225
0.102754 0.077119 0.084535
0.270237 0.119844 0.087282
0.547295 0.173983 0.046418
0.830014 0.215183 0.000000
0.070863 0.097383 0.089693
0.100160 0.109499 0.097139
0.273625 0.148470 0.090394
0.553033 0.203891 0.046082
0.835416 0.245457 0.000000
0.111482 0.150179 0.140261
0.113252 0.139712 0.138827
0.227115 0.201907 0.124300
0.593622 0.297398 0.041596
0.855955 0.335363 0.038941
0.158724 0.215305 0.194980
0.156344 0.201785 0.189944
0.154788 0.217716 0.181399
0.477607 0.374212 0.162020
0.871611 0.464698 0.137942
0.245548 0.338567 0.282811
0.235355 0.314885 0.271794
0.203403 0.245121 0.234470
0.305058 0.411505 0.258396
0.822202 0.611048 0.287480
0.072969 0.117891 0.130465
0.097353 0.118441 0.139742
0.253849 0.117250 0.151247
0.524468 0.175906 0.147585
0.817960 0.221317 0.154574
0.090089 0.143618 0.140383
0.117006 0.150881 0.152102
0.257206 0.165927 0.155764
0.527398 0.208927 0.150484
0.825864 0.249699 0.158663
0.127138 0.189120 0.159457
0.147616 0.192416 0.179538
0.228977 0.226200 0.179507
0.571618 0.304601 0.163607
0.843381 0.337346 0.176577
0.182559 0.259251 0.221378
0.192782 0.252659 0.228244
0.176822 0.221073 0.208469
0.464576 0.382605 0.218540
0.864561 0.470497 0.227787
0.273625 0.386053 0.307317
0.283879 0.380835 0.313207
0.245029 0.304692 0.275822
0.272099 0.376715 0.270024
0.803494 0.609552 0.317845
0.108766 0.209964 0.234928
0.143648 0.212009 0.243229
0.219944 0.192142 0.243870
0.500114 0.157351 0.259007
0.796170 0.280583 0.292576
0.124849 0.229404 0.235966
0.155764 0.231724 0.243381
0.227909 0.215366 0.248631
0.490547 0.208286 0.247410
0.792111 0.294835 0.289189
0.147738 0.245274 0.214420
0.171817 0.250828 0.223239
0.237369 0.274540 0.262577
0.515404 0.315312 0.263767
0.812741 0.364050 0.301976
0.219150 0.344427 0.256077
0.234653 0.338689 0.268498
0.268711 0.319310 0.292485
0.446571 0.405768 0.298161
0.851011 0.486854 0.334081
0.326116 0.483345 0.347723
0.337957 0.478370 0.355261
0.367376 0.456733 0.372473
0.259953 0.298039 0.282963
0.791531 0.630854 0.389593
0.242039 0.437446 0.450446
0.297276 0.439826 0.458167
0.346654 0.368475 0.439338
0.530755 0.355322 0.444984
0.792630 0.370031 0.455116
0.243687 0.452827 0.446082
0.295842 0.454902 0.453590
0.360662 0.400763 0.447517
0.532616 0.376989 0.447211
0.794797 0.387549 0.454231
0.229435 0.501976 0.438453
0.270024 0.501244 0.444343
0.416175 0.507988 0.471107
0.535546 0.443549 0.458137
0.798764 0.455848 0.458839
0.288731 0.521416 0.384833
0.314794 0.523949 0.392767
0.396246 0.535760 0.423651
0.538720 0.559106 0.483101
0.811398 0.601404 0.515679
0.436378 0.655207 0.413367
0.452857 0.653742 0.425025
0.508446 0.650599 0.464942
0.567803 0.627253 0.508446
0.765072 0.701869 0.554803
