data/fiter_cube/63078869/1022675/file.cube
# Created by Adobe Lightroom plugin Export LUT (1.17.0)
# www.johnrellis.com/lightroom/exportlut.htm
# Preset: 暗调胶片街拍_04 云集
# Color profile: C:\Program Files (x86)\Common Files\Adobe\Color\Profiles\Recommended\AdobeRGB1998.icc
LUT_3D_SIZE 32
DOMAIN_MIN 0.0 0.0 0.0
DOMAIN_MAX 1.0 1.0 1.0
0.056367 0.071534 0.071748
0.056367 0.071534 0.071748
0.056367 0.071534 0.071748
0.056367 0.071534 0.071748
0.065461 0.072328 0.072572
0.080934 0.073945 0.073823
0.094820 0.074891 0.075074
0.109682 0.075013 0.076204
0.125704 0.075288 0.076478
0.143679 0.075990 0.076814
0.164248 0.078279 0.076417
0.187533 0.082155 0.076112
0.223362 0.088228 0.074067
0.271183 0.097841 0.071534
0.317815 0.107942 0.067414
0.362280 0.117647 0.061860
0.405402 0.126558 0.050813
0.448615 0.135561 0.030823
0.492195 0.144503 0.005402
0.538872 0.153933 0.000000
0.586816 0.163119 0.000000
0.632471 0.171786 0.000000
0.672969 0.179599 0.000000
0.709377 0.186618 0.000000
0.742367 0.192874 0.000000
0.773434 0.198825 0.000000
0.803983 0.204807 0.000000
0.833677 0.210910 0.000000
0.862516 0.217197 0.000000
0.889830 0.224369 0.000000
0.915862 0.232700 0.000000
0.939818 0.242832 0.000000
0.056367 0.071534 0.071748
0.056367 0.071534 0.071748
0.056367 0.071534 0.071748
0.056367 0.071534 0.071748
0.064973 0.072389 0.072602
0.080201 0.073701 0.073854
0.094209 0.074647 0.075105
0.108370 0.074983 0.075929
0.124117 0.075410 0.076539
0.141878 0.076600 0.076875
0.162020 0.079164 0.076478
0.184665 0.082734 0.076265
0.219516 0.088899 0.074372
0.263493 0.097749 0.071778
0.306523 0.107118 0.068605
0.348333 0.116304 0.063783
0.389349 0.125032 0.056275
0.431006 0.133700 0.038483
0.473701 0.142489 0.016419
0.519768 0.151553 0.000000
0.567681 0.160861 0.000000
0.614618 0.169558 0.000000
0.656703 0.177432 0.000000
0.694820 0.184634 0.000000
0.729244 0.191043 0.000000
0.761746 0.197208 0.000000
0.793698 0.203220 0.000000
0.824887 0.209598 0.000000
0.855009 0.215946 0.000000
0.883543 0.222965 0.000000
0.910704 0.231205 0.000000
0.935515 0.241032 0.000000
0.056367 0.071534 0.071748
0.056367 0.071534 0.071748
0.056367 0.071534 0.071748
0.056367 0.071534 0.071748
0.065126 0.071992 0.072267
0.079774 0.073762 0.073854
0.093263 0.074464 0.075166
0.107546 0.075196 0.075929
0.122713 0.075471 0.076600
0.140230 0.077516 0.076875
0.160250 0.080201 0.076814
0.182773 0.083894 0.075959
0.217838 0.090303 0.074403
0.259220 0.098939 0.072145
0.300298 0.107546 0.069154
0.340581 0.116365 0.064485
0.380316 0.125124 0.058595
0.421118 0.133730 0.043946
0.463447 0.142306 0.020874
0.509239 0.151522 0.000000
0.557580 0.160555 0.000000
0.605432 0.169589 0.000000
0.648402 0.177432 0.000000
0.687190 0.184665 0.000000
0.722408 0.191012 0.000000
0.755489 0.197147 0.000000
0.788235 0.203433 0.000000
0.820127 0.209628 0.000000
0.851011 0.216129 0.000000
0.880217 0.223026 0.000000
0.907866 0.231113 0.000000
0.933104 0.240757 0.000000
0.056367 0.071534 0.071748
0.056367 0.071534 0.071748
0.056367 0.071534 0.071748
0.056367 0.071534 0.071748
0.065461 0.072328 0.072572
0.079774 0.073762 0.073854
0.093263 0.074464 0.075166
0.106966 0.075349 0.075959
0.122286 0.077729 0.076417
0.139620 0.080201 0.077028
0.159213 0.083253 0.076967
0.181277 0.086732 0.076143
0.217288 0.093751 0.074434
0.255650 0.101808 0.072236
0.293980 0.110292 0.069734
0.332280 0.118807 0.065248
0.370703 0.126772 0.059602
0.409796 0.135012 0.048005
0.450355 0.143404 0.027497
0.494453 0.152163 0.001312
0.541314 0.161074 0.000000
0.589136 0.169986 0.000000
0.634516 0.178317 0.000000
0.676478 0.185794 0.000000
0.715114 0.192782 0.000000
0.751278 0.199435 0.000000
0.786099 0.205875 0.000000
0.819181 0.212345 0.000000
0.850431 0.218814 0.000000
0.879423 0.225406 0.000000
0.906767 0.233219 0.000000
0.931548 0.242374 0.000000
0.056367 0.071534 0.071748
0.056367 0.071534 0.071748
0.056367 0.071534 0.071748
0.056245 0.071931 0.071717
0.064240 0.073640 0.072511
0.079072 0.075807 0.074067
0.092317 0.077241 0.074952
0.105989 0.078798 0.076356
0.120974 0.081209 0.076844
0.137697 0.084108 0.077119
0.156863 0.086915 0.077089
0.181399 0.091524 0.076326
0.214755 0.098177 0.074891
0.249638 0.105928 0.072419
0.286259 0.114046 0.069917
0.324163 0.122591 0.066011
0.363195 0.130922 0.060456
0.403418 0.139406 0.048432
0.444526 0.147799 0.029114
0.488350 0.156344 0.003571
0.534203 0.165225 0.000000
0.581476 0.173922 0.000000
0.627100 0.181979 0.000000
0.669825 0.189609 0.000000
0.709560 0.196628 0.000000
0.746700 0.203311 0.000000
0.782132 0.209751 0.000000
0.815579 0.215824 0.000000
0.847105 0.222202 0.000000
0.876341 0.228489 0.000000
0.904173 0.236149 0.000000
0.929320 0.244938 0.000000
0.060060 0.076020 0.074891
0.059876 0.076020 0.075593
0.060365 0.076326 0.075563
0.060609 0.076967 0.076143
0.061677 0.077852 0.077363
0.078065 0.081880 0.074250
0.092805 0.082979 0.075471
0.106142 0.084810 0.076478
0.121126 0.086702 0.077028
0.138033 0.089326 0.077272
0.156924 0.092622 0.077180
0.184756 0.098695 0.076326
0.215610 0.105318 0.075013
0.248661 0.112551 0.072724
0.284123 0.120485 0.070008
0.321599 0.128939 0.065766
0.360723 0.137453 0.060517
0.401160 0.146029 0.049134
0.443397 0.154726 0.026825
0.488167 0.163546 0.001282
0.535119 0.172641 0.000000
0.583703 0.181552 0.000000
0.723079 0.212345 0.000000
0.755978 0.217868 0.000000
0.785824 0.222660 0.000000
0.813626 0.227207 0.000000
0.839658 0.231815 0.000000
0.864408 0.236606 0.000000
0.887816 0.241733 0.000000
0.909789 0.247532 0.000000
0.930816 0.254917 0.000000
0.950072 0.263828 0.006531
0.064942 0.084138 0.081910
0.065309 0.084413 0.082185
0.065644 0.084688 0.082460
0.065858 0.085267 0.083009
0.067292 0.085359 0.084810
0.071077 0.090181 0.082490
0.092592 0.092805 0.078157
0.111574 0.094453 0.077302
0.127993 0.096468 0.077699
0.145998 0.099306 0.077790
0.173281 0.105501 0.077028
0.206210 0.113252 0.075196
0.240787 0.121584 0.072999
0.277043 0.130007 0.069764
0.313512 0.138094 0.066194
0.350042 0.146059 0.061311
0.388434 0.154025 0.050538
0.428840 0.162203 0.030945
0.472297 0.171084 0.007233
0.521141 0.180667 0.000000
0.575158 0.191287 0.000000
0.630915 0.201846 0.000000
0.682826 0.211673 0.000000
0.728878 0.219974 0.000000
0.768612 0.226749 0.000000
0.802029 0.232242 0.000000
0.831205 0.237278 0.000000
0.857481 0.242008 0.000000
0.882017 0.246891 0.000000
0.904540 0.252232 0.000000
0.926146 0.258976 0.000000
0.945953 0.267155 0.000000
0.069245 0.090242 0.087831
0.069673 0.090486 0.087800
0.069551 0.090791 0.088075
0.069825 0.091341 0.088289
0.071382 0.090791 0.089723
0.071870 0.092500 0.089845
0.081270 0.099489 0.085573
0.103395 0.101778 0.081971
0.126009 0.104982 0.078828
0.151247 0.109499 0.077943
0.178225 0.116213 0.076997
0.208164 0.123171 0.075349
0.239933 0.130648 0.073091
0.273869 0.138491 0.069825
0.308324 0.146334 0.066194
0.343450 0.153719 0.061280
0.380682 0.161563 0.052033
0.420264 0.169711 0.033722
0.463294 0.178592 0.008545
0.511254 0.188174 0.000000
0.564477 0.198947 0.000000
0.619989 0.209567 0.000000
0.672145 0.219455 0.000000
0.718502 0.227390 0.000000
0.758877 0.234104 0.000000
0.793210 0.239445 0.000000
0.823270 0.244144 0.000000
0.850584 0.248539 0.000000
0.876036 0.253178 0.000000
0.899565 0.258396 0.000000
0.921935 0.264652 0.000000
0.942290 0.272282 0.000000
0.073579 0.096681 0.093233
0.073518 0.096956 0.093233
0.073884 0.096925 0.093477
0.074220 0.097139 0.093721
0.075319 0.096712 0.094759
0.077394 0.095277 0.095613
0.077119 0.101839 0.092988
0.092958 0.108644 0.088655
0.118624 0.113771 0.085817
0.151247 0.122469 0.079835
0.180087 0.128115 0.077821
0.212070 0.134646 0.074891
0.242588 0.141970 0.072267
0.275242 0.149569 0.068940
0.308629 0.157107 0.065370
0.342840 0.164401 0.060426
0.379522 0.172061 0.049653
0.418616 0.180209 0.030579
0.461036 0.188876 0.005676
0.508507 0.198489 0.000000
0.560815 0.209171 0.000000
0.615686 0.219791 0.000000
0.667018 0.229221 0.000000
0.713069 0.236881 0.000000
0.753384 0.243442 0.000000
0.787961 0.248508 0.000000
0.818418 0.252873 0.000000
0.846098 0.257084 0.000000
0.871824 0.261357 0.000000
0.895842 0.266056 0.000000
0.918456 0.271855 0.000000
0.939086 0.278904 0.000000
0.077577 0.102907 0.098238
0.077516 0.103182 0.098238
0.077455 0.103182 0.098482
0.078248 0.102815 0.098756
0.079377 0.101869 0.099794
0.080629 0.100923 0.100343
0.079713 0.104372 0.099580
0.086580 0.113191 0.097139
0.107179 0.120607 0.093233
0.136233 0.127230 0.089204
0.172946 0.138155 0.080354
0.204440 0.145113 0.076814
0.240055 0.152346 0.072358
0.275029 0.160403 0.068513
0.309545 0.168399 0.064485
0.346105 0.176791 0.057588
0.384588 0.185245 0.044526
0.425177 0.193912 0.022248
0.468055 0.202823 0.000000
0.514427 0.212375 0.000000
0.563867 0.221988 0.000000
0.614313 0.231571 0.000000
0.661707 0.239658 0.000000
0.705165 0.246555 0.000000
0.744076 0.252415 0.000000
0.778866 0.257267 0.000000
0.810544 0.261631 0.000000
0.839841 0.265873 0.000000
0.867063 0.270176 0.000000
0.892638 0.275059 0.000000
0.916320 0.280735 0.000000
0.937743 0.287785 0.000000
0.081331 0.108705 0.102998
0.081392 0.108461 0.103029
0.081636 0.108431 0.103487
0.082063 0.107881 0.103761
0.083131 0.107271 0.104494
0.085084 0.106722 0.105867
0.085573 0.108309 0.106844
0.086244 0.116579 0.104280
0.098665 0.125826 0.101198
0.121981 0.132296 0.096834
0.153841 0.140322 0.091859
0.193454 0.153292 0.082033
0.229465 0.162478 0.075288
0.267979 0.171389 0.069581
0.311101 0.180606 0.062898
0.347478 0.189090 0.055024
0.385687 0.197665 0.039460
0.425788 0.206394 0.015717
0.467903 0.215122 0.000000
0.513451 0.224491 0.000000
0.562097 0.234043 0.000000
0.611933 0.243351 0.000000
0.659358 0.251682 0.000000
0.702663 0.258640 0.000000
0.741329 0.264073 0.000000
0.775784 0.268650 0.000000
0.807065 0.272648 0.000000
0.835996 0.276371 0.000000
0.863127 0.280186 0.000000
0.889128 0.284733 0.000000
0.913115 0.290043 0.000000
0.934874 0.296605 0.000000
0.086275 0.115511 0.109316
0.086213 0.115511 0.109529
0.086549 0.115236 0.109773
0.087495 0.114900 0.110445
0.088502 0.114290 0.111116
0.089570 0.113252 0.111818
0.090944 0.112123 0.112520
0.088838 0.119509 0.110872
0.094423 0.128511 0.108156
0.112398 0.138735 0.104555
0.138430 0.144808 0.100374
0.173465 0.155093 0.094331
0.257816 0.197543 0.084016
0.313481 0.214694 0.067414
0.364691 0.226902 0.053315
0.418433 0.237552 0.021332
0.468086 0.245823 0.000000
0.507286 0.252140 0.000000
0.547051 0.258305 0.000000
0.589258 0.264927 0.000000
0.630976 0.271153 0.000000
0.671077 0.276738 0.000000
0.708339 0.281285 0.000000
0.743069 0.285374 0.000000
0.775082 0.288762 0.000000
0.804227 0.291569 0.000000
0.830869 0.294163 0.000000
0.855497 0.296361 0.000000
0.878630 0.298985 0.000000
0.901244 0.302647 0.000000
0.922148 0.307134 0.000000
0.941650 0.313054 0.051057
0.094118 0.126040 0.119234
0.094179 0.125826 0.119265
0.094270 0.125216 0.119295
0.094728 0.124575 0.119356
0.095064 0.123079 0.119265
0.095766 0.121370 0.119203
0.096742 0.119326 0.119356
0.095308 0.123690 0.119020
0.095796 0.133272 0.116335
0.107332 0.144503 0.113497
0.132479 0.157961 0.109926
0.165194 0.166445 0.106416
0.211337 0.183169 0.099947
0.271061 0.207828 0.086458
0.333288 0.229007 0.066529
0.387793 0.243290 0.048829
0.443580 0.255039 0.011719
0.499153 0.264317 0.000000
0.540826 0.270756 0.000000
0.582147 0.277195 0.000000
0.623621 0.283513 0.000000
0.663630 0.289128 0.000000
0.700618 0.293553 0.000000
0.735256 0.297276 0.000000
0.767269 0.300420 0.000000
0.796597 0.302831 0.000000
0.823606 0.305211 0.000000
0.848753 0.307225 0.000000
0.872892 0.309728 0.000000
0.896330 0.313054 0.000000
0.918029 0.317266 0.000000
0.938262 0.322881 0.049531
0.098909 0.132662 0.125063
0.098909 0.132265 0.125277
0.099062 0.131868 0.125124
0.099062 0.130739 0.124849
0.099458 0.129152 0.124605
0.099947 0.127169 0.124392
0.100465 0.125124 0.123995
0.100496 0.124910 0.124025
0.098451 0.133730 0.122347
0.103243 0.144594 0.120424
0.119692 0.157412 0.118044
0.149325 0.172732 0.114199
0.184482 0.180819 0.111177
0.234287 0.200198 0.104005
0.296269 0.225803 0.089387
0.360876 0.247440 0.065095
0.414618 0.261143 0.041444
0.469429 0.272679 0.000732
0.526177 0.282475 0.000000
0.576776 0.290349 0.000000
0.618372 0.296757 0.000000
0.658564 0.302342 0.000000
0.695735 0.306920 0.000000
0.730648 0.310643 0.000000
0.762692 0.313573 0.000000
0.792264 0.316014 0.000000
0.819486 0.317906 0.000000
0.844877 0.319707 0.000000
0.869688 0.322118 0.000000
0.893523 0.325170 0.000000
0.915648 0.329076 0.000000
0.936278 0.334478 0.059785
0.104128 0.139834 0.131380
0.104128 0.139651 0.131563
0.104067 0.138979 0.131289
0.104097 0.137911 0.131014
0.104280 0.136080 0.130648
0.104158 0.133730 0.129793
0.104707 0.131441 0.129427
0.105043 0.128908 0.128908
0.103975 0.134157 0.129030
0.103883 0.144839 0.126986
0.112978 0.157229 0.125521
0.133791 0.171939 0.123110
0.167758 0.188937 0.119142
0.205447 0.196445 0.116518
0.258793 0.218051 0.108034
0.322179 0.243961 0.091890
0.388006 0.265843 0.065339
0.443183 0.279973 0.031159
0.499214 0.291875 0.000000
0.557275 0.302403 0.000000
0.615045 0.310887 0.000000
0.654536 0.316381 0.000000
0.691371 0.320745 0.000000
0.726162 0.324376 0.000000
0.758572 0.327214 0.000000
0.788907 0.329686 0.000000
0.817411 0.331792 0.000000
0.844388 0.334081 0.000000
0.870817 0.336980 0.000000
0.895598 0.340398 0.000000
0.918364 0.344701 0.004761
0.939239 0.350500 0.081483
0.109316 0.147219 0.137942
0.109560 0.147036 0.138125
0.109438 0.146548 0.138003
0.109743 0.145510 0.137758
0.109682 0.143862 0.137240
0.109712 0.141787 0.136751
0.110048 0.139498 0.136263
0.110445 0.136965 0.135622
0.110597 0.136416 0.135500
0.108766 0.146700 0.135317
0.112306 0.158572 0.133608
0.125460 0.172427 0.131838
0.150301 0.188113 0.129061
0.187594 0.205783 0.124147
0.225956 0.211337 0.121584
0.281254 0.234226 0.111635
0.345556 0.260197 0.094240
0.412696 0.282902 0.066407
0.473213 0.299229 0.021241
0.533013 0.313024 0.000000
0.594079 0.324926 0.000000
0.651545 0.333196 0.000000
0.694881 0.337987 0.000000
0.729610 0.341466 0.000000
0.762020 0.344244 0.000000
0.792386 0.346624 0.000000
0.820768 0.348516 0.000000
0.847807 0.350683 0.000000
0.873625 0.353185 0.000000
0.897520 0.356085 0.000000
0.919310 0.359930 0.045228
0.939361 0.365057 0.093294
0.114260 0.154025 0.144015
0.114565 0.153841 0.144015
0.114443 0.153384 0.143893
0.114290 0.152163 0.143526
0.114534 0.150546 0.143038
0.114565 0.148440 0.142580
0.114717 0.146120 0.142000
0.114931 0.143404 0.141238
0.114992 0.140475 0.140352
0.113985 0.146090 0.140871
0.113344 0.157687 0.139528
0.120790 0.170993 0.138705
0.137942 0.186313 0.137057
0.166690 0.203342 0.133883
0.205753 0.220615 0.128756
0.247257 0.226169 0.126070
0.304875 0.251041 0.115084
0.370764 0.277623 0.097139
0.440345 0.301305 0.067842
0.505058 0.319524 0.008881
0.566339 0.333806 0.000000
0.626398 0.345190 0.000000
0.680751 0.352483 0.000000
0.727077 0.356420 0.000000
0.759731 0.359197 0.000000
0.790402 0.361578 0.000000
0.819242 0.363500 0.000000
0.847257 0.365850 0.000000
0.873442 0.368475 0.000000
0.897520 0.371344 0.000000
0.919554 0.375006 0.067262
0.939666 0.380255 0.105715
0.120241 0.162112 0.150942
0.120241 0.161959 0.151125
0.127504 0.171420 0.159457
0.127291 0.169924 0.158907
0.127077 0.167727 0.158114
0.126406 0.164828 0.156985
0.125948 0.161410 0.155428
0.125338 0.157656 0.153719
0.124758 0.153597 0.152041
0.123995 0.152132 0.150851
0.123140 0.163790 0.151919
0.125368 0.177737 0.150729
0.136995 0.193301 0.149722
0.159701 0.211063 0.147616
0.194369 0.230594 0.143862
0.237552 0.247807 0.138033
0.286687 0.255039 0.135317
0.350805 0.283330 0.121675
0.421393 0.310918 0.101259
0.494881 0.335271 0.067842
0.563287 0.353826 0.000000
0.622797 0.366339 0.000000
0.677119 0.374731 0.000000
0.725246 0.379187 0.000000
0.767453 0.380377 0.000000
0.796872 0.380682 0.000000
0.822934 0.381292 0.000000
0.848661 0.382452 0.000000
0.873686 0.384283 0.000000
0.897337 0.386786 0.016510
0.919219 0.390234 0.079591
0.939086 0.395148 0.115297
0.127932 0.172702 0.160037
0.128725 0.173800 0.161166
0.129671 0.174502 0.162020
0.130556 0.174502 0.162692
0.130831 0.173373 0.162661
0.130648 0.171084 0.161898
0.130343 0.167971 0.160525
0.129610 0.164096 0.158938
0.128725 0.159976 0.157046
0.127993 0.155276 0.154879
0.127230 0.161257 0.155825
0.126772 0.174350 0.155398
0.132570 0.189181 0.155093
0.147585 0.205722 0.154086
0.173465 0.224247 0.151522
0.211246 0.244724 0.147311
0.254551 0.260136 0.141756
0.307317 0.269200 0.138613
0.373480 0.298985 0.124636
0.446052 0.327428 0.103700
0.521477 0.352789 0.070161
0.594079 0.373236 0.000000
0.652277 0.385351 0.000000
0.704189 0.392920 0.000000
0.749752 0.396612 0.000000
0.790341 0.397498 0.000000
0.823453 0.397864 0.000000
0.849302 0.398932 0.000000
0.874235 0.400610 0.000000
0.897642 0.402838 0.053773
0.919280 0.406165 0.092927
0.938964 0.410986 0.126711
0.132937 0.180209 0.166018
0.133913 0.181094 0.167117
0.134646 0.181643 0.167971
0.135195 0.181430 0.168368
0.135653 0.180362 0.168307
0.135500 0.178042 0.167605
0.134890 0.174807 0.166201
0.134218 0.170993 0.164553
0.133242 0.166812 0.162631
0.132418 0.162203 0.160281
0.131258 0.159457 0.158602
0.130831 0.171511 0.160769
0.131991 0.185733 0.159823
0.141146 0.201694 0.159792
0.159670 0.219516 0.158541
0.189151 0.239170 0.155856
0.230655 0.260990 0.151064
0.274754 0.275059 0.145785
0.331975 0.286809 0.142519
0.401465 0.317998 0.127962
0.476265 0.347295 0.106661
0.554101 0.373724 0.072511
0.627710 0.394324 0.000000
0.683040 0.405127 0.000000
0.731502 0.411292 0.000000
0.775174 0.414618 0.000000
0.814450 0.415747 0.000000
0.849302 0.415381 0.000000
0.873869 0.416754 0.005890
0.897032 0.418738 0.070497
0.918456 0.421698 0.103487
0.938018 0.426337 0.135958
0.138430 0.187869 0.172457
0.139193 0.188754 0.173373
0.140200 0.189456 0.174289
0.140719 0.189273 0.174685
0.141024 0.187991 0.174655
0.140719 0.185824 0.173739
0.140017 0.182406 0.172427
0.139101 0.178561 0.170596
0.138155 0.174075 0.168429
0.136873 0.169345 0.165957
0.135500 0.164218 0.163210
0.134829 0.168856 0.163912
0.134676 0.182254 0.164858
0.138582 0.197574 0.164645
0.150881 0.214939 0.164645
0.173190 0.234257 0.163516
0.207462 0.256535 0.161074
0.254795 0.281621 0.156374
0.304417 0.297612 0.152102
0.369635 0.313573 0.149050
0.447181 0.348760 0.134340
0.528862 0.381109 0.112612
0.609277 0.408118 0.078889
0.680995 0.426825 0.000000
0.733059 0.435920 0.000000
0.779141 0.441230 0.000000
0.819638 0.443702 0.000000
0.855222 0.444282 0.048035
0.886259 0.443641 0.084565
0.909117 0.444587 0.112734
0.928344 0.447486 0.140658
0.945953 0.452583 0.171054
0.148409 0.201663 0.183902
0.148836 0.201938 0.184207
0.149142 0.201907 0.184451
0.149081 0.200900 0.184207
0.148745 0.199008 0.183444
0.148013 0.196201 0.182162
0.147250 0.192782 0.180697
0.146151 0.188724 0.178805
0.145022 0.184207 0.176516
0.143771 0.179171 0.174136
0.142092 0.173617 0.171206
0.140169 0.168429 0.167941
0.140475 0.181491 0.171328
0.140841 0.197024 0.171298
0.148959 0.214206 0.172305
0.165560 0.233738 0.172396
0.192874 0.256046 0.171511
0.233036 0.281132 0.168673
0.286900 0.309148 0.163668
0.340826 0.325292 0.160067
0.410773 0.342504 0.156344
0.490547 0.377661 0.140597
0.571130 0.408331 0.118227
0.644800 0.431006 0.087831
0.711452 0.447242 0.016541
0.762020 0.455512 0.000000
0.805570 0.460273 0.023285
0.843961 0.462654 0.065461
0.877317 0.463447 0.093843
0.905638 0.463355 0.122835
0.928008 0.464637 0.152651
0.945281 0.469703 0.182498
0.155032 0.211154 0.191379
0.155398 0.211429 0.191775
0.155673 0.211398 0.191989
0.155734 0.210513 0.191867
0.155398 0.208438 0.190921
0.154574 0.205600 0.189639
0.153536 0.201846 0.187839
0.152285 0.197696 0.185702
0.150820 0.192752 0.183352
0.149264 0.187533 0.180636
0.147341 0.181704 0.177432
0.145266 0.175509 0.174014
0.144259 0.178073 0.173831
0.144900 0.192844 0.176486
0.147616 0.209842 0.176791
0.158999 0.228916 0.178073
0.179568 0.250767 0.178408
0.212070 0.275883 0.177707
0.258000 0.304021 0.175051
0.318395 0.335119 0.169833
0.376745 0.351446 0.167239
0.452216 0.371130 0.163424
0.536126 0.407874 0.147768
0.616632 0.437873 0.127626
0.672724 0.449714 0.097200
0.736110 0.464332 0.056703
0.785916 0.472450 0.040070
0.827726 0.477089 0.069825
0.864103 0.479652 0.095430
0.895171 0.480995 0.123873
0.921416 0.482338 0.155642
0.943328 0.485451 0.190158
0.166171 0.226993 0.203738
0.166751 0.227420 0.204318
0.167086 0.227268 0.204440
0.166690 0.225834 0.203952
0.165774 0.223392 0.202731
0.164584 0.219852 0.200900
0.163149 0.215396 0.198550
0.161227 0.210391 0.195926
0.159152 0.204593 0.192874
0.156954 0.198489 0.189517
0.154391 0.191867 0.185580
0.151553 0.184970 0.181521
0.148470 0.177676 0.176883
0.149020 0.189303 0.180240
0.149996 0.205264 0.181765
0.155367 0.223239 0.182345
0.169497 0.243717 0.183444
0.193820 0.267063 0.183505
0.230564 0.293950 0.182589
0.281559 0.324468 0.179782
0.347539 0.358068 0.174350
0.409400 0.374334 0.173373
0.488350 0.395727 0.169467
0.571923 0.431434 0.153994
0.645838 0.457221 0.134676
0.708125 0.473335 0.112093
0.767697 0.486061 0.084749
0.814908 0.492805 0.080507
0.853300 0.496681 0.102541
0.886198 0.499214 0.129213
0.914183 0.501457 0.160250
0.937713 0.505211 0.195315
0.173892 0.237949 0.212070
0.174289 0.238346 0.212528
0.174594 0.238224 0.212619
0.174289 0.236881 0.212070
0.173342 0.234195 0.210849
0.172091 0.230655 0.209110
0.170474 0.226322 0.206912
0.168490 0.221103 0.204135
0.166476 0.215366 0.201053
0.164157 0.209232 0.197818
0.161685 0.202457 0.194003
0.158755 0.195224 0.189761
0.155398 0.187472 0.184878
0.153353 0.186679 0.183108
0.154849 0.202152 0.187198
0.156527 0.220523 0.188083
0.166354 0.241062 0.190372
0.185061 0.264591 0.191836
0.215274 0.291875 0.192294
0.259403 0.323186 0.191867
0.318517 0.357885 0.189364
0.391211 0.393530 0.184024
0.459144 0.409857 0.183841
0.541558 0.432227 0.180514
0.622339 0.465248 0.166293
0.690303 0.486946 0.150759
0.747311 0.499977 0.133181
0.803403 0.511070 0.115724
0.848112 0.516991 0.117403
0.882719 0.520836 0.144076
0.911284 0.524254 0.174899
0.935576 0.528923 0.210147
0.184054 0.252811 0.222995
0.184268 0.252873 0.223270
0.184390 0.252415 0.223209
0.183658 0.250767 0.222354
0.182589 0.247684 0.220798
0.180941 0.243626 0.218753
0.178958 0.238804 0.216190
0.176852 0.233310 0.213321
0.174594 0.227085 0.210086
0.172030 0.220798 0.206546
0.169314 0.213565 0.202609
0.166262 0.206210 0.198245
0.162814 0.198215 0.193454
0.158877 0.189731 0.187961
0.159121 0.198428 0.190494
0.161135 0.216098 0.194095
0.165255 0.236484 0.195407
0.178683 0.260044 0.198184
0.202457 0.287388 0.200168
0.239292 0.318547 0.201450
0.290654 0.353582 0.201144
0.357305 0.391455 0.198276
0.433082 0.426154 0.193668
0.506432 0.443183 0.194675
0.589532 0.465003 0.191623
0.664912 0.494087 0.180117
0.727749 0.512627 0.167788
0.780301 0.523095 0.153872
0.832547 0.532403 0.143191
0.874174 0.537469 0.149477
0.905028 0.541650 0.180179
0.930022 0.546899 0.214908
0.194034 0.267430 0.233616
0.194186 0.267338 0.233707
0.194064 0.266789 0.233585
0.193576 0.265080 0.232792
0.192569 0.262425 0.231540
0.191470 0.258854 0.229862
0.190066 0.254887 0.228000
0.188785 0.250340 0.225986
0.187350 0.245151 0.223850
0.185550 0.239536 0.221134
0.183536 0.233036 0.217960
0.180667 0.225620 0.213931
0.177371 0.217380 0.209262
0.173251 0.208194 0.203494
0.169375 0.201755 0.198856
0.172915 0.220920 0.205905
0.176333 0.243717 0.209781
0.185824 0.270115 0.213199
0.206271 0.300328 0.217197
0.239902 0.334905 0.220645
0.288212 0.373266 0.222751
0.352605 0.414771 0.222995
0.432136 0.457801 0.220432
0.514824 0.491768 0.217075
0.593835 0.506676 0.221439
0.670863 0.522911 0.222721
0.736995 0.545556 0.216800
0.791531 0.558679 0.209689
0.835691 0.564385 0.202029
0.878599 0.569390 0.200443
0.912078 0.572198 0.213779
0.935973 0.577905 0.249516
0.216159 0.297887 0.255558
0.216129 0.297612 0.255497
0.215763 0.296574 0.255070
0.214755 0.294347 0.253941
0.213046 0.290684 0.252018
0.211185 0.286290 0.249821
0.209079 0.280949 0.247196
0.206577 0.274846 0.244266
0.204105 0.268406 0.240970
0.201328 0.261051 0.237278
0.198154 0.253086 0.233188
0.194461 0.244327 0.228428
0.190249 0.234775 0.222934
0.185367 0.224521 0.216739
