data/fiter_cube/29797953/1022856/file.cube
# Created by Adobe Lightroom plugin Export LUT (1.17.0)
# www.johnrellis.com/lightroom/exportlut.htm
# Preset: 电影灰蓝色_01 云集
# Color profile: C:\Program Files (x86)\Common Files\Adobe\Color\Profiles\Recommended\AdobeRGB1998.icc
LUT_3D_SIZE 32
DOMAIN_MIN 0.0 0.0 0.0
DOMAIN_MAX 1.0 1.0 1.0
0.069123 0.076112 0.088075
0.070527 0.076265 0.088014
0.072114 0.076722 0.088258
0.075746 0.077577 0.088685
0.080964 0.079194 0.089021
0.087495 0.080781 0.089845
0.096315 0.083101 0.090272
0.108034 0.085481 0.090822
0.123140 0.088197 0.091188
0.141878 0.091371 0.091249
0.164920 0.094514 0.090944
0.191989 0.097292 0.090455
0.223301 0.099733 0.089418
0.258976 0.101534 0.088106
0.299107 0.101564 0.085878
0.341436 0.099794 0.083253
0.387610 0.096803 0.079377
0.432349 0.094087 0.074617
0.473518 0.093111 0.069673
0.512566 0.095827 0.064027
0.549187 0.103670 0.056733
0.583185 0.117037 0.043458
0.614466 0.134798 0.028717
0.643519 0.156313 0.013886
0.670588 0.180087 0.001221
0.695247 0.205661 0.000000
0.717861 0.232273 0.000000
0.738766 0.259770 0.000000
0.758663 0.288548 0.009277
0.779171 0.320287 0.037415
0.800626 0.355047 0.067079
0.823178 0.392432 0.090700
0.069398 0.076783 0.088289
0.070253 0.076997 0.088563
0.071931 0.077455 0.088502
0.076020 0.078614 0.088594
0.081209 0.079835 0.089235
0.087709 0.081727 0.089784
0.096803 0.083650 0.090486
0.108492 0.086336 0.090730
0.123537 0.089052 0.091096
0.142214 0.092164 0.091157
0.165194 0.095277 0.090852
0.192203 0.098299 0.090364
0.223423 0.100984 0.089570
0.259129 0.102754 0.087984
0.299046 0.102876 0.085725
0.341253 0.101503 0.083101
0.386969 0.098970 0.079255
0.431098 0.096468 0.074647
0.471901 0.095796 0.069764
0.510826 0.098207 0.064271
0.547448 0.105745 0.056489
0.581476 0.118532 0.043366
0.612909 0.135836 0.028687
0.642054 0.156893 0.014069
0.669215 0.180423 0.001465
0.694087 0.205722 0.000000
0.716854 0.232151 0.000000
0.737881 0.259709 0.000000
0.757839 0.288396 0.007324
0.778378 0.319951 0.034638
0.799863 0.354467 0.065858
0.822385 0.391821 0.089357
0.070039 0.077363 0.089113
0.070710 0.077974 0.089601
0.071534 0.078187 0.089570
0.075715 0.079713 0.089113
0.081392 0.081178 0.089143
0.088289 0.082643 0.089693
0.097292 0.084871 0.090364
0.108888 0.087495 0.090913
0.124117 0.090394 0.090974
0.143099 0.093355 0.091035
0.165866 0.096986 0.090944
0.193027 0.100160 0.090425
0.224247 0.102693 0.089326
0.259953 0.104585 0.087984
0.299840 0.105196 0.085695
0.341924 0.103853 0.082765
0.387549 0.101656 0.078859
0.431220 0.099580 0.074586
0.471778 0.098909 0.069795
0.510460 0.101534 0.063905
0.547112 0.109041 0.055726
0.581048 0.121553 0.042420
0.612451 0.138430 0.027771
0.641596 0.158785 0.013336
0.668818 0.182132 0.000610
0.693690 0.207248 0.000000
0.716457 0.233555 0.000000
0.737545 0.260899 0.000000
0.757504 0.289403 0.005402
0.778073 0.320714 0.032898
0.799527 0.355016 0.064912
0.822019 0.392279 0.088716
0.070985 0.080018 0.090547
0.071931 0.080507 0.091585
0.073060 0.080659 0.092073
0.073854 0.081209 0.092042
0.079835 0.083345 0.091218
0.089174 0.085725 0.089998
0.098421 0.087770 0.090394
0.110689 0.090150 0.090913
0.125826 0.093477 0.090913
0.145083 0.096742 0.090913
0.168154 0.100313 0.090791
0.195346 0.103700 0.090211
0.226719 0.106691 0.089021
0.262394 0.108797 0.087587
0.302342 0.109590 0.085237
0.344457 0.109010 0.082429
0.389899 0.107057 0.078462
0.432654 0.105928 0.073854
0.472541 0.105837 0.069062
0.510704 0.108736 0.063142
0.546929 0.115663 0.054597
0.580682 0.127779 0.041962
0.612055 0.144228 0.026062
0.641321 0.164248 0.011200
0.668788 0.187106 0.000000
0.693874 0.211887 0.000000
0.716732 0.237827 0.000000
0.737819 0.264805 0.000000
0.757778 0.293065 0.003479
0.778286 0.323919 0.030030
0.799588 0.357763 0.063935
0.821958 0.394415 0.087678
0.072541 0.082704 0.092775
0.073610 0.082856 0.093507
0.074556 0.083345 0.094514
0.075685 0.083497 0.095003
0.077241 0.084596 0.094362
0.084657 0.087587 0.093477
0.097932 0.091707 0.091737
0.112947 0.095460 0.090669
0.128634 0.098360 0.090913
0.148135 0.102052 0.090822
0.171511 0.105898 0.090364
0.198886 0.109560 0.089662
0.230533 0.112947 0.088624
0.266484 0.115663 0.087007
0.306645 0.116823 0.084779
0.349645 0.116884 0.081331
0.394110 0.115969 0.077577
0.436255 0.115480 0.072847
0.475685 0.116396 0.067414
0.513237 0.119509 0.061769
0.548821 0.126741 0.051942
0.582147 0.138186 0.037385
0.613184 0.153841 0.022522
0.642267 0.173220 0.007324
0.669459 0.195346 0.000000
0.694392 0.219333 0.000000
0.717098 0.244572 0.000000
0.738094 0.270726 0.000000
0.757900 0.298405 0.000000
0.778317 0.328618 0.027253
0.799588 0.361791 0.062501
0.821897 0.397833 0.086549
0.074037 0.085664 0.094881
0.075044 0.086122 0.095583
0.075959 0.086580 0.096590
0.077607 0.087251 0.097505
0.079072 0.087648 0.097688
0.081758 0.088838 0.097047
0.090852 0.093080 0.096010
0.107973 0.099306 0.093721
0.131624 0.106447 0.090852
0.152773 0.110689 0.090303
0.176699 0.114748 0.089967
0.204623 0.118715 0.089113
0.236698 0.122347 0.087831
0.273198 0.125185 0.086030
0.313512 0.126894 0.083497
0.357183 0.127779 0.079988
0.400702 0.127718 0.075685
0.442023 0.128328 0.071015
0.480720 0.129854 0.065339
0.517723 0.133791 0.059236
0.552758 0.141085 0.047791
0.585565 0.152407 0.031403
0.627832 0.176150 0.010895
0.655390 0.195346 0.000000
0.680720 0.216861 0.000000
0.703822 0.239506 0.000000
0.724971 0.263310 0.000000
0.744625 0.288090 0.000000
0.763790 0.314672 0.005737
0.783780 0.344091 0.037873
0.804623 0.376226 0.068269
0.826444 0.410895 0.092805
0.075929 0.090242 0.097322
0.076844 0.090669 0.097993
0.077607 0.091402 0.099184
0.080476 0.092409 0.101228
0.082216 0.092439 0.101686
0.084443 0.092988 0.101350
0.087831 0.094759 0.100679
0.099336 0.100862 0.099428
0.121798 0.109438 0.096223
0.151431 0.119417 0.092439
0.185855 0.128206 0.088960
0.214939 0.132265 0.087770
0.247990 0.136049 0.086458
0.285466 0.139132 0.084260
0.326665 0.141176 0.081209
0.370855 0.142641 0.077333
0.413428 0.143526 0.072511
0.453620 0.144747 0.067353
0.491371 0.147280 0.061372
0.527733 0.151980 0.052308
0.562402 0.160555 0.037446
0.595117 0.172580 0.020844
0.625849 0.188510 0.004822
0.654475 0.207492 0.000000
0.680629 0.228641 0.000000
0.704067 0.250706 0.000000
0.725216 0.273747 0.000000
0.744778 0.297520 0.000000
0.763882 0.323156 0.000000
0.783719 0.351537 0.030243
0.804440 0.382635 0.065766
0.826169 0.416327 0.090700
0.078309 0.096407 0.100496
0.079255 0.096803 0.101167
0.080415 0.097414 0.102296
0.082979 0.098604 0.104494
0.086061 0.099184 0.106203
0.088167 0.098878 0.106416
0.091463 0.100313 0.105776
0.095705 0.102785 0.105043
0.109712 0.110384 0.103578
0.137270 0.122133 0.099367
0.172915 0.134401 0.094575
0.216800 0.146426 0.088472
0.257847 0.153536 0.084321
0.295964 0.156558 0.081697
0.338872 0.159274 0.078157
0.381415 0.160861 0.073701
0.422461 0.162173 0.068879
0.461189 0.163851 0.063386
0.497841 0.166720 0.056519
0.533043 0.171756 0.043214
0.566613 0.179934 0.027771
0.598474 0.191623 0.010895
0.628412 0.206546 0.000000
0.656367 0.224338 0.000000
0.681971 0.244144 0.000000
0.705013 0.264927 0.000000
0.725856 0.286625 0.000000
0.745174 0.309117 0.000000
0.764157 0.333623 0.000000
0.783871 0.360845 0.022065
0.804471 0.390967 0.063172
0.826139 0.423468 0.088685
0.081727 0.104707 0.104707
0.082551 0.105074 0.105592
0.083589 0.105898 0.106630
0.086336 0.107179 0.108919
0.090852 0.109102 0.112551
0.093904 0.108461 0.112551
0.096590 0.107576 0.112551
0.101137 0.110292 0.111604
0.106569 0.113436 0.110353
0.122408 0.122805 0.109285
0.156008 0.137514 0.103853
0.197848 0.152010 0.097444
0.248295 0.165957 0.089448
0.309911 0.179507 0.077821
0.353277 0.182223 0.073213
0.394293 0.183688 0.068666
0.433783 0.185000 0.063355
0.471229 0.186648 0.056275
0.506340 0.189487 0.044953
0.540276 0.194644 0.029450
0.572625 0.202579 0.012879
0.603357 0.213657 0.000000
0.632349 0.227756 0.000000
0.659510 0.244327 0.000000
0.684352 0.262669 0.000000
0.706722 0.281834 0.000000
0.727138 0.302037 0.000000
0.746090 0.323156 0.000000
0.764889 0.346319 0.000000
0.784421 0.372320 0.014466
0.804868 0.401038 0.060090
0.826322 0.432227 0.086946
0.085847 0.116213 0.110353
0.086976 0.116701 0.110933
0.088258 0.117372 0.112123
0.091035 0.118929 0.114473
0.096040 0.120912 0.118441
0.100832 0.121492 0.120668
0.104280 0.120180 0.120485
0.107729 0.119936 0.120058
0.113741 0.123445 0.118624
0.120760 0.127077 0.117342
0.137972 0.137697 0.116426
0.177615 0.155367 0.109316
0.227024 0.172976 0.101534
0.286595 0.189334 0.090791
0.351995 0.203250 0.076387
0.409155 0.211643 0.060517
0.447456 0.212528 0.051392
0.483467 0.213870 0.039246
0.517113 0.216495 0.024994
0.549371 0.221256 0.009979
0.580072 0.228824 0.000000
0.609247 0.238865 0.000000
0.636835 0.251408 0.000000
0.662776 0.266392 0.000000
0.686641 0.282902 0.000000
0.708370 0.300542 0.000000
0.728359 0.319097 0.000000
0.747036 0.338842 0.000000
0.765774 0.360815 0.000000
0.785245 0.385626 0.006744
0.805600 0.413031 0.055970
0.827054 0.442908 0.085756
0.091188 0.131289 0.117220
0.092226 0.131746 0.117952
0.094026 0.132448 0.119051
0.097047 0.133913 0.121798
0.102419 0.135927 0.125826
0.109468 0.138308 0.131044
0.113527 0.136538 0.130770
0.117525 0.134554 0.130129
0.122408 0.135378 0.129061
0.129610 0.139925 0.127382
0.138003 0.144228 0.125643
0.157351 0.156313 0.125460
0.204379 0.177462 0.117098
0.260929 0.197086 0.106966
0.325902 0.214237 0.093843
0.391699 0.228397 0.076448
0.453681 0.240726 0.043854
0.495552 0.245274 0.012940
0.527672 0.246952 0.000000
0.558312 0.250980 0.000000
0.587640 0.257542 0.000000
0.615625 0.266484 0.000000
0.642176 0.278019 0.000000
0.667140 0.291478 0.000000
0.690059 0.306279 0.000000
0.710964 0.322026 0.000000
0.730312 0.338781 0.000000
0.748501 0.356786 0.000000
0.766964 0.377142 0.000000
0.786221 0.400214 0.000000
0.806394 0.426154 0.050538
0.827634 0.454536 0.083864
0.098146 0.150271 0.125826
0.099611 0.150759 0.126680
0.101167 0.151339 0.128023
0.104707 0.152834 0.130678
0.110750 0.154726 0.135042
0.118410 0.157229 0.140597
0.125246 0.157229 0.143313
0.129732 0.154513 0.142519
0.133883 0.151583 0.141573
0.140444 0.154330 0.139864
0.149813 0.160189 0.138216
0.160494 0.165621 0.136202
0.186954 0.182895 0.137881
0.242161 0.207401 0.127993
0.308415 0.229435 0.114931
0.376684 0.247105 0.098756
0.441230 0.261906 0.077913
0.499397 0.275547 0.035798
0.549371 0.288823 0.000000
0.577295 0.291264 0.000000
0.604028 0.296208 0.000000
0.629603 0.303502 0.000000
0.653956 0.312902 0.000000
0.676783 0.324163 0.000000
0.697810 0.336553 0.000000
0.717281 0.350042 0.000000
0.735409 0.364538 0.000000
0.752834 0.380438 0.000000
0.770809 0.398932 0.000000
0.789609 0.420142 0.000000
0.809354 0.444007 0.053040
0.830259 0.470497 0.086732
0.107912 0.174655 0.137087
0.109133 0.175051 0.138186
0.111025 0.175631 0.139406
0.115084 0.176913 0.142245
0.121553 0.178653 0.146609
0.129854 0.180728 0.152255
0.139803 0.182712 0.159121
0.144839 0.179416 0.157931
0.150179 0.176089 0.156832
0.154971 0.172488 0.155764
0.164920 0.179232 0.154147
0.176394 0.185855 0.151949
0.189487 0.192447 0.149783
0.213840 0.206241 0.149233
0.274022 0.232853 0.138888
0.343786 0.255741 0.124300
0.411536 0.274144 0.106996
0.473396 0.289738 0.085084
0.528191 0.304509 0.049165
0.576074 0.319951 0.000000
0.611688 0.331090 0.000000
0.636042 0.336370 0.000000
0.659266 0.343877 0.000000
0.680964 0.352850 0.000000
0.701076 0.363012 0.000000
0.719753 0.374426 0.000000
0.737301 0.386877 0.000000
0.754391 0.401038 0.000000
0.772122 0.417700 0.000000
0.790738 0.437201 0.000000
0.810300 0.459388 0.048371
0.831052 0.484199 0.085267
0.119112 0.201144 0.149660
0.120638 0.201541 0.150637
0.122530 0.202029 0.151858
0.126955 0.203128 0.154849
0.133639 0.204715 0.159213
0.142794 0.206638 0.165194
0.154238 0.209415 0.172824
0.163241 0.208591 0.176059
0.168887 0.204593 0.174594
0.174411 0.200046 0.172885
0.180209 0.197879 0.171023
0.191836 0.205081 0.168673
0.204929 0.212070 0.166079
0.219272 0.218753 0.163088
0.244816 0.232029 0.161807
0.308019 0.259709 0.151827
0.378302 0.282902 0.135622
0.443854 0.301915 0.117739
0.503136 0.318608 0.095735
0.555261 0.334936 0.065522
0.600519 0.351904 0.000000
0.640131 0.369207 0.000000
0.665126 0.377081 0.000000
0.685725 0.383795 0.000000
0.704860 0.391730 0.000000
0.722744 0.400824 0.000000
0.739681 0.411139 0.000000
0.756466 0.423377 0.000000
0.773983 0.438331 0.000000
0.792355 0.456001 0.000000
0.811734 0.476417 0.045289
0.832273 0.499611 0.085359
0.133242 0.232486 0.164553
0.134890 0.232975 0.165652
0.137057 0.233524 0.167025
0.141909 0.234745 0.170138
0.149599 0.236271 0.174868
0.159426 0.238315 0.180972
0.171481 0.240360 0.188632
0.184939 0.241978 0.196780
0.190860 0.236881 0.194766
0.196689 0.231327 0.192447
0.201755 0.225315 0.189883
0.209384 0.225650 0.187350
0.222538 0.233127 0.184421
0.237095 0.240299 0.181247
0.252903 0.246799 0.177584
0.278965 0.259251 0.175631
0.341924 0.287022 0.166232
0.411292 0.310613 0.149325
0.474861 0.330510 0.131044
0.531731 0.348882 0.109804
0.580896 0.366674 0.082521
0.623682 0.384497 0.019257
0.660853 0.402014 0.000000
0.690639 0.416175 0.000000
0.708888 0.421607 0.000000
0.726070 0.428595 0.000000
0.742489 0.436866 0.000000
0.759182 0.447486 0.000000
0.776608 0.460853 0.000000
0.794919 0.476905 0.000000
0.814176 0.495827 0.049165
0.834653 0.517418 0.088716
0.151034 0.268620 0.181979
0.152926 0.269139 0.183078
0.155276 0.269657 0.184482
0.160555 0.270634 0.187594
0.168521 0.272038 0.192416
0.179171 0.273716 0.198703
0.192172 0.275486 0.206332
0.207065 0.277012 0.215152
0.217533 0.274174 0.217990
0.223423 0.267613 0.215061
0.228672 0.260075 0.211704
0.232822 0.252232 0.208103
0.242832 0.255436 0.204807
0.257115 0.262791 0.201205
0.272496 0.269627 0.197208
0.288792 0.275578 0.192752
0.313909 0.286473 0.189975
0.374609 0.314153 0.182193
0.443214 0.338994 0.165072
0.505272 0.360571 0.147158
0.559228 0.380499 0.126925
0.605707 0.399573 0.103059
0.646052 0.418006 0.069886
0.680507 0.434760 0.000000
0.709651 0.449500 0.000000
0.730190 0.457954 0.000000
0.746120 0.464210 0.000000
0.762539 0.473030 0.000000
0.779660 0.484565 0.000000
0.797635 0.498756 0.000000
0.816526 0.515648 0.054322
0.836637 0.535271 0.092073
0.171603 0.306645 0.200626
0.173434 0.306889 0.201694
0.176059 0.307256 0.203067
0.181582 0.308080 0.206210
0.189914 0.309148 0.211032
0.201083 0.310399 0.217350
0.214572 0.311620 0.224949
0.230076 0.312596 0.233707
0.246494 0.312627 0.242710
0.252384 0.305272 0.239200
0.257877 0.297185 0.235264
0.262455 0.288365 0.230961
0.264958 0.278508 0.226413
0.278996 0.286046 0.222660
0.293950 0.292973 0.218509
0.309545 0.299351 0.213962
0.325719 0.304875 0.209232
0.349157 0.314336 0.205875
0.407202 0.342290 0.200046
0.474434 0.368292 0.183352
0.533776 0.391119 0.165988
0.584527 0.412024 0.147524
0.628290 0.431678 0.126528
0.666011 0.449714 0.101137
0.697780 0.465217 0.066468
0.724910 0.478737 0.000000
0.749233 0.491371 0.000000
0.765682 0.498695 0.000000
0.782559 0.508415 0.000000
0.800259 0.520928 0.000000
0.818967 0.536126 0.061250
0.838865 0.554009 0.097017
0.195804 0.345342 0.221195
0.198001 0.345800 0.222477
0.205936 0.353460 0.228214
0.211826 0.353979 0.231418
0.220706 0.354559 0.236301
0.232456 0.355077 0.242588
0.246494 0.355535 0.250340
0.262425 0.355627 0.259129
0.279850 0.355230 0.268864
0.290867 0.350256 0.271031
0.295903 0.341558 0.266056
0.300237 0.331853 0.260655
0.303593 0.321324 0.254826
0.307530 0.314244 0.249271
0.321691 0.321294 0.244816
0.336400 0.327611 0.239994
0.351873 0.333532 0.235019
0.367742 0.338628 0.229679
0.389014 0.346502 0.225528
0.443488 0.374334 0.222202
0.507897 0.401129 0.206119
0.563378 0.424659 0.189487
0.610620 0.445991 0.172885
0.651362 0.465278 0.154757
0.685542 0.481544 0.134737
0.714473 0.495430 0.112001
0.739803 0.507744 0.081971
0.764279 0.520928 0.000000
0.785733 0.533074 0.000000
0.803128 0.543725 0.000000
0.821500 0.557092 0.068452
0.841093 0.573236 0.103456
0.226169 0.385962 0.245609
0.228885 0.387121 0.247257
0.232547 0.388312 0.249393
0.239261 0.389502 0.253239
0.249027 0.390570 0.258518
0.261021 0.391241 0.265202
0.275303 0.391485 0.273045
0.291203 0.391241 0.281804
0.308293 0.390631 0.291356
0.325048 0.388922 0.300633
0.329747 0.380255 0.295262
0.333898 0.370703 0.289555
0.337072 0.360143 0.283238
0.339055 0.348638 0.276188
0.345434 0.345617 0.270481
0.359319 0.352239 0.265660
0.373968 0.358343 0.260502
0.389075 0.363867 0.255192
0.404791 0.368902 0.249760
0.424048 0.375677 0.245212
0.474311 0.403265 0.244968
0.535698 0.430945 0.230076
0.587945 0.454994 0.214817
0.632563 0.476417 0.200381
0.670314 0.494697 0.185183
0.701900 0.510002 0.169284
0.729030 0.523064 0.152193
0.754360 0.536217 0.132113
0.779507 0.550561 0.105684
0.804654 0.566064 0.062989
0.824308 0.578882 0.078828
0.843626 0.593256 0.111849
0.259098 0.423163 0.271000
0.262089 0.424201 0.272831
0.265721 0.425208 0.274998
0.272313 0.426184 0.278721
0.281804 0.426978 0.284001
0.293400 0.427405 0.290349
0.307256 0.427344 0.297948
0.322393 0.426947 0.306279
0.338842 0.426123 0.315465
0.355505 0.424659 0.324926
0.365423 0.419226 0.326421
0.369238 0.410010 0.320531
0.372198 0.399756 0.313878
0.374365 0.388556 0.306767
0.375280 0.376440 0.298833
0.384070 0.377691 0.293553
0.397711 0.384100 0.288609
0.411933 0.389960 0.283452
0.426673 0.395361 0.278141
0.441993 0.400366 0.272679
0.459052 0.406073 0.267857
0.504356 0.432929 0.270726
0.562188 0.461189 0.257572
0.611231 0.485115 0.244327
0.652949 0.505882 0.231907
0.687617 0.522972 0.219516
0.716915 0.537316 0.207034
0.743252 0.550683 0.193942
0.769253 0.565118 0.178744
0.795163 0.580682 0.160647
0.821195 0.597101 0.138338
0.846189 0.613519 0.122042
0.295476 0.459388 0.298497
0.298283 0.460273 0.300114
0.301946 0.461189 0.302251
0.308171 0.461982 0.305943
0.317113 0.462562 0.310857
0.328191 0.462776 0.317021
0.341131 0.462562 0.324132
0.355383 0.462043 0.332067
0.370855 0.461036 0.340856
0.386725 0.459541 0.349889
0.401984 0.457191 0.358495
0.405188 0.448524 0.352544
0.407965 0.438941 0.345892
0.409918 0.428290 0.338659
0.411078 0.416754 0.330785
0.410101 0.403754 0.322606
0.423163 0.410468 0.318242
0.436835 0.416907 0.313603
0.451026 0.422950 0.308904
0.465614 0.428840 0.304143
0.480598 0.434241 0.299382
0.495857 0.439307 0.294560
0.535668 0.465003 0.300511
0.589715 0.493172 0.289616
0.635615 0.516838 0.278782
0.673579 0.536370 0.269047
0.705226 0.552422 0.260319
0.732876 0.566644 0.251530
0.759792 0.581506 0.241917
0.786526 0.597375 0.231144
0.813291 0.614160 0.219425
0.840360 0.631739 0.206912
0.337530 0.497139 0.330114
0.339757 0.497597 0.331365
0.342412 0.497841 0.332952
0.347936 0.498085 0.335943
0.355871 0.498177 0.340459
0.366003 0.498024 0.346075
0.377905 0.497719 0.352789
0.391272 0.497108 0.360479
0.405707 0.496254 0.368811
0.420691 0.494911 0.377539
0.435309 0.493019 0.386419
0.443610 0.487678 0.387427
0.446082 0.478920 0.380926
0.447883 0.469184 0.373754
0.448951 0.458381 0.365820
0.449287 0.446662 0.357275
0.450721 0.438300 0.349828
0.463172 0.444678 0.345403
0.476051 0.450782 0.340948
0.489235 0.456458 0.336339
0.502647 0.461891 0.331670
0.516167 0.466896 0.326909
0.529717 0.471473 0.322087
0.563195 0.494270 0.329381
0.613123 0.521477 0.320928
0.655421 0.544091 0.312474
0.690242 0.562493 0.305180
0.719753 0.578088 0.299443
0.747524 0.593561 0.293553
0.775082 0.609979 0.287388
0.802609 0.627405 0.281437
0.830228 0.645716 0.276646
0.376471 0.529229 0.359686
0.378607 0.529564 0.360937
0.381140 0.529900 0.362463
0.386053 0.530022 0.365393
0.393347 0.530022 0.369574
0.402472 0.529778 0.374792
0.413336 0.529351 0.381140
0.425452 0.528649 0.388190
0.438605 0.527794 0.396124
0.452216 0.526543 0.404364
0.465705 0.524865 0.412848
0.478431 0.522454 0.420874
0.480537 0.514641 0.414557
0.482246 0.505852 0.407568
0.483375 0.496284 0.399969
0.483986 0.485817 0.391699
0.483864 0.474495 0.382879
0.488045 0.470832 0.376593
0.499794 0.477028 0.372595
0.511864 0.482918 0.368505
0.524132 0.488502 0.364416
0.536584 0.493751 0.360174
0.549187 0.498665 0.355871
0.561761 0.503136 0.351476
0.589441 0.521843 0.356970
0.634333 0.547906 0.352422
0.673060 0.569360 0.346654
0.705226 0.586938 0.342046
0.734035 0.603235 0.339086
0.762448 0.620417 0.336522
0.790738 0.638666 0.334966
0.818997 0.657984 0.335454
0.418097 0.561303 0.392248
0.420050 0.561608 0.393469
0.422278 0.561791 0.394903
0.426581 0.561822 0.397436
0.432868 0.561578 0.401160
0.440833 0.561212 0.405951
0.450263 0.560662 0.411658
0.460822 0.559838 0.418158
0.472297 0.558801 0.425360
0.484169 0.557519 0.432959
0.495949 0.555840 0.440650
0.507256 0.553582 0.448096
0.513603 0.548638 0.448737
0.514916 0.540673 0.441932
0.515709 0.531853 0.434394
0.516075 0.522210 0.426123
0.515984 0.511833 0.417395
0.515404 0.500755 0.408179
0.521935 0.501427 0.403388
0.532921 0.507317 0.399725
0.544121 0.512993 0.396124
0.555627 0.518395 0.392432
0.567071 0.523400 0.388617
0.578454 0.527855 0.384466
0.589746 0.531914 0.380194
0.615137 0.549706 0.386694
0.654536 0.573938 0.386053
0.689723 0.594141 0.382971
0.720027 0.611566 0.381048
0.749325 0.629664 0.381170
0.778347 0.648768 0.382910
0.807309 0.669062 0.387427
0.454200 0.588617 0.421759
0.455909 0.588861 0.422950
0.457954 0.589044 0.424231
0.461677 0.589044 0.426703
0.467201 0.588891 0.430182
0.474342 0.588556 0.434668
0.482734 0.588128 0.440070
0.492164 0.587518 0.446265
0.502373 0.586816 0.453101
0.513176 0.585840 0.460395
0.523919 0.584588 0.467781
0.534478 0.582910 0.475135
0.544305 0.580591 0.482002
0.545892 0.573785 0.476265
0.546838 0.566064 0.469398
0.547387 0.557671 0.461860
0.547692 0.548486 0.453681
0.547539 0.538750 0.445106
0.545800 0.527398 0.436225
0.555657 0.533104 0.433051
0.565850 0.538659 0.429847
0.576226 0.543999 0.426581
0.586633 0.549065 0.423194
0.597101 0.553765 0.419623
0.607568 0.558007 0.415900
0.617884 0.561852 0.411994
0.639185 0.576898 0.418250
0.673457 0.599390 0.421485
0.705806 0.618952 0.421637
0.736233 0.638056 0.423194
0.766171 0.658198 0.427192
0.795895 0.679591 0.434607
0.488777 0.614618 0.451911
0.490211 0.614801 0.452918
0.491737 0.614893 0.454017
0.494972 0.614801 0.456153
0.499611 0.614588 0.459205
0.505730 0.614252 0.463386
0.512963 0.613794 0.468299
0.521355 0.613275 0.474098
0.530480 0.612696 0.480568
0.540093 0.611933 0.487434
0.549920 0.610986 0.494484
0.559655 0.609735 0.501671
0.568872 0.607996 0.508385
0.574212 0.604120 0.509392
0.575280 0.597559 0.503075
0.576104 0.590326 0.496162
0.576501 0.582300 0.488746
0.576715 0.573693 0.480781
0.576562 0.564538 0.472358
0.577325 0.557641 0.465278
0.586511 0.563134 0.462501
0.595911 0.568414 0.459724
0.605432 0.573449 0.456825
0.614893 0.578027 0.453834
0.624231 0.582300 0.450690
0.633509 0.586114 0.447456
0.642695 0.589593 0.444129
0.660731 0.602502 0.450233
0.690333 0.623163 0.456855
0.721859 0.643702 0.460090
0.752834 0.664912 0.465431
0.783566 0.687373 0.474372
0.519554 0.637476 0.480598
0.520684 0.637598 0.481453
0.522118 0.637629 0.482490
0.524865 0.637598 0.484474
0.529168 0.637507 0.487526
0.534722 0.637415 0.491646
0.541588 0.637354 0.496681
0.549432 0.637293 0.502586
0.558129 0.637232 0.509239
0.567254 0.637110 0.516381
0.576532 0.636774 0.523705
0.585748 0.636194 0.531121
0.594537 0.635248 0.538140
0.602533 0.633753 0.544549
0.604334 0.628809 0.540032
0.605280 0.622919 0.533898
0.606073 0.616449 0.527092
0.606744 0.609400 0.519890
0.607294 0.601801 0.512291
0.607568 0.593713 0.504295
0.610376 0.590845 0.499062
0.618585 0.595758 0.496803
0.626795 0.600366 0.494362
0.635004 0.604669 0.491890
0.643183 0.608728 0.489357
0.651362 0.612421 0.486702
0.659571 0.615900 0.484077
0.667720 0.619104 0.481483
0.682948 0.630274 0.487648
0.709316 0.650080 0.497078
0.741451 0.672816 0.503807
0.773220 0.696590 0.514061
0.551080 0.660182 0.511894
0.552026 0.660243 0.512596
0.553155 0.660243 0.513512
0.555474 0.660182 0.515251
0.559136 0.660060 0.518059
0.563897 0.659907 0.521752
0.569757 0.659785 0.526329
0.576471 0.659632 0.531670
0.583886 0.659449 0.537682
0.591821 0.659266 0.544244
0.599908 0.658900 0.551049
0.607996 0.658412 0.557916
0.615747 0.657649 0.564477
0.623011 0.656519 0.570672
