data/fiter_cube/29797953/1022856/file.cube
# Created by Adobe Lightroom plugin Export LUT (1.17.0)
# www.johnrellis.com/lightroom/exportlut.htm
# Preset: 电影灰蓝色_01 云集
# Color profile: C:\Program Files (x86)\Common Files\Adobe\Color\Profiles\Recommended\AdobeRGB1998.icc
LUT_3D_SIZE 5
DOMAIN_MIN 0.000000 0.000000 0.000000
DOMAIN_MAX 0.903226 0.903226 0.903226
0.069123 0.076112 0.088075
0.108034 0.085481 0.090822
0.299107 0.101564 0.085878
0.583185 0.117037 0.043458
0.758663 0.288548 0.009277
0.078309 0.096407 0.100496
0.095705 0.102785 0.105043
0.338872 0.159274 0.078157
0.598474 0.191623 0.010895
0.764157 0.333623 0.000000
0.133242 0.232486 0.164553
0.184939 0.241978 0.196780
0.252903 0.246799 0.177584
0.623682 0.384497 0.019257
0.776608 0.460853 0.000000
0.337530 0.497139 0.330114
0.391272 0.497108 0.360479
0.448951 0.458381 0.365820
0.516167 0.466896 0.326909
0.747524 0.593561 0.293553
0.576898 0.678889 0.539025
0.599817 0.678859 0.558129
0.645594 0.674250 0.597498
0.653071 0.639338 0.560571
0.701686 0.666804 0.551171
0.072450 0.084627 0.109651
0.114809 0.083558 0.120180
0.279942 0.111360 0.127077
0.561669 0.137392 0.122805
0.749722 0.296422 0.132967
0.080842 0.106264 0.118471
0.108003 0.124025 0.136995
0.318791 0.162203 0.132509
0.579980 0.199863 0.122377
0.754299 0.337133 0.133639
0.132509 0.262058 0.188296
0.194430 0.272984 0.223484
0.270176 0.269078 0.215305
0.625483 0.394781 0.129915
0.770199 0.463935 0.142428
0.347448 0.514824 0.354345
0.402899 0.514763 0.384497
0.468574 0.482002 0.400488
0.524010 0.480232 0.358923
0.749172 0.600458 0.328557
0.576013 0.683925 0.546258
0.599420 0.683925 0.564965
0.649042 0.682094 0.606775
0.658595 0.648890 0.576287
0.703517 0.671565 0.564294
0.063050 0.112032 0.200443
0.104585 0.104738 0.241825
0.366339 0.032776 0.257725
0.526940 0.166079 0.245487
0.726253 0.334112 0.295476
0.111025 0.157626 0.192508
0.122255 0.167636 0.238529
0.360845 0.159884 0.273655
0.528618 0.237003 0.269078
0.732113 0.364446 0.298985
0.146975 0.285191 0.272465
0.199924 0.305913 0.293187
0.332219 0.344762 0.335607
0.594415 0.401312 0.315587
0.750027 0.470466 0.319707
0.396368 0.561334 0.443854
0.433112 0.560998 0.454688
0.511955 0.545586 0.482856
0.547112 0.518303 0.442542
0.759487 0.619226 0.411109
0.582635 0.700954 0.579858
0.598230 0.702205 0.588647
0.646815 0.700649 0.621485
0.670527 0.673213 0.617426
0.706233 0.681575 0.594781
0.012512 0.184909 0.371984
0.101717 0.180423 0.406043
0.412421 0.000000 0.504723
0.628962 0.183230 0.450385
0.731624 0.348943 0.437507
0.152163 0.252720 0.362860
0.151736 0.241093 0.398718
0.392554 0.182559 0.499580
0.622644 0.263249 0.460517
0.725673 0.376165 0.442390
0.238590 0.357275 0.384588
0.273320 0.365454 0.392187
0.370642 0.398505 0.459174
0.601007 0.421759 0.487892
0.702632 0.477760 0.478309
0.389380 0.541253 0.497963
0.424628 0.547417 0.507225
0.512444 0.567315 0.535576
0.579644 0.571252 0.546990
0.745693 0.608972 0.524865
0.609918 0.719783 0.645624
0.626581 0.726986 0.656367
0.659327 0.736538 0.671992
0.695003 0.726528 0.681178
0.715419 0.702144 0.643336
0.278447 0.368719 0.595392
0.310338 0.360296 0.610132
0.463478 0.318456 0.655512
0.683680 0.284672 0.689937
0.773861 0.452705 0.637507
0.341711 0.426184 0.584527
0.337438 0.405524 0.601007
0.460487 0.374792 0.648585
0.677943 0.340124 0.691371
0.771695 0.478279 0.642451
0.399054 0.479316 0.527001
0.411322 0.486671 0.544305
0.462959 0.494972 0.618006
0.655879 0.464118 0.697383
0.765652 0.547387 0.658473
0.509209 0.614405 0.614405
0.519493 0.613642 0.614923
0.545129 0.605829 0.612207
0.594385 0.604944 0.648920
0.756039 0.635279 0.683284
0.600427 0.712184 0.679774
0.610193 0.714748 0.683742
0.640681 0.724575 0.697902
0.692226 0.745022 0.725826
0.741329 0.750454 0.738491
