data/fiter_cube/29797953/1022856/file.cube
# Created by Adobe Lightroom plugin Export LUT (1.17.0)
# www.johnrellis.com/lightroom/exportlut.htm
# Preset: 电影灰蓝色_01 云集
# Color profile: C:\Program Files (x86)\Common Files\Adobe\Color\Profiles\Recommended\AdobeRGB1998.icc
LUT_3D_SIZE 8
DOMAIN_MIN 0.000000 0.000000 0.000000
DOMAIN_MAX 0.903226 0.903226 0.903226
0.069123 0.076112 0.088075
0.080964 0.079194 0.089021
0.123140 0.088197 0.091188
0.223301 0.099733 0.089418
0.387610 0.096803 0.079377
0.549187 0.103670 0.056733
0.670588 0.180087 0.001221
0.758663 0.288548 0.009277
0.072541 0.082704 0.092775
0.077241 0.084596 0.094362
0.128634 0.098360 0.090913
0.230533 0.112947 0.088624
0.394110 0.115969 0.077577
0.548821 0.126741 0.051942
0.669459 0.195346 0.000000
0.757900 0.298405 0.000000
0.081727 0.104707 0.104707
0.090852 0.109102 0.112551
0.106569 0.113436 0.110353
0.248295 0.165957 0.089448
0.433783 0.185000 0.063355
0.572625 0.202579 0.012879
0.684352 0.262669 0.000000
0.764889 0.346319 0.000000
0.107912 0.174655 0.137087
0.121553 0.178653 0.146609
0.150179 0.176089 0.156832
0.189487 0.192447 0.149783
0.411536 0.274144 0.106996
0.611688 0.331090 0.000000
0.701076 0.363012 0.000000
0.772122 0.417700 0.000000
0.171603 0.306645 0.200626
0.189914 0.309148 0.211032
0.246494 0.312627 0.242710
0.264958 0.278508 0.226413
0.325719 0.304875 0.209232
0.533776 0.391119 0.165988
0.697780 0.465217 0.066468
0.782559 0.508415 0.000000
0.295476 0.459388 0.298497
0.317113 0.462562 0.310857
0.370855 0.461036 0.340856
0.407965 0.438941 0.345892
0.423163 0.410468 0.318242
0.480598 0.434241 0.299382
0.635615 0.516838 0.278782
0.759792 0.581506 0.241917
0.454200 0.588617 0.421759
0.467201 0.588891 0.430182
0.502373 0.586816 0.453101
0.544305 0.580591 0.482002
0.547692 0.548486 0.453681
0.565850 0.538659 0.429847
0.607568 0.558007 0.415900
0.705806 0.618952 0.421637
0.576898 0.678889 0.539025
0.584192 0.678859 0.544976
0.606531 0.678889 0.563928
0.635554 0.678614 0.589685
0.648341 0.666163 0.589715
0.652705 0.645869 0.566949
0.672969 0.651606 0.556878
0.701686 0.666804 0.551171
0.070832 0.079774 0.096132
0.081453 0.079774 0.097932
0.119356 0.089937 0.101137
0.216709 0.103609 0.102083
0.377569 0.104280 0.095857
0.535637 0.110750 0.083223
0.661616 0.180362 0.068025
0.753445 0.287724 0.075532
0.073121 0.084749 0.097261
0.079652 0.088930 0.102205
0.124941 0.100130 0.102785
0.225223 0.115480 0.101900
0.386084 0.121096 0.094545
0.539330 0.132204 0.081361
0.661860 0.195987 0.065522
0.752743 0.297002 0.072206
0.081544 0.110140 0.109438
0.092988 0.116121 0.119295
0.111696 0.121401 0.121401
0.253452 0.170321 0.101442
0.421912 0.184268 0.087495
0.562097 0.202152 0.072145
0.674891 0.258671 0.050446
0.759091 0.343053 0.068421
0.108461 0.182162 0.144167
0.123781 0.187228 0.155062
0.157412 0.187716 0.170016
0.192081 0.197543 0.160494
0.405035 0.273167 0.122042
0.597955 0.322240 0.013092
0.692256 0.356634 0.000000
0.766629 0.413764 0.057832
0.175113 0.316014 0.210269
0.193118 0.317693 0.220035
0.249119 0.319646 0.250523
0.270603 0.286168 0.236301
0.325902 0.307317 0.218570
0.531853 0.391852 0.178439
0.695705 0.465064 0.096773
0.778805 0.506157 0.062165
0.297337 0.462898 0.305455
0.315679 0.463325 0.315068
0.368658 0.461921 0.343877
0.410407 0.442786 0.354070
0.424414 0.412970 0.326329
0.482124 0.437537 0.308934
0.635737 0.518730 0.288853
0.758755 0.581750 0.252476
0.451545 0.588373 0.423438
0.463081 0.587610 0.430365
0.499001 0.586053 0.453346
0.542412 0.580896 0.482887
0.548791 0.551049 0.459174
0.565148 0.538994 0.434302
0.605829 0.557458 0.419532
0.704463 0.618036 0.423987
0.574640 0.678920 0.538994
0.582361 0.679072 0.545281
0.605127 0.679316 0.564355
0.634668 0.679194 0.590265
0.651484 0.670130 0.596338
0.654505 0.648829 0.572229
0.672908 0.652247 0.559747
0.701045 0.666712 0.553094
0.072145 0.086793 0.117067
0.078889 0.084749 0.126131
0.134737 0.084718 0.132479
0.208957 0.104738 0.135103
0.363104 0.116304 0.140414
0.524407 0.135378 0.141512
0.654597 0.199741 0.141238
0.749355 0.302708 0.154910
0.081178 0.097536 0.116884
0.083009 0.099214 0.127810
0.132692 0.099550 0.136507
0.211398 0.121981 0.141787
0.370825 0.132998 0.142763
0.528344 0.152560 0.141665
0.655848 0.214206 0.140597
0.749599 0.312657 0.154299
0.084382 0.119509 0.130709
0.093538 0.125673 0.137148
0.124880 0.144289 0.155825
0.247257 0.173434 0.151766
0.408087 0.190951 0.148470
0.551690 0.214054 0.143618
0.667475 0.270176 0.141817
0.754025 0.353185 0.156008
0.111208 0.208621 0.173587
0.125826 0.214939 0.180789
0.176761 0.225864 0.209049
0.214481 0.226444 0.201266
0.431891 0.295750 0.169802
0.588556 0.326177 0.145754
0.686458 0.364630 0.144961
0.762539 0.422339 0.161685
0.172915 0.344671 0.233646
0.194156 0.348486 0.244053
0.262852 0.351812 0.279850
0.304112 0.326390 0.282200
0.350347 0.334936 0.261540
0.547234 0.413336 0.227085
0.700465 0.478340 0.170321
0.774197 0.510674 0.177218
0.303380 0.484077 0.328557
0.325200 0.484962 0.339971
0.381384 0.483558 0.369268
0.434363 0.469917 0.392645
0.438605 0.429877 0.359533
0.491951 0.452888 0.343084
0.641260 0.530175 0.324987
0.761471 0.590356 0.295109
0.458106 0.601404 0.442267
0.470619 0.600977 0.449653
0.505516 0.598810 0.470802
0.547539 0.592889 0.497383
0.560418 0.567041 0.484901
0.571160 0.548577 0.457160
0.611200 0.567498 0.444495
0.709102 0.627008 0.448890
0.574182 0.684535 0.547082
0.580743 0.684260 0.551843
0.603906 0.684230 0.570306
0.635096 0.684871 0.596704
0.656855 0.678462 0.611048
0.658747 0.656886 0.586999
0.674556 0.656580 0.572534
0.702937 0.671534 0.566339
0.068055 0.100496 0.165011
0.074037 0.099275 0.177005
0.142977 0.082582 0.218906
0.267887 0.074800 0.206607
0.378912 0.080140 0.188876
0.489998 0.158480 0.210697
0.631678 0.217380 0.221439
0.736019 0.317693 0.242771
0.085817 0.121035 0.167758
0.083497 0.117433 0.179873
0.138705 0.102907 0.220737
0.268406 0.102266 0.212314
0.374487 0.113893 0.195254
0.496529 0.174350 0.214389
0.634424 0.231815 0.223545
0.737118 0.326574 0.242649
0.101045 0.150027 0.174960
0.110262 0.155764 0.180880
0.136477 0.171298 0.212650
0.257847 0.175448 0.227726
0.369970 0.205997 0.228550
0.524804 0.232578 0.229862
0.651148 0.288487 0.235691
0.743832 0.366918 0.250065
0.115633 0.214847 0.213382
0.129244 0.221744 0.220157
0.179110 0.248661 0.245975
0.247135 0.269932 0.268467
0.431800 0.308629 0.255222
0.562585 0.330724 0.250248
0.669520 0.372076 0.249393
0.751980 0.430823 0.262211
0.204776 0.385962 0.304784
0.229435 0.395666 0.315831
0.282689 0.398718 0.329442
0.352117 0.387457 0.353246
0.382635 0.374517 0.328038
0.568841 0.444923 0.302525
0.693935 0.486946 0.278264
0.764614 0.515526 0.285954
0.337194 0.517784 0.385809
0.354925 0.520531 0.393103
0.396033 0.519982 0.406806
0.459022 0.509361 0.435523
0.472572 0.470527 0.416663
0.510918 0.480201 0.396887
0.652888 0.549981 0.380438
0.767391 0.602625 0.351873
0.469154 0.620325 0.474250
0.478828 0.620783 0.478737
0.513237 0.619959 0.497505
0.556298 0.614984 0.522332
0.582574 0.597009 0.529290
0.582361 0.565270 0.493568
0.618524 0.581994 0.480446
0.715969 0.638819 0.481300
0.577661 0.696010 0.565606
0.584527 0.696101 0.570367
0.604486 0.695796 0.584070
0.633692 0.695216 0.605615
0.662104 0.691707 0.627436
0.666468 0.671138 0.611109
0.677058 0.663294 0.591791
0.705684 0.678767 0.585595
0.053010 0.127230 0.241154
0.062409 0.126192 0.253239
0.122042 0.116213 0.297063
0.295018 0.037873 0.340520
0.457740 0.000000 0.310552
0.543572 0.111849 0.280400
0.616297 0.231754 0.301366
0.713680 0.351232 0.346410
0.086610 0.152438 0.243442
0.080598 0.146151 0.255314
0.124239 0.137270 0.297063
0.295048 0.088350 0.345373
0.455665 0.093538 0.314946
0.540154 0.144991 0.285496
0.612696 0.253758 0.309148
0.715389 0.359411 0.348028
0.128176 0.186954 0.226627
0.135561 0.194522 0.237888
0.147768 0.203159 0.290410
0.288029 0.174807 0.358618
0.447425 0.198703 0.330022
0.525811 0.223606 0.301488
0.612116 0.307164 0.327520
0.720821 0.385626 0.351354
0.148074 0.256168 0.276310
0.160647 0.261509 0.281559
0.203189 0.278264 0.298466
0.272831 0.306584 0.341680
0.421881 0.313237 0.352361
0.516472 0.339696 0.346441
0.638025 0.377295 0.347845
0.732998 0.431464 0.355352
0.198215 0.362768 0.337469
0.216526 0.368200 0.343297
0.273533 0.384344 0.361089
0.366003 0.421607 0.399115
0.414069 0.415961 0.399542
0.572168 0.456764 0.384283
0.668849 0.475624 0.375097
0.748074 0.508110 0.375860
0.357153 0.524132 0.437415
0.376196 0.529870 0.445380
0.433082 0.547601 0.470344
0.476478 0.546441 0.479561
0.509361 0.521996 0.482490
0.527642 0.507195 0.452918
0.667384 0.569970 0.439185
0.767697 0.605982 0.418555
0.504692 0.640558 0.532280
0.512200 0.640558 0.534874
0.534752 0.640528 0.542809
0.562219 0.638727 0.551293
0.595727 0.626978 0.565393
0.597162 0.589227 0.536797
0.625299 0.597284 0.519585
0.726162 0.652125 0.515648
0.592401 0.707607 0.599847
0.596704 0.707881 0.602014
0.610040 0.708797 0.608423
0.631861 0.710445 0.620386
0.660060 0.707118 0.637629
0.678126 0.692775 0.642176
0.679377 0.670802 0.614099
0.708278 0.686458 0.606989
0.008911 0.171359 0.345006
0.036194 0.169924 0.355566
0.120699 0.163638 0.392676
0.290379 0.111574 0.454902
0.483467 0.000000 0.459419
0.601556 0.147066 0.422705
0.667445 0.241947 0.400824
0.726192 0.337560 0.411109
0.086915 0.195804 0.343267
0.079744 0.189242 0.353948
0.129183 0.182712 0.389929
0.283940 0.143404 0.450721
0.483619 0.067079 0.463050
0.598749 0.178775 0.425483
0.664607 0.258335 0.403235
0.723659 0.350500 0.415351
0.156222 0.247227 0.327825
0.162783 0.252262 0.341344
0.169497 0.246281 0.382818
0.274357 0.228855 0.442451
0.482826 0.193729 0.475196
0.593378 0.264378 0.438636
0.656825 0.310765 0.413764
0.715999 0.393744 0.431342
0.198825 0.300999 0.340154
0.209049 0.303960 0.342626
0.243900 0.313634 0.351263
0.299687 0.341497 0.422492
0.471321 0.323735 0.489113
0.582666 0.366857 0.458503
0.644068 0.380591 0.429877
0.702815 0.453864 0.455299
0.257633 0.404425 0.405890
0.270634 0.407691 0.409125
0.312047 0.417395 0.419257
0.370550 0.429816 0.433204
0.436591 0.448188 0.465888
0.556390 0.454231 0.472938
0.625940 0.468849 0.461006
0.720485 0.506065 0.467811
0.348455 0.508141 0.466194
0.362341 0.511437 0.470344
0.403510 0.519890 0.481910
0.460883 0.532311 0.499306
0.529778 0.560632 0.531640
0.551812 0.543297 0.519249
0.670619 0.576532 0.507012
0.746670 0.589563 0.496376
0.501488 0.631403 0.557671
0.512108 0.634546 0.562707
0.543999 0.643885 0.578149
0.589136 0.659297 0.602991
0.615717 0.660792 0.610895
0.628321 0.637812 0.603204
0.636103 0.619379 0.569696
0.743984 0.672084 0.562707
0.613581 0.724361 0.644312
0.617792 0.725460 0.646509
0.629114 0.726955 0.651148
0.645411 0.729397 0.657313
0.662837 0.730129 0.661677
0.687312 0.722011 0.671443
0.688106 0.687892 0.646632
0.713741 0.698634 0.635401
0.098177 0.242130 0.464515
0.111360 0.240085 0.472053
0.172702 0.233677 0.497719
0.304601 0.206149 0.540795
0.517784 0.070008 0.592309
0.619989 0.171328 0.558038
0.697047 0.298955 0.530571
0.749538 0.394415 0.524010
0.140841 0.266148 0.462104
0.137453 0.258976 0.469825
0.184726 0.252049 0.495308
0.305333 0.228367 0.538140
0.516136 0.124025 0.593317
0.618952 0.200015 0.560174
0.695796 0.315648 0.532982
0.748318 0.403174 0.525689
0.220554 0.324804 0.447089
0.230411 0.328130 0.457588
0.227604 0.309911 0.484993
0.311589 0.296452 0.528679
0.496803 0.246464 0.585718
0.615534 0.276616 0.568078
0.691707 0.366430 0.541009
0.744137 0.431006 0.531365
0.264164 0.355047 0.408331
0.270970 0.357580 0.412055
0.300603 0.379187 0.448676
0.339178 0.385870 0.507652
0.464363 0.369848 0.568627
0.616602 0.370367 0.588128
0.685084 0.435554 0.554009
0.737148 0.470649 0.539178
0.331151 0.447578 0.468299
0.338537 0.448371 0.469276
0.362158 0.450233 0.471717
0.393378 0.448402 0.472053
0.452308 0.471839 0.536156
0.598840 0.467475 0.599176
0.674800 0.506218 0.569268
0.726192 0.516289 0.547906
0.411200 0.548272 0.532952
0.418921 0.549279 0.534447
0.443427 0.552361 0.539239
0.477974 0.555566 0.545525
0.514763 0.555688 0.550164
0.561089 0.564385 0.575494
0.655512 0.573846 0.584100
0.704677 0.579431 0.569543
0.493294 0.624506 0.582696
0.500053 0.625696 0.584710
0.522087 0.629664 0.591363
0.555138 0.636164 0.602228
0.594659 0.645014 0.616724
0.640375 0.664179 0.641718
0.649958 0.646357 0.625788
0.748409 0.673610 0.614954
0.595789 0.703792 0.647120
0.600763 0.705653 0.649928
0.616876 0.712428 0.659480
0.641413 0.725154 0.675746
0.674372 0.745083 0.699763
0.703426 0.757046 0.715938
0.715785 0.736843 0.707820
0.723262 0.717189 0.674250
0.278447 0.368719 0.595392
0.285588 0.365545 0.599847
0.323217 0.357458 0.614862
0.404273 0.336950 0.640009
0.532097 0.291630 0.672511
0.662196 0.266453 0.692531
0.721431 0.357488 0.657557
0.773861 0.452705 0.637507
0.299657 0.387854 0.592340
0.298283 0.380652 0.597131
0.329900 0.371893 0.612451
0.406012 0.353338 0.637842
0.529473 0.312718 0.670710
0.660517 0.285771 0.692958
0.720394 0.370001 0.658778
0.773220 0.460609 0.638941
0.358831 0.441474 0.580621
0.357610 0.436927 0.585534
0.353735 0.416236 0.602777
0.410834 0.402350 0.629572
0.519951 0.374212 0.664088
0.654231 0.342962 0.694453
0.716793 0.408820 0.663172
0.771023 0.486152 0.644068
0.380713 0.468605 0.546380
0.387152 0.471778 0.553033
0.411688 0.481514 0.576867
0.426001 0.467109 0.612055
0.504753 0.452186 0.650507
0.638941 0.421820 0.694972
0.710414 0.462898 0.670863
0.767697 0.524498 0.652735
0.430793 0.518547 0.551873
0.433356 0.517235 0.551080
0.440375 0.511437 0.547295
0.456703 0.514519 0.565087
0.499001 0.523430 0.624872
0.599298 0.513024 0.676478
0.706233 0.523247 0.688075
0.763455 0.571771 0.665064
0.494118 0.596307 0.602472
0.497169 0.596002 0.602533
0.506950 0.594263 0.602228
0.520165 0.588586 0.599603
0.531518 0.574090 0.590387
0.574975 0.587549 0.643030
0.691127 0.592279 0.700771
0.758633 0.623346 0.680415
0.551812 0.663722 0.647608
0.555138 0.663935 0.648219
0.566094 0.664393 0.650080
0.583246 0.664881 0.652888
0.604303 0.664302 0.655665
0.624628 0.659327 0.654902
0.651942 0.659510 0.673518
0.744900 0.673640 0.691829
0.600427 0.712184 0.679774
0.603388 0.712917 0.680934
0.613397 0.715602 0.685084
0.630152 0.720821 0.692683
0.652949 0.729183 0.704250
0.683284 0.741299 0.720790
0.725338 0.762417 0.747829
0.741329 0.750454 0.738491
