data/fiter_cube/28334299/1023169/file.cube
# Created by Adobe Lightroom plugin Export LUT (1.17.0)
# www.johnrellis.com/lightroom/exportlut.htm
# Preset: 梦幻人像_08 云集
# Color profile: C:\Program Files (x86)\Common Files\Adobe\Color\Profiles\Recommended\AdobeRGB1998.icc
LUT_3D_SIZE 32
DOMAIN_MIN 0.0 0.0 0.0
DOMAIN_MAX 1.0 1.0 1.0
0.000000 0.000000 0.000000
0.000000 0.000000 0.000000
0.034913 0.000000 0.000549
0.101869 0.000000 0.000793
0.144442 0.000000 0.001190
0.190402 0.000000 0.000000
0.239384 0.000000 0.000000
0.288640 0.000000 0.000000
0.337530 0.000000 0.000000
0.384619 0.000000 0.000000
0.430182 0.000000 0.000000
0.473762 0.000000 0.000000
0.514916 0.000000 0.000000
0.553704 0.000000 0.000000
0.589837 0.000000 0.000000
0.623713 0.000000 0.000000
0.655177 0.000000 0.000000
0.684443 0.000000 0.000000
0.713100 0.000000 0.000000
0.739132 0.000000 0.000000
0.762783 0.000000 0.000000
0.786099 0.000000 0.000000
0.809476 0.000000 0.000000
0.833066 0.000000 0.000000
0.856962 0.000000 0.000000
0.881254 0.000000 0.000000
0.906126 0.026703 0.000000
0.931640 0.064363 0.000000
0.957763 0.084260 0.000000
0.984558 0.102815 0.032898
1.000000 0.121584 0.070832
1.000000 0.140902 0.093568
0.000000 0.000000 0.000000
0.000000 0.000000 0.000000
0.040345 0.000000 0.000488
0.102205 0.000000 0.000122
0.144106 0.000000 0.000000
0.190036 0.000000 0.000000
0.239048 0.000000 0.000000
0.288182 0.000000 0.000000
0.336767 0.000000 0.000000
0.384009 0.000000 0.000000
0.429450 0.000000 0.000000
0.472999 0.000000 0.000000
0.514153 0.000000 0.000000
0.552911 0.000000 0.000000
0.589044 0.000000 0.000000
0.622766 0.000000 0.000000
0.654292 0.000000 0.000000
0.683528 0.000000 0.000000
0.712062 0.000000 0.000000
0.737881 0.000000 0.000000
0.761410 0.000000 0.000000
0.784573 0.000000 0.000000
0.807919 0.000000 0.000000
0.831510 0.000000 0.000000
0.855406 0.000000 0.000000
0.879759 0.017334 0.000000
0.904723 0.053315 0.000000
0.930236 0.074830 0.000000
0.956451 0.092622 0.000000
0.983337 0.108736 0.027405
1.000000 0.126253 0.068910
1.000000 0.144961 0.092195
0.000153 0.031342 0.008240
0.000000 0.039521 0.009766
0.018677 0.046021 0.003326
0.101137 0.047700 0.000000
0.143252 0.042634 0.000000
0.189517 0.037659 0.000000
0.238560 0.030243 0.000000
0.287602 0.024781 0.000000
0.336431 0.018647 0.000000
0.383764 0.018280 0.000000
0.429206 0.024872 0.000000
0.472694 0.015991 0.000000
0.513909 0.004578 0.000000
0.552667 0.000000 0.000000
0.588708 0.000000 0.000000
0.622492 0.000000 0.000000
0.653986 0.000000 0.000000
0.683253 0.000000 0.000000
0.711757 0.000000 0.000000
0.737362 0.000000 0.000000
0.760891 0.000000 0.000000
0.783993 0.000000 0.000000
0.807279 0.000000 0.000000
0.830838 0.006714 0.000000
0.854734 0.032136 0.000000
0.879026 0.059815 0.000000
0.903990 0.074250 0.000000
0.929564 0.088289 0.000000
0.955840 0.102602 0.000000
0.982757 0.117556 0.026917
1.000000 0.133364 0.069215
1.000000 0.150576 0.092195
0.001404 0.091646 0.043641
0.001526 0.093080 0.045350
0.016419 0.092836 0.037476
0.083253 0.095460 0.002075
0.141329 0.093965 0.000000
0.189242 0.095460 0.000000
0.238560 0.096101 0.000000
0.288090 0.097292 0.000000
0.337041 0.097597 0.000000
0.384100 0.098787 0.000000
0.429694 0.097871 0.000000
0.473121 0.096101 0.000000
0.514183 0.092927 0.000000
0.552728 0.088014 0.000000
0.588830 0.083131 0.000000
0.622553 0.079164 0.000000
0.653925 0.074006 0.000000
0.683497 0.068971 0.000000
0.711574 0.066621 0.000000
0.736751 0.065980 0.000000
0.760006 0.066835 0.000000
0.782925 0.070741 0.000000
0.806271 0.075074 0.000000
0.829923 0.079072 0.000000
0.854124 0.086183 0.000000
0.878721 0.093416 0.000000
0.903899 0.102296 0.000000
0.929625 0.112520 0.000000
0.955901 0.123384 0.000000
0.982727 0.135103 0.028229
1.000000 0.148653 0.069398
1.000000 0.163851 0.091920
0.004791 0.125948 0.068879
0.005097 0.126955 0.069093
0.022248 0.125917 0.066011
0.060365 0.122499 0.059388
0.118196 0.131258 0.000000
0.183749 0.135317 0.000000
0.236820 0.141268 0.000000
0.288151 0.144717 0.000000
0.337285 0.146181 0.000000
0.384527 0.146578 0.000000
0.430121 0.145449 0.000000
0.473518 0.144015 0.000000
0.514580 0.141512 0.000000
0.553216 0.137972 0.000000
0.589288 0.134096 0.000000
0.622950 0.130770 0.000000
0.654475 0.125429 0.000000
0.684688 0.123201 0.000000
0.712306 0.119905 0.000000
0.737148 0.118288 0.000000
0.760067 0.117067 0.000000
0.782834 0.116915 0.000000
0.806088 0.118654 0.000000
0.829770 0.120790 0.000000
0.853910 0.123873 0.000000
0.878508 0.128267 0.000000
0.903655 0.134005 0.000000
0.929351 0.140780 0.000000
0.955596 0.149020 0.000000
0.982361 0.158328 0.031769
1.000000 0.169375 0.070405
1.000000 0.182284 0.092988
0.000000 0.162997 0.087190
0.000000 0.164004 0.087587
0.013336 0.162661 0.083589
0.049409 0.159487 0.075624
0.081727 0.161074 0.050080
0.156100 0.171145 0.000000
0.228428 0.177798 0.000000
0.283299 0.185580 0.000000
0.338781 0.191592 0.000000
0.386206 0.191836 0.000000
0.431922 0.191287 0.000000
0.475349 0.189242 0.000000
0.516197 0.186526 0.000000
0.554772 0.183444 0.000000
0.590753 0.179355 0.000000
0.624323 0.175570 0.000000
0.655756 0.171450 0.000000
0.686519 0.168002 0.000000
0.713558 0.164584 0.000000
0.738155 0.161776 0.000000
0.760983 0.159945 0.000000
0.783810 0.158236 0.000000
0.816922 0.162448 0.000000
0.840543 0.163363 0.000000
0.864347 0.165621 0.000000
0.888457 0.168368 0.000000
0.912993 0.172213 0.000000
0.937987 0.177096 0.000000
0.963439 0.183230 0.022278
0.989532 0.190829 0.063935
1.000000 0.199893 0.084443
1.000000 0.210636 0.104005
0.000000 0.207156 0.109773
0.000000 0.207401 0.109621
0.000000 0.206271 0.105684
0.023987 0.203677 0.097383
0.065431 0.199680 0.085115
0.115785 0.206394 0.051545
0.198062 0.216312 0.000000
0.276432 0.222934 0.000000
0.332616 0.231296 0.000000
0.387762 0.236973 0.000000
0.438025 0.238376 0.000000
0.481392 0.235966 0.000000
0.522148 0.232609 0.000000
0.560296 0.228763 0.000000
0.595819 0.224369 0.000000
0.628779 0.219394 0.000000
0.661097 0.215763 0.000000
0.691218 0.211765 0.000000
0.717800 0.207614 0.000000
0.742184 0.203861 0.000000
0.765286 0.200961 0.000000
0.789029 0.199100 0.000000
0.813291 0.198184 0.000000
0.837919 0.198581 0.000000
0.862699 0.199741 0.000000
0.887358 0.201450 0.000000
0.912169 0.203983 0.000000
0.937163 0.207553 0.000000
0.962707 0.212192 0.025696
0.988647 0.218143 0.065522
1.000000 0.225345 0.085756
1.000000 0.234348 0.105623
0.000000 0.250675 0.132387
0.000000 0.250919 0.131685
0.000000 0.250370 0.129183
0.000000 0.247990 0.120699
0.038331 0.244480 0.108553
0.078401 0.239780 0.094087
0.151827 0.250950 0.049195
0.238407 0.260380 0.000000
0.321080 0.265049 0.000000
0.376776 0.272648 0.000000
0.430793 0.277745 0.000000
0.482338 0.280522 0.000000
0.524468 0.277531 0.000000
0.562341 0.272801 0.000000
0.597742 0.267796 0.000000
0.631312 0.262882 0.000000
0.663813 0.258335 0.000000
0.692988 0.253330 0.000000
0.718807 0.248295 0.000000
0.742733 0.243534 0.000000
0.765591 0.239689 0.000000
0.789120 0.237095 0.000000
0.813169 0.235172 0.000000
0.837613 0.234226 0.000000
0.862272 0.234134 0.000000
0.886839 0.235050 0.000000
0.911528 0.236332 0.000000
0.936553 0.238712 0.000000
0.961975 0.242191 0.034546
0.987884 0.246738 0.067414
1.000000 0.252781 0.088411
1.000000 0.260319 0.107362
0.000000 0.294835 0.155795
0.000000 0.294835 0.154818
0.000000 0.294987 0.153231
0.000000 0.292943 0.145785
0.000000 0.290257 0.134707
0.064515 0.286137 0.120333
0.088167 0.286381 0.083467
0.189700 0.296025 0.047242
0.278477 0.304173 0.000000
0.364080 0.308415 0.000000
0.419165 0.313237 0.000000
0.471321 0.317296 0.000000
0.520867 0.319158 0.000000
0.565545 0.318334 0.000000
0.601282 0.312596 0.000000
0.635584 0.307286 0.000000
0.667140 0.301457 0.000000
0.695369 0.295323 0.000000
0.720546 0.289036 0.000000
0.743954 0.283116 0.000000
0.766567 0.278477 0.000000
0.789944 0.274510 0.000000
0.813840 0.271885 0.000000
0.838102 0.270024 0.000000
0.862547 0.269291 0.000000
0.886992 0.268925 0.000000
0.911589 0.269535 0.000000
0.936431 0.270787 0.000000
0.961761 0.273320 0.045167
0.987518 0.276677 0.072908
1.000000 0.281437 0.091646
1.000000 0.287694 0.109682
0.000000 0.337957 0.178500
0.000000 0.338018 0.177798
0.000000 0.338231 0.176791
0.000000 0.336767 0.170504
0.000000 0.334295 0.160250
0.032319 0.330968 0.147372
0.087953 0.326696 0.132448
0.132052 0.330938 0.090333
0.228733 0.339422 0.048463
0.316899 0.346471 0.000000
0.404547 0.351751 0.000000
0.458808 0.351507 0.000000
0.508965 0.354528 0.000000
0.557488 0.356512 0.000000
0.602991 0.356756 0.000000
0.639979 0.352361 0.000000
0.670954 0.345342 0.000000
0.698482 0.337865 0.000000
0.723110 0.330388 0.000000
0.745907 0.323339 0.000000
0.768246 0.317388 0.000000
0.791196 0.312383 0.000000
0.814633 0.308690 0.000000
0.838376 0.305943 0.000000
0.862455 0.304112 0.000000
0.886717 0.302953 0.000000
0.911254 0.302678 0.000000
0.936156 0.303166 0.011810
0.961517 0.304753 0.056703
0.987304 0.307317 0.077729
1.000000 0.311315 0.095949
1.000000 0.316472 0.114107
0.000000 0.379187 0.201266
0.000000 0.379278 0.200626
0.000000 0.379187 0.199466
0.000000 0.378485 0.195010
0.000000 0.376410 0.186099
0.000000 0.373846 0.174807
0.078706 0.370245 0.161349
0.115267 0.365881 0.146883
0.174136 0.373816 0.098726
0.267185 0.381353 0.055116
0.354253 0.386999 0.000000
0.444312 0.394171 0.000000
0.497749 0.389624 0.000000
0.546899 0.392309 0.000000
0.592676 0.393011 0.000000
0.635218 0.391974 0.000000
0.674128 0.389349 0.000000
0.700893 0.380560 0.000000
0.724910 0.371618 0.000000
0.747341 0.363317 0.000000
0.769619 0.356115 0.000000
0.792447 0.350347 0.000000
0.815793 0.345861 0.000000
0.839475 0.342199 0.000000
0.863371 0.339727 0.000000
0.887449 0.337621 0.000000
0.911742 0.336431 0.000000
0.936400 0.336278 0.033234
0.961517 0.336889 0.065461
0.987091 0.338689 0.084443
1.000000 0.341558 0.101045
1.000000 0.345800 0.118502
0.000000 0.418860 0.223484
0.000000 0.419013 0.223117
0.000000 0.418952 0.222354
0.000000 0.418524 0.219669
0.000000 0.416754 0.211795
0.000000 0.414649 0.201968
0.070741 0.411627 0.189822
0.112367 0.407904 0.176761
0.141390 0.405402 0.156222
0.215579 0.414649 0.109834
0.305364 0.422248 0.066011
0.392004 0.428077 0.000000
0.488197 0.440711 0.000000
0.543420 0.433143 0.000000
0.590295 0.434241 0.000000
0.633509 0.433295 0.000000
0.672847 0.430793 0.000000
0.707057 0.426093 0.000000
0.734096 0.418158 0.000000
0.755734 0.408301 0.000000
0.777707 0.399664 0.000000
0.800107 0.392798 0.000000
0.822843 0.386969 0.000000
0.845914 0.382269 0.000000
0.869261 0.378454 0.000000
0.892760 0.375586 0.000000
0.916533 0.373480 0.035126
0.940612 0.372229 0.064363
0.965087 0.372045 0.082033
0.990143 0.372717 0.096895
1.000000 0.374701 0.111971
1.000000 0.377966 0.127779
0.000000 0.459480 0.247196
0.000000 0.459510 0.246799
0.000000 0.459297 0.246311
0.000000 0.458991 0.245182
0.000000 0.457221 0.238407
0.000000 0.454780 0.229221
0.069123 0.452064 0.218418
0.113527 0.449073 0.206882
0.148714 0.446357 0.195346
0.166201 0.450111 0.154452
0.259373 0.458381 0.125917
0.345708 0.465278 0.083497
0.430976 0.470466 0.000000
0.516075 0.473304 0.000000
0.574884 0.465278 0.000000
0.619471 0.465583 0.000000
0.660243 0.463722 0.000000
0.695949 0.459510 0.000000
0.727047 0.453773 0.000000
0.755612 0.447852 0.000000
0.778714 0.439368 0.000000
0.801022 0.431128 0.000000
0.823575 0.424537 0.000000
0.846494 0.418738 0.000000
0.869627 0.414221 0.000000
0.892973 0.410407 0.022827
0.916564 0.407630 0.057679
0.940429 0.405615 0.075624
0.964782 0.404608 0.090120
0.989685 0.404578 0.103731
1.000000 0.405890 0.118196
1.000000 0.408148 0.133059
0.000000 0.494728 0.268498
0.000000 0.494820 0.268345
0.000000 0.494789 0.268162
0.000000 0.494697 0.267796
0.000000 0.493721 0.262913
0.000000 0.492103 0.255528
0.076081 0.490181 0.246159
0.118196 0.487922 0.235966
0.153048 0.485145 0.225589
0.184054 0.482124 0.215579
0.213779 0.488685 0.171389
0.298802 0.495705 0.142000
0.381048 0.501305 0.100221
0.463203 0.505058 0.000000
0.545159 0.506493 0.000000
0.603937 0.495460 0.000000
0.646052 0.494667 0.000000
0.683497 0.491249 0.000000
0.716274 0.485847 0.000000
0.745663 0.479957 0.000000
0.774655 0.474983 0.000000
0.802243 0.470192 0.000000
0.824796 0.462654 0.000000
0.847593 0.456153 0.000000
0.870573 0.450629 0.017304
0.893736 0.446021 0.055146
0.917113 0.442359 0.073274
0.940856 0.439612 0.086519
0.964996 0.437873 0.099458
0.989715 0.437232 0.112062
1.000000 0.437659 0.125917
1.000000 0.439277 0.139864
0.000000 0.530999 0.291142
0.000000 0.530999 0.291081
0.000000 0.530877 0.290867
0.000000 0.530449 0.290745
0.000000 0.529442 0.287816
0.001526 0.527764 0.280980
0.088533 0.525689 0.272892
0.126925 0.523430 0.263676
0.159579 0.520928 0.254093
0.189883 0.518059 0.244602
0.218265 0.515007 0.236210
0.257328 0.523980 0.187900
0.335729 0.529870 0.158206
0.414069 0.534295 0.117922
0.492683 0.536828 0.014588
0.571496 0.536980 0.000000
0.630579 0.523522 0.000000
0.669917 0.521386 0.000000
0.704524 0.516716 0.000000
0.735225 0.510948 0.000000
0.764675 0.505669 0.000000
0.794186 0.501793 0.000000
0.823514 0.498909 0.000000
0.848722 0.493660 0.025940
0.871641 0.487343 0.059937
0.894743 0.481971 0.074830
0.918120 0.477699 0.087648
0.941833 0.474403 0.100526
0.966033 0.472053 0.111452
0.990692 0.470893 0.123598
1.000000 0.470741 0.135958
1.000000 0.471717 0.149264
0.000000 0.563897 0.312474
0.000000 0.563867 0.312474
0.000000 0.563775 0.312566
0.000000 0.563409 0.312779
0.000000 0.562585 0.311559
0.063416 0.561212 0.305699
0.105348 0.559503 0.298711
0.138918 0.557488 0.290654
0.169314 0.555138 0.281865
0.198032 0.552544 0.273320
0.225315 0.549493 0.264683
0.242863 0.549706 0.242222
0.297246 0.556603 0.204929
0.370214 0.561120 0.175204
0.444343 0.564080 0.135683
0.519554 0.565362 0.068330
0.595026 0.564843 0.000000
0.654688 0.549645 0.000000
0.691554 0.546044 0.000000
0.724331 0.540948 0.000000
0.754574 0.535607 0.000000
0.784817 0.531609 0.000000
0.814847 0.528771 0.000000
0.844633 0.526665 0.026398
0.873777 0.525231 0.081910
0.896727 0.519066 0.094179
0.919951 0.513909 0.104067
0.943481 0.509880 0.114321
0.967376 0.506889 0.124666
0.991699 0.504845 0.135225
1.000000 0.503746 0.146242
1.000000 0.503990 0.158572
0.000000 0.593652 0.332555
0.000000 0.593591 0.332586
0.000000 0.593347 0.332586
0.000000 0.592981 0.333074
0.045991 0.592248 0.333440
0.092042 0.590814 0.328222
0.123720 0.589319 0.322148
0.152316 0.587427 0.314824
0.180148 0.585321 0.307286
0.206363 0.582940 0.299077
0.232517 0.580194 0.291081
0.258030 0.577173 0.284184
0.266331 0.581018 0.244327
0.333379 0.585779 0.220706
0.402350 0.589380 0.191562
0.472511 0.591547 0.153597
0.544335 0.592096 0.096162
0.616907 0.590906 0.000000
0.677119 0.578180 0.000000
0.711727 0.569512 0.000000
0.743191 0.564141 0.000000
0.774044 0.559991 0.000000
0.804807 0.557031 0.000000
0.835325 0.555047 0.000000
0.865324 0.553582 0.070558
0.894652 0.552605 0.102052
0.921080 0.549950 0.119478
0.944457 0.545159 0.128450
0.968170 0.541375 0.137179
0.992309 0.538628 0.146914
1.000000 0.536950 0.157107
1.000000 0.536461 0.168673
0.000000 0.621698 0.352026
0.000000 0.621698 0.352117
0.000000 0.627466 0.356756
0.000000 0.626947 0.357214
0.093843 0.626154 0.358373
0.125734 0.624811 0.354742
0.149966 0.623133 0.349065
0.173648 0.621180 0.342535
0.197787 0.619104 0.335424
0.222019 0.616724 0.328038
0.245914 0.614099 0.320592
0.269810 0.611170 0.313634
0.293370 0.607721 0.307713
0.308904 0.613428 0.264317
0.370794 0.617060 0.240238
0.435492 0.619440 0.210971
0.502434 0.620447 0.174197
0.570611 0.619928 0.122683
0.639887 0.617945 0.000000
0.700710 0.607385 0.000000
0.733120 0.593683 0.000000
0.764797 0.589349 0.000000
0.796323 0.586236 0.000000
0.827451 0.584100 0.000000
0.857877 0.582574 0.054139
0.887633 0.581415 0.094331
0.916625 0.580560 0.120211
0.944854 0.579980 0.140963
0.969055 0.576257 0.150301
0.992828 0.572686 0.158999
1.000000 0.570245 0.168582
1.000000 0.568872 0.178531
0.000000 0.649042 0.371740
0.000000 0.649622 0.372564
0.000000 0.650172 0.373388
0.006897 0.650385 0.374670
0.114565 0.650080 0.376196
0.149935 0.649226 0.374762
0.169284 0.647944 0.369818
0.190311 0.646357 0.364263
0.211826 0.644526 0.357855
0.233860 0.642542 0.351415
0.256046 0.640192 0.344457
0.278538 0.637720 0.338079
0.300938 0.634791 0.332219
0.320287 0.632471 0.322789
0.344457 0.638544 0.279850
0.402167 0.641199 0.255955
0.463203 0.642817 0.227329
0.526329 0.643183 0.192081
0.591638 0.642237 0.144839
0.658167 0.639948 0.059144
0.719875 0.632319 0.000000
0.752255 0.615686 0.000000
0.784756 0.612787 0.000000
0.816922 0.610773 0.000000
0.848386 0.609430 0.000000
0.879149 0.608576 0.078340
0.909117 0.608026 0.111055
0.938293 0.607660 0.135286
0.966644 0.607660 0.155245
0.993469 0.606989 0.172152
1.000000 0.603815 0.180209
1.000000 0.601617 0.189487
0.000000 0.672267 0.389410
0.000000 0.672755 0.390204
0.000000 0.673213 0.391089
0.086091 0.673304 0.392248
0.137453 0.672999 0.394079
0.174258 0.672175 0.394324
0.190951 0.671107 0.390082
0.208896 0.669703 0.385168
0.228061 0.668177 0.379706
0.247929 0.666407 0.373693
0.268681 0.664515 0.367895
0.289616 0.662348 0.361883
0.310613 0.659815 0.356359
0.331762 0.656977 0.351507
0.340490 0.657954 0.326696
0.378271 0.661891 0.296269
0.432319 0.663905 0.272770
0.489723 0.664881 0.244785
0.549706 0.664790 0.210880
0.612024 0.663569 0.166995
0.675746 0.661250 0.099489
0.739376 0.657252 0.000000
0.772457 0.638453 0.000000
0.805631 0.636835 0.000000
0.838315 0.635737 0.000000
0.870085 0.635157 0.047120
0.900999 0.634852 0.097536
0.931121 0.634791 0.125490
0.960418 0.634913 0.149569
0.988800 0.635248 0.169711
1.000000 0.635737 0.188663
1.000000 0.634302 0.200412
0.014740 0.693904 0.406653
0.062379 0.694301 0.407355
0.087007 0.694697 0.408331
0.123507 0.694759 0.409613
0.162203 0.694392 0.411475
0.199741 0.693538 0.413336
0.213779 0.692561 0.409766
0.229282 0.691371 0.405463
0.246464 0.689967 0.400610
0.264347 0.688441 0.395453
0.283299 0.686793 0.390234
0.302678 0.684871 0.384894
0.322454 0.682673 0.379797
0.342412 0.680232 0.375341
0.362463 0.677485 0.371557
0.364416 0.681239 0.334173
0.410895 0.683742 0.314183
0.461830 0.685481 0.291020
0.516197 0.686610 0.263859
0.573663 0.686976 0.231510
0.633661 0.686427 0.190433
0.695888 0.684932 0.132631
0.761959 0.684840 0.000000
0.795956 0.663996 0.000000
0.829953 0.663661 0.000000
0.863157 0.663508 0.000000
0.895293 0.663630 0.083101
0.926421 0.663966 0.118990
0.956664 0.664363 0.146029
0.985840 0.664942 0.168795
1.000000 0.665492 0.188937
1.000000 0.666133 0.207889
0.108583 0.716915 0.425788
0.120027 0.717037 0.426368
0.132967 0.717037 0.426917
0.157198 0.716793 0.428138
0.187930 0.716213 0.429908
0.222263 0.715236 0.432349
0.238376 0.714290 0.430121
0.252293 0.713222 0.426490
0.267491 0.712062 0.422339
0.283940 0.710750 0.418006
0.301549 0.709377 0.413519
0.319768 0.707698 0.409125
0.338354 0.705745 0.404700
0.356970 0.703548 0.400488
0.375982 0.701045 0.397070
0.395056 0.698360 0.394476
0.400977 0.703761 0.354009
0.443854 0.706325 0.333837
0.491402 0.708309 0.310857
0.543114 0.709590 0.283909
0.598047 0.710140 0.252354
0.655879 0.709804 0.212955
0.716182 0.708461 0.159518
0.782376 0.710140 0.051057
0.818143 0.688228 0.000000
0.852506 0.688838 0.000000
0.886076 0.689448 0.051698
0.918517 0.690211 0.100923
0.949798 0.691066 0.134676
0.980041 0.691920 0.160159
1.000000 0.692775 0.183169
1.000000 0.693721 0.204044
0.147829 0.738460 0.443671
0.155856 0.738613 0.444282
0.165591 0.738674 0.444953
0.184878 0.738430 0.446204
0.211063 0.737881 0.448127
0.241428 0.736934 0.450599
0.261295 0.735958 0.450141
0.273594 0.734920 0.446937
0.287266 0.733791 0.443305
0.302556 0.732601 0.439521
0.318608 0.731258 0.435492
0.335454 0.729702 0.431495
0.352880 0.727993 0.427527
0.370916 0.726009 0.424109
0.388983 0.723842 0.420935
0.407416 0.721462 0.418524
0.419409 0.721096 0.407080
0.434455 0.726284 0.372839
0.475074 0.729091 0.353216
0.520348 0.731441 0.330419
0.569757 0.733150 0.303990
0.622889 0.734096 0.272709
0.678950 0.734188 0.234714
0.737758 0.733364 0.184909
0.799802 0.732570 0.101320
0.840513 0.712551 0.000000
0.875395 0.714046 0.000000
0.909239 0.715480 0.078218
0.941863 0.716762 0.116762
0.973297 0.718105 0.148074
1.000000 0.719509 0.174411
1.000000 0.720912 0.197879
0.183352 0.762814 0.464088
0.189273 0.763027 0.464729
0.197513 0.763027 0.465400
0.213626 0.762661 0.466590
0.236271 0.762020 0.468513
0.262943 0.761013 0.470985
0.286320 0.759823 0.472206
0.297002 0.758755 0.469215
0.309361 0.757504 0.465858
0.322881 0.756161 0.462257
0.337469 0.754696 0.458503
0.353063 0.753140 0.454841
0.369207 0.751431 0.451179
0.385809 0.749447 0.447700
0.402838 0.747311 0.444709
0.420233 0.744930 0.442176
0.437629 0.742397 0.440436
0.440864 0.744869 0.416205
0.466041 0.749111 0.391608
0.504845 0.752224 0.371832
0.548302 0.754879 0.349615
0.596002 0.756893 0.323400
0.647272 0.758114 0.292729
0.701717 0.758358 0.255131
0.758694 0.757595 0.207187
0.819242 0.756893 0.136385
0.864866 0.741085 0.000000
0.899992 0.740841 0.043000
0.933959 0.742794 0.100130
0.966705 0.744503 0.132265
0.998260 0.746456 0.163455
1.000000 0.748257 0.190311
0.211276 0.785794 0.483192
0.216556 0.785977 0.483772
0.224094 0.785977 0.484596
0.237675 0.785672 0.485878
0.257816 0.785031 0.487770
0.282750 0.784054 0.490425
0.308934 0.782895 0.493263
0.318883 0.781949 0.490761
0.330327 0.780911 0.487831
0.342962 0.779782 0.484749
0.356664 0.778592 0.481605
0.371313 0.777279 0.478431
0.386877 0.775814 0.475349
0.402716 0.774136 0.472328
0.418921 0.772274 0.469642
0.435523 0.770199 0.467353
0.452430 0.768032 0.465797
0.469429 0.765835 0.465064
0.467292 0.771176 0.430396
0.499397 0.774899 0.413123
0.536522 0.778256 0.393713
0.578393 0.781064 0.371191
0.624323 0.783291 0.345342
0.673854 0.784665 0.314916
0.726741 0.785153 0.278080
0.782528 0.784665 0.231266
0.840848 0.783200 0.166323
0.890959 0.772641 0.071412
0.926543 0.769375 0.081056
0.960784 0.772000 0.121218
0.993744 0.774380 0.152438
1.000000 0.776730 0.182406
0.239200 0.810330 0.503838
0.243961 0.810452 0.504509
0.250278 0.810330 0.505119
0.262608 0.809934 0.506371
0.280491 0.809232 0.508263
0.303044 0.808286 0.510887
0.328985 0.807034 0.514305
0.341375 0.806058 0.513024
0.351843 0.805081 0.510460
0.363531 0.804105 0.507744
0.376318 0.803037 0.504936
0.390295 0.801938 0.502281
0.404791 0.800656 0.499489
0.420020 0.799252 0.496925
0.435554 0.797604 0.494484
0.451331 0.795804 0.492317
0.467567 0.793820 0.490852
0.484016 0.791867 0.490028
0.499153 0.790494 0.487861
0.500664 0.797299 0.451942
0.531823 0.801205 0.434882
0.567803 0.804685 0.415412
0.608118 0.807675 0.393103
0.652522 0.809995 0.367407
0.700557 0.811582 0.337072
0.752041 0.812314 0.300725
0.806668 0.812131 0.255344
0.864073 0.811002 0.193698
0.917082 0.804257 0.113802
0.953460 0.798276 0.102815
0.987823 0.801511 0.139742
1.000000 0.804318 0.171267
0.265873 0.835111 0.524834
0.270268 0.835080 0.525444
0.275700 0.834989 0.526146
0.286687 0.834684 0.527398
0.303349 0.834073 0.529442
0.324468 0.833341 0.532341
0.349371 0.832486 0.536217
0.365667 0.831876 0.537041
0.376165 0.831510 0.535332
0.387640 0.831113 0.533471
0.400488 0.830655 0.531670
0.413886 0.830106 0.529656
0.428138 0.829404 0.527764
0.442847 0.828428 0.525780
0.458015 0.827237 0.523949
0.473182 0.825772 0.522148
0.488777 0.824125 0.520867
0.504631 0.822477 0.520195
0.520897 0.820798 0.520378
0.528008 0.822507 0.506920
0.538811 0.828397 0.479194
0.568994 0.832456 0.462379
0.603479 0.836027 0.443000
0.642359 0.839078 0.420996
0.685206 0.841520 0.395392
0.731838 0.843229 0.365515
0.782040 0.844236 0.329564
0.835538 0.844450 0.285313
0.892088 0.843809 0.227207
0.947936 0.840513 0.156100
0.984985 0.831754 0.132113
1.000000 0.835172 0.167483
0.297368 0.863615 0.549981
0.301091 0.863554 0.550500
0.305760 0.863401 0.551141
0.315953 0.862974 0.552331
0.331090 0.862333 0.554406
0.350408 0.861448 0.557244
0.373205 0.860441 0.560906
0.392615 0.859525 0.563226
0.401862 0.858976 0.561456
0.412451 0.858366 0.559747
0.423835 0.857725 0.557794
0.436255 0.857023 0.555901
0.449317 0.856168 0.553887
0.463142 0.855222 0.552117
