data/fiter_cube/28334299/1023169/file.cube
# Created by Adobe Lightroom plugin Export LUT (1.17.0)
# www.johnrellis.com/lightroom/exportlut.htm
# Preset: 梦幻人像_08 云集
# Color profile: C:\Program Files (x86)\Common Files\Adobe\Color\Profiles\Recommended\AdobeRGB1998.icc
LUT_3D_SIZE 5
DOMAIN_MIN 0.000000 0.000000 0.000000
DOMAIN_MAX 0.903226 0.903226 0.903226
0.000000 0.000000 0.000000
0.288640 0.000000 0.000000
0.589837 0.000000 0.000000
0.786099 0.000000 0.000000
0.957763 0.084260 0.000000
0.000000 0.250675 0.132387
0.238407 0.260380 0.000000
0.597742 0.267796 0.000000
0.789120 0.237095 0.000000
0.961975 0.242191 0.034546
0.000000 0.530999 0.291142
0.126925 0.523430 0.263676
0.492683 0.536828 0.014588
0.794186 0.501793 0.000000
0.966033 0.472053 0.111452
0.108583 0.716915 0.425788
0.252293 0.713222 0.426490
0.375982 0.701045 0.397070
0.655879 0.709804 0.212955
0.949798 0.691066 0.134676
0.324987 0.890043 0.573358
0.418250 0.886107 0.588647
0.493904 0.878294 0.573907
0.579583 0.880430 0.540764
0.837308 0.903624 0.383337
0.000000 0.000000 0.235569
0.286442 0.000000 0.240085
0.581933 0.000000 0.209171
0.769711 0.000000 0.212284
0.946868 0.142245 0.225132
0.000000 0.258976 0.242771
0.271794 0.258885 0.236667
0.579828 0.247013 0.224430
0.773587 0.246525 0.221714
0.949462 0.264561 0.233951
0.000000 0.539422 0.339940
0.240360 0.532982 0.346532
0.503380 0.532891 0.236362
0.787472 0.511131 0.263188
0.957916 0.484474 0.268467
0.069154 0.719722 0.449317
0.292027 0.715084 0.462440
0.426673 0.702022 0.443244
0.664057 0.708736 0.304417
0.948699 0.696834 0.278599
0.291997 0.892760 0.581018
0.397498 0.888762 0.595850
0.521630 0.882170 0.600977
0.604395 0.879484 0.577356
0.842771 0.904173 0.427619
0.000000 0.000000 0.500023
0.287785 0.000000 0.501518
0.581140 0.000000 0.502892
0.772885 0.000000 0.437324
0.941527 0.086641 0.416205
0.000000 0.210880 0.508812
0.230533 0.183993 0.509422
0.580468 0.136263 0.506188
0.764645 0.222080 0.444984
0.937224 0.274022 0.430488
0.000000 0.526848 0.508385
0.146242 0.529473 0.508690
0.549096 0.526879 0.495430
0.746670 0.522637 0.490425
0.936767 0.511925 0.477668
0.000000 0.732753 0.527489
0.181827 0.727138 0.531456
0.530419 0.707637 0.559838
0.690211 0.706661 0.488808
0.946807 0.722377 0.516686
0.112825 0.901244 0.617121
0.292638 0.898802 0.625757
0.548241 0.888609 0.658717
0.649989 0.879789 0.644038
0.853483 0.900877 0.530541
0.032013 0.000000 0.682979
0.259068 0.000000 0.683406
0.507408 0.000000 0.685389
0.764462 0.000000 0.679255
0.952667 0.000000 0.629694
0.000000 0.125307 0.686671
0.205814 0.107576 0.686519
0.498665 0.000000 0.686885
0.760769 0.000000 0.678859
0.948241 0.091829 0.631891
0.000000 0.449287 0.686305
0.160922 0.453803 0.686336
0.496010 0.462776 0.684565
0.747799 0.459052 0.677943
0.937438 0.453956 0.642817
0.000000 0.697169 0.684962
0.000000 0.698146 0.684352
0.470314 0.702052 0.682551
0.722927 0.701320 0.671870
0.927794 0.695247 0.663966
0.000000 0.921202 0.708766
0.000000 0.918883 0.710933
0.411597 0.910491 0.721340
0.699977 0.894804 0.743160
0.872221 0.899138 0.661769
0.000000 0.000000 0.882994
0.182467 0.000000 0.883207
0.463325 0.000000 0.883940
0.709224 0.000000 0.884581
0.951293 0.000000 0.874205
0.000000 0.000000 0.885069
0.124514 0.000000 0.885252
0.441230 0.000000 0.885618
0.704311 0.000000 0.885283
0.949676 0.000000 0.875029
0.000000 0.374853 0.887816
0.000000 0.375830 0.887968
0.417548 0.369055 0.887480
0.693812 0.352422 0.886381
0.944030 0.333684 0.878080
0.000000 0.637659 0.888792
0.000000 0.638636 0.888823
0.367285 0.644678 0.888792
0.668544 0.640406 0.888609
0.934325 0.624750 0.883848
0.000000 0.881804 0.891142
0.000000 0.882872 0.891325
0.228977 0.886809 0.891630
0.613825 0.893278 0.891295
0.909483 0.898680 0.883940
