data/fiter_cube/28334299/1023169/file.cube
# Created by Adobe Lightroom plugin Export LUT (1.17.0)
# www.johnrellis.com/lightroom/exportlut.htm
# Preset: 梦幻人像_08 云集
# Color profile: C:\Program Files (x86)\Common Files\Adobe\Color\Profiles\Recommended\AdobeRGB1998.icc
LUT_3D_SIZE 8
DOMAIN_MIN 0.000000 0.000000 0.000000
DOMAIN_MAX 0.903226 0.903226 0.903226
0.000000 0.000000 0.000000
0.144442 0.000000 0.001190
0.337530 0.000000 0.000000
0.514916 0.000000 0.000000
0.655177 0.000000 0.000000
0.762783 0.000000 0.000000
0.856962 0.000000 0.000000
0.957763 0.084260 0.000000
0.004791 0.125948 0.068879
0.118196 0.131258 0.000000
0.337285 0.146181 0.000000
0.514580 0.141512 0.000000
0.654475 0.125429 0.000000
0.760067 0.117067 0.000000
0.853910 0.123873 0.000000
0.955596 0.149020 0.000000
0.000000 0.294835 0.155795
0.000000 0.290257 0.134707
0.278477 0.304173 0.000000
0.520867 0.319158 0.000000
0.667140 0.301457 0.000000
0.766567 0.278477 0.000000
0.862547 0.269291 0.000000
0.961761 0.273320 0.045167
0.000000 0.459480 0.247196
0.000000 0.457221 0.238407
0.148714 0.446357 0.195346
0.430976 0.470466 0.000000
0.660243 0.463722 0.000000
0.778714 0.439368 0.000000
0.869627 0.414221 0.000000
0.964782 0.404608 0.090120
0.000000 0.593652 0.332555
0.045991 0.592248 0.333440
0.180148 0.585321 0.307286
0.266331 0.581018 0.244327
0.544335 0.592096 0.096162
0.743191 0.564141 0.000000
0.865324 0.553582 0.070558
0.968170 0.541375 0.137179
0.014740 0.693904 0.406653
0.162203 0.694392 0.411475
0.246464 0.689967 0.400610
0.322454 0.682673 0.379797
0.410895 0.683742 0.314183
0.633661 0.686427 0.190433
0.829953 0.663661 0.000000
0.956664 0.664363 0.146029
0.211276 0.785794 0.483192
0.257816 0.785031 0.487770
0.330327 0.780911 0.487831
0.386877 0.775814 0.475349
0.452430 0.768032 0.465797
0.536522 0.778256 0.393713
0.726741 0.785153 0.278080
0.926543 0.769375 0.081056
0.324987 0.890043 0.573358
0.356146 0.888792 0.577966
0.427131 0.885740 0.587366
0.472389 0.883879 0.581415
0.522820 0.876524 0.572015
0.582635 0.873167 0.573175
0.667994 0.893431 0.493355
0.837308 0.903624 0.383337
0.000000 0.000000 0.116854
0.143099 0.000000 0.117891
0.332769 0.000000 0.113588
0.507103 0.000000 0.095277
0.647974 0.000000 0.081300
0.754421 0.000000 0.083253
0.848478 0.000000 0.098543
0.950988 0.097688 0.121920
0.000000 0.127932 0.118654
0.136416 0.129946 0.116823
0.330663 0.123476 0.109194
0.509148 0.106538 0.092683
0.649287 0.097932 0.079927
0.754025 0.106325 0.083497
0.846738 0.125826 0.098329
0.948791 0.155032 0.121309
0.000000 0.300572 0.184665
0.109438 0.300450 0.183474
0.286992 0.306279 0.109682
0.520226 0.312718 0.085542
0.659266 0.292943 0.078920
0.759030 0.274998 0.090974
0.852628 0.268803 0.110079
0.953918 0.275303 0.135225
0.000000 0.460365 0.265415
0.027802 0.459693 0.265049
0.196750 0.450019 0.232242
0.431464 0.465797 0.113252
0.652186 0.456275 0.028656
0.767178 0.434028 0.114260
0.859159 0.411933 0.133577
0.957244 0.404944 0.155459
0.000000 0.594202 0.345403
0.066377 0.592462 0.346410
0.218112 0.584985 0.329351
0.296056 0.575372 0.283970
0.543847 0.587396 0.155581
0.739773 0.561273 0.042908
0.861295 0.553948 0.160006
0.963073 0.541894 0.191440
0.007630 0.692531 0.413672
0.156680 0.691310 0.416602
0.268650 0.686793 0.413306
0.338781 0.680079 0.392889
0.418830 0.680934 0.334447
0.635309 0.685023 0.224491
0.828519 0.662989 0.108919
0.954162 0.664668 0.197604
0.202090 0.782956 0.485267
0.248417 0.781216 0.488624
0.342168 0.777188 0.495277
0.396887 0.773098 0.483284
0.460945 0.766262 0.473976
0.540093 0.775479 0.406714
0.725734 0.781918 0.296605
0.923125 0.766598 0.143221
0.313176 0.888487 0.573358
0.346014 0.887633 0.578180
0.434211 0.884184 0.593194
0.478431 0.882506 0.587060
0.532433 0.878996 0.581476
0.588495 0.874357 0.579767
0.670161 0.892393 0.502373
0.837156 0.901946 0.394598
0.000000 0.000000 0.278996
0.154208 0.000000 0.279271
0.336217 0.000000 0.283391
0.514702 0.000000 0.271733
0.646632 0.000000 0.241245
0.745144 0.000000 0.249393
0.841306 0.124636 0.254887
0.946868 0.163882 0.261082
0.000000 0.121248 0.284154
0.130892 0.099489 0.284947
0.335851 0.000000 0.284733
0.510338 0.000000 0.265049
0.643000 0.000000 0.242496
0.744015 0.143435 0.253880
0.840452 0.176089 0.255497
0.946075 0.202182 0.262058
0.000000 0.303227 0.286046
0.000000 0.305272 0.286839
0.317662 0.302647 0.278080
0.500053 0.298070 0.273350
0.645380 0.293645 0.268467
0.748775 0.291783 0.265568
0.844388 0.293919 0.266056
0.948180 0.301701 0.270726
0.000000 0.476692 0.329381
0.000000 0.476356 0.327916
0.294072 0.467292 0.334051
0.453773 0.469673 0.270237
0.655634 0.466163 0.284459
0.756863 0.444099 0.288762
0.852018 0.428992 0.286625
0.952728 0.423804 0.287968
0.000000 0.602319 0.384497
0.000000 0.601160 0.386206
0.292454 0.594079 0.396918
0.378546 0.581140 0.372686
0.560296 0.591089 0.283574
0.742123 0.567681 0.263828
0.860563 0.570733 0.317723
0.957671 0.554437 0.314855
0.000000 0.697139 0.439490
0.126345 0.695705 0.442878
0.313787 0.689662 0.455451
0.397803 0.681666 0.443854
0.452888 0.678187 0.401740
0.644221 0.683772 0.316075
0.828946 0.666194 0.262150
0.953979 0.674861 0.322942
0.170687 0.787472 0.503288
0.228092 0.785885 0.506828
0.355383 0.780575 0.519921
0.439643 0.774411 0.519677
0.495125 0.767361 0.507530
0.559960 0.774044 0.456062
0.734249 0.782834 0.363897
0.926421 0.771603 0.269810
0.276890 0.891936 0.582177
0.311162 0.890562 0.585351
0.414649 0.886442 0.600702
0.504051 0.883482 0.612116
0.552697 0.879881 0.603571
0.604242 0.875975 0.598566
0.679683 0.891966 0.534356
0.842679 0.902556 0.438422
0.000000 0.000000 0.432593
0.166354 0.000000 0.433753
0.333776 0.000000 0.436042
0.510094 0.000000 0.437751
0.654078 0.000000 0.409674
0.749081 0.000000 0.373541
0.837583 0.000000 0.360815
0.938628 0.142519 0.363043
0.000000 0.069215 0.439582
0.132357 0.025635 0.440070
0.324254 0.000000 0.440375
0.510918 0.000000 0.439551
0.652399 0.000000 0.408484
0.746059 0.000000 0.375860
0.834562 0.143496 0.365301
0.935851 0.214603 0.373144
0.000000 0.285252 0.441627
0.000000 0.277745 0.442878
0.285313 0.255894 0.443336
0.505333 0.241032 0.439582
0.642817 0.261662 0.410315
0.738308 0.288609 0.392309
0.829648 0.322332 0.394385
0.937255 0.338293 0.398291
0.000000 0.461097 0.442298
0.000000 0.462867 0.443305
0.253086 0.465858 0.443061
0.483223 0.462379 0.431983
0.626307 0.460456 0.429725
0.731624 0.456275 0.424994
0.832761 0.451392 0.419348
0.941375 0.447456 0.413733
0.000000 0.618738 0.460975
0.000000 0.617243 0.460304
0.234470 0.610040 0.461097
0.465644 0.593042 0.474128
0.584375 0.591638 0.423529
0.739864 0.587671 0.444251
0.845060 0.582910 0.450446
0.947814 0.570642 0.439002
0.000000 0.707179 0.487892
0.000000 0.707057 0.490730
0.276402 0.700496 0.497841
0.464546 0.688197 0.517357
0.529961 0.677089 0.503075
0.662013 0.684504 0.430884
0.831693 0.676539 0.412146
0.953246 0.694728 0.464607
0.000000 0.794614 0.534386
0.147982 0.793668 0.537407
0.318212 0.789548 0.547967
0.477028 0.781369 0.569574
0.548028 0.773251 0.563500
0.593713 0.773434 0.529229
0.746609 0.783200 0.452430
0.928771 0.777096 0.397345
0.205997 0.899260 0.603967
0.252811 0.898466 0.606928
0.365484 0.895048 0.616846
0.506004 0.888609 0.639185
0.581445 0.883299 0.640192
0.626825 0.879484 0.628687
0.690974 0.891264 0.579309
0.850736 0.902708 0.500237
0.004852 0.000000 0.559564
0.169375 0.000000 0.560174
0.319219 0.000000 0.561212
0.477577 0.000000 0.562615
0.644343 0.000000 0.562066
0.751125 0.000000 0.517815
0.843870 0.000000 0.486183
0.944823 0.000000 0.472908
0.000000 0.000000 0.563287
0.134554 0.000000 0.564141
0.306188 0.000000 0.564508
0.473915 0.000000 0.564263
0.644068 0.000000 0.562799
0.749966 0.000000 0.518578
0.842283 0.000000 0.488350
0.943450 0.116487 0.475746
0.000000 0.239689 0.567468
0.000000 0.230961 0.568444
0.267369 0.220584 0.567742
0.463447 0.207218 0.567285
0.639582 0.192477 0.562799
0.743099 0.236728 0.521630
0.834806 0.269413 0.496223
0.937621 0.283757 0.484901
0.000000 0.422705 0.566522
0.000000 0.422187 0.567163
0.240146 0.422919 0.567895
0.451881 0.422766 0.565911
0.628534 0.418463 0.561059
0.728634 0.433783 0.529778
0.823087 0.435431 0.513451
0.930358 0.429023 0.501732
0.000000 0.583032 0.565789
0.000000 0.584009 0.566125
0.207828 0.585901 0.565728
0.435279 0.587396 0.562554
0.606195 0.583429 0.551751
0.713008 0.581720 0.549615
0.818997 0.576867 0.543999
0.932464 0.569238 0.535088
0.000000 0.715755 0.562860
0.000000 0.715236 0.561822
0.159640 0.709529 0.561852
0.414313 0.697932 0.566064
0.589319 0.680293 0.580346
0.679500 0.680781 0.541405
0.832090 0.695155 0.562524
0.944488 0.698024 0.567803
0.000000 0.803769 0.584619
0.000000 0.802487 0.585687
0.228092 0.798154 0.590692
0.425666 0.790555 0.601984
0.584680 0.779263 0.622400
0.639612 0.769833 0.608667
0.759304 0.780941 0.542809
0.931212 0.782559 0.519036
0.000000 0.905638 0.636011
0.000000 0.904662 0.637751
0.275639 0.901335 0.644282
0.440986 0.897826 0.658656
0.588800 0.889708 0.679377
0.652522 0.884092 0.669581
0.700771 0.888792 0.631952
0.858213 0.900786 0.564050
0.052461 0.000000 0.661128
0.162295 0.000000 0.661189
0.298924 0.000000 0.661006
0.442206 0.000000 0.661372
0.593652 0.000000 0.662989
0.741909 0.000000 0.656764
0.845975 0.000000 0.620081
0.952270 0.000000 0.597467
0.000000 0.000000 0.661189
0.131624 0.000000 0.661250
0.284489 0.000000 0.661402
0.436194 0.000000 0.661616
0.591302 0.000000 0.662440
0.740291 0.000000 0.656092
0.844388 0.000000 0.620325
0.950683 0.000000 0.598230
0.000000 0.194553 0.665187
0.000000 0.192264 0.664851
0.250584 0.185061 0.664637
0.426429 0.174624 0.664851
0.587701 0.162478 0.663691
0.737240 0.159487 0.656825
0.841215 0.202274 0.624018
0.947112 0.213596 0.603174
0.000000 0.384833 0.665553
0.000000 0.384466 0.665553
0.243870 0.387213 0.665736
0.427436 0.390539 0.665949
0.585687 0.389044 0.664607
0.731685 0.389227 0.658350
0.836362 0.401495 0.632715
0.941833 0.393256 0.612055
0.000000 0.532738 0.662806
0.000000 0.533593 0.662928
0.215671 0.537346 0.662898
0.418952 0.545769 0.661707
0.578454 0.550500 0.658625
0.717891 0.548333 0.654322
0.821744 0.549889 0.635950
0.930724 0.535058 0.618921
0.000000 0.673274 0.659693
0.000000 0.674281 0.660182
0.171633 0.676020 0.660090
0.397101 0.678218 0.659022
0.563867 0.679622 0.655573
0.699916 0.677821 0.647578
0.811887 0.676722 0.645869
0.930053 0.671382 0.639155
0.000000 0.813230 0.670863
0.000000 0.813230 0.670802
0.000000 0.811551 0.669062
0.338903 0.807279 0.667628
0.535912 0.796109 0.672358
0.684504 0.781979 0.681239
0.776486 0.781277 0.636347
0.938170 0.797208 0.655482
0.000000 0.917906 0.691096
0.000000 0.916960 0.691737
0.000000 0.913970 0.694636
0.338659 0.909392 0.701411
0.526116 0.902037 0.712428
0.674281 0.893156 0.727413
0.737453 0.885466 0.714229
0.869078 0.899840 0.639368
0.000000 0.000000 0.760891
0.126558 0.000000 0.761013
0.278782 0.000000 0.761196
0.415747 0.000000 0.762387
0.556451 0.000000 0.762875
0.700954 0.000000 0.762631
0.839200 0.000000 0.755245
0.949981 0.000000 0.727352
0.000000 0.000000 0.761349
0.114443 0.000000 0.761532
0.264836 0.000000 0.761837
0.408301 0.000000 0.762661
0.553429 0.000000 0.762905
0.699733 0.000000 0.762448
0.838102 0.000000 0.754971
0.948943 0.000000 0.727443
0.000000 0.136660 0.764889
0.000000 0.132876 0.764950
0.222019 0.119905 0.765011
0.393225 0.096712 0.764889
0.548333 0.057130 0.764248
0.697414 0.000000 0.763210
0.836210 0.000000 0.756069
0.947662 0.000000 0.730251
0.000000 0.343633 0.766659
0.000000 0.344396 0.766537
0.214542 0.347295 0.766506
0.391577 0.345159 0.765896
0.546838 0.341955 0.764950
0.694179 0.337865 0.763760
0.831998 0.336461 0.757626
0.944915 0.327428 0.734859
0.000000 0.497383 0.765469
0.000000 0.498482 0.765408
0.181338 0.503319 0.765408
0.387823 0.509697 0.765133
0.543603 0.509972 0.764218
0.687587 0.506065 0.762905
0.824674 0.503929 0.758206
0.940215 0.497658 0.740993
0.000000 0.635187 0.764828
0.000000 0.635828 0.764920
0.105501 0.638483 0.765042
0.359899 0.643336 0.764858
0.530724 0.650202 0.763851
0.674128 0.647883 0.762264
0.815824 0.641627 0.758968
0.933104 0.632685 0.740261
0.000000 0.770504 0.764553
0.000000 0.770962 0.764767
0.000000 0.772488 0.764889
0.318303 0.774899 0.764889
0.506401 0.777829 0.764004
0.653101 0.780331 0.761776
0.797940 0.779141 0.753597
0.923095 0.777157 0.750484
0.000000 0.922942 0.787991
0.000000 0.922850 0.787625
0.000000 0.922698 0.786343
0.102022 0.921630 0.783566
0.419989 0.919188 0.779782
0.613367 0.910613 0.783017
0.782559 0.897002 0.795315
0.885191 0.898405 0.743404
0.000000 0.000000 0.882994
0.000000 0.000000 0.883146
0.229892 0.000000 0.883299
0.391852 0.000000 0.883696
0.532860 0.000000 0.884123
0.673548 0.000000 0.884520
0.817044 0.000000 0.884581
0.951293 0.000000 0.874205
0.000000 0.000000 0.883391
0.000000 0.000000 0.883543
0.232670 0.000000 0.883757
0.385168 0.000000 0.884123
0.527520 0.000000 0.884520
0.671260 0.000000 0.884672
0.815946 0.000000 0.884550
0.950652 0.000000 0.874266
0.000000 0.000000 0.885679
0.000000 0.000000 0.885771
0.158572 0.000000 0.885710
0.354437 0.000000 0.886046
0.514305 0.000000 0.885924
0.665888 0.000000 0.885496
0.813260 0.000000 0.885039
0.949065 0.000000 0.875151
0.000000 0.281437 0.887785
0.000000 0.280613 0.887816
0.009766 0.277012 0.887633
0.333654 0.270817 0.887449
0.505089 0.261387 0.887053
0.660334 0.247837 0.886473
0.808804 0.228794 0.885832
0.946227 0.211612 0.877012
0.000000 0.457984 0.887816
0.000000 0.457923 0.887938
0.000000 0.458412 0.888060
0.318791 0.459541 0.888273
0.494453 0.453986 0.887785
0.651575 0.446754 0.887144
0.801450 0.437659 0.886473
0.941466 0.431281 0.879393
0.000000 0.602533 0.888304
0.000000 0.602869 0.888304
0.000000 0.604334 0.888304
0.265232 0.607630 0.888304
0.474586 0.611933 0.888243
0.638056 0.607935 0.888243
0.790127 0.599298 0.887938
0.935973 0.589197 0.882933
0.000000 0.741634 0.889464
0.000000 0.741817 0.889494
0.000000 0.742580 0.889586
0.166812 0.744808 0.889647
0.435767 0.749264 0.889555
0.606561 0.750515 0.889586
0.766506 0.744717 0.889189
0.927001 0.739162 0.885679
0.000000 0.881804 0.891142
0.000000 0.882139 0.891173
0.000000 0.883238 0.891386
0.000000 0.885344 0.891569
0.377478 0.888457 0.891569
0.572290 0.892241 0.891417
0.742214 0.896544 0.890166
0.909483 0.898680 0.883940
