data/fiter_cube/29797953/1022857/file.cube
# Created by Adobe Lightroom plugin Export LUT (1.17.0)
# www.johnrellis.com/lightroom/exportlut.htm
# Preset: 电影灰蓝色_02 云集
# Color profile: C:\Program Files (x86)\Common Files\Adobe\Color\Profiles\Recommended\AdobeRGB1998.icc
LUT_3D_SIZE 5
DOMAIN_MIN 0.000000 0.000000 0.000000
DOMAIN_MAX 0.903226 0.903226 0.903226
0.069123 0.076112 0.088075
0.375341 0.109957 0.074006
0.756283 0.325383 0.000000
0.865843 0.531243 0.234134
0.925475 0.639216 0.403235
0.109834 0.240970 0.222477
0.338659 0.286992 0.091066
0.784207 0.515801 0.065644
0.871794 0.595056 0.278996
0.926513 0.666804 0.429236
0.548699 0.651026 0.600519
0.627253 0.657404 0.618219
0.699031 0.610681 0.276249
0.879210 0.727657 0.412512
0.927001 0.746242 0.515099
0.698756 0.782498 0.752102
0.727932 0.787839 0.759579
0.772915 0.791867 0.784695
0.798947 0.738521 0.492714
0.913756 0.792477 0.564141
0.770871 0.851377 0.830350
0.789609 0.854734 0.835538
0.830808 0.863737 0.852811
0.845274 0.864317 0.859007
0.880583 0.834958 0.662135
0.081819 0.113924 0.178866
0.379370 0.000000 0.236942
0.712367 0.380591 0.306432
0.836912 0.567010 0.410498
0.910399 0.658442 0.496986
0.155093 0.235630 0.274205
0.371588 0.348760 0.296239
0.739345 0.534783 0.382086
0.844907 0.619440 0.444709
0.911864 0.682002 0.515312
0.551415 0.661463 0.632288
0.631250 0.666285 0.634607
0.688533 0.620813 0.406622
0.865202 0.749172 0.549157
0.915862 0.754818 0.582757
0.700221 0.786465 0.762814
0.729152 0.791348 0.767697
0.776455 0.797177 0.789059
0.793545 0.742947 0.544366
0.908537 0.802182 0.616907
0.768704 0.852720 0.834134
0.787655 0.855863 0.838407
0.833310 0.866575 0.856626
0.849607 0.867338 0.866453
0.879057 0.837461 0.680720
0.228794 0.294652 0.453498
0.386084 0.238956 0.554437
0.711116 0.396063 0.532433
0.766659 0.561151 0.546838
0.877043 0.681025 0.624414
0.417945 0.426703 0.424903
0.459998 0.468971 0.530510
0.689631 0.508385 0.555688
0.780331 0.615412 0.582635
0.881224 0.698085 0.633600
0.556420 0.602319 0.617395
0.613672 0.641993 0.646967
0.674617 0.652308 0.601221
0.824704 0.742947 0.669612
0.892851 0.757809 0.672694
0.695888 0.780941 0.784939
0.720180 0.794491 0.789731
0.775540 0.804593 0.793912
0.783536 0.754604 0.641718
0.899046 0.829618 0.728908
0.763912 0.857633 0.849973
0.780636 0.859922 0.850706
0.824033 0.867552 0.857755
0.856687 0.874113 0.874571
0.873625 0.842649 0.724910
0.490974 0.511955 0.633143
0.522057 0.500084 0.666285
0.709529 0.454414 0.737423
0.804501 0.598260 0.685145
0.855589 0.669398 0.685847
0.566064 0.582696 0.615747
0.569085 0.578698 0.652613
0.702419 0.544854 0.737301
0.796262 0.627924 0.690974
0.849485 0.686610 0.695308
0.636347 0.646723 0.645624
0.648524 0.655482 0.650965
0.677943 0.684016 0.703853
0.773922 0.692958 0.706386
0.848112 0.739010 0.728328
0.695094 0.739162 0.756008
0.711116 0.751583 0.765896
0.756008 0.788724 0.797024
0.773495 0.770138 0.737301
0.881193 0.831876 0.797208
0.765713 0.836545 0.859739
0.778958 0.845274 0.862150
0.814603 0.867338 0.869993
0.857237 0.880949 0.878325
0.867399 0.852781 0.786221
0.654536 0.675105 0.765743
0.659388 0.668482 0.779446
0.712032 0.638392 0.822049
0.833280 0.640894 0.838895
0.878050 0.721309 0.796262
0.675685 0.700008 0.755917
0.671962 0.691768 0.770687
0.710048 0.669642 0.815335
0.830381 0.664668 0.841703
0.875822 0.733608 0.800534
0.709377 0.718349 0.712642
0.709895 0.721279 0.718746
0.716640 0.735836 0.787411
0.813687 0.725154 0.844816
0.869780 0.767239 0.813107
0.742397 0.772244 0.783902
0.747463 0.775479 0.785641
0.760494 0.782620 0.787655
0.778988 0.797787 0.820249
0.860746 0.813382 0.832090
0.772824 0.822263 0.842985
0.780575 0.827298 0.846342
0.806302 0.844205 0.858061
0.845914 0.871855 0.879118
0.864714 0.873899 0.865721
