data/fiter_cube/29797953/1022857/file.cube
# Created by Adobe Lightroom plugin Export LUT (1.17.0)
# www.johnrellis.com/lightroom/exportlut.htm
# Preset: 电影灰蓝色_02 云集
# Color profile: C:\Program Files (x86)\Common Files\Adobe\Color\Profiles\Recommended\AdobeRGB1998.icc
LUT_3D_SIZE 8
DOMAIN_MIN 0.000000 0.000000 0.000000
DOMAIN_MAX 0.903226 0.903226 0.903226
0.069123 0.076112 0.088075
0.133059 0.091402 0.090517
0.469398 0.112581 0.058503
0.703365 0.246830 0.000000
0.797879 0.399786 0.084291
0.854643 0.509667 0.205722
0.894652 0.584649 0.312139
0.925475 0.639216 0.403235
0.077119 0.103426 0.113466
0.129885 0.127596 0.095552
0.525689 0.240391 0.000000
0.716243 0.332616 0.000000
0.801266 0.441352 0.094942
0.854887 0.529076 0.213779
0.894347 0.595209 0.317693
0.925078 0.645869 0.407416
0.146334 0.317693 0.282414
0.260685 0.341222 0.303716
0.421790 0.348119 0.092836
0.739528 0.525994 0.000000
0.820157 0.573358 0.168460
0.864073 0.604944 0.271092
0.899260 0.641901 0.360754
0.926513 0.674952 0.436530
0.444038 0.580041 0.520500
0.499702 0.584741 0.526970
0.589380 0.591363 0.568933
0.649256 0.553948 0.199130
0.802335 0.629877 0.215122
0.878264 0.710201 0.380957
0.904540 0.709102 0.431708
0.927031 0.719387 0.483528
0.613550 0.696284 0.655451
0.631617 0.698329 0.658198
0.673091 0.704372 0.670619
0.696651 0.707271 0.678401
0.731289 0.651209 0.344518
0.836942 0.686671 0.320897
0.901549 0.761013 0.490639
0.926787 0.775509 0.552605
0.683742 0.767269 0.734829
0.695216 0.770108 0.738064
0.725307 0.775509 0.747005
0.752712 0.777340 0.761227
0.757778 0.777218 0.722744
0.786557 0.722683 0.465461
0.869169 0.734432 0.414130
0.917815 0.795071 0.573297
0.734432 0.817563 0.792142
0.741909 0.818997 0.793973
0.764034 0.823026 0.800229
0.790982 0.828305 0.811460
0.806821 0.827085 0.822782
0.806302 0.825711 0.763699
0.833738 0.782071 0.569482
0.898558 0.778225 0.509667
0.770871 0.851377 0.830350
0.776669 0.852354 0.831815
0.795285 0.855894 0.837461
0.821561 0.862242 0.848783
0.836484 0.863523 0.855283
0.846403 0.863676 0.864836
0.848295 0.864591 0.807919
0.880583 0.834958 0.662135
0.074861 0.087037 0.111421
0.140719 0.078462 0.126894
0.423529 0.127108 0.137606
0.682490 0.282139 0.157900
0.782986 0.426856 0.212070
0.842100 0.524926 0.286961
0.885832 0.593805 0.363897
0.919646 0.645075 0.435950
0.081483 0.104158 0.126070
0.139315 0.148562 0.145327
0.482826 0.241611 0.152163
0.697932 0.357061 0.166567
0.787778 0.464698 0.224613
0.843900 0.544427 0.296696
0.886107 0.604181 0.369512
0.919341 0.651148 0.439155
0.149508 0.343755 0.328832
0.288792 0.370489 0.340581
0.432074 0.367285 0.175967
0.731106 0.548302 0.218296
0.805692 0.580987 0.284459
0.853147 0.612665 0.343389
0.890745 0.646571 0.404456
0.920958 0.678584 0.464271
0.452644 0.585443 0.536492
0.508171 0.590875 0.541161
0.594598 0.598505 0.574640
0.642878 0.555627 0.261753
0.793057 0.636164 0.300542
0.867338 0.709590 0.430732
0.897002 0.710445 0.465156
0.922179 0.721462 0.506371
0.617212 0.698482 0.661952
0.633509 0.700069 0.663386
0.674189 0.705562 0.673762
0.697749 0.707210 0.685451
0.726375 0.651148 0.376165
0.832059 0.691279 0.369451
0.897276 0.765255 0.522484
0.923186 0.776699 0.570520
0.684199 0.767575 0.737423
0.694118 0.769223 0.739010
0.723445 0.774350 0.746670
0.752041 0.777279 0.760922
0.757992 0.777401 0.728481
0.784146 0.723476 0.483772
0.866514 0.737942 0.443702
0.915587 0.797574 0.589532
0.733486 0.817105 0.792844
0.740322 0.818082 0.794034
0.762387 0.822141 0.799924
0.790707 0.828214 0.811826
0.807034 0.827573 0.823026
0.806058 0.825711 0.767483
0.831510 0.781521 0.576867
0.896300 0.779355 0.523217
0.769619 0.851255 0.830838
0.775570 0.852293 0.832303
0.794278 0.855833 0.837736
0.820737 0.862119 0.848661
0.837766 0.864927 0.856779
0.847471 0.864805 0.865812
0.848325 0.864897 0.810788
0.879545 0.834928 0.666041
0.086702 0.129976 0.213016
0.129244 0.105959 0.278477
0.465309 0.028779 0.284184
0.611414 0.285069 0.309575
0.747860 0.454719 0.372442
0.816312 0.557488 0.433173
0.867521 0.619471 0.478401
0.906981 0.664271 0.520409
0.165042 0.194491 0.210056
0.175387 0.215152 0.279973
0.447456 0.218082 0.306950
0.635126 0.359411 0.339025
0.752346 0.490883 0.392157
0.818448 0.573785 0.442176
0.868315 0.628656 0.483436
0.907164 0.670192 0.523919
0.208743 0.300847 0.340734
0.289525 0.360052 0.385718
0.449989 0.416510 0.354833
0.690486 0.550378 0.428870
0.772396 0.593133 0.454261
0.829038 0.631739 0.480446
0.873289 0.664637 0.509606
0.908659 0.693477 0.541924
0.455818 0.587060 0.579126
0.505974 0.608453 0.586572
0.602625 0.618158 0.589685
0.640558 0.578241 0.408362
0.782895 0.675196 0.492134
0.846250 0.716823 0.546441
0.881682 0.722103 0.557519
0.911345 0.732601 0.575738
0.613184 0.705562 0.682399
0.632105 0.707546 0.682185
0.675319 0.712795 0.685359
0.708949 0.717128 0.708370
0.721004 0.662898 0.472328
0.824521 0.715206 0.502251
0.889372 0.782498 0.609339
0.914549 0.782040 0.622034
0.683436 0.772122 0.749691
0.694484 0.773831 0.750729
0.723934 0.778347 0.754940
0.753902 0.782559 0.765469
0.762783 0.782162 0.751095
0.778378 0.728420 0.539147
0.860349 0.752071 0.529747
0.910765 0.807889 0.640284
0.733791 0.820340 0.800839
0.741024 0.821408 0.801755
0.762509 0.824918 0.805661
0.791745 0.830808 0.815732
0.809781 0.831540 0.826200
0.808499 0.828977 0.783993
0.828977 0.785306 0.608484
0.893034 0.789609 0.578973
0.767453 0.852750 0.835019
0.772763 0.853452 0.835782
0.791684 0.856718 0.840146
0.818997 0.862943 0.849882
0.839414 0.867521 0.859312
0.850065 0.867674 0.868070
0.849454 0.866850 0.821714
0.878050 0.837461 0.684627
0.152285 0.228092 0.377722
0.182742 0.217777 0.424475
0.487953 0.068299 0.522515
0.667414 0.293675 0.466773
0.710353 0.423865 0.452186
0.774594 0.549248 0.511131
0.839231 0.627985 0.559350
0.888243 0.676631 0.593378
0.273411 0.322728 0.379431
0.270573 0.314580 0.425544
0.491188 0.233219 0.529870
0.658778 0.362860 0.479316
0.701534 0.463142 0.471656
0.778195 0.568658 0.523369
0.840757 0.637873 0.565850
0.889097 0.681636 0.595758
0.374182 0.403052 0.415747
0.407141 0.425513 0.431098
0.478676 0.478981 0.508019
0.629786 0.495888 0.509361
0.717556 0.569299 0.534874
0.792660 0.631464 0.567224
0.848844 0.674250 0.592554
0.892729 0.703059 0.610376
0.473762 0.532677 0.552361
0.507500 0.554925 0.569055
0.587335 0.611780 0.612665
0.634516 0.603357 0.542290
0.760555 0.694972 0.617884
0.815549 0.710048 0.621546
0.860380 0.724086 0.626612
0.897398 0.737697 0.634730
0.615198 0.688197 0.699550
0.629572 0.697627 0.701442
0.665949 0.720638 0.707179
0.709255 0.723354 0.709071
0.713191 0.677607 0.571527
0.818601 0.747738 0.628534
0.876097 0.787991 0.675868
0.903136 0.784543 0.672969
0.681788 0.773129 0.767086
0.692012 0.778622 0.770108
0.720546 0.784878 0.770718
0.755123 0.788815 0.773953
0.774624 0.791897 0.785519
0.772732 0.737423 0.605951
0.855497 0.774044 0.626123
0.904723 0.824247 0.706813
0.730861 0.824704 0.814145
0.738216 0.825803 0.814420
0.760159 0.829160 0.815854
0.789334 0.834257 0.820981
0.813107 0.837858 0.830930
0.814389 0.835325 0.809873
0.825498 0.790433 0.648432
0.889555 0.803342 0.642756
0.766110 0.856168 0.844297
0.771420 0.856901 0.844755
0.787778 0.859281 0.846433
0.813748 0.864042 0.852018
0.842039 0.871153 0.864042
0.853391 0.871824 0.871122
0.851682 0.870176 0.838437
0.875547 0.841184 0.711574
0.311986 0.361425 0.515251
0.331548 0.355566 0.539544
0.466407 0.306554 0.610315
0.666560 0.320989 0.628717
0.741787 0.472694 0.584009
0.768734 0.531029 0.561395
0.799130 0.616022 0.603296
0.864317 0.681727 0.648402
0.391150 0.428199 0.513207
0.389990 0.418708 0.536919
0.479286 0.384466 0.605371
0.665278 0.383948 0.633783
0.736294 0.499763 0.589319
0.764553 0.545678 0.567376
0.802152 0.626429 0.610101
0.865660 0.686793 0.651240
0.485176 0.486702 0.479927
0.499794 0.500542 0.493324
0.525566 0.529992 0.583948
0.656306 0.516472 0.643946
0.719112 0.567132 0.604700
0.747097 0.597559 0.594629
0.812222 0.658961 0.631128
0.870146 0.703273 0.660090
0.552270 0.571099 0.576562
0.564874 0.579828 0.582422
0.599207 0.604334 0.599145
0.636500 0.633692 0.638849
0.693446 0.638025 0.628931
0.770108 0.677516 0.648463
0.830655 0.709010 0.664210
0.879210 0.731533 0.675105
0.613397 0.651331 0.663264
0.625422 0.660212 0.670222
0.657038 0.686030 0.691981
0.694514 0.720058 0.715328
0.706233 0.689937 0.643946
0.812680 0.770687 0.713893
0.853422 0.773129 0.709957
0.888701 0.777768 0.708583
0.681941 0.748898 0.771817
0.689998 0.754482 0.776120
0.713313 0.772610 0.780148
0.743435 0.790494 0.783291
0.773190 0.792355 0.786709
0.766201 0.744533 0.660548
0.854520 0.800687 0.713405
0.896971 0.834501 0.760647
0.730739 0.814420 0.821347
0.736599 0.817746 0.822507
0.754971 0.827878 0.826505
0.781918 0.836820 0.829465
0.810147 0.840940 0.833158
0.824094 0.843046 0.839048
0.820493 0.795773 0.691066
0.886168 0.821500 0.712673
0.764096 0.853696 0.852293
0.768643 0.855619 0.853239
0.783169 0.861784 0.856474
0.806973 0.866087 0.858335
0.834226 0.871366 0.863737
0.855161 0.875944 0.873411
0.855650 0.874601 0.858396
0.872038 0.845151 0.741115
0.461463 0.485695 0.614099
0.470039 0.482185 0.626307
0.520226 0.464637 0.664240
0.654627 0.405524 0.720943
0.741115 0.495125 0.690791
0.793057 0.579431 0.668116
0.819364 0.616754 0.653132
0.850797 0.673335 0.679591
0.495705 0.519402 0.609583
0.496925 0.514427 0.621973
0.532372 0.500237 0.659358
0.649622 0.454047 0.715541
0.738064 0.519402 0.692195
0.789731 0.590753 0.670008
0.816983 0.622797 0.654902
0.848814 0.678309 0.682399
0.561364 0.572137 0.583032
0.566949 0.579980 0.600031
0.575036 0.582269 0.645014
0.640925 0.565026 0.701808
0.731411 0.586114 0.700374
0.780728 0.624964 0.677577
0.810117 0.643214 0.661952
0.842832 0.695613 0.692714
0.607599 0.612604 0.607843
0.612329 0.615991 0.609857
0.626612 0.626368 0.615839
0.648157 0.652308 0.677729
0.724178 0.654108 0.713649
0.767758 0.667140 0.688106
0.796597 0.681544 0.681209
0.850431 0.726192 0.713100
0.647669 0.668452 0.673915
0.652430 0.672023 0.676570
0.667079 0.683162 0.684718
0.686763 0.697871 0.694820
0.708156 0.713375 0.718685
0.750484 0.713802 0.706294
0.814054 0.742672 0.724208
0.865568 0.766049 0.739254
0.680720 0.723140 0.738888
0.686519 0.727687 0.742519
0.705806 0.743648 0.756039
0.733700 0.767178 0.776028
0.760403 0.790188 0.789456
0.761135 0.755337 0.719234
0.851652 0.824033 0.788022
0.882383 0.821622 0.781308
0.732662 0.796292 0.819516
0.737972 0.799893 0.822171
0.754513 0.811154 0.830411
0.777920 0.828641 0.837858
0.802304 0.844175 0.842008
0.826230 0.846464 0.844724
0.815732 0.804013 0.740475
0.884520 0.847745 0.791104
0.765377 0.841154 0.858152
0.769497 0.843626 0.858885
0.782864 0.851591 0.861418
0.803128 0.863249 0.865934
0.827543 0.873747 0.870665
0.852903 0.878996 0.875395
0.865080 0.881834 0.881437
0.868437 0.851102 0.776822
0.573693 0.589471 0.687984
0.576287 0.587091 0.694850
0.592950 0.576562 0.718441
0.649989 0.549401 0.757839
0.749783 0.533104 0.786862
0.800870 0.599176 0.753902
0.838499 0.648707 0.733120
0.864805 0.685878 0.730129
0.587945 0.605432 0.684596
0.588495 0.602716 0.691493
0.600977 0.593866 0.715053
0.650965 0.571008 0.754482
0.747982 0.552544 0.786740
0.799557 0.609949 0.755428
0.837003 0.655177 0.734707
0.863798 0.689967 0.731777
0.624445 0.640375 0.668086
0.627192 0.643244 0.677577
0.624475 0.635981 0.702693
0.654292 0.624750 0.743374
0.742153 0.604028 0.787320
0.795438 0.641077 0.760403
0.832090 0.675685 0.740108
0.860410 0.703151 0.737148
0.650050 0.651514 0.641627
0.651331 0.652155 0.641382
0.657160 0.666346 0.668330
0.665888 0.676692 0.722011
0.723903 0.667353 0.777981
0.788754 0.683772 0.768887
0.824216 0.705043 0.748501
0.855070 0.722530 0.744991
0.677943 0.692805 0.694331
0.680171 0.694331 0.695186
0.686946 0.698787 0.697230
0.694789 0.702632 0.696620
0.710872 0.722927 0.748684
0.779355 0.728664 0.780514
0.813931 0.736812 0.758328
0.846281 0.749569 0.757717
0.705592 0.737118 0.749447
0.708492 0.739254 0.750942
0.717952 0.746181 0.755764
0.731655 0.755886 0.762142
0.745998 0.764950 0.766812
0.762539 0.776028 0.784756
0.797818 0.772488 0.772030
0.852995 0.798001 0.791196
0.731533 0.778927 0.798123
0.734920 0.781338 0.799863
0.746181 0.789364 0.805661
0.765713 0.804288 0.817441
0.790921 0.823667 0.833097
0.815610 0.843168 0.846342
0.811185 0.813931 0.791196
0.880888 0.864225 0.844480
0.767453 0.828458 0.851438
0.770871 0.830625 0.852934
0.782345 0.837858 0.857939
0.801144 0.849790 0.866361
0.825193 0.865690 0.876127
0.847654 0.880797 0.881834
0.867369 0.885618 0.885527
0.865080 0.859617 0.817838
0.654536 0.675105 0.765743
0.655451 0.673243 0.769863
0.662165 0.666041 0.783932
0.687129 0.650538 0.807523
0.747799 0.622187 0.837766
0.820310 0.631830 0.843107
0.853819 0.679194 0.810941
0.878050 0.721309 0.796262
0.659663 0.682155 0.763088
0.660182 0.680446 0.767239
0.665400 0.673823 0.781521
0.687892 0.659632 0.805417
0.745815 0.633783 0.836027
0.818845 0.639918 0.843198
0.853025 0.684901 0.812100
0.877379 0.725093 0.797574
0.682582 0.706905 0.752407
0.680720 0.704860 0.756863
0.677089 0.696712 0.772305
0.691157 0.686702 0.797482
0.739223 0.667597 0.829648
0.813657 0.665400 0.843717
0.850370 0.703090 0.816007
0.875151 0.737392 0.801907
0.698543 0.714290 0.720241
0.699001 0.716732 0.726558
0.701961 0.724269 0.749081
0.702113 0.721309 0.781338
0.730983 0.711513 0.817258
0.804532 0.701808 0.845121
0.846036 0.729610 0.822660
0.871824 0.756069 0.808804
0.718624 0.733272 0.732967
0.719448 0.733516 0.732601
0.721523 0.733639 0.730526
0.722683 0.737728 0.739284
0.731991 0.751217 0.794553
0.785306 0.744900 0.840665
0.840177 0.760159 0.831754
0.867521 0.779446 0.817929
0.737697 0.764462 0.774075
0.739101 0.765347 0.774472
0.743618 0.768063 0.775540
0.749874 0.771084 0.775601
0.754849 0.771328 0.771145
0.768338 0.787381 0.813993
0.832456 0.794675 0.843687
0.862242 0.806332 0.829068
0.756069 0.794827 0.811551
0.758022 0.796109 0.812406
0.764462 0.800443 0.815213
0.775113 0.807553 0.819791
0.788785 0.816403 0.825284
0.801572 0.823697 0.828580
0.815579 0.832914 0.843687
0.855497 0.835691 0.842313
0.772824 0.822263 0.842985
0.775143 0.823758 0.843992
0.783139 0.828977 0.847501
0.797177 0.838193 0.853849
0.816587 0.851133 0.863035
0.839933 0.867582 0.875761
0.863249 0.884367 0.889220
0.864714 0.873899 0.865721
