data/fiter_cube/29797953/1022857/file.cube
# Created by Adobe Lightroom plugin Export LUT (1.17.0)
# www.johnrellis.com/lightroom/exportlut.htm
# Preset: 电影灰蓝色_02 云集
# Color profile: C:\Program Files (x86)\Common Files\Adobe\Color\Profiles\Recommended\AdobeRGB1998.icc
LUT_3D_SIZE 32
DOMAIN_MIN 0.0 0.0 0.0
DOMAIN_MAX 1.0 1.0 1.0
0.069123 0.076112 0.088075
0.073396 0.076905 0.088197
0.077943 0.078645 0.088838
0.093874 0.082918 0.089784
0.133059 0.091402 0.090517
0.194553 0.101198 0.088869
0.277379 0.108431 0.083742
0.375341 0.109957 0.074006
0.469398 0.112581 0.058503
0.549767 0.129030 0.014862
0.613825 0.161318 0.000000
0.664454 0.203433 0.000000
0.703365 0.246830 0.000000
0.732998 0.287541 0.000000
0.756283 0.325383 0.000000
0.778439 0.364019 0.032746
0.797879 0.399786 0.084291
0.814664 0.431800 0.116762
0.829282 0.460060 0.146548
0.842527 0.485939 0.176120
0.854643 0.509667 0.205722
0.865843 0.531243 0.234134
0.876127 0.550774 0.261540
0.885710 0.568566 0.287541
0.894652 0.584649 0.312139
0.903014 0.599664 0.336065
0.910918 0.613642 0.359045
0.918395 0.626825 0.381476
0.925475 0.639216 0.403235
0.932128 0.651026 0.424384
0.938354 0.662196 0.444739
0.944091 0.672694 0.464332
0.070161 0.078035 0.089876
0.073182 0.079377 0.089174
0.078706 0.081270 0.088930
0.096193 0.086976 0.089693
0.137484 0.097658 0.089815
0.200748 0.108980 0.087922
0.284977 0.117494 0.082429
0.382177 0.121004 0.071839
0.474617 0.125673 0.051972
0.553552 0.142702 0.007538
0.616266 0.174044 0.000000
0.665949 0.213931 0.000000
0.704189 0.255283 0.000000
0.733455 0.294652 0.000000
0.756527 0.330846 0.000000
0.778439 0.368536 0.033631
0.797543 0.403113 0.084169
0.814206 0.433967 0.116457
0.828733 0.461769 0.146426
0.841978 0.487160 0.175631
0.854093 0.510491 0.204776
0.865293 0.531792 0.233280
0.875639 0.551171 0.260655
0.885252 0.568780 0.286625
0.894224 0.584894 0.311315
0.902617 0.599847 0.335332
0.910582 0.613794 0.358221
0.918090 0.627008 0.380896
0.925200 0.639368 0.402655
0.931884 0.651179 0.423835
0.938140 0.662287 0.444190
0.943908 0.672786 0.463783
0.071077 0.080934 0.092927
0.073243 0.081544 0.094148
0.077852 0.083650 0.090944
0.097841 0.092378 0.090028
0.144015 0.107607 0.089113
0.209842 0.121157 0.086152
0.295567 0.131167 0.079927
0.391791 0.136385 0.068025
0.482368 0.143313 0.041840
0.558892 0.160189 0.000000
0.620050 0.190372 0.000000
0.668696 0.228428 0.000000
0.705928 0.267216 0.000000
0.734585 0.304723 0.000000
0.757290 0.339422 0.000000
0.779049 0.375433 0.033661
0.797848 0.408789 0.085451
0.814298 0.438483 0.117464
0.828763 0.465309 0.147250
0.841947 0.490059 0.176303
0.854002 0.512993 0.205600
0.865202 0.533837 0.234012
0.875517 0.552972 0.261143
0.885130 0.570245 0.286992
0.894072 0.586175 0.311864
0.902495 0.600916 0.335485
0.910460 0.614740 0.358618
0.917967 0.627771 0.381109
0.925078 0.640101 0.402869
0.931762 0.651820 0.424079
0.938018 0.662837 0.444312
0.943816 0.673304 0.463905
0.073976 0.087984 0.099733
0.077394 0.089570 0.101259
0.079652 0.089784 0.103090
0.094484 0.097566 0.093721
0.144808 0.119234 0.088930
0.231205 0.154208 0.080659
0.320653 0.165103 0.071534
0.414649 0.172030 0.054780
0.500237 0.180850 0.010986
0.571893 0.198245 0.000000
0.629236 0.225742 0.000000
0.675013 0.259342 0.000000
0.710170 0.293797 0.000000
0.737392 0.326818 0.000000
0.759640 0.358038 0.000000
0.780819 0.391211 0.040406
0.799039 0.421393 0.088655
0.815091 0.448951 0.120607
0.829221 0.473884 0.150118
0.842130 0.497078 0.179080
0.854063 0.518761 0.208072
0.865141 0.538720 0.236149
0.875456 0.557153 0.263157
0.885069 0.573999 0.289097
0.894102 0.589502 0.313695
0.902556 0.603967 0.337652
0.910552 0.617517 0.360571
0.918029 0.630396 0.383154
0.925139 0.642420 0.404761
0.931762 0.653864 0.425696
0.937957 0.664607 0.445747
0.943725 0.674800 0.465003
0.077119 0.103426 0.113466
0.081819 0.106294 0.115236
0.088411 0.108980 0.117952
0.095003 0.110567 0.121614
0.129885 0.127596 0.095552
0.209812 0.156863 0.083833
0.337652 0.208804 0.059083
0.447517 0.233158 0.000000
0.525689 0.240391 0.000000
0.589990 0.255863 0.000000
0.642237 0.277989 0.000000
0.684016 0.305119 0.000000
0.716243 0.332616 0.000000
0.741634 0.359503 0.000000
0.763485 0.386816 0.000000
0.783658 0.415015 0.051637
0.801266 0.441352 0.094942
0.816892 0.465736 0.126955
0.830686 0.488167 0.156588
0.843290 0.509270 0.185458
0.854887 0.529076 0.213779
0.865782 0.547539 0.241428
0.875914 0.564660 0.267857
0.885435 0.580499 0.293339
0.894347 0.595209 0.317693
0.902739 0.609003 0.341192
0.910643 0.621973 0.363989
0.918090 0.634211 0.386023
0.925078 0.645869 0.407416
0.931670 0.656855 0.428046
0.937835 0.667292 0.447822
0.943542 0.677211 0.466896
0.081666 0.132509 0.137484
0.088472 0.136049 0.139071
0.098787 0.140597 0.142428
0.113985 0.142916 0.149081
0.129305 0.155581 0.139528
0.182162 0.171084 0.095491
0.289036 0.200290 0.072084
0.431312 0.258091 0.000000
0.555901 0.324224 0.000000
0.612757 0.332250 0.000000
0.658900 0.346349 0.000000
0.695552 0.363775 0.000000
0.724269 0.382391 0.000000
0.747433 0.401434 0.000000
0.768795 0.423560 0.000000
0.787808 0.445991 0.066712
0.804593 0.467597 0.105470
0.819577 0.488106 0.137301
0.832914 0.507469 0.166659
0.845151 0.525933 0.195041
0.856474 0.543511 0.223270
0.867094 0.560052 0.250217
0.880766 0.582788 0.288029
0.889677 0.596643 0.312108
0.897978 0.609491 0.335088
0.905791 0.621546 0.357122
0.913176 0.633082 0.378393
0.920134 0.643977 0.399115
0.926726 0.654444 0.419165
0.932982 0.664485 0.438605
0.938781 0.674067 0.457374
0.944213 0.683162 0.475349
0.090822 0.179690 0.174807
0.100832 0.183505 0.176333
0.113741 0.188693 0.179385
0.139864 0.196963 0.187625
0.162600 0.195468 0.201633
0.189151 0.223362 0.159609
0.254856 0.226993 0.093446
0.376562 0.247288 0.044190
0.513909 0.312963 0.000000
0.617334 0.384253 0.000000
0.679866 0.429664 0.000000
0.710750 0.434699 0.000000
0.735439 0.442603 0.000000
0.757168 0.454292 0.000000
0.777401 0.469703 0.011566
0.794949 0.485634 0.088350
0.810605 0.501732 0.123842
0.824582 0.517632 0.154543
0.837186 0.533257 0.183841
0.848875 0.548638 0.212314
0.859953 0.563897 0.239933
0.870451 0.578515 0.266697
0.880278 0.592523 0.292576
0.889494 0.605646 0.317174
0.898009 0.617914 0.340612
0.905852 0.629267 0.362707
0.913207 0.640009 0.383734
0.920073 0.650233 0.403998
0.926604 0.659998 0.423560
0.932738 0.669429 0.442542
0.938506 0.678462 0.460822
0.943877 0.687129 0.478492
0.109834 0.240970 0.222477
0.121736 0.244663 0.223972
0.137423 0.249516 0.226535
0.170382 0.259434 0.234623
0.204013 0.262486 0.244968
0.231418 0.260990 0.269322
0.271977 0.301640 0.178744
0.338659 0.286992 0.091066
0.450446 0.292576 0.000000
0.572961 0.363867 0.000000
0.659327 0.434424 0.000000
0.716854 0.490517 0.000000
0.744778 0.502953 0.000000
0.765835 0.508019 0.000000
0.784207 0.515801 0.065644
0.800412 0.525170 0.109346
0.814939 0.535821 0.142580
0.828061 0.547082 0.172183
0.839994 0.558740 0.200046
0.851102 0.570794 0.227451
0.861692 0.583032 0.253696
0.871794 0.595056 0.278996
0.881315 0.606928 0.303563
0.890196 0.618189 0.327092
0.898466 0.628840 0.349340
0.906126 0.639002 0.370672
0.913329 0.648554 0.390784
0.920104 0.657832 0.410224
0.926513 0.666804 0.429236
0.932586 0.675471 0.447547
0.938262 0.683986 0.465492
0.943511 0.692134 0.482887
0.146334 0.317693 0.282414
0.159792 0.320867 0.283604
0.177584 0.325322 0.285863
0.214420 0.333471 0.292180
0.260685 0.341222 0.303716
0.299046 0.338994 0.321508
0.319341 0.348943 0.320470
0.367773 0.380865 0.202365
0.421790 0.348119 0.092836
0.512902 0.337713 0.000000
0.618952 0.411658 0.000000
0.691066 0.476234 0.000000
0.739528 0.525994 0.000000
0.775326 0.564202 0.031891
0.791928 0.564904 0.102541
0.806790 0.568139 0.138308
0.820157 0.573358 0.168460
0.832364 0.580072 0.195926
0.843473 0.587518 0.221866
0.854002 0.595911 0.246799
0.864073 0.604944 0.271092
0.873716 0.614221 0.294621
0.882750 0.623621 0.317632
0.891295 0.632929 0.339635
0.899260 0.641901 0.360754
0.906645 0.650446 0.380804
0.913664 0.658839 0.399939
0.920226 0.666957 0.418494
0.926513 0.674952 0.436530
0.932433 0.682826 0.454261
0.937987 0.690547 0.471504
0.943175 0.698085 0.488350
0.210422 0.397436 0.347539
0.224002 0.399725 0.348760
0.241489 0.402564 0.350378
0.277440 0.408270 0.355352
0.326238 0.416083 0.366552
0.362371 0.416388 0.376043
0.397192 0.414466 0.399054
0.408301 0.432837 0.358770
0.457069 0.450965 0.231510
0.495155 0.406683 0.103578
0.563592 0.381476 0.000000
0.657160 0.455604 0.000000
0.716915 0.512566 0.000000
0.758175 0.556329 0.057679
0.792020 0.594995 0.129702
0.813718 0.612665 0.174044
0.826169 0.613031 0.200534
0.837430 0.615137 0.225254
0.847745 0.618677 0.248447
0.857542 0.623346 0.270634
0.866972 0.629053 0.292363
0.875914 0.635401 0.313695
0.884428 0.642115 0.334142
0.892485 0.649073 0.354131
0.900053 0.656092 0.373480
0.907195 0.663142 0.392248
0.913970 0.670130 0.410193
0.920378 0.677150 0.427832
0.926513 0.684199 0.445258
0.932311 0.691218 0.462257
0.937743 0.698207 0.478920
0.942840 0.705135 0.495399
0.290013 0.468727 0.410163
0.301335 0.470161 0.411078
0.316472 0.472084 0.412482
0.346319 0.475868 0.416052
0.387549 0.481056 0.423682
0.425116 0.484596 0.432807
0.457221 0.482948 0.447883
0.480568 0.482765 0.469429
0.486793 0.501854 0.395666
0.531060 0.510124 0.267521
0.557702 0.462318 0.126009
0.606317 0.423590 0.000000
0.686183 0.491615 0.000000
0.735927 0.540887 0.025147
0.773648 0.582055 0.122438
0.804654 0.618097 0.181704
0.830259 0.648341 0.233433
0.842344 0.650660 0.258335
0.851926 0.650233 0.277775
0.861082 0.651484 0.297002
0.869871 0.654139 0.316350
0.878294 0.657710 0.335027
0.886351 0.662135 0.353735
0.893950 0.666957 0.371832
0.901152 0.672145 0.389471
0.907958 0.677455 0.406470
0.914458 0.682948 0.423011
0.920653 0.688655 0.439277
0.926543 0.694575 0.455482
0.932158 0.700526 0.471443
0.937469 0.706691 0.487434
0.942382 0.712917 0.503349
0.369818 0.528740 0.467597
0.378607 0.529625 0.468330
0.390539 0.530724 0.469368
0.413794 0.533074 0.471901
0.446265 0.536492 0.477302
0.482277 0.540734 0.487068
0.505058 0.540612 0.493446
0.530297 0.539483 0.510704
0.544244 0.543084 0.524468
0.551812 0.559045 0.433112
0.590082 0.560449 0.307866
0.606989 0.510124 0.157687
0.647791 0.467903 0.000000
0.714382 0.527977 0.000000
0.757259 0.572595 0.114961
0.791806 0.611627 0.180514
0.819944 0.644495 0.236667
0.842893 0.671229 0.285557
0.859586 0.687312 0.322057
0.867643 0.684993 0.337133
0.875425 0.684230 0.352209
0.882872 0.684810 0.367681
0.890074 0.686305 0.382727
0.896941 0.688655 0.397925
0.903502 0.691585 0.412879
0.909789 0.695003 0.427558
0.915831 0.698756 0.441993
0.921599 0.702907 0.456367
0.927123 0.707424 0.470832
0.932433 0.712184 0.485359
0.937438 0.717311 0.500175
0.942138 0.722560 0.514977
0.444038 0.580041 0.520500
0.450446 0.580591 0.521080
0.458808 0.581170 0.521691
0.475868 0.582574 0.523430
0.499702 0.584741 0.526970
0.526879 0.587488 0.533349
0.550408 0.590112 0.540642
0.571588 0.590417 0.552300
0.589380 0.591363 0.568933
0.593896 0.598169 0.556390
0.604028 0.606134 0.470466
0.637110 0.603326 0.350530
0.649256 0.553948 0.199130
0.671321 0.495125 0.000000
0.729793 0.549676 0.074464
0.770016 0.592615 0.150393
0.802335 0.629877 0.215122
0.828519 0.660334 0.269780
0.849943 0.685023 0.317540
0.867918 0.705470 0.359167
0.878264 0.710201 0.380957
0.885222 0.708309 0.393469
0.891905 0.707698 0.406165
0.898344 0.707973 0.418952
0.904540 0.709102 0.431708
0.910491 0.710842 0.444465
0.916228 0.713191 0.457343
0.921721 0.716060 0.470375
0.927031 0.719387 0.483528
0.932128 0.723171 0.497108
0.936980 0.727321 0.510979
0.941497 0.731838 0.525200
0.500481 0.619226 0.563317
0.505577 0.619715 0.563836
0.511894 0.620233 0.564508
0.525048 0.621515 0.566186
0.543542 0.623224 0.569207
0.565515 0.625452 0.574395
0.588098 0.628107 0.582513
0.601526 0.628321 0.586877
0.617945 0.628138 0.599268
0.628992 0.629236 0.612726
0.628687 0.635645 0.580346
0.639429 0.638666 0.499214
0.668360 0.633204 0.385992
0.677302 0.585107 0.238102
0.691341 0.519158 0.020325
0.743648 0.569451 0.110964
0.781552 0.610742 0.181064
0.811673 0.645808 0.245060
0.836240 0.674342 0.299321
0.856596 0.697658 0.346197
0.873686 0.716976 0.387243
0.887663 0.732418 0.421729
0.893858 0.729702 0.431891
0.899901 0.728145 0.442237
0.905699 0.727535 0.452857
0.911284 0.727749 0.463752
0.916716 0.728603 0.474830
0.921935 0.730159 0.486305
0.927001 0.732326 0.498207
0.931853 0.735042 0.510643
0.936492 0.738308 0.523705
0.940856 0.742000 0.537133
0.548699 0.651026 0.600519
0.552331 0.651301 0.600977
0.556939 0.651575 0.601373
0.566766 0.652216 0.602625
0.580652 0.653223 0.604761
0.596887 0.654658 0.608331
0.614221 0.656458 0.613886
0.627253 0.657404 0.618219
0.639338 0.657252 0.625269
0.650507 0.657527 0.635767
0.657557 0.658747 0.646815
0.655421 0.663783 0.600519
0.666224 0.663813 0.524956
0.690578 0.655543 0.418494
0.699031 0.610681 0.276249
0.711055 0.546166 0.086336
0.756191 0.587457 0.140566
0.791958 0.627039 0.208194
0.820401 0.660304 0.271916
0.843687 0.687373 0.326207
0.863066 0.709468 0.372778
0.879210 0.727657 0.412512
0.892576 0.742794 0.446509
0.901457 0.748745 0.466987
0.906859 0.746487 0.475563
0.912108 0.745205 0.484565
0.917235 0.744778 0.494087
0.922179 0.745144 0.504356
0.927001 0.746242 0.515099
0.931640 0.748013 0.526604
0.936034 0.750362 0.538750
0.940215 0.753231 0.551415
0.585901 0.675319 0.630457
0.588708 0.675563 0.630854
0.592096 0.675837 0.631250
0.599329 0.676417 0.632227
0.609766 0.677302 0.633936
0.622309 0.678645 0.636713
0.635828 0.680385 0.640833
0.649073 0.682338 0.646113
0.657038 0.682643 0.648524
0.667903 0.682551 0.656855
0.676051 0.682979 0.666133
0.678981 0.684871 0.666377
0.677882 0.687404 0.617639
0.688350 0.685023 0.547387
0.708431 0.674098 0.446906
0.716091 0.631769 0.311284
0.728389 0.572137 0.127626
0.767453 0.603662 0.165499
0.801694 0.642115 0.233585
0.828855 0.674006 0.297429
0.851102 0.699733 0.351659
0.869505 0.720760 0.397925
0.884703 0.738003 0.436805
0.897246 0.752285 0.469703
0.907591 0.764340 0.498024
0.913054 0.763485 0.507927
0.917815 0.761715 0.515679
0.922454 0.760861 0.524315
0.926940 0.760830 0.533806
0.931304 0.761471 0.543725
0.935485 0.762753 0.554437
0.939452 0.764706 0.565850
0.613550 0.696284 0.655451
0.615503 0.696529 0.655726
0.618097 0.696773 0.656031
0.623590 0.697383 0.656855
0.631617 0.698329 0.658198
0.641413 0.699672 0.660304
0.652338 0.701411 0.663294
0.664179 0.703456 0.667689
0.673091 0.704372 0.670619
0.681788 0.704402 0.675593
0.690791 0.704463 0.683711
0.697200 0.705074 0.692500
0.696651 0.707271 0.678401
0.697322 0.707759 0.631312
0.707515 0.703822 0.566522
0.724422 0.691188 0.472511
0.731289 0.651209 0.344518
0.743038 0.595819 0.170626
0.778042 0.619135 0.190951
0.810941 0.656336 0.258122
0.836942 0.686671 0.320897
0.858091 0.711147 0.374914
0.875486 0.731044 0.420294
0.889738 0.747402 0.458473
0.901549 0.761013 0.490639
0.911162 0.772488 0.518425
0.918181 0.778744 0.537743
0.922515 0.776699 0.544732
0.926787 0.775509 0.552605
0.930907 0.775113 0.561242
0.934874 0.775448 0.570672
0.938598 0.776547 0.581109
0.634882 0.715999 0.677760
0.636561 0.716304 0.678065
0.642298 0.720424 0.682551
0.646601 0.721004 0.683162
0.652979 0.721920 0.684199
0.661036 0.723079 0.685756
0.670588 0.724544 0.688197
0.681086 0.726284 0.691676
0.691341 0.727901 0.695888
0.697749 0.727993 0.697719
0.706538 0.727718 0.704402
0.713680 0.727749 0.711910
0.718410 0.728176 0.719844
0.715358 0.729793 0.692500
0.717128 0.728511 0.646143
0.726833 0.723415 0.586847
0.740993 0.709407 0.499519
0.747250 0.671809 0.379492
0.758450 0.620233 0.214511
0.789517 0.635828 0.218906
0.821073 0.671443 0.284733
0.845701 0.700008 0.346380
0.865599 0.723079 0.399969
0.881804 0.741787 0.444251
0.895079 0.757107 0.481025
0.905852 0.769894 0.512230
0.914672 0.780667 0.538994
0.921935 0.789761 0.561791
0.926574 0.790402 0.571923
0.930449 0.788968 0.579156
0.934173 0.788388 0.587366
0.937743 0.788540 0.596643
0.653376 0.735286 0.699031
0.655085 0.735958 0.699733
0.657343 0.736721 0.700526
0.661585 0.737697 0.701595
0.667536 0.738888 0.702937
0.674983 0.740169 0.704616
0.683680 0.741634 0.706813
0.693263 0.743252 0.709895
0.703578 0.745144 0.714229
0.710750 0.745785 0.716609
0.717739 0.745693 0.720363
0.725368 0.745510 0.726955
0.731167 0.745632 0.733974
0.734585 0.746090 0.740963
0.730251 0.746975 0.702663
0.732906 0.744717 0.657038
0.742519 0.739010 0.601404
0.754574 0.724300 0.520745
0.760494 0.688869 0.408148
0.771389 0.641047 0.252445
0.799283 0.649805 0.241520
0.829648 0.684108 0.307134
0.853330 0.711269 0.367712
0.872129 0.733272 0.420966
0.887388 0.751095 0.464576
0.899779 0.765774 0.500847
0.909789 0.778042 0.531731
0.917967 0.788327 0.557946
0.924712 0.797055 0.580163
0.929992 0.802945 0.597467
0.933471 0.801450 0.604547
0.936797 0.800809 0.612818
0.669062 0.751919 0.717525
0.670680 0.752499 0.718166
0.672663 0.753170 0.718868
0.676356 0.754025 0.719875
0.681758 0.755123 0.721126
0.688472 0.756313 0.722652
0.696376 0.757656 0.724697
0.705165 0.759213 0.727413
0.714687 0.760983 0.731136
0.723476 0.762478 0.735012
0.728878 0.762570 0.736629
0.736202 0.762295 0.741878
0.742519 0.762142 0.747951
0.747127 0.762264 0.754299
0.747311 0.762905 0.749935
0.744350 0.762753 0.712673
0.747768 0.759792 0.668147
0.757290 0.753811 0.615412
0.767666 0.738674 0.541497
0.773373 0.705562 0.436194
0.784054 0.661189 0.289464
0.809049 0.663661 0.264256
0.838346 0.696529 0.329503
0.860868 0.722286 0.389166
0.878538 0.743252 0.441749
0.892882 0.760281 0.484688
0.904356 0.774319 0.520592
0.913634 0.786069 0.551049
0.921202 0.795895 0.576532
0.927367 0.804196 0.598352
0.932341 0.811368 0.617578
0.935851 0.813046 0.629023
0.683742 0.767269 0.734829
0.685145 0.767788 0.735378
0.686976 0.768368 0.736019
0.690333 0.769162 0.736934
0.695216 0.770108 0.738064
0.701289 0.771206 0.739498
0.708461 0.772457 0.741329
0.716487 0.773892 0.743771
0.725307 0.775509 0.747005
0.734463 0.777310 0.751247
0.740505 0.777798 0.753231
0.746181 0.777676 0.756008
0.752712 0.777340 0.761227
0.757961 0.777188 0.766781
0.761593 0.777310 0.772549
0.759487 0.777951 0.758602
0.757778 0.777218 0.722744
0.762020 0.774075 0.679744
0.771817 0.768276 0.629358
0.780789 0.753262 0.562615
0.786557 0.722683 0.465461
0.797238 0.681788 0.328496
0.819852 0.678706 0.290379
0.847898 0.709987 0.355291
0.869169 0.734432 0.414130
0.885710 0.754299 0.465766
0.898833 0.770535 0.508354
0.909361 0.783963 0.543938
0.917815 0.795071 0.573297
0.924651 0.804379 0.598077
0.930083 0.812284 0.619532
0.934264 0.819211 0.639002
0.698756 0.782498 0.752102
0.699855 0.782803 0.752468
0.701259 0.783078 0.752804
0.704128 0.783627 0.753445
0.708431 0.784390 0.754391
0.713924 0.785306 0.755642
0.720485 0.786435 0.757351
0.727932 0.787839 0.759579
0.736110 0.789425 0.762539
0.744778 0.791196 0.766262
0.752529 0.792660 0.769894
0.757076 0.792630 0.771115
0.763058 0.792294 0.774990
0.768582 0.791989 0.779751
0.772915 0.791867 0.784695
0.775753 0.791989 0.789883
0.771939 0.792386 0.767910
0.771145 0.791165 0.733608
0.775845 0.787839 0.692134
0.785733 0.782132 0.643061
0.793423 0.767117 0.582330
0.798947 0.738521 0.492714
0.809384 0.700649 0.365179
0.829740 0.692317 0.314366
0.856474 0.721950 0.378424
0.876463 0.745113 0.436500
0.891966 0.764065 0.486854
0.904112 0.779660 0.529229
0.913756 0.792477 0.564141
0.921477 0.803098 0.592889
0.927550 0.811978 0.617212
0.932219 0.819669 0.638941
0.711330 0.795041 0.766445
0.712337 0.795346 0.766751
0.713619 0.795621 0.767147
0.716274 0.796139 0.767727
0.720211 0.796811 0.768643
0.725216 0.797696 0.769802
0.731228 0.798734 0.771359
0.738064 0.799954 0.773342
0.745724 0.801450 0.775998
0.753780 0.803128 0.779294
0.762203 0.804990 0.783383
0.767361 0.805417 0.785061
0.771878 0.805264 0.786923
0.777615 0.804837 0.791135
0.782376 0.804593 0.795468
0.785916 0.804562 0.800015
0.787594 0.804776 0.802640
0.783291 0.804959 0.776211
0.783413 0.803494 0.743648
0.788571 0.800198 0.703914
0.798703 0.794827 0.656580
0.805539 0.780056 0.600549
0.810910 0.753750 0.519402
0.821286 0.718837 0.401648
0.839353 0.705257 0.337652
0.864836 0.733425 0.400885
0.883604 0.755581 0.458686
0.898039 0.773648 0.507958
0.909178 0.788632 0.550072
0.917998 0.800870 0.584100
0.924865 0.811002 0.612238
0.930114 0.819608 0.636652
0.723934 0.807340 0.780545
0.724849 0.807614 0.780850
0.726040 0.807889 0.781155
0.728420 0.808286 0.781674
0.731930 0.808896 0.782437
0.736507 0.809628 0.783505
0.742031 0.810575 0.784878
0.748348 0.811673 0.786679
0.755398 0.812985 0.788968
0.762936 0.814511 0.791836
0.770809 0.816159 0.795346
0.777676 0.817441 0.798520
0.781399 0.817258 0.799344
0.786191 0.816861 0.802029
0.790982 0.816373 0.805722
0.794858 0.816098 0.809567
0.797665 0.815976 0.813596
0.797086 0.816281 0.809049
0.793851 0.816098 0.783902
0.794736 0.814572 0.753079
0.800320 0.811490 0.715297
0.810666 0.806546 0.669856
0.816892 0.792050 0.617273
0.822080 0.767666 0.544091
0.832303 0.735348 0.435370
0.849485 0.718807 0.363378
0.873594 0.745480 0.425879
0.890990 0.766537 0.482826
0.904234 0.783749 0.531151
0.914244 0.797940 0.572045
0.922087 0.809506 0.604944
0.928008 0.819211 0.632776
0.734432 0.817563 0.792142
0.735317 0.817807 0.792416
0.736416 0.818051 0.792721
0.738613 0.818418 0.793210
0.741909 0.818997 0.793973
0.746151 0.819730 0.794980
0.751369 0.820645 0.796323
0.757321 0.821714 0.798062
0.764034 0.823026 0.800229
0.771237 0.824491 0.802914
0.778744 0.826139 0.806149
0.786465 0.827909 0.809995
0.790982 0.828305 0.811460
0.794491 0.828092 0.812558
0.799374 0.827634 0.815824
0.803494 0.827268 0.819242
0.806821 0.827085 0.822782
0.809140 0.827115 0.826474
0.806973 0.827481 0.816190
0.804746 0.827207 0.792599
0.806302 0.825711 0.763699
0.812222 0.822843 0.728084
0.822690 0.818387 0.684718
0.828641 0.804379 0.634424
0.833738 0.782071 0.569482
0.843961 0.752438 0.470802
0.860136 0.732937 0.391699
0.882536 0.758175 0.453986
0.898558 0.778225 0.509667
0.910430 0.794461 0.556512
0.919280 0.807797 0.595819
0.926024 0.818784 0.627832
0.744503 0.827146 0.803006
0.745327 0.827329 0.803250
0.746273 0.827543 0.803494
0.748287 0.827878 0.803922
0.751308 0.828367 0.804623
0.755306 0.829038 0.805570
0.760189 0.829862 0.806821
0.765835 0.830900 0.808438
0.772183 0.832120 0.810513
0.779019 0.833524 0.812985
0.786252 0.835142 0.815976
0.793637 0.836912 0.819516
0.800076 0.838315 0.822690
0.803281 0.838163 0.823331
0.807095 0.837827 0.825254
0.811307 0.837430 0.828214
0.814847 0.837156 0.831327
0.817594 0.837034 0.834531
0.819516 0.837156 0.837919
0.816342 0.837583 0.822965
0.814939 0.837278 0.800961
0.817105 0.835935 0.773983
0.823331 0.833371 0.740658
0.833951 0.829465 0.699794
0.839780 0.816068 0.651728
0.845151 0.795712 0.593286
0.855344 0.768795 0.505180
0.871000 0.747311 0.421485
0.891234 0.770809 0.482673
0.905730 0.789761 0.537011
0.916258 0.804959 0.581689
0.923949 0.817472 0.619226
0.753567 0.835691 0.812650
0.754299 0.835843 0.812833
0.755215 0.835996 0.813077
0.757107 0.836332 0.813535
0.760067 0.836820 0.814237
0.763943 0.837552 0.815244
0.768704 0.838468 0.816556
0.774228 0.839567 0.818296
0.780484 0.840909 0.820432
0.787228 0.842435 0.822995
0.794308 0.844114 0.825986
0.801602 0.845975 0.829435
0.808896 0.847898 0.833280
0.813077 0.848447 0.834867
0.816037 0.848356 0.835752
0.820005 0.847990 0.838163
0.823606 0.847715 0.840879
0.826627 0.847532 0.843687
0.828946 0.847562 0.846616
0.829923 0.847776 0.847929
0.826719 0.848203 0.831418
0.826108 0.847929 0.811276
0.828733 0.846860 0.786526
0.835172 0.844755 0.756039
0.845975 0.841550 0.718227
0.851835 0.828977 0.672938
0.857908 0.810544 0.619013
0.868040 0.786618 0.543572
0.883482 0.764370 0.459815
0.900816 0.785672 0.518914
0.913390 0.803159 0.570367
0.922271 0.817105 0.612299
0.763119 0.844327 0.822416
0.763760 0.844450 0.822599
0.764614 0.844572 0.822782
0.766415 0.844877 0.823209
0.769162 0.845335 0.823880
0.772824 0.845945 0.824796
0.777279 0.846769 0.826047
0.782498 0.847776 0.827634
0.788357 0.848966 0.829587
0.794766 0.850340 0.831907
0.801450 0.851896 0.834623
0.808408 0.853574 0.837766
0.815335 0.855375 0.841306
0.821439 0.856931 0.844511
