data/fiter_cube/69180065/1023055/file.cube
# Created by Adobe Lightroom plugin Export LUT (1.17.0)
# www.johnrellis.com/lightroom/exportlut.htm
# Preset: 室内文艺胶片_08 云集
# Color profile: C:\Program Files (x86)\Common Files\Adobe\Color\Profiles\Recommended\AdobeRGB1998.icc
LUT_3D_SIZE 32
DOMAIN_MIN 0.0 0.0 0.0
DOMAIN_MAX 1.0 1.0 1.0
0.148104 0.125856 0.121340
0.153628 0.127840 0.122713
0.159976 0.130159 0.124544
0.170809 0.135561 0.128450
0.187442 0.140993 0.131594
0.206607 0.146212 0.133974
0.227390 0.151369 0.136263
0.249882 0.156954 0.138430
0.274479 0.162905 0.140566
0.301396 0.169833 0.143191
0.331395 0.178073 0.146273
0.364050 0.187900 0.150149
0.398810 0.198947 0.154299
0.435218 0.211490 0.158877
0.472633 0.225315 0.163882
0.510704 0.240482 0.168795
0.556451 0.260472 0.174929
0.601923 0.282872 0.181491
0.643244 0.305760 0.188693
0.682673 0.330053 0.196811
0.720455 0.355505 0.206332
0.756344 0.381598 0.217258
0.789517 0.407660 0.229892
0.820371 0.433753 0.244602
0.849088 0.459785 0.261295
0.876036 0.486458 0.280980
0.901640 0.514275 0.304326
0.925963 0.543572 0.332189
0.949004 0.574548 0.365637
0.970672 0.607630 0.405524
0.990814 0.642939 0.452369
1.000000 0.680781 0.506432
0.148684 0.129427 0.122927
0.152956 0.130861 0.123415
0.159731 0.133211 0.124849
0.170962 0.137881 0.128603
0.187472 0.143069 0.131777
0.206394 0.148257 0.134127
0.226963 0.153414 0.136416
0.249302 0.158785 0.138613
0.273503 0.164797 0.140749
0.300389 0.171695 0.143374
0.329992 0.179721 0.146365
0.362280 0.189395 0.150271
0.396735 0.200320 0.154452
0.432776 0.212619 0.159091
0.469947 0.226291 0.163729
0.507744 0.241306 0.168856
0.552514 0.260716 0.174807
0.596826 0.282170 0.181064
0.637537 0.304479 0.187930
0.676783 0.328038 0.195865
0.714565 0.352941 0.204837
0.750637 0.378729 0.215518
0.784146 0.404608 0.227756
0.815427 0.430579 0.242069
0.844633 0.456641 0.258488
0.872068 0.483284 0.277775
0.898192 0.511162 0.300694
0.922942 0.540551 0.328374
0.946441 0.571588 0.361425
0.968505 0.604700 0.400977
0.989014 0.639948 0.447425
1.000000 0.677729 0.501213
0.149325 0.134524 0.125093
0.153292 0.135592 0.125399
0.158938 0.136660 0.126223
0.170809 0.141085 0.129213
0.187381 0.146120 0.132021
0.206119 0.151400 0.134524
0.226658 0.156283 0.136660
0.248631 0.161532 0.138857
0.272801 0.167453 0.141176
0.299443 0.174166 0.143648
0.328954 0.182132 0.146639
0.361151 0.191745 0.150546
0.395483 0.202609 0.154726
0.431495 0.214939 0.159365
0.468482 0.228519 0.164157
0.506279 0.243168 0.169039
0.550683 0.262455 0.175021
0.594079 0.283330 0.181094
0.634546 0.305180 0.187839
0.673640 0.328313 0.195529
0.711574 0.353002 0.204471
0.747768 0.378576 0.215000
0.781491 0.404303 0.227024
0.812985 0.430091 0.240970
0.842313 0.456092 0.257359
0.869993 0.482612 0.276463
0.896330 0.510460 0.299290
0.921386 0.539757 0.326696
0.945098 0.570794 0.359594
0.967346 0.603815 0.398993
0.987976 0.639002 0.445228
1.000000 0.676631 0.498756
0.151186 0.142947 0.128817
0.156069 0.143221 0.130251
0.159304 0.144503 0.130373
0.169131 0.147311 0.131197
0.186679 0.153231 0.133089
0.206455 0.158175 0.135042
0.226596 0.162753 0.137362
0.248661 0.167880 0.139528
0.272648 0.173434 0.141848
0.299199 0.180056 0.144472
0.328435 0.188083 0.147555
0.360479 0.197513 0.151278
0.394507 0.208469 0.155581
0.430335 0.220523 0.160189
0.467323 0.233585 0.164828
0.504936 0.248264 0.169680
0.549035 0.267277 0.175662
0.591272 0.287358 0.181643
0.630854 0.308202 0.188022
0.669215 0.330602 0.195377
0.706661 0.354345 0.204105
0.742824 0.379309 0.214176
0.777127 0.404913 0.226139
0.809476 0.430884 0.240238
0.839933 0.457343 0.256687
0.868620 0.484474 0.276371
0.895628 0.512596 0.299657
0.921019 0.542168 0.327550
0.944823 0.573144 0.360601
0.967041 0.605768 0.399695
0.987488 0.640345 0.445411
1.000000 0.677211 0.497932
0.153231 0.153170 0.133425
0.156863 0.153628 0.134279
0.160708 0.154696 0.134737
0.167422 0.156924 0.134981
0.182376 0.161379 0.135378
0.204105 0.168154 0.136660
0.225406 0.172763 0.138552
0.248112 0.177554 0.140505
0.271977 0.182834 0.142794
0.298253 0.189303 0.145541
0.327245 0.196933 0.148775
0.359136 0.206332 0.152590
0.393103 0.217044 0.156954
0.428809 0.228916 0.161349
0.465888 0.242039 0.166018
0.504723 0.256992 0.170993
0.548425 0.275456 0.176944
0.590234 0.295201 0.182773
0.629755 0.315679 0.189181
0.667842 0.337377 0.196414
0.704860 0.360449 0.204898
0.740780 0.384741 0.214878
0.774990 0.409735 0.226780
0.807523 0.435248 0.240726
0.838193 0.461311 0.257267
0.867155 0.488106 0.276799
0.894316 0.515984 0.300114
0.919768 0.545006 0.327764
0.943633 0.575555 0.360601
0.965850 0.607813 0.399512
0.986419 0.641932 0.444892
1.000000 0.678431 0.497230
0.154116 0.165530 0.138399
0.157107 0.166079 0.138735
0.161013 0.166751 0.139223
0.166537 0.169009 0.138308
0.178470 0.172366 0.139681
0.197452 0.177707 0.139864
0.223178 0.185489 0.140993
0.246311 0.190372 0.142855
0.271855 0.195804 0.144625
0.298680 0.201968 0.147280
0.327733 0.209598 0.150546
0.359594 0.218723 0.154543
0.393500 0.229221 0.158938
0.429297 0.240909 0.163333
0.466468 0.253849 0.167849
0.506798 0.269322 0.173037
0.549584 0.287327 0.178805
0.591089 0.306645 0.184634
0.630426 0.326696 0.191043
0.668696 0.348089 0.198276
0.705837 0.370794 0.206973
0.742000 0.394842 0.217227
0.807858 0.446448 0.245212
0.837430 0.471046 0.261936
0.864805 0.495674 0.280735
0.890227 0.520867 0.302464
0.914031 0.546960 0.327581
0.936370 0.574121 0.356909
0.957427 0.602899 0.391180
0.977173 0.633478 0.431098
0.995422 0.665949 0.476661
1.000000 0.700160 0.527520
0.154452 0.181643 0.144259
0.157321 0.182040 0.144442
0.161074 0.182650 0.144747
0.169314 0.184329 0.145998
0.177310 0.187411 0.144625
0.193393 0.192142 0.145724
0.216526 0.198367 0.146090
0.246921 0.208011 0.146792
0.273106 0.213626 0.148836
0.302373 0.220615 0.151064
0.334630 0.229038 0.153811
0.367468 0.238193 0.157870
0.402045 0.248631 0.162325
0.438239 0.260075 0.166659
0.475257 0.272648 0.171176
0.518090 0.289525 0.176791
0.561089 0.307836 0.182498
0.602411 0.326970 0.188571
0.641718 0.347143 0.195377
0.680598 0.368994 0.203433
0.719509 0.392920 0.213413
0.757778 0.418555 0.225772
0.794186 0.445197 0.240696
0.828000 0.471931 0.258366
0.858732 0.498726 0.278721
0.886137 0.524773 0.301396
0.910918 0.551049 0.327123
0.933745 0.577996 0.356390
0.955077 0.606226 0.390448
0.974945 0.636042 0.429786
0.993378 0.667750 0.474647
1.000000 0.701320 0.525048
0.154574 0.197757 0.150271
0.157229 0.198093 0.150607
0.160861 0.198581 0.150729
0.168734 0.199924 0.151705
0.176120 0.202945 0.149477
0.189883 0.206149 0.151614
0.209415 0.211917 0.152438
0.235294 0.218906 0.152712
0.269505 0.230655 0.153506
0.298589 0.237583 0.155612
0.330907 0.246189 0.158267
0.366430 0.256382 0.161288
0.402869 0.267216 0.164889
0.439002 0.278294 0.169345
0.477394 0.291325 0.174044
0.520134 0.307683 0.179446
0.561578 0.324895 0.185031
0.601770 0.342992 0.190921
0.640406 0.362036 0.197604
0.678767 0.382727 0.205661
0.717159 0.405493 0.215610
0.755032 0.429908 0.227756
0.791135 0.455238 0.242527
0.824796 0.480781 0.259922
0.855528 0.506401 0.279881
0.883055 0.531792 0.302434
0.908049 0.557214 0.327733
0.931151 0.583398 0.356786
0.952728 0.610956 0.390539
0.972808 0.640101 0.429480
0.991424 0.671138 0.474128
1.000000 0.704067 0.524102
0.155062 0.215824 0.157443
0.157565 0.216037 0.157626
0.161105 0.216678 0.157870
0.168734 0.217624 0.158663
0.180575 0.219913 0.160403
0.188632 0.223575 0.157351
0.205203 0.227359 0.159945
0.227939 0.234501 0.160128
0.256687 0.242405 0.160464
0.295476 0.256962 0.160922
0.327855 0.265629 0.163394
0.363378 0.275914 0.166415
0.401190 0.287419 0.169619
0.440833 0.299992 0.172763
0.482643 0.314641 0.177584
0.523919 0.329931 0.182895
0.564233 0.345892 0.188449
0.603754 0.362982 0.194095
0.641596 0.380835 0.200809
0.679438 0.400488 0.209049
0.717281 0.422004 0.218997
0.754543 0.444953 0.231144
0.790188 0.468879 0.245884
0.823484 0.493294 0.263279
0.853971 0.517632 0.283177
0.881346 0.541772 0.305486
0.906340 0.566278 0.330663
0.929412 0.591547 0.359442
0.950988 0.618158 0.392798
0.971099 0.646296 0.431342
0.989715 0.676356 0.475288
1.000000 0.708278 0.524620
0.155032 0.235966 0.165499
0.157748 0.236057 0.165713
0.161013 0.236484 0.165835
0.168612 0.237430 0.166567
0.180117 0.239139 0.168154
0.189212 0.242710 0.165438
0.203647 0.246433 0.166232
0.223148 0.251743 0.168521
0.248966 0.259739 0.168765
0.280613 0.268650 0.169100
0.324254 0.286229 0.169253
0.359686 0.296605 0.172152
0.397559 0.308232 0.175326
0.439460 0.322393 0.178744
0.484565 0.338964 0.182620
0.529046 0.355688 0.186862
0.569574 0.371191 0.192264
0.608789 0.387488 0.198428
0.646235 0.404334 0.205478
0.683131 0.422492 0.213870
0.719753 0.442054 0.223697
0.755337 0.462806 0.235843
0.789425 0.484382 0.249973
0.821439 0.506493 0.266606
0.851164 0.529107 0.285924
0.878447 0.551965 0.307897
0.903655 0.575555 0.332891
0.927123 0.600244 0.361883
0.949096 0.626307 0.395636
0.969543 0.654017 0.434455
0.988434 0.683619 0.478798
1.000000 0.715023 0.528344
0.154604 0.257328 0.174136
0.157137 0.257511 0.174289
0.160525 0.257939 0.174533
0.168032 0.258732 0.175235
0.179416 0.260472 0.176577
0.194339 0.263279 0.178744
0.202060 0.268040 0.173281
0.220768 0.272404 0.176303
0.243900 0.279484 0.177920
0.273106 0.288792 0.178439
0.307805 0.298772 0.178592
0.356725 0.319585 0.178561
0.395666 0.332158 0.181827
0.438819 0.347356 0.185580
0.482979 0.363073 0.189273
0.527184 0.379339 0.193240
0.571191 0.396460 0.197299
0.611841 0.412909 0.202762
0.648615 0.428168 0.209934
0.684962 0.444739 0.218387
0.720943 0.462898 0.228702
0.756039 0.482216 0.240818
0.789761 0.502464 0.255375
0.821378 0.523278 0.272251
0.850767 0.544457 0.291661
0.877653 0.565942 0.313390
0.902495 0.588128 0.338140
0.925689 0.611414 0.366735
0.947478 0.636194 0.399939
0.967834 0.662715 0.438148
0.986725 0.691188 0.481971
1.000000 0.721492 0.530877
0.153170 0.281468 0.183993
0.155642 0.281712 0.184268
0.159304 0.282017 0.184512
0.166659 0.282902 0.185031
0.178134 0.284550 0.186282
0.193149 0.287205 0.188266
0.204257 0.291783 0.185031
0.219181 0.296788 0.184085
0.240787 0.302129 0.187778
0.268009 0.311345 0.188693
0.300999 0.321843 0.189212
0.339239 0.333532 0.189578
0.412909 0.376318 0.194095
0.459846 0.393652 0.198550
0.506767 0.410651 0.203006
0.552850 0.427527 0.207401
0.597253 0.444251 0.212314
0.638575 0.460090 0.217868
0.677333 0.475685 0.224674
0.712093 0.490059 0.234195
0.745266 0.505119 0.245426
0.777127 0.521324 0.258762
0.807370 0.538231 0.273869
0.836027 0.555993 0.291264
0.862699 0.574456 0.311009
0.887480 0.593622 0.333288
0.910460 0.613581 0.358312
0.931945 0.634730 0.386908
0.952209 0.657313 0.419593
0.971313 0.681819 0.457191
0.989105 0.708278 0.499916
1.000000 0.736446 0.547051
0.149935 0.312902 0.197086
0.152529 0.313146 0.197238
0.156283 0.313329 0.197452
0.164279 0.313817 0.197848
0.176242 0.314916 0.198734
0.191745 0.316991 0.200198
0.210483 0.320470 0.202579
0.217441 0.326329 0.193454
0.240146 0.331853 0.197238
0.265415 0.339055 0.201114
0.297917 0.350652 0.201938
0.338903 0.367315 0.203952
0.386603 0.385382 0.206027
0.453071 0.417975 0.206424
0.500908 0.435492 0.211063
0.547204 0.452216 0.215885
0.591730 0.468177 0.220829
0.632929 0.482765 0.226322
0.671748 0.497139 0.233219
0.709316 0.512291 0.241459
0.745022 0.528038 0.251804
0.776394 0.542351 0.264988
0.806088 0.557580 0.280156
0.834287 0.573632 0.297276
0.860624 0.590539 0.316747
0.885161 0.608179 0.338659
0.908019 0.626795 0.363378
0.929503 0.646632 0.391547
0.949798 0.668055 0.423835
0.968994 0.691463 0.461097
0.986969 0.716823 0.503380
1.000000 0.743984 0.550103
0.145632 0.341741 0.209598
0.148684 0.341955 0.209720
0.152407 0.342046 0.209842
0.160739 0.342626 0.210208
0.173037 0.343633 0.210910
0.188876 0.345495 0.212161
0.207889 0.348821 0.214267
0.221530 0.354101 0.209964
0.236881 0.360357 0.206302
0.262608 0.366979 0.210575
0.293736 0.379156 0.215183
0.332921 0.395483 0.217258
0.377813 0.412573 0.219272
0.427436 0.429633 0.220829
0.494942 0.461463 0.220706
0.542199 0.477821 0.225101
0.586145 0.492592 0.230198
0.627222 0.506126 0.235874
0.666224 0.519341 0.242710
0.703883 0.533501 0.251072
0.740383 0.548455 0.261204
0.774990 0.564202 0.273350
0.805966 0.579034 0.288090
0.833799 0.593622 0.305241
0.859800 0.609003 0.324804
0.884062 0.625177 0.346593
0.906737 0.642420 0.371099
0.928069 0.660945 0.399054
0.948272 0.681117 0.431159
0.967437 0.703304 0.467903
0.985382 0.727474 0.509911
1.000000 0.753445 0.555962
0.139406 0.373144 0.223514
0.142489 0.373480 0.223789
0.146487 0.373541 0.223728
0.155367 0.374060 0.224033
0.168307 0.375006 0.224613
0.184695 0.376684 0.225498
0.204379 0.379644 0.227268
0.226963 0.383948 0.229770
0.233585 0.391333 0.217197
0.260380 0.400610 0.221683
0.290959 0.410864 0.227878
0.327337 0.424964 0.231693
0.370336 0.441108 0.233890
0.417914 0.457374 0.235691
0.468452 0.473091 0.237095
0.534722 0.502495 0.236515
0.581964 0.518578 0.241062
0.622705 0.530907 0.246738
0.661616 0.542992 0.253422
0.699275 0.555962 0.261723
0.735653 0.569635 0.271916
0.770321 0.584100 0.284001
0.802731 0.598901 0.297978
0.833097 0.614343 0.314458
0.859281 0.628534 0.333898
0.883452 0.643580 0.355871
0.906188 0.659815 0.380987
0.927733 0.677668 0.409735
0.948150 0.697169 0.442603
0.967407 0.718715 0.480354
0.985504 0.742153 0.522759
1.000000 0.767208 0.569085
0.130068 0.406683 0.239139
0.133364 0.407111 0.239292
0.137789 0.407324 0.239292
0.147402 0.407996 0.239567
0.161288 0.409125 0.240116
0.178958 0.411078 0.241032
0.199496 0.414069 0.242527
0.223636 0.420569 0.245914
0.240970 0.429023 0.241550
0.257572 0.438544 0.234684
0.289372 0.447669 0.240818
0.323369 0.457435 0.247807
0.364080 0.471351 0.249943
0.409216 0.485634 0.251499
0.457313 0.499611 0.252720
0.506950 0.513085 0.253605
0.570520 0.539422 0.253422
0.618067 0.555871 0.258244
0.657496 0.567437 0.265537
0.695827 0.579828 0.274357
0.732784 0.593042 0.284764
0.767788 0.606653 0.297429
0.800565 0.620630 0.311955
0.831144 0.635065 0.328649
0.859373 0.650080 0.347753
0.885069 0.665400 0.369665
0.907408 0.680293 0.395026
0.928557 0.696681 0.423835
0.948486 0.714748 0.456641
0.967285 0.734676 0.493660
0.984985 0.756161 0.534569
1.000000 0.779324 0.579156
0.117006 0.441169 0.255833
0.120699 0.441444 0.255741
0.125917 0.441779 0.255955
0.136385 0.443091 0.256504
0.151583 0.445258 0.257450
0.170687 0.448249 0.258701
0.193118 0.452338 0.260716
0.218631 0.457588 0.263432
0.247410 0.464302 0.267002
0.256168 0.473487 0.252018
0.284916 0.482094 0.253513
0.320012 0.491005 0.260349
0.357366 0.501030 0.266850
0.401312 0.514397 0.268589
0.448005 0.527367 0.270054
0.496315 0.539757 0.271061
0.544976 0.551812 0.272099
0.605005 0.574670 0.272709
0.653254 0.591974 0.278386
0.691402 0.603143 0.287175
0.728298 0.615167 0.297734
0.763394 0.627680 0.310185
0.796262 0.640620 0.324773
0.827085 0.654139 0.341588
0.855589 0.668147 0.360784
0.881895 0.682948 0.382757
0.906310 0.698573 0.407660
0.928099 0.714534 0.436347
0.947875 0.731319 0.468971
0.966552 0.749935 0.505852
0.984222 0.770138 0.546136
1.000000 0.791989 0.590112
0.093965 0.482338 0.277012
0.099214 0.483040 0.277287
0.098238 0.497078 0.284916
0.113313 0.498360 0.285344
0.134035 0.500298 0.286168
0.157687 0.502861 0.287205
0.184604 0.506340 0.288731
0.214115 0.510765 0.290990
0.246586 0.516533 0.294316
0.268528 0.524254 0.288090
0.285130 0.533165 0.275242
0.323522 0.540734 0.282231
0.362463 0.548333 0.289677
0.404334 0.557824 0.294835
0.450782 0.569055 0.296269
0.498177 0.579675 0.297459
0.545800 0.589899 0.298772
0.592920 0.599725 0.299962
0.648951 0.618769 0.301427
0.696895 0.635950 0.308324
0.732448 0.645655 0.318669
0.766506 0.656214 0.331243
0.798550 0.667353 0.345739
0.828367 0.679042 0.362219
0.855680 0.690944 0.380591
0.880949 0.703578 0.401343
0.904448 0.717128 0.424811
0.926482 0.731960 0.451698
0.947265 0.748409 0.482856
0.965789 0.765469 0.518486
0.983276 0.784085 0.557733
0.999786 0.804379 0.600427
0.032441 0.528038 0.302373
0.048280 0.530419 0.303777
0.063966 0.533074 0.305089
0.085878 0.535912 0.306554
0.112642 0.538781 0.307897
0.141817 0.541619 0.308934
0.172549 0.544518 0.310185
0.205020 0.548089 0.311894
0.239384 0.552789 0.314672
0.275792 0.558648 0.318547
0.286625 0.567010 0.299931
0.316930 0.574334 0.297185
0.357397 0.580835 0.304601
0.397681 0.587182 0.312474
0.441596 0.595941 0.315984
0.487922 0.605402 0.317357
0.534417 0.614618 0.318761
0.580713 0.623621 0.320287
0.626551 0.632776 0.322301
0.679561 0.649744 0.325139
0.727810 0.667781 0.333532
0.762142 0.677577 0.346288
0.794491 0.687984 0.360967
0.824643 0.698726 0.377630
0.852262 0.709926 0.396307
0.877806 0.721706 0.417121
0.901549 0.734463 0.440620
0.923735 0.748379 0.467414
0.944610 0.763821 0.498329
0.964263 0.780667 0.532708
0.982483 0.798581 0.570459
0.998810 0.817350 0.611994
0.000000 0.568322 0.326299
0.000000 0.570733 0.327764
0.000000 0.573327 0.329381
0.000000 0.575952 0.330663
0.077729 0.578546 0.331853
0.119326 0.580835 0.332677
0.156741 0.583154 0.333532
0.193545 0.585992 0.334783
0.230869 0.589776 0.337102
0.269963 0.594354 0.340429
0.295476 0.600916 0.333165
0.310124 0.608667 0.314397
0.352331 0.613977 0.321721
0.394232 0.619348 0.329686
0.434852 0.624537 0.338018
0.480171 0.632868 0.339788
0.525902 0.641138 0.341375
0.571435 0.649287 0.343175
0.616541 0.657679 0.345525
0.661158 0.666407 0.348547
0.710872 0.681239 0.352819
0.758724 0.699763 0.363134
0.791257 0.709255 0.377996
0.821469 0.719112 0.394781
0.849210 0.729274 0.413275
0.874784 0.740047 0.433814
0.898528 0.751675 0.456886
0.920745 0.764523 0.483345
0.941650 0.778836 0.513390
0.961395 0.794491 0.546715
0.979980 0.811460 0.583368
0.997223 0.829648 0.623102
0.000000 0.608179 0.351781
0.000000 0.610468 0.353277
0.000000 0.612909 0.354772
0.000000 0.615351 0.356115
0.000000 0.617578 0.357183
0.086183 0.619379 0.357763
0.136904 0.621118 0.358312
0.180117 0.623224 0.359289
0.221622 0.626093 0.361059
0.263310 0.629664 0.363867
0.305791 0.634028 0.368078
0.318273 0.640864 0.347845
0.346990 0.646662 0.340398
0.390326 0.651179 0.348302
0.432471 0.655756 0.356939
0.474434 0.661219 0.364538
0.520317 0.669429 0.367224
0.566217 0.677790 0.370336
0.611780 0.686458 0.374029
0.656825 0.695308 0.378729
0.700710 0.704433 0.384222
0.747860 0.718105 0.391211
0.794400 0.736568 0.404303
0.824674 0.745785 0.422187
0.852354 0.755245 0.441688
0.877684 0.765225 0.462989
0.901030 0.775937 0.486763
0.922881 0.787716 0.513146
0.943450 0.800748 0.542382
0.962768 0.815061 0.574578
0.980896 0.830655 0.609949
0.997772 0.847318 0.647883
0.000000 0.655573 0.384741
0.000000 0.656733 0.385565
0.000000 0.657710 0.386023
0.000000 0.658747 0.386481
0.000000 0.659815 0.386786
0.000000 0.660853 0.386999
0.110658 0.662074 0.387366
0.165408 0.663813 0.388312
0.213199 0.666285 0.390112
0.259281 0.669429 0.393072
0.305272 0.673213 0.397620
0.334936 0.678431 0.390570
0.348638 0.684840 0.368841
0.391974 0.688716 0.374640
0.435584 0.692317 0.383307
0.477485 0.696071 0.392554
0.520104 0.701503 0.399145
0.565026 0.708614 0.402228
0.609461 0.715846 0.406073
0.653101 0.723201 0.410498
0.695491 0.730648 0.415595
0.736294 0.738216 0.421485
0.778653 0.749111 0.428595
0.822049 0.766018 0.441779
0.849424 0.774166 0.460578
0.874723 0.783108 0.481544
0.898192 0.792874 0.504723
0.920104 0.803708 0.530388
0.940764 0.815732 0.558740
0.960174 0.828977 0.589868
0.978393 0.843442 0.624048
0.995361 0.858946 0.660426
0.000000 0.693141 0.412299
0.000000 0.694240 0.413123
0.000000 0.695338 0.413794
0.000000 0.696223 0.414252
0.000000 0.697078 0.414466
0.000000 0.697749 0.414466
0.072053 0.698512 0.414679
0.147768 0.699550 0.415290
0.203098 0.701198 0.416846
0.253239 0.703487 0.419562
0.302098 0.706264 0.423896
0.350439 0.709377 0.429725
0.364263 0.715023 0.409827
0.390295 0.719936 0.398474
0.435309 0.722988 0.407202
0.478279 0.726192 0.416724
0.519158 0.729671 0.427039
0.562219 0.735439 0.432654
0.606043 0.742031 0.437049
0.649104 0.748775 0.442023
0.690944 0.755642 0.447852
0.731197 0.762661 0.454353
0.769528 0.769711 0.461555
0.808133 0.779019 0.469917
0.845304 0.791348 0.477546
0.870573 0.799252 0.497780
0.894224 0.808133 0.520256
0.916320 0.818051 0.545037
0.937133 0.829099 0.572351
0.956756 0.841398 0.602594
0.975250 0.855039 0.635828
0.992493 0.869688 0.671290
0.000000 0.736355 0.446296
0.000000 0.737484 0.447150
0.000000 0.738247 0.447669
0.000000 0.738674 0.447852
0.000000 0.738827 0.447639
0.000000 0.738888 0.447395
0.000000 0.738827 0.447120
0.131075 0.738918 0.447303
0.195987 0.739315 0.448157
0.250919 0.740108 0.450263
0.302495 0.741207 0.453773
0.353002 0.742763 0.459113
0.384344 0.745876 0.452979
0.398352 0.750423 0.432197
0.436622 0.752651 0.433326
0.479408 0.754391 0.441688
0.519951 0.756374 0.450874
0.558953 0.758999 0.461250
0.601526 0.764645 0.465461
0.643732 0.770779 0.470802
0.684871 0.777096 0.477089
0.724453 0.783505 0.483955
0.761929 0.789639 0.491127
0.797055 0.795590 0.498329
0.831113 0.802823 0.505882
0.868803 0.817502 0.518853
0.892119 0.825101 0.539879
0.913939 0.833738 0.563073
0.934569 0.843595 0.588922
0.954131 0.854826 0.617792
0.972625 0.867277 0.649439
0.990051 0.881010 0.683650
0.000000 0.769619 0.472908
0.000000 0.770687 0.473793
0.000000 0.771389 0.474311
0.000000 0.771725 0.474586
0.000000 0.771786 0.474434
0.000000 0.771725 0.474250
0.000000 0.771664 0.474311
0.111849 0.771695 0.474769
0.188357 0.771969 0.476081
0.248753 0.772519 0.478614
0.303807 0.773342 0.482551
0.357305 0.774441 0.488380
0.408759 0.775631 0.496193
0.422858 0.779843 0.478523
0.443671 0.783505 0.464546
0.487068 0.784878 0.473182
0.528252 0.786465 0.482582
0.567407 0.788510 0.493080
0.606043 0.791684 0.502800
0.646784 0.796902 0.508263
0.686427 0.802304 0.514488
0.724636 0.807797 0.521294
0.760800 0.813199 0.528252
0.794827 0.818479 0.535363
0.826535 0.823667 0.542565
0.856748 0.829618 0.550164
0.891386 0.843259 0.562921
0.913268 0.851011 0.585199
0.933776 0.859983 0.610254
0.953246 0.870237 0.638025
0.971588 0.881651 0.668147
0.988983 0.894347 0.700862
0.000000 0.803799 0.501396
0.000000 0.804471 0.502098
0.000000 0.804746 0.502312
0.000000 0.804746 0.502312
0.000000 0.804410 0.502007
0.000000 0.803952 0.501732
0.000000 0.803525 0.501762
0.093111 0.803128 0.502342
0.183261 0.803037 0.503807
0.248478 0.803189 0.506493
0.307103 0.803464 0.510704
0.362890 0.804044 0.517113
0.416846 0.804623 0.525658
0.449775 0.806760 0.522881
0.464118 0.810483 0.506157
0.496498 0.812406 0.504814
0.537285 0.813413 0.513878
0.575982 0.814755 0.523796
0.613001 0.816739 0.534783
0.650385 0.820218 0.543267
0.688380 0.824887 0.549279
0.725093 0.829679 0.555840
0.760006 0.834409 0.562646
0.792874 0.839109 0.569665
0.823606 0.843748 0.576745
0.852110 0.848356 0.583917
0.879088 0.853391 0.591577
0.911192 0.866361 0.604211
0.931609 0.874052 0.627314
0.950988 0.883268 0.653620
0.969299 0.893706 0.682155
0.986755 0.905394 0.713344
0.000000 0.834348 0.527642
0.000000 0.834714 0.528038
0.000000 0.834897 0.528313
0.000000 0.834928 0.528435
0.000000 0.834836 0.528618
0.000000 0.834867 0.529137
0.000000 0.835233 0.530480
0.086091 0.835843 0.532677
0.189212 0.836637 0.536065
0.260472 0.837583 0.540917
0.323919 0.838499 0.547356
0.383795 0.839322 0.555932
0.441260 0.839872 0.566827
0.494972 0.840116 0.579248
0.509483 0.843717 0.566461
0.525139 0.847044 0.553155
0.564599 0.847623 0.561944
0.601923 0.848478 0.571466
0.637568 0.849760 0.581903
0.671382 0.851499 0.593164
0.705959 0.854887 0.600153
0.739895 0.858762 0.606378
0.772183 0.862669 0.612726
0.802609 0.866575 0.619409
0.831144 0.870512 0.626154
0.857786 0.874540 0.633051
0.882780 0.878630 0.640253
0.906249 0.882872 0.647822
0.935180 0.894804 0.660060
0.953460 0.901946 0.682490
0.971252 0.911131 0.708980
0.988159 0.921508 0.737789
0.000000 0.871092 0.561975
0.000000 0.871305 0.562280
0.000000 0.871214 0.562371
0.000000 0.870939 0.562371
0.000000 0.870481 0.562524
0.000000 0.869963 0.562982
0.000000 0.869535 0.564050
0.104646 0.869139 0.565972
0.204044 0.868772 0.568994
0.276402 0.868406 0.573480
0.340398 0.867887 0.579583
0.400671 0.867308 0.587793
0.458167 0.866484 0.598199
0.511498 0.865660 0.610040
