data/fiter_cube/69180065/1023055/file.cube
# Created by Adobe Lightroom plugin Export LUT (1.17.0)
# www.johnrellis.com/lightroom/exportlut.htm
# Preset: 室内文艺胶片_08 云集
# Color profile: C:\Program Files (x86)\Common Files\Adobe\Color\Profiles\Recommended\AdobeRGB1998.icc
LUT_3D_SIZE 8
DOMAIN_MIN 0.000000 0.000000 0.000000
DOMAIN_MAX 0.903226 0.903226 0.903226
0.148104 0.125856 0.121340
0.187442 0.140993 0.131594
0.274479 0.162905 0.140566
0.398810 0.198947 0.154299
0.556451 0.260472 0.174929
0.720455 0.355505 0.206332
0.849088 0.459785 0.261295
0.949004 0.574548 0.365637
0.153231 0.153170 0.133425
0.182376 0.161379 0.135378
0.271977 0.182834 0.142794
0.393103 0.217044 0.156954
0.548425 0.275456 0.176944
0.704860 0.360449 0.204898
0.838193 0.461311 0.257267
0.943633 0.575555 0.360601
0.155062 0.215824 0.157443
0.180575 0.219913 0.160403
0.256687 0.242405 0.160464
0.401190 0.287419 0.169619
0.564233 0.345892 0.188449
0.717281 0.422004 0.218997
0.853971 0.517632 0.283177
0.950988 0.618158 0.392798
0.149935 0.312902 0.197086
0.176242 0.314916 0.198734
0.240146 0.331853 0.197238
0.386603 0.385382 0.206027
0.591730 0.468177 0.220829
0.745022 0.528038 0.251804
0.860624 0.590539 0.316747
0.949798 0.668055 0.423835
0.117006 0.441169 0.255833
0.151583 0.445258 0.257450
0.247410 0.464302 0.267002
0.357366 0.501030 0.266850
0.544976 0.551812 0.272099
0.728298 0.615167 0.297734
0.855589 0.668147 0.360784
0.947875 0.731319 0.468971
0.000000 0.608179 0.351781
0.000000 0.617578 0.357183
0.221622 0.626093 0.361059
0.346990 0.646662 0.340398
0.520317 0.669429 0.367224
0.700710 0.704433 0.384222
0.852354 0.755245 0.441688
0.943450 0.800748 0.542382
0.000000 0.769619 0.472908
0.000000 0.771786 0.474434
0.188357 0.771969 0.476081
0.408759 0.775631 0.496193
0.528252 0.786465 0.482582
0.686427 0.802304 0.514488
0.826535 0.823667 0.542565
0.933776 0.859983 0.610254
0.000000 0.898436 0.587549
0.000000 0.897704 0.588617
0.218479 0.895628 0.597375
0.479286 0.892119 0.630091
0.591180 0.888182 0.620294
0.722591 0.893126 0.660487
0.835172 0.906340 0.691524
0.923644 0.920043 0.717800
0.158206 0.136690 0.149874
0.188937 0.143893 0.152255
0.262089 0.171511 0.166720
0.379156 0.209781 0.185702
0.533165 0.264134 0.205539
0.688899 0.344060 0.231632
0.827054 0.446296 0.279393
0.936187 0.562768 0.373816
0.157778 0.157778 0.154543
0.188815 0.166659 0.160098
0.263798 0.190066 0.172366
0.380438 0.225498 0.187900
0.532036 0.279149 0.207095
0.684047 0.355016 0.232059
0.819791 0.450813 0.277073
0.930632 0.563287 0.368078
0.162722 0.217288 0.175418
0.191684 0.223941 0.182223
0.260410 0.244480 0.186435
0.392615 0.286625 0.197421
0.543389 0.338842 0.216129
0.693996 0.410040 0.243320
0.829557 0.498726 0.294835
0.936706 0.602564 0.393957
0.160647 0.310155 0.213779
0.187442 0.314397 0.217807
0.249668 0.333104 0.218692
0.377600 0.374151 0.226780
0.558709 0.441901 0.240055
0.711818 0.502159 0.266606
0.836484 0.568902 0.321965
0.936614 0.652888 0.422095
0.131563 0.443336 0.275608
0.163210 0.446448 0.276707
0.253513 0.461891 0.284794
0.356115 0.489937 0.283970
0.529351 0.535393 0.287724
0.711421 0.600855 0.312810
0.843717 0.657801 0.371923
0.939605 0.722835 0.473091
0.000000 0.600855 0.363989
0.062470 0.603357 0.364630
0.225864 0.612390 0.368841
0.347173 0.635431 0.352544
0.515435 0.661006 0.381537
0.695827 0.699825 0.401160
0.846433 0.750698 0.455177
0.938140 0.795773 0.546990
0.000000 0.757900 0.475959
0.000000 0.756771 0.474403
0.185946 0.759121 0.477089
0.401770 0.766751 0.498451
0.526238 0.780514 0.490517
0.680720 0.796201 0.520714
0.818845 0.816648 0.544060
0.927337 0.853239 0.607050
0.000000 0.892943 0.590021
0.000000 0.893126 0.591913
0.207980 0.891783 0.600397
0.471931 0.889158 0.631708
0.611048 0.891325 0.643336
0.727993 0.894469 0.671839
0.834043 0.904997 0.696376
0.921111 0.917632 0.718868
0.166171 0.150607 0.216434
0.196231 0.155215 0.220706
0.280278 0.183902 0.225101
0.383642 0.220035 0.241978
0.526879 0.277592 0.274815
0.681819 0.358923 0.312139
0.822538 0.460029 0.363134
0.932433 0.577356 0.452033
0.176547 0.178958 0.218601
0.201114 0.183261 0.223697
0.277806 0.205081 0.230716
0.377661 0.237797 0.248386
0.523705 0.292241 0.277836
0.677546 0.368597 0.311772
0.817929 0.465766 0.360998
0.929808 0.581140 0.450202
0.174136 0.231052 0.232822
0.201053 0.237308 0.236149
0.283909 0.267124 0.258152
0.391882 0.296513 0.269535
0.541192 0.350958 0.295109
0.688808 0.420294 0.325444
0.822751 0.506676 0.375219
0.930144 0.610529 0.463813
0.165164 0.322515 0.267216
0.193942 0.329198 0.272221
0.277806 0.351568 0.289006
0.398047 0.393591 0.302770
0.567102 0.453864 0.323095
0.708675 0.508782 0.353399
0.833127 0.577630 0.405615
0.932464 0.662928 0.493660
0.131563 0.453986 0.329107
0.170809 0.459388 0.333623
0.270695 0.478584 0.348913
0.384802 0.510643 0.357366
0.546258 0.551476 0.368780
0.713619 0.607813 0.394965
0.841001 0.663569 0.448127
0.934112 0.727962 0.534600
0.000000 0.607416 0.416358
0.091341 0.610620 0.419409
0.245823 0.619837 0.427283
0.399939 0.637812 0.443946
0.525353 0.661524 0.446632
0.693935 0.698451 0.464332
0.839780 0.749538 0.513817
0.934936 0.799710 0.596002
0.000000 0.763821 0.522057
0.000000 0.763546 0.522026
0.208255 0.763973 0.523674
0.411505 0.768551 0.539361
0.543359 0.780392 0.539300
0.687251 0.796506 0.569574
0.821714 0.820310 0.594171
0.928435 0.859312 0.653193
0.000000 0.894041 0.620050
0.000000 0.892851 0.619104
0.192264 0.890654 0.624872
0.468421 0.889738 0.653864
0.640436 0.887785 0.684627
0.736294 0.894438 0.697322
0.837186 0.905669 0.721859
0.922362 0.919585 0.742977
0.170596 0.172244 0.321202
0.202396 0.178378 0.327123
0.300359 0.193851 0.344060
0.420966 0.243839 0.348302
0.551904 0.296849 0.369543
0.655634 0.357031 0.395117
0.797391 0.456519 0.448585
0.914824 0.578698 0.530114
0.186313 0.204685 0.326696
0.210391 0.207004 0.331609
0.299779 0.219791 0.347814
0.421057 0.264683 0.355261
0.547906 0.312810 0.373968
0.655970 0.370703 0.399207
0.796109 0.465644 0.450233
0.914275 0.584039 0.529992
0.187930 0.261326 0.333776
0.213413 0.267277 0.336584
0.290990 0.284184 0.356451
0.420081 0.324743 0.375921
0.540337 0.362951 0.391363
0.673610 0.428931 0.426368
0.812314 0.519341 0.479652
0.920958 0.621729 0.551720
0.171756 0.344701 0.362158
0.200290 0.349157 0.364172
0.285801 0.372229 0.380285
0.432868 0.429664 0.427436
0.557031 0.457343 0.431678
0.689570 0.508263 0.455970
0.816587 0.578698 0.499702
0.922179 0.668482 0.572595
0.129000 0.469673 0.416297
0.170291 0.474372 0.419440
0.275517 0.496345 0.435920
0.425727 0.536187 0.470344
0.568933 0.573999 0.484565
0.716060 0.619104 0.505791
0.832609 0.669154 0.545434
0.926207 0.732967 0.608515
0.000000 0.624994 0.500908
0.082551 0.633021 0.507805
0.258671 0.640040 0.513725
0.423682 0.657343 0.531945
0.561730 0.680690 0.547692
0.705623 0.710201 0.562249
0.837400 0.755276 0.597559
0.931060 0.804532 0.658106
0.000000 0.769345 0.586603
0.000000 0.770932 0.588098
0.227451 0.774594 0.592615
0.425818 0.780087 0.605066
0.594720 0.788663 0.629419
0.704524 0.802914 0.641871
0.824887 0.824491 0.657465
0.926543 0.862425 0.703243
0.000000 0.898924 0.674708
0.000000 0.898955 0.675105
0.187900 0.897215 0.675471
0.445563 0.893217 0.687343
0.649897 0.888243 0.722164
0.746944 0.894987 0.732784
0.840665 0.906218 0.756161
0.923400 0.921477 0.774472
0.167391 0.206027 0.468635
0.204349 0.211154 0.473640
0.309392 0.225162 0.487526
0.462989 0.250401 0.514611
0.597375 0.337316 0.516777
0.710719 0.416541 0.530388
0.800076 0.481300 0.551415
0.895964 0.598596 0.623560
0.178225 0.233463 0.470985
0.211276 0.237980 0.476967
0.310430 0.250553 0.490944
0.462593 0.273655 0.518914
0.594537 0.355047 0.519341
0.708095 0.429511 0.533623
0.797940 0.490028 0.553857
0.896605 0.605097 0.625422
0.193179 0.303532 0.471870
0.221805 0.307958 0.477363
0.303410 0.316564 0.495338
0.450935 0.342626 0.524681
0.586450 0.408637 0.528801
0.694759 0.464485 0.539208
0.786557 0.517510 0.560662
0.897337 0.623316 0.627649
0.175296 0.385077 0.492103
0.207248 0.389685 0.493965
0.298253 0.408087 0.504265
0.434302 0.442664 0.538140
0.586511 0.495583 0.557397
0.684871 0.524773 0.559136
0.792721 0.578973 0.586358
0.905913 0.663111 0.638819
0.133913 0.493721 0.527001
0.177646 0.497871 0.529107
0.285191 0.512139 0.536980
0.427253 0.543511 0.558740
0.594446 0.598566 0.601465
0.699092 0.613733 0.596094
0.811307 0.657191 0.616938
0.913115 0.724208 0.664424
0.000000 0.616266 0.572534
0.110445 0.619806 0.574884
0.259220 0.630457 0.581994
0.416205 0.653437 0.599969
0.577935 0.680934 0.625360
0.710903 0.714900 0.644831
0.832547 0.755917 0.669673
0.923888 0.801602 0.710567
0.000000 0.770962 0.657771
0.000000 0.771542 0.657984
0.237003 0.774655 0.660304
0.422004 0.780056 0.666865
0.588739 0.788663 0.681666
0.715053 0.803922 0.700679
0.824613 0.824857 0.713313
0.922393 0.861021 0.746273
0.000000 0.895567 0.730098
0.000000 0.894957 0.729580
0.201602 0.893248 0.728939
0.426917 0.894591 0.735561
0.609369 0.890898 0.746059
0.757809 0.893095 0.773068
0.840269 0.904356 0.789120
0.921691 0.920409 0.803250
0.172122 0.252171 0.633356
0.217533 0.256504 0.636042
0.335851 0.270787 0.645075
0.493141 0.298192 0.664210
0.644160 0.355444 0.675502
0.745663 0.473457 0.663783
0.837705 0.580102 0.688685
0.909758 0.658228 0.723659
0.178286 0.275395 0.627924
0.219486 0.278996 0.630213
0.332403 0.292393 0.640436
0.484962 0.317632 0.658412
0.637995 0.370703 0.672480
0.741146 0.483162 0.662745
0.834562 0.584680 0.688258
0.907744 0.659846 0.722591
0.200595 0.354742 0.632013
0.231724 0.355413 0.634455
0.326940 0.361303 0.644282
0.476967 0.387518 0.661738
0.635126 0.433112 0.680415
0.737850 0.527123 0.671687
0.830045 0.609186 0.694545
0.904570 0.672358 0.724697
0.188113 0.444068 0.635584
0.223301 0.446601 0.635157
0.322087 0.459327 0.642298
0.464210 0.484993 0.669032
0.631098 0.528954 0.696040
0.740078 0.597131 0.693172
0.826108 0.649042 0.707240
0.901091 0.692988 0.728054
0.156405 0.539483 0.652216
0.199893 0.542321 0.653132
0.308354 0.552697 0.656886
0.445228 0.573968 0.666804
0.598047 0.609522 0.693172
0.732052 0.658869 0.707759
0.809964 0.677607 0.706142
0.897673 0.725856 0.732601
0.104402 0.642695 0.675990
0.169009 0.646265 0.678279
0.295628 0.653559 0.681605
0.439857 0.668055 0.689448
0.586419 0.692348 0.704707
0.738430 0.739803 0.740810
0.822843 0.751858 0.736568
0.914061 0.793088 0.760403
0.000000 0.765713 0.724392
0.096681 0.769802 0.727687
0.274937 0.777127 0.733181
0.439460 0.785031 0.739376
0.594934 0.797635 0.750454
0.735439 0.813169 0.767514
0.834043 0.833890 0.779599
0.924254 0.865782 0.800504
0.000000 0.895079 0.792355
0.000000 0.894682 0.792050
0.250553 0.894041 0.791928
0.438270 0.894987 0.794858
0.599359 0.893523 0.797482
0.742855 0.894438 0.807858
0.844602 0.905272 0.828153
0.922789 0.921965 0.840146
0.237797 0.315404 0.766598
0.278904 0.321141 0.769375
0.388220 0.337102 0.773526
0.530175 0.369299 0.782132
0.677638 0.422950 0.793545
0.790036 0.508293 0.793515
0.853208 0.621698 0.778439
0.923827 0.731258 0.812589
0.234653 0.333867 0.760647
0.274479 0.338933 0.763272
0.381659 0.353643 0.767910
0.521294 0.382574 0.775967
0.668208 0.432288 0.787564
0.782345 0.510887 0.788144
0.846952 0.619196 0.773251
0.919432 0.726345 0.807462
0.249180 0.408637 0.762295
0.272679 0.405402 0.763821
0.374517 0.416266 0.767514
0.513542 0.443305 0.775509
0.659480 0.486549 0.786618
0.779141 0.552300 0.791592
0.847044 0.648463 0.780850
0.920470 0.743587 0.814603
0.237156 0.500450 0.760769
0.269017 0.500908 0.760952
0.364599 0.506889 0.764828
0.499001 0.526207 0.775509
0.646784 0.563165 0.788083
0.776883 0.615869 0.800839
0.847929 0.691859 0.793393
0.919707 0.763973 0.821225
0.209628 0.586389 0.764004
0.243503 0.586725 0.762814
0.337743 0.590784 0.761563
0.462226 0.602777 0.764004
0.612116 0.628931 0.782132
0.758572 0.671534 0.802762
0.841337 0.729488 0.800198
0.914733 0.782193 0.823148
0.184237 0.679988 0.778256
0.225620 0.681086 0.778286
0.330907 0.685206 0.778775
0.460731 0.694545 0.781247
0.593164 0.709316 0.786007
0.735561 0.741878 0.807065
0.844450 0.786801 0.821103
0.908690 0.805112 0.824918
0.170901 0.775509 0.799832
0.219883 0.777005 0.800717
0.333013 0.779629 0.801541
0.466285 0.785428 0.804105
0.599908 0.793881 0.807919
0.729030 0.811063 0.818418
0.847807 0.846250 0.845182
0.916014 0.857023 0.842863
0.000000 0.878508 0.837949
0.145052 0.878782 0.838132
0.306737 0.883085 0.842222
0.455695 0.888273 0.847135
0.604211 0.891844 0.851377
0.740017 0.898253 0.858793
0.849363 0.908385 0.870573
0.926024 0.925231 0.882170
0.367895 0.416999 0.872740
0.396551 0.422950 0.873686
0.477852 0.439429 0.874113
0.594202 0.474983 0.877256
0.716854 0.528069 0.881743
0.826688 0.594812 0.888518
0.896880 0.674250 0.885710
0.934844 0.763210 0.874540
0.363287 0.431159 0.869902
0.391821 0.436774 0.870878
0.473579 0.452857 0.871855
0.589044 0.485389 0.874632
0.712001 0.535668 0.879423
0.822721 0.599603 0.886473
0.894072 0.675654 0.883970
0.933379 0.763943 0.873686
0.351537 0.480049 0.866636
0.379706 0.484413 0.867247
0.460945 0.496773 0.867582
0.581903 0.529564 0.872892
0.704005 0.571191 0.877531
0.814755 0.625330 0.884428
0.890410 0.692866 0.884337
0.932586 0.775296 0.876341
0.321843 0.551965 0.863645
0.354162 0.555932 0.864500
0.447272 0.568658 0.865293
0.561181 0.586969 0.869749
0.688441 0.621759 0.875731
0.803586 0.667384 0.884123
0.886870 0.723812 0.888029
0.933074 0.796201 0.882811
0.285588 0.634943 0.860929
0.313390 0.636591 0.861234
0.391241 0.638087 0.860655
0.505394 0.642206 0.864652
0.652064 0.669734 0.871214
0.779934 0.707759 0.881102
0.879576 0.757717 0.891905
0.932189 0.820157 0.889616
0.266300 0.718685 0.868986
0.292668 0.718257 0.868132
0.371160 0.718166 0.866178
0.477882 0.720241 0.864591
0.597284 0.726802 0.864164
0.747524 0.757046 0.879789
0.872068 0.804868 0.900938
0.932525 0.851530 0.900237
0.252995 0.803403 0.881651
0.282048 0.803098 0.881132
0.365820 0.802884 0.879881
0.479591 0.804959 0.879545
0.603326 0.809873 0.880064
0.724269 0.820645 0.883360
0.845731 0.848447 0.900603
0.930755 0.885344 0.911162
0.243015 0.881376 0.897124
0.274846 0.881071 0.896818
0.367987 0.881621 0.897124
0.493812 0.884428 0.899321
0.625971 0.889464 0.903044
0.741726 0.895262 0.906126
0.841611 0.906523 0.912322
0.932830 0.931365 0.930358
