data/fiter_cube/69180065/1023055/file.cube
# Created by Adobe Lightroom plugin Export LUT (1.17.0)
# www.johnrellis.com/lightroom/exportlut.htm
# Preset: 室内文艺胶片_08 云集
# Color profile: C:\Program Files (x86)\Common Files\Adobe\Color\Profiles\Recommended\AdobeRGB1998.icc
LUT_3D_SIZE 5
DOMAIN_MIN 0.000000 0.000000 0.000000
DOMAIN_MAX 0.903226 0.903226 0.903226
0.148104 0.125856 0.121340
0.249882 0.156954 0.138430
0.472633 0.225315 0.163882
0.756344 0.381598 0.217258
0.949004 0.574548 0.365637
0.154574 0.197757 0.150271
0.235294 0.218906 0.152712
0.477394 0.291325 0.174044
0.755032 0.429908 0.227756
0.952728 0.610956 0.390539
0.139406 0.373144 0.223514
0.226963 0.383948 0.229770
0.468452 0.473091 0.237095
0.770321 0.584100 0.284001
0.948150 0.697169 0.442603
0.000000 0.655573 0.384741
0.165408 0.663813 0.388312
0.435584 0.692317 0.383307
0.736294 0.738216 0.421485
0.940764 0.815732 0.558740
0.000000 0.898436 0.587549
0.119905 0.896178 0.593591
0.563531 0.882078 0.640284
0.752071 0.895628 0.670832
0.923644 0.920043 0.717800
0.164492 0.146456 0.195529
0.252934 0.171633 0.202487
0.443610 0.242222 0.238865
0.715328 0.374060 0.295445
0.930694 0.568200 0.423560
0.170718 0.209751 0.209445
0.255650 0.236851 0.227848
0.458808 0.299016 0.255131
0.721889 0.420691 0.306249
0.932036 0.598810 0.439063
0.153780 0.379034 0.276982
0.245945 0.396857 0.291173
0.460914 0.462562 0.306523
0.748196 0.570794 0.355779
0.936797 0.695338 0.498207
0.000000 0.657771 0.437079
0.195804 0.666590 0.444526
0.456367 0.693904 0.447120
0.733913 0.736690 0.483162
0.935302 0.815793 0.599847
0.000000 0.898253 0.615595
0.110079 0.895964 0.620417
0.576471 0.888334 0.670863
0.762722 0.897551 0.702113
0.924743 0.921874 0.741878
0.170382 0.188327 0.392065
0.273899 0.204166 0.407385
0.510369 0.286351 0.432532
0.708431 0.389441 0.458534
0.905882 0.587640 0.578058
0.193606 0.266087 0.397253
0.272038 0.275486 0.415045
0.505852 0.347082 0.448249
0.696010 0.430152 0.471382
0.909453 0.613275 0.586816
0.156344 0.416205 0.443458
0.256840 0.432380 0.452399
0.514244 0.516411 0.517937
0.722835 0.572015 0.533104
0.917418 0.696895 0.620905
0.000000 0.664973 0.562921
0.208469 0.671015 0.566766
0.508080 0.699184 0.596582
0.740322 0.743679 0.624842
0.925658 0.816800 0.691310
0.000000 0.895323 0.699397
0.100282 0.895476 0.700923
0.531395 0.891203 0.715724
0.771633 0.895232 0.754208
0.921141 0.919524 0.785763
0.179843 0.263554 0.664424
0.309117 0.278294 0.673518
0.578943 0.332311 0.702510
0.774136 0.508263 0.693111
0.912169 0.674769 0.746181
0.200443 0.341436 0.662776
0.303502 0.346593 0.670924
0.565057 0.397009 0.699031
0.767086 0.542168 0.696376
0.907012 0.681941 0.744594
0.178805 0.496742 0.667079
0.286931 0.505608 0.668513
0.526329 0.544305 0.695949
0.754025 0.632105 0.713039
0.897520 0.711299 0.744930
0.118196 0.681544 0.712856
0.267948 0.684565 0.712764
0.516136 0.706569 0.724178
0.768551 0.768856 0.769100
0.912322 0.806302 0.778653
0.000000 0.893431 0.806241
0.216190 0.893675 0.806851
0.528130 0.895659 0.812161
0.774319 0.898222 0.825376
0.922820 0.922057 0.849424
0.367895 0.416999 0.872740
0.453162 0.433753 0.873808
0.656336 0.499886 0.879393
0.847105 0.615198 0.888090
0.934844 0.763210 0.874540
0.358007 0.467079 0.868467
0.443397 0.481361 0.869749
0.646876 0.537713 0.875914
0.840665 0.635096 0.886473
0.933318 0.772763 0.876127
0.300725 0.592798 0.861051
0.382727 0.593927 0.862181
0.604700 0.626551 0.868772
0.817563 0.695460 0.883726
0.932616 0.807462 0.885924
0.270573 0.743130 0.873991
0.353338 0.742824 0.872099
0.542290 0.747189 0.869780
0.771817 0.779507 0.883513
0.931853 0.858976 0.902342
0.243015 0.881376 0.897124
0.340124 0.881315 0.896880
0.560357 0.886625 0.900999
0.767971 0.897368 0.907195
0.932830 0.931365 0.930358
