data/fiter_cube/26597975/1022854/file.cube
# Created by Adobe Lightroom plugin Export LUT (1.17.0)
# www.johnrellis.com/lightroom/exportlut.htm
# Preset:  城市电影胶片_10 云集
# Color profile: C:\Program Files (x86)\Common Files\Adobe\Color\Profiles\Recommended\AdobeRGB1998.icc
LUT_3D_SIZE 32
DOMAIN_MIN 0.0 0.0 0.0
DOMAIN_MAX 1.0 1.0 1.0
0.052766 0.086336 0.085512
0.053620 0.086275 0.085817
0.057710 0.086030 0.085786
0.072999 0.084565 0.086213
0.113863 0.077546 0.085573
0.182864 0.045045 0.083894
0.285069 0.000000 0.079194
0.423468 0.000000 0.067079
0.601526 0.000000 0.010773
0.789364 0.000000 0.000000
0.942870 0.000000 0.000000
1.000000 0.000000 0.000000
1.000000 0.000000 0.000000
1.000000 0.000000 0.000000
1.000000 0.000000 0.000000
1.000000 0.000000 0.000000
1.000000 0.000000 0.000000
1.000000 0.000000 0.000000
1.000000 0.000000 0.000000
1.000000 0.000000 0.000000
1.000000 0.000000 0.000000
1.000000 0.000000 0.074769
1.000000 0.000000 0.121828
1.000000 0.000000 0.156222
1.000000 0.000000 0.183597
1.000000 0.000000 0.207553
1.000000 0.000000 0.229068
1.000000 0.000000 0.248783
1.000000 0.000000 0.266026
1.000000 0.000000 0.279484
1.000000 0.000000 0.286717
1.000000 0.000000 0.284825
0.052491 0.086641 0.085786
0.053346 0.086580 0.086061
0.057465 0.086671 0.085756
0.070100 0.086519 0.085817
0.102449 0.083314 0.085512
0.158389 0.069429 0.084382
0.245548 0.000000 0.080995
0.367102 0.000000 0.072450
0.532555 0.000000 0.041077
0.727108 0.000000 0.000000
0.898924 0.000000 0.000000
1.000000 0.000000 0.000000
1.000000 0.000000 0.000000
1.000000 0.000000 0.000000
1.000000 0.000000 0.000000
1.000000 0.000000 0.000000
1.000000 0.000000 0.000000
1.000000 0.000000 0.000000
1.000000 0.000000 0.000000
1.000000 0.000000 0.000000
1.000000 0.000000 0.000000
1.000000 0.000000 0.042847
1.000000 0.000000 0.104891
1.000000 0.000000 0.140841
1.000000 0.000000 0.168765
1.000000 0.000000 0.193210
1.000000 0.000000 0.215213
1.000000 0.000000 0.236332
1.000000 0.000000 0.254032
1.000000 0.000000 0.268528
1.000000 0.000000 0.276524
1.000000 0.000000 0.275761
0.053285 0.088441 0.086488
0.054078 0.087739 0.087404
0.054810 0.088014 0.087678
0.065187 0.088655 0.086610
0.090425 0.087526 0.085542
0.133394 0.081483 0.084779
0.203342 0.050690 0.082582
0.307164 0.000000 0.076844
0.455329 0.000000 0.061158
0.649073 0.000000 0.000000
0.841886 0.000000 0.000000
0.983856 0.000000 0.000000
1.000000 0.000000 0.000000
1.000000 0.000000 0.000000
1.000000 0.000000 0.000000
1.000000 0.000000 0.000000
1.000000 0.000000 0.000000
1.000000 0.000000 0.000000
1.000000 0.000000 0.000000
1.000000 0.000000 0.000000
1.000000 0.000000 0.000000
1.000000 0.000000 0.004883
1.000000 0.000000 0.093874
1.000000 0.000000 0.131228
1.000000 0.000000 0.160006
1.000000 0.000000 0.184573
1.000000 0.000000 0.207401
1.000000 0.000000 0.228641
1.000000 0.000000 0.247013
1.000000 0.000000 0.261997
1.000000 0.000000 0.270573
1.000000 0.000000 0.270268
0.059846 0.096590 0.090791
0.060853 0.094667 0.094148
0.059998 0.093874 0.095796
0.059449 0.093111 0.094820
0.075502 0.093202 0.090242
0.103517 0.090578 0.085756
0.144015 0.084535 0.084321
0.218235 0.055360 0.081544
0.334691 0.000000 0.073823
0.505791 0.000000 0.044800
0.720241 0.000000 0.000000
0.910979 0.000000 0.000000
1.000000 0.000000 0.000000
1.000000 0.000000 0.000000
1.000000 0.000000 0.000000
1.000000 0.000000 0.000000
1.000000 0.000000 0.000000
1.000000 0.000000 0.000000
1.000000 0.000000 0.000000
1.000000 0.000000 0.000000
1.000000 0.000000 0.000000
1.000000 0.000000 0.000000
1.000000 0.000000 0.071443
1.000000 0.000000 0.116091
1.000000 0.000000 0.148165
1.000000 0.000000 0.176120
1.000000 0.000000 0.201205
1.000000 0.000000 0.224155
1.000000 0.000000 0.243168
1.000000 0.000000 0.257755
1.000000 0.000000 0.265568
1.000000 0.000000 0.264134
0.074678 0.120912 0.106142
0.076600 0.117098 0.112581
0.071687 0.112581 0.121675
0.069459 0.109010 0.116854
0.066560 0.104158 0.110170
0.083009 0.101167 0.099519
0.116426 0.095918 0.088869
0.145663 0.089326 0.084749
0.205844 0.072297 0.081575
0.325200 0.000000 0.073854
0.512810 0.000000 0.035584
0.751339 0.000000 0.000000
0.946838 0.000000 0.000000
1.000000 0.000000 0.000000
1.000000 0.000000 0.000000
1.000000 0.000000 0.000000
1.000000 0.000000 0.000000
1.000000 0.000000 0.000000
1.000000 0.000000 0.000000
1.000000 0.000000 0.000000
1.000000 0.000000 0.000000
1.000000 0.000000 0.000000
1.000000 0.000000 0.028412
1.000000 0.000000 0.099489
1.000000 0.000000 0.135409
1.000000 0.000000 0.165225
1.000000 0.000000 0.191348
1.000000 0.000000 0.214481
1.000000 0.000000 0.233890
1.000000 0.000000 0.248753
1.000000 0.000000 0.256901
1.000000 0.000000 0.256107
0.110994 0.170596 0.139590
0.113252 0.164401 0.149386
0.109133 0.156283 0.162692
0.096437 0.145480 0.164645
0.087068 0.133577 0.149477
0.078035 0.121340 0.133303
0.090150 0.113893 0.116732
0.133394 0.105135 0.096193
0.172732 0.094301 0.086885
0.215396 0.078737 0.081575
0.314305 0.000000 0.073671
0.529625 0.000000 0.021393
0.795224 0.000000 0.000000
0.981842 0.000000 0.000000
1.000000 0.000000 0.000000
1.000000 0.000000 0.000000
1.000000 0.000000 0.000000
1.000000 0.000000 0.000000
1.000000 0.000000 0.000000
1.000000 0.000000 0.000000
1.000000 0.000000 0.000000
1.000000 0.000000 0.000000
1.000000 0.000000 0.142916
1.000000 0.000000 0.180575
1.000000 0.000000 0.211124
1.000000 0.000000 0.237034
1.000000 0.000000 0.258488
1.000000 0.000000 0.276616
1.000000 0.000000 0.289769
1.000000 0.000000 0.297246
1.000000 0.000000 0.296757
1.000000 0.000000 0.285527
0.212711 0.291081 0.217075
0.214237 0.279637 0.232303
0.209232 0.265507 0.253361
0.181033 0.241093 0.275975
0.155612 0.213504 0.245121
0.128450 0.183078 0.210086
0.104128 0.154604 0.175967
0.103761 0.138643 0.151369
0.171542 0.123720 0.113619
0.237797 0.104036 0.093538
0.317662 0.060609 0.078798
0.424475 0.000000 0.060395
0.639826 0.000000 0.000000
0.904295 0.000000 0.000000
1.000000 0.000000 0.000000
1.000000 0.000000 0.000000
1.000000 0.000000 0.000000
1.000000 0.000000 0.000000
1.000000 0.000000 0.000000
1.000000 0.000000 0.000000
1.000000 0.000000 0.000000
1.000000 0.000000 0.000000
1.000000 0.000000 0.076051
1.000000 0.000000 0.136507
1.000000 0.000000 0.179110
1.000000 0.000000 0.211734
1.000000 0.000000 0.237430
1.000000 0.000000 0.257267
1.000000 0.000000 0.271733
1.000000 0.000000 0.280095
1.000000 0.000000 0.279789
1.000000 0.000000 0.270024
0.349523 0.432013 0.318853
0.348913 0.418982 0.336614
0.342138 0.401678 0.360967
0.304387 0.368750 0.413123
0.264988 0.329046 0.371130
0.220523 0.283085 0.321874
0.176242 0.236027 0.270451
0.138094 0.193820 0.222690
0.117464 0.170230 0.195071
0.212222 0.151736 0.142458
0.309392 0.125643 0.109041
0.429725 0.044526 0.079500
0.577050 0.000000 0.002869
0.737972 0.000000 0.000000
0.934600 0.000000 0.000000
1.000000 0.000000 0.000000
1.000000 0.000000 0.000000
1.000000 0.000000 0.000000
1.000000 0.000000 0.000000
1.000000 0.000000 0.000000
1.000000 0.000000 0.000000
1.000000 0.000000 0.000000
1.000000 0.000000 0.000000
1.000000 0.000000 0.104280
1.000000 0.000000 0.153017
1.000000 0.000000 0.188510
1.000000 0.000000 0.215702
1.000000 0.000000 0.236728
1.000000 0.000000 0.253025
1.000000 0.000000 0.262364
1.000000 0.000000 0.263981
1.000000 0.000000 0.255283
0.537255 0.604517 0.469184
0.534539 0.592432 0.488594
0.526879 0.576104 0.515190
0.490028 0.542199 0.571923
0.436286 0.496651 0.546410
0.376349 0.439551 0.487160
0.312078 0.376440 0.421180
0.249851 0.313420 0.354559
0.193606 0.254704 0.291020
0.162661 0.221286 0.253819
0.274144 0.200504 0.191958
0.418708 0.169131 0.139284
0.583459 0.090761 0.085389
0.751980 0.000000 0.000000
0.893706 0.000000 0.000000
1.000000 0.000000 0.000000
1.000000 0.000000 0.000000
1.000000 0.000000 0.000000
1.000000 0.000000 0.000000
1.000000 0.000000 0.000000
1.000000 0.000000 0.000000
1.000000 0.000000 0.000000
1.000000 0.000000 0.000000
1.000000 0.000000 0.059815
1.000000 0.000000 0.126955
1.000000 0.000000 0.166873
1.000000 0.000000 0.196628
1.000000 0.000000 0.219272
1.000000 0.000000 0.236301
1.000000 0.000000 0.246891
1.000000 0.000000 0.249393
1.000000 0.000000 0.241215
0.716945 0.754360 0.653956
0.713405 0.745937 0.669368
0.706203 0.734554 0.689082
0.680568 0.710628 0.731746
0.634150 0.675380 0.729763
0.578820 0.626734 0.680507
0.508904 0.563836 0.615961
0.429572 0.490394 0.539910
0.350134 0.414038 0.460548
0.276585 0.340764 0.383581
0.231510 0.294530 0.334203
0.358404 0.275120 0.268559
0.551598 0.243137 0.191470
0.752316 0.194064 0.114076
0.924620 0.136507 0.000000
1.000000 0.105684 0.000000
1.000000 0.089845 0.000000
1.000000 0.000000 0.000000
1.000000 0.000000 0.000000
1.000000 0.000000 0.000000
1.000000 0.000000 0.000000
1.000000 0.000000 0.000000
1.000000 0.000000 0.000000
1.000000 0.000000 0.000000
1.000000 0.000000 0.083040
1.000000 0.000000 0.135622
1.000000 0.000000 0.170687
1.000000 0.000000 0.197971
1.000000 0.000000 0.218784
1.000000 0.000000 0.231998
1.000000 0.000000 0.236637
1.000000 0.000000 0.230259
0.830533 0.844755 0.793515
0.828428 0.840482 0.803128
0.824277 0.834470 0.815702
0.810605 0.821500 0.840726
0.782650 0.801663 0.852018
0.749416 0.773953 0.826291
0.703182 0.734890 0.788754
0.643458 0.683497 0.737911
0.568933 0.617914 0.671504
0.483894 0.540917 0.592279
0.396490 0.458900 0.507256
0.349767 0.413733 0.460182
0.497780 0.406409 0.403662
0.749050 0.384802 0.299290
0.924590 0.364752 0.204135
1.000000 0.354864 0.094972
1.000000 0.342473 0.000000
1.000000 0.318090 0.000000
1.000000 0.279301 0.000000
1.000000 0.225315 0.000000
1.000000 0.196750 0.000000
1.000000 0.169680 0.000000
1.000000 0.143099 0.000000
1.000000 0.121004 0.000000
1.000000 0.105989 0.000000
1.000000 0.100130 0.106020
1.000000 0.098604 0.148531
1.000000 0.099550 0.179171
1.000000 0.095521 0.201999
1.000000 0.073945 0.216861
1.000000 0.000000 0.223148
1.000000 0.000000 0.218265
0.897704 0.900481 0.883330
0.896666 0.898314 0.888121
0.894530 0.895079 0.894377
0.888304 0.888487 0.906554
0.874449 0.878386 0.918730
0.858701 0.864897 0.907561
0.836301 0.846006 0.891478
0.804562 0.819760 0.868376
0.761105 0.783749 0.835477
0.716945 0.746578 0.800107
0.667597 0.704341 0.758694
0.604608 0.649531 0.703639
0.711421 0.741878 0.795560
0.816281 0.744839 0.767575
0.968872 0.718593 0.647486
1.000000 0.681666 0.521111
1.000000 0.635004 0.403723
1.000000 0.581659 0.298558
1.000000 0.523705 0.199832
1.000000 0.462837 0.084962
1.000000 0.396979 0.000000
1.000000 0.324132 0.000000
1.000000 0.298375 0.000000
1.000000 0.282017 0.000000
1.000000 0.270207 0.067964
1.000000 0.261967 0.131960
1.000000 0.254734 0.169619
1.000000 0.246952 0.196323
1.000000 0.236423 0.215518
1.000000 0.219577 0.226780
1.000000 0.190311 0.229252
1.000000 0.131411 0.220493
0.943389 0.942229 0.941833
0.942901 0.941161 0.943633
0.941619 0.939239 0.945678
0.938445 0.935454 0.950195
0.931365 0.929503 0.956664
0.923766 0.922545 0.952667
0.917174 0.916411 0.948241
0.908476 0.908507 0.942351
0.898436 0.899474 0.935485
0.886961 0.889311 0.927520
0.873869 0.877867 0.918303
0.857694 0.864012 0.906828
0.836637 0.846311 0.891752
0.816953 0.829984 0.877470
0.867979 0.841489 0.877470
0.972076 0.824430 0.805539
1.000000 0.791836 0.709560
1.000000 0.744900 0.597223
1.000000 0.688472 0.483223
1.000000 0.628199 0.379278
1.000000 0.565698 0.285679
1.000000 0.499489 0.192569
1.000000 0.428473 0.065644
1.000000 0.350469 0.000000
1.000000 0.334356 0.000000
1.000000 0.321843 0.085298
1.000000 0.311070 0.138857
1.000000 0.301061 0.172763
1.000000 0.289433 0.196414
1.000000 0.274449 0.211551
1.000000 0.250736 0.216648
1.000000 0.211765 0.211368
0.963287 0.961791 0.964385
0.963134 0.961273 0.965454
0.962615 0.960357 0.966552
0.961273 0.958465 0.968994
0.958251 0.955474 0.972473
0.954437 0.952087 0.972595
0.950683 0.948363 0.970245
0.946410 0.944152 0.967498
0.941619 0.939513 0.964416
0.936400 0.934447 0.961028
0.930724 0.929046 0.957305
0.924254 0.922972 0.953002
0.915892 0.915251 0.947387
0.903960 0.904387 0.939269
0.889586 0.891630 0.929351
0.903716 0.899138 0.933776
0.971557 0.885710 0.893523
1.000000 0.861112 0.835966
1.000000 0.826535 0.758267
1.000000 0.783139 0.667140
1.000000 0.730831 0.569055
1.000000 0.670558 0.469001
1.000000 0.604059 0.370123
1.000000 0.532769 0.272374
1.000000 0.455390 0.167269
1.000000 0.379828 0.000000
1.000000 0.366979 0.108919
1.000000 0.355352 0.153140
1.000000 0.343267 0.182376
1.000000 0.328832 0.201266
1.000000 0.308690 0.210086
1.000000 0.281651 0.217441
0.975525 0.974334 0.976715
0.975463 0.974029 0.977295
0.975097 0.973388 0.977813
0.974151 0.972045 0.979065
0.972229 0.969909 0.980865
0.969451 0.967407 0.981903
0.967254 0.965118 0.980591
0.964752 0.962554 0.979034
0.962188 0.959930 0.977447
0.959503 0.957183 0.975769
0.956756 0.954437 0.974060
0.953826 0.951476 0.972229
0.950195 0.947875 0.969909
0.945159 0.942931 0.966705
0.937804 0.935821 0.961944
0.927123 0.925689 0.954894
0.932189 0.930449 0.958251
0.973114 0.922911 0.938201
1.000000 0.906615 0.907439
1.000000 0.883543 0.865660
1.000000 0.853880 0.810483
1.000000 0.816464 0.740169
1.000000 0.768795 0.654353
1.000000 0.709133 0.554955
1.000000 0.638544 0.447120
1.000000 0.561273 0.338598
1.000000 0.478981 0.227665
1.000000 0.409766 0.140658
1.000000 0.398810 0.178317
1.000000 0.385962 0.202609
1.000000 0.368811 0.217258
1.000000 0.352941 0.237247
0.982666 0.981811 0.983368
0.982696 0.981628 0.983764
0.982513 0.981292 0.984161
0.982055 0.980499 0.984985
0.981018 0.979217 0.986236
0.979187 0.977630 0.987793
0.978149 0.976471 0.987152
0.976928 0.975189 0.986419
0.975586 0.973785 0.985626
0.974090 0.972229 0.984741
0.972381 0.970428 0.983703
0.970428 0.968383 0.982483
0.967956 0.965850 0.980987
0.964782 0.962554 0.979034
0.960510 0.958221 0.976410
0.954833 0.952483 0.972869
0.947387 0.945129 0.968139
0.950713 0.948394 0.970275
0.976074 0.946044 0.961242
0.997223 0.936980 0.945861
1.000000 0.923308 0.925963
1.000000 0.904875 0.899474
1.000000 0.880613 0.862821
1.000000 0.848905 0.811276
1.000000 0.806973 0.739895
1.000000 0.751064 0.646693
1.000000 0.679103 0.532860
1.000000 0.595911 0.410071
1.000000 0.505394 0.284337
1.000000 0.439551 0.208408
1.000000 0.425452 0.234867
1.000000 0.412818 0.255650
0.987030 0.986419 0.987274
0.986999 0.986236 0.987488
0.986847 0.985962 0.987762
0.986511 0.985382 0.988312
0.985840 0.984497 0.989197
0.984710 0.983307 0.990356
0.983703 0.982422 0.990448
0.982910 0.981537 0.989990
0.982055 0.980652 0.989471
0.981109 0.979644 0.988922
0.980102 0.978607 0.988312
0.978973 0.977386 0.987640
0.977630 0.975952 0.986847
0.975860 0.974060 0.985779
0.973480 0.971588 0.984344
0.970306 0.968261 0.982422
0.966247 0.964080 0.979950
0.961364 0.959045 0.976928
0.963561 0.961334 0.978302
0.979461 0.961486 0.974395
0.995789 0.956085 0.965576
1.000000 0.947326 0.954803
1.000000 0.935119 0.940673
1.000000 0.919066 0.921416
1.000000 0.897856 0.893858
1.000000 0.869444 0.853483
1.000000 0.831113 0.793088
1.000000 0.778744 0.706600
1.000000 0.706569 0.590326
1.000000 0.604730 0.436439
1.000000 0.498177 0.287785
1.000000 0.467506 0.276707
0.990356 0.989960 0.990204
0.990417 0.989899 0.990448
0.993011 0.992584 0.992981
0.992828 0.992218 0.993286
0.992432 0.991669 0.993774
0.991760 0.990936 0.994354
0.990967 0.990204 0.994720
0.990478 0.989685 0.994446
0.989960 0.989166 0.994171
0.989471 0.988586 0.993835
0.988891 0.987976 0.993500
0.988251 0.987274 0.993133
0.987427 0.986389 0.992645
0.986419 0.985321 0.992035
0.985138 0.983948 0.991302
0.983551 0.982208 0.990356
0.981537 0.980102 0.989166
0.979126 0.977539 0.987732
0.976318 0.974578 0.986053
0.977539 0.975830 0.986786
0.985779 0.976654 0.985412
0.996796 0.973419 0.980468
1.000000 0.967773 0.974609
1.000000 0.959808 0.967224
1.000000 0.948821 0.956939
1.000000 0.934173 0.942168
1.000000 0.914153 0.919707
1.000000 0.887053 0.885130
1.000000 0.846159 0.825345
1.000000 0.789700 0.734401
1.000000 0.706783 0.601678
1.000000 0.596735 0.436072
0.993347 0.993103 0.992859
0.993591 0.993317 0.993194
0.993805 0.993500 0.993591
0.993927 0.993500 0.994049
0.993866 0.993256 0.994568
0.993469 0.992798 0.995117
0.992737 0.992157 0.995758
0.992370 0.991760 0.995575
0.992035 0.991363 0.995361
0.991638 0.990936 0.995117
0.991241 0.990509 0.994903
0.990814 0.990051 0.994629
0.990234 0.989441 0.994324
0.989563 0.988678 0.993896
0.988678 0.987762 0.993378
0.987610 0.986603 0.992767
0.986297 0.985199 0.992004
0.984802 0.983581 0.991089
0.983093 0.981750 0.990082
0.981292 0.979828 0.989014
0.982361 0.980987 0.989654
0.987823 0.982635 0.989624
0.996918 0.980774 0.986236
1.000000 0.976959 0.982361
1.000000 0.971283 0.977508
1.000000 0.963622 0.971191
1.000000 0.953399 0.962463
1.000000 0.939361 0.949401
1.000000 0.920623 0.929900
1.000000 0.893462 0.897429
1.000000 0.852537 0.840513
1.000000 0.788663 0.739376
0.994781 0.994659 0.994049
0.994965 0.994812 0.994324
0.995148 0.994934 0.994629
0.995239 0.994934 0.994995
0.995209 0.994781 0.995392
0.994934 0.994415 0.995850
0.994446 0.993896 0.996338
0.993988 0.993500 0.996490
0.993774 0.993225 0.996368
0.993469 0.992920 0.996216
0.993194 0.992645 0.996033
0.992889 0.992279 0.995850
0.992462 0.991852 0.995605
0.992004 0.991333 0.995331
0.991394 0.990692 0.994995
0.990692 0.989929 0.994568
0.989837 0.988983 0.994079
0.988861 0.987945 0.993500
0.987823 0.986816 0.992889
0.986755 0.985657 0.992248
0.985626 0.984466 0.991608
0.986633 0.985534 0.992187
0.989929 0.987427 0.992828
0.997314 0.986358 0.990417
1.000000 0.983642 0.987610
1.000000 0.979461 0.984222
1.000000 0.973785 0.979889
1.000000 0.966400 0.974304
1.000000 0.956756 0.966522
1.000000 0.943481 0.954864
1.000000 0.923857 0.935302
1.000000 0.893462 0.899779
0.995972 0.995941 0.995056
0.996094 0.996063 0.995270
0.996246 0.996124 0.995483
0.996307 0.996124 0.995789
0.996277 0.996002 0.996094
0.996124 0.995727 0.996460
0.995789 0.995331 0.996826
0.995270 0.994873 0.997253
0.995087 0.994690 0.997131
0.994903 0.994476 0.997040
0.994720 0.994263 0.996918
0.994476 0.994018 0.996796
0.994232 0.993713 0.996612
0.993896 0.993378 0.996460
0.993530 0.992981 0.996216
0.993103 0.992523 0.995972
0.992645 0.992035 0.995697
0.992187 0.991547 0.995422
0.991730 0.991058 0.995178
0.991333 0.990600 0.994934
0.990997 0.990234 0.994751
0.990661 0.989899 0.994568
0.991516 0.990814 0.995056
0.993225 0.992523 0.995941
0.998474 0.992004 0.994385
1.000000 0.990265 0.992615
1.000000 0.987518 0.990448
1.000000 0.983642 0.987732
1.000000 0.978515 0.984161
1.000000 0.971557 0.979126
1.000000 0.961639 0.971557
1.000000 0.947478 0.959655
0.997345 0.997436 0.996368
0.997406 0.997467 0.996460
0.997436 0.997467 0.996551
0.997436 0.997375 0.996704
0.997406 0.997223 0.996918
0.997253 0.997009 0.997162
0.997040 0.996735 0.997436
0.996704 0.996368 0.997772
0.996429 0.996124 0.997925
0.996338 0.996033 0.997864
0.996246 0.995941 0.997803
0.996124 0.995819 0.997742
0.995972 0.995666 0.997650
0.995819 0.995422 0.997559
0.995575 0.995178 0.997406
0.995331 0.994934 0.997284
0.995056 0.994629 0.997131
0.994781 0.994324 0.996948
0.994507 0.994049 0.996796
0.994232 0.993744 0.996612
0.993957 0.993469 0.996490
0.993744 0.993194 0.996338
0.993500 0.992950 0.996185
0.993957 0.993469 0.996490
0.995117 0.994690 0.997162
0.998810 0.994507 0.996185
1.000000 0.993256 0.994842
1.000000 0.991180 0.993256
1.000000 0.988220 0.991211
1.000000 0.984253 0.988495
1.000000 0.978790 0.984680
1.000000 0.971405 0.979370
0.997986 0.998169 0.996948
0.998047 0.998169 0.997040
0.998047 0.998169 0.997101
0.998077 0.998108 0.997223
0.998077 0.997986 0.997406
0.997986 0.997803 0.997589
0.997833 0.997589 0.997833
0.997589 0.997314 0.998077
0.997223 0.997009 0.998383
0.997162 0.996918 0.998352
0.997070 0.996826 0.998291
0.997009 0.996765 0.998260
0.996918 0.996643 0.998199
0.996796 0.996521 0.998138
0.996643 0.996368 0.998047
0.996521 0.996216 0.997955
0.996368 0.996063 0.997864
0.996216 0.995880 0.997803
0.996063 0.995727 0.997711
0.995941 0.995605 0.997620
0.995850 0.995483 0.997559
0.995758 0.995392 0.997528
0.995666 0.995300 0.997467
0.995636 0.995239 0.997467
0.995453 0.995056 0.997345
0.996338 0.996063 0.997864
0.999054 0.996124 0.997314
1.000000 0.995209 0.996307
1.000000 0.993561 0.995056
1.000000 0.991241 0.993469
1.000000 0.988190 0.991394
1.000000 0.984222 0.988647
0.998718 0.998932 0.997650
0.998749 0.998932 0.997742
0.998779 0.998932 0.997772
0.998749 0.998871 0.997864
0.998749 0.998779 0.997986
0.998688 0.998657 0.998108
0.998596 0.998474 0.998260
0.998413 0.998230 0.998474
0.998138 0.997955 0.998688
0.997925 0.997772 0.998779
0.997864 0.997681 0.998749
0.997803 0.997589 0.998718
0.997711 0.997498 0.998657
0.997589 0.997406 0.998596
0.997467 0.997253 0.998535
0.997345 0.997131 0.998444
0.997192 0.996979 0.998352
0.997070 0.996826 0.998291
0.996979 0.996704 0.998230
0.996918 0.996643 0.998199
0.996857 0.996582 0.998169
0.996826 0.996551 0.998169
0.996796 0.996521 0.998138
0.996735 0.996460 0.998108
0.996674 0.996368 0.998047
0.996826 0.996551 0.998169
0.997528 0.997314 0.998566
0.999329 0.997467 0.998260
1.000000 0.996796 0.997467
1.000000 0.995483 0.996521
1.000000 0.993744 0.995300
1.000000 0.991516 0.993805
0.999054 0.999298 0.997986
0.999084 0.999298 0.998047
0.999084 0.999298 0.998077
0.999084 0.999268 0.998138
0.999084 0.999176 0.998230
0.999054 0.999084 0.998352
0.998993 0.998932 0.998505
0.998901 0.998749 0.998657
0.998718 0.998566 0.998840
0.998444 0.998322 0.999054
0.998383 0.998260 0.999054
0.998352 0.998230 0.999023
0.998322 0.998169 0.999023
0.998260 0.998108 0.998993
0.998199 0.998047 0.998932
0.998138 0.997955 0.998901
0.998047 0.997864 0.998840
0.997986 0.997803 0.998810
0.997925 0.997742 0.998779
0.997894 0.997711 0.998779
0.997894 0.997711 0.998779
0.997894 0.997711 0.998779
0.997894 0.997711 0.998779
0.997894 0.997711 0.998779
0.997864 0.997681 0.998749
0.997833 0.997650 0.998749
0.997955 0.997772 0.998810
0.998474 0.998322 0.999084
0.999603 0.998535 0.998962
1.000000 0.998016 0.998413
1.000000 0.997040 0.997711
1.000000 0.995819 0.996857
0.999329 0.999634 0.998291
0.999359 0.999664 0.998322
0.999359 0.999634 0.998352
0.999359 0.999603 0.998413
0.999359 0.999512 0.998474
0.999359 0.999451 0.998566
0.999329 0.999329 0.998688
0.999237 0.999207 0.998810
0.999145 0.999023 0.998993
0.998962 0.998840 0.999145
0.998779 0.998688 0.999298
0.998779 0.998657 0.999268
0.998749 0.998627 0.999268
0.998718 0.998596 0.999268
0.998688 0.998566 0.999237
0.998627 0.998505 0.999207
0.998566 0.998474 0.999176
0.998566 0.998413 0.999145
0.998535 0.998383 0.999145
0.998505 0.998383 0.999115
0.998505 0.998383 0.999115
0.998535 0.998383 0.999145
0.998535 0.998413 0.999145
0.998535 0.998413 0.999145
0.998566 0.998413 0.999145
0.998566 0.998413 0.999145
0.998535 0.998444 0.999145
0.998627 0.998505 0.999207
0.998993 0.998932 0.999420
0.999725 0.999145 0.999420
1.000000 0.998749 0.998993
1.000000 0.998077 0.998505
0.999542 0.999878 0.998505
0.999542 0.999878 0.998505
0.999573 0.999847 0.998535
0.999573 0.999847 0.998596
0.999573 0.999786 0.998657
0.999573 0.999725 0.998749
0.999573 0.999664 0.998871
0.999573 0.999573 0.998993
0.999512 0.999481 0.999145
0.999451 0.999359 0.999329
0.999298 0.999207 0.999481
0.999237 0.999176 0.999542
0.999268 0.999176 0.999573
0.999268 0.999176 0.999573
0.999268 0.999176 0.999573
0.999237 0.999176 0.999573
0.999237 0.999176 0.999542
0.999207 0.999145 0.999542
0.999207 0.999145 0.999542
0.999207 0.999145 0.999542
0.999237 0.999176 0.999542
0.999237 0.999176 0.999573
0.999268 0.999176 0.999573
0.999268 0.999207 0.999573
0.999298 0.999207 0.999573
0.999298 0.999237 0.999603
0.999298 0.999268 0.999603
0.999329 0.999268 0.999603
0.999390 0.999329 0.999634
0.999603 0.999573 0.999756
0.999939 0.999725 0.999817
1.000000 0.999298 0.999420
0.999725 1.000000 0.998810
0.999756 1.000000 0.998840
0.999756 1.000000 0.998840
0.999786 1.000000 0.998871
0.999817 1.000000 0.998932
0.999817 1.000000 0.998993
0.999847 0.999969 0.999084
0.999817 0.999878 0.999176
0.999786 0.999786 0.999298
0.999725 0.999695 0.999420
0.999634 0.999573 0.999542
0.999481 0.999420 0.999695
0.999481 0.999420 0.999695
0.999481 0.999420 0.999695
