data/fiter_cube/26597975/1022854/file.cube
# Created by Adobe Lightroom plugin Export LUT (1.17.0)
# www.johnrellis.com/lightroom/exportlut.htm
# Preset:  城市电影胶片_10 云集
# Color profile: C:\Program Files (x86)\Common Files\Adobe\Color\Profiles\Recommended\AdobeRGB1998.icc
LUT_3D_SIZE 5
DOMAIN_MIN 0.000000 0.000000 0.000000
DOMAIN_MAX 0.903226 0.903226 0.903226
0.052766 0.086336 0.085512
0.423468 0.000000 0.067079
1.000000 0.000000 0.000000
1.000000 0.000000 0.074769
1.000000 0.000000 0.266026
0.349523 0.432013 0.318853
0.138094 0.193820 0.222690
0.934600 0.000000 0.000000
1.000000 0.000000 0.000000
1.000000 0.000000 0.253025
0.975525 0.974334 0.976715
0.964752 0.962554 0.979034
0.937804 0.935821 0.961944
1.000000 0.816464 0.740169
1.000000 0.398810 0.178317
0.997345 0.997436 0.996368
0.996704 0.996368 0.997772
0.995575 0.995178 0.997406
0.993744 0.993194 0.996338
1.000000 0.988220 0.991211
0.999725 1.000000 0.998932
0.999908 1.000000 0.999237
0.999542 0.999481 0.999725
0.999603 0.999573 0.999756
0.999756 0.999725 0.999847
0.000000 0.000000 0.961364
0.767819 0.000000 0.937377
1.000000 0.665034 0.863188
1.000000 0.782712 0.872129
1.000000 0.800656 0.876219
0.000000 0.493538 0.899596
0.787686 0.805844 0.855833
1.000000 0.339300 0.453895
1.000000 0.579706 0.662074
1.000000 0.727138 0.800076
0.984039 0.992401 0.985046
0.989136 0.988128 0.992554
0.951507 0.949187 0.970764
1.000000 0.781491 0.694820
1.000000 0.559869 0.473610
0.998962 0.999542 0.998108
0.999207 0.999176 0.998962
0.998108 0.997925 0.998901
0.995605 0.995239 0.997436
1.000000 0.988464 0.991485
0.999756 1.000000 0.998932
0.999939 1.000000 0.999237
0.999603 0.999573 0.999756
0.999664 0.999603 0.999786
0.999786 0.999756 0.999878
0.000000 0.000000 1.000000
0.415717 0.000000 1.000000
0.991638 0.749813 1.000000
1.000000 0.970886 0.993744
1.000000 0.996277 0.998596
0.689815 0.813352 1.000000
0.915709 0.912963 1.000000
0.996246 0.963592 1.000000
1.000000 0.990539 0.997375
1.000000 0.999084 0.999634
0.961730 0.976257 1.000000
0.985626 0.990509 1.000000
0.998199 0.998047 0.998932
1.000000 0.985290 0.992157
1.000000 0.989960 0.994934
0.999908 1.000000 0.999969
1.000000 1.000000 1.000000
1.000000 1.000000 1.000000
0.999695 0.999664 0.999817
1.000000 0.992523 0.994873
1.000000 1.000000 1.000000
1.000000 1.000000 1.000000
1.000000 1.000000 1.000000
1.000000 1.000000 1.000000
1.000000 1.000000 1.000000
0.000000 0.264622 1.000000
0.506584 0.442206 1.000000
0.937041 0.880217 1.000000
0.996826 0.976471 1.000000
1.000000 0.995727 0.999542
0.917479 0.923461 1.000000
0.943908 0.941314 1.000000
0.982757 0.973510 1.000000
0.998840 0.990875 1.000000
1.000000 0.998199 0.999756
0.985443 0.989410 1.000000
0.993530 0.995239 1.000000
0.999573 0.999542 1.000000
1.000000 1.000000 1.000000
1.000000 1.000000 1.000000
0.998260 0.998871 1.000000
0.999329 0.999573 1.000000
1.000000 1.000000 1.000000
1.000000 1.000000 1.000000
1.000000 1.000000 1.000000
1.000000 1.000000 1.000000
1.000000 1.000000 1.000000
1.000000 1.000000 1.000000
1.000000 1.000000 1.000000
1.000000 1.000000 1.000000
0.575677 0.601373 1.000000
0.736141 0.718196 1.000000
0.934783 0.911315 1.000000
0.988190 0.977142 1.000000
0.999176 0.994629 1.000000
0.934844 0.935546 1.000000
0.950195 0.947753 1.000000
0.978759 0.973297 1.000000
0.994507 0.989807 1.000000
0.999634 0.997498 1.000000
0.991699 0.992798 1.000000
0.995300 0.995758 1.000000
0.998901 0.998840 1.000000
0.999786 0.999664 1.000000
1.000000 1.000000 1.000000
0.999268 0.999481 1.000000
0.999786 0.999847 1.000000
1.000000 1.000000 1.000000
1.000000 1.000000 1.000000
1.000000 1.000000 1.000000
1.000000 1.000000 1.000000
1.000000 1.000000 1.000000
1.000000 1.000000 1.000000
1.000000 1.000000 1.000000
1.000000 1.000000 1.000000
