data/fiter_cube/26597975/1022854/file.cube
# Created by Adobe Lightroom plugin Export LUT (1.17.0)
# www.johnrellis.com/lightroom/exportlut.htm
# Preset:  城市电影胶片_10 云集
# Color profile: C:\Program Files (x86)\Common Files\Adobe\Color\Profiles\Recommended\AdobeRGB1998.icc
LUT_3D_SIZE 8
DOMAIN_MIN 0.000000 0.000000 0.000000
DOMAIN_MAX 0.903226 0.903226 0.903226
0.052766 0.086336 0.085512
0.113863 0.077546 0.085573
0.601526 0.000000 0.010773
1.000000 0.000000 0.000000
1.000000 0.000000 0.000000
1.000000 0.000000 0.000000
1.000000 0.000000 0.183597
1.000000 0.000000 0.266026
0.074678 0.120912 0.106142
0.066560 0.104158 0.110170
0.205844 0.072297 0.081575
0.946838 0.000000 0.000000
1.000000 0.000000 0.000000
1.000000 0.000000 0.000000
1.000000 0.000000 0.135409
1.000000 0.000000 0.233890
0.537255 0.604517 0.469184
0.436286 0.496651 0.546410
0.193606 0.254704 0.291020
0.583459 0.090761 0.085389
1.000000 0.000000 0.000000
1.000000 0.000000 0.000000
1.000000 0.000000 0.126955
1.000000 0.000000 0.236301
0.943389 0.942229 0.941833
0.931365 0.929503 0.956664
0.898436 0.899474 0.935485
0.836637 0.846311 0.891752
1.000000 0.791836 0.709560
1.000000 0.565698 0.285679
1.000000 0.334356 0.000000
1.000000 0.289433 0.196414
0.987030 0.986419 0.987274
0.985840 0.984497 0.989197
0.982055 0.980652 0.989471
0.977630 0.975952 0.986847
0.966247 0.964080 0.979950
0.995789 0.956085 0.965576
1.000000 0.897856 0.893858
1.000000 0.706569 0.590326
0.995972 0.995941 0.995056
0.996277 0.996002 0.996094
0.995087 0.994690 0.997131
0.994232 0.993713 0.996612
0.992645 0.992035 0.995697
0.990997 0.990234 0.994751
0.998474 0.992004 0.994385
1.000000 0.978515 0.984161
0.999054 0.999298 0.997986
0.999084 0.999176 0.998230
0.998718 0.998566 0.998840
0.998322 0.998169 0.999023
0.998047 0.997864 0.998840
0.997894 0.997711 0.998779
0.997864 0.997681 0.998749
0.999603 0.998535 0.998962
0.999725 1.000000 0.998932
0.999817 1.000000 0.999023
0.999939 1.000000 0.999329
0.999664 0.999603 0.999786
0.999542 0.999481 0.999725
0.999603 0.999542 0.999756
0.999664 0.999664 0.999817
0.999756 0.999725 0.999847
0.000000 0.084443 0.258610
0.119081 0.061524 0.244999
0.909819 0.000000 0.304936
1.000000 0.000000 0.165469
1.000000 0.000000 0.168551
1.000000 0.000000 0.246952
1.000000 0.000000 0.347631
1.000000 0.125826 0.421424
0.000000 0.116945 0.210422
0.132784 0.188022 0.215885
0.559930 0.000000 0.132845
1.000000 0.000000 0.006470
1.000000 0.000000 0.082734
1.000000 0.000000 0.188968
1.000000 0.000000 0.283360
1.000000 0.000000 0.362249
0.591241 0.755184 0.523705
0.675624 0.708064 0.738369
0.311803 0.376165 0.420935
0.623590 0.072877 0.102785
1.000000 0.000000 0.000000
1.000000 0.000000 0.000000
1.000000 0.000000 0.217380
1.000000 0.172213 0.332952
0.950958 0.955566 0.946197
0.953429 0.950896 0.962432
0.927428 0.925963 0.955108
0.807553 0.822232 0.870573
1.000000 0.676448 0.545068
1.000000 0.477211 0.149996
1.000000 0.310979 0.000000
1.000000 0.310155 0.241825
0.989593 0.989929 0.988983
0.989044 0.988251 0.990326
0.985046 0.983856 0.991272
0.977264 0.975586 0.986633
0.959045 0.956725 0.975494
0.994385 0.943786 0.954009
1.000000 0.876860 0.861234
1.000000 0.670253 0.532464
0.996216 0.996338 0.995300
0.996185 0.995972 0.995880
0.995056 0.994659 0.997101
0.994141 0.993652 0.996582
0.992584 0.991974 0.995697
0.990997 0.990234 0.994751
0.998383 0.991333 0.993896
1.000000 0.976410 0.982513
0.998688 0.998901 0.997681
0.998627 0.998657 0.997864
0.998199 0.997986 0.998596
0.997894 0.997711 0.998779
0.997711 0.997498 0.998657
0.997436 0.997223 0.998535
0.997223 0.996979 0.998383
0.999329 0.997986 0.998627
0.999695 1.000000 0.998840
0.999786 1.000000 0.998962
0.999878 0.999939 0.999298
0.999573 0.999573 0.999756
0.999603 0.999573 0.999756
0.999634 0.999573 0.999756
0.999664 0.999603 0.999786
0.999695 0.999664 0.999817
0.000000 0.000000 1.000000
0.000000 0.000000 1.000000
0.908568 0.000000 1.000000
1.000000 0.290196 0.914153
1.000000 0.853452 0.941436
1.000000 0.932006 0.968231
1.000000 0.922454 0.961273
1.000000 0.915038 0.955810
0.000000 0.290501 1.000000
0.000000 0.243137 1.000000
0.921202 0.196841 0.986694
1.000000 0.692897 0.923369
1.000000 0.915923 0.962066
1.000000 0.896300 0.946929
1.000000 0.892821 0.942382
1.000000 0.893034 0.941161
0.000000 0.656977 0.978088
0.505547 0.787076 0.971557
0.906462 0.906645 0.940978
1.000000 0.593652 0.644007
1.000000 0.665126 0.725704
1.000000 0.749294 0.812284
1.000000 0.810300 0.869963
1.000000 0.836423 0.893187
0.951354 0.994018 0.974395
0.971740 0.990845 0.980957
0.986084 0.984955 0.991882
0.943816 0.941619 0.965820
1.000000 0.785824 0.731228
1.000000 0.473640 0.276371
1.000000 0.622919 0.589197
1.000000 0.718837 0.742306
0.993103 0.997620 0.993225
0.994720 0.997101 0.994446
0.996155 0.995789 0.997223
0.992126 0.991485 0.995422
0.980346 0.978820 0.988464
0.998901 0.960143 0.969421
1.000000 0.894621 0.896452
1.000000 0.661250 0.550530
0.998260 0.999390 0.997436
0.998596 0.999237 0.997864
0.998810 0.998718 0.998810
0.997894 0.997711 0.998779
0.996246 0.995911 0.997803
0.993896 0.993378 0.996429
0.999542 0.992676 0.994720
1.000000 0.978882 0.984741
0.999695 1.000000 0.999054
0.999786 1.000000 0.999145
0.999817 0.999817 0.999451
0.999451 0.999420 0.999695
0.999115 0.999054 0.999481
0.998749 0.998627 0.999268
0.998444 0.998322 0.999084
0.999908 0.998627 0.998993
0.999786 1.000000 0.999084
0.999817 1.000000 0.999115
0.999939 1.000000 0.999390
0.999664 0.999634 0.999786
0.999603 0.999542 0.999756
0.999603 0.999573 0.999756
0.999664 0.999634 0.999817
0.999725 0.999695 0.999847
0.000000 0.000000 1.000000
0.000000 0.000000 1.000000
0.661830 0.000000 1.000000
0.995392 0.442267 1.000000
1.000000 0.853605 0.988678
1.000000 0.961822 0.989136
1.000000 0.987945 0.995422
1.000000 0.996368 0.998444
0.000000 0.300786 1.000000
0.117739 0.331060 1.000000
0.771420 0.471626 1.000000
0.989868 0.759731 1.000000
1.000000 0.919768 0.989899
1.000000 0.972930 0.991638
1.000000 0.990570 0.996277
1.000000 0.994934 0.997803
0.561730 0.826627 1.000000
0.788327 0.891722 1.000000
0.952972 0.950500 1.000000
0.994446 0.965332 0.999390
1.000000 0.983093 0.995453
1.000000 0.993683 0.997467
1.000000 0.994995 0.997772
1.000000 0.991821 0.996246
0.906767 0.948516 1.000000
0.940764 0.963653 1.000000
0.981933 0.987030 0.998718
0.993591 0.993042 0.996277
1.000000 0.960601 0.977173
1.000000 0.964996 0.981079
1.000000 0.972442 0.985687
1.000000 0.976410 0.988006
0.989593 1.000000 0.997894
0.992615 1.000000 0.997925
0.998108 1.000000 0.998779
0.999603 0.999542 0.999756
0.994720 0.994293 0.996918
1.000000 0.977813 0.984497
1.000000 0.926207 0.943908
1.000000 0.927855 0.951324
0.999329 1.000000 0.999542
0.999695 1.000000 0.999756
1.000000 1.000000 0.999969
1.000000 1.000000 1.000000
0.999847 0.999817 0.999908
0.998383 0.998230 0.999054
1.000000 0.996185 0.997131
1.000000 0.984558 0.989471
1.000000 1.000000 1.000000
1.000000 1.000000 1.000000
1.000000 1.000000 1.000000
1.000000 1.000000 1.000000
1.000000 1.000000 1.000000
1.000000 1.000000 1.000000
0.999847 0.999847 0.999908
1.000000 0.999420 0.999542
1.000000 1.000000 1.000000
1.000000 1.000000 1.000000
1.000000 1.000000 1.000000
1.000000 1.000000 1.000000
1.000000 1.000000 1.000000
1.000000 1.000000 1.000000
1.000000 1.000000 1.000000
1.000000 1.000000 1.000000
0.000000 0.044099 1.000000
0.000000 0.054231 1.000000
0.520653 0.207553 1.000000
0.895201 0.625177 1.000000
0.991302 0.897093 1.000000
1.000000 0.963317 0.998566
1.000000 0.986908 0.997162
1.000000 0.996124 0.998779
0.121706 0.400580 1.000000
0.394079 0.459998 1.000000
0.740536 0.626551 1.000000
0.933715 0.831662 1.000000
0.993713 0.938537 1.000000
1.000000 0.974792 0.998596
1.000000 0.990600 0.997864
1.000000 0.997192 0.999084
0.866270 0.903655 1.000000
0.920104 0.934081 1.000000
0.962860 0.960723 1.000000
0.983917 0.973083 1.000000
0.998413 0.983001 1.000000
1.000000 0.990936 0.998932
1.000000 0.996612 0.999054
1.000000 0.999115 0.999695
0.953948 0.968963 1.000000
0.967224 0.977203 1.000000
0.988525 0.991638 1.000000
0.997436 0.997253 1.000000
1.000000 0.997925 1.000000
1.000000 0.999176 0.999786
1.000000 1.000000 1.000000
1.000000 1.000000 1.000000
0.983124 0.989258 1.000000
0.987182 0.991821 1.000000
0.994690 0.996612 1.000000
0.999115 0.999451 1.000000
0.999939 0.999908 0.999969
1.000000 0.993927 0.996582
1.000000 0.994995 0.997375
1.000000 0.995880 0.997894
0.996857 1.000000 0.999969
0.997772 1.000000 0.999908
0.999512 1.000000 0.999908
1.000000 1.000000 1.000000
1.000000 1.000000 1.000000
0.999939 0.999939 0.999969
1.000000 0.997742 0.998383
1.000000 0.987915 0.992432
1.000000 1.000000 1.000000
1.000000 1.000000 1.000000
1.000000 1.000000 1.000000
1.000000 1.000000 1.000000
1.000000 1.000000 1.000000
1.000000 1.000000 1.000000
1.000000 1.000000 1.000000
1.000000 0.999878 0.999908
1.000000 1.000000 1.000000
1.000000 1.000000 1.000000
1.000000 1.000000 1.000000
1.000000 1.000000 1.000000
1.000000 1.000000 1.000000
1.000000 1.000000 1.000000
1.000000 1.000000 1.000000
1.000000 1.000000 1.000000
0.000000 0.239628 1.000000
0.148226 0.289555 1.000000
0.589258 0.475776 1.000000
0.883482 0.786740 1.000000
0.971649 0.929442 1.000000
0.996307 0.971679 1.000000
1.000000 0.988617 1.000000
1.000000 0.996246 0.999420
0.497383 0.565301 1.000000
0.585779 0.609644 1.000000
0.789944 0.745388 1.000000
0.927337 0.884123 1.000000
0.979034 0.951385 1.000000
0.997162 0.978332 1.000000
1.000000 0.991028 1.000000
1.000000 0.997009 0.999512
0.954314 0.958190 1.000000
0.960815 0.962860 1.000000
0.971588 0.969909 1.000000
0.984344 0.979370 1.000000
0.993744 0.987243 1.000000
0.999176 0.993042 1.000000
1.000000 0.997070 0.999908
1.000000 0.999237 0.999847
0.980499 0.985473 1.000000
0.984833 0.988312 1.000000
0.993988 0.994842 1.000000
0.998352 0.998230 1.000000
0.999451 0.999023 1.000000
0.999969 0.999664 1.000000
1.000000 1.000000 1.000000
1.000000 1.000000 1.000000
0.990814 0.993530 1.000000
0.992920 0.994995 1.000000
0.997192 0.997986 1.000000
0.999817 0.999878 1.000000
1.000000 1.000000 1.000000
1.000000 1.000000 1.000000
1.000000 1.000000 1.000000
1.000000 1.000000 1.000000
0.996582 0.997772 1.000000
0.997498 0.998383 1.000000
0.999145 0.999451 1.000000
1.000000 1.000000 1.000000
1.000000 1.000000 1.000000
1.000000 1.000000 1.000000
1.000000 1.000000 1.000000
1.000000 1.000000 1.000000
1.000000 1.000000 1.000000
1.000000 1.000000 1.000000
1.000000 1.000000 1.000000
1.000000 1.000000 1.000000
1.000000 1.000000 1.000000
1.000000 1.000000 1.000000
1.000000 1.000000 1.000000
1.000000 1.000000 1.000000
1.000000 1.000000 1.000000
1.000000 1.000000 1.000000
1.000000 1.000000 1.000000
1.000000 1.000000 1.000000
1.000000 1.000000 1.000000
1.000000 1.000000 1.000000
1.000000 1.000000 1.000000
1.000000 1.000000 1.000000
0.340154 0.425208 1.000000
0.460304 0.487373 1.000000
0.707332 0.659846 1.000000
0.892424 0.846708 1.000000
0.963714 0.937285 1.000000
0.989319 0.973297 1.000000
0.998322 0.988281 1.000000
1.000000 0.995392 1.000000
0.663050 0.689143 1.000000
0.721370 0.729183 1.000000
0.839933 0.820066 1.000000
0.928771 0.904570 1.000000
0.972076 0.953643 1.000000
0.990936 0.977752 1.000000
0.998505 0.989441 1.000000
1.000000 0.995483 1.000000
0.959655 0.961059 1.000000
0.962676 0.963226 1.000000
0.971283 0.969574 1.000000
0.982147 0.978393 1.000000
0.990814 0.986053 1.000000
0.996643 0.992187 1.000000
0.999512 0.996338 1.000000
1.000000 0.998779 1.000000
0.987671 0.989380 1.000000
0.989899 0.991119 1.000000
0.995331 0.995636 1.000000
0.997436 0.997253 1.000000
0.998657 0.998169 1.000000
0.999603 0.999145 1.000000
1.000000 0.999908 1.000000
1.000000 1.000000 1.000000
0.994110 0.995697 1.000000
0.995148 0.996429 1.000000
0.997772 0.998352 1.000000
0.999756 0.999817 1.000000
1.000000 1.000000 1.000000
1.000000 1.000000 1.000000
1.000000 1.000000 1.000000
1.000000 1.000000 1.000000
0.998108 0.998657 1.000000
0.998566 0.998993 1.000000
0.999573 0.999725 1.000000
1.000000 1.000000 1.000000
1.000000 1.000000 1.000000
1.000000 1.000000 1.000000
1.000000 1.000000 1.000000
1.000000 1.000000 1.000000
1.000000 1.000000 1.000000
1.000000 1.000000 1.000000
1.000000 1.000000 1.000000
1.000000 1.000000 1.000000
1.000000 1.000000 1.000000
1.000000 1.000000 1.000000
1.000000 1.000000 1.000000
1.000000 1.000000 1.000000
1.000000 1.000000 1.000000
1.000000 1.000000 1.000000
1.000000 1.000000 1.000000
1.000000 1.000000 1.000000
1.000000 1.000000 1.000000
1.000000 1.000000 1.000000
1.000000 1.000000 1.000000
1.000000 1.000000 1.000000
0.575677 0.601373 1.000000
0.636744 0.643977 1.000000
0.773892 0.749660 1.000000
0.898161 0.870481 1.000000
0.958343 0.939086 1.000000
0.984436 0.971954 1.000000
0.995300 0.987640 1.000000
0.999176 0.994629 1.000000
0.768490 0.778073 1.000000
0.800534 0.802396 1.000000
0.868193 0.856657 1.000000
0.931701 0.915923 1.000000
0.968750 0.955505 1.000000
0.987396 0.977722 1.000000
0.995972 0.989502 1.000000
0.999298 0.995300 1.000000
0.956664 0.957153 1.000000
0.959838 0.959655 1.000000
0.967193 0.965301 1.000000
0.979675 0.976440 1.000000
0.988434 0.984527 1.000000
0.994507 0.990784 1.000000
0.998169 0.995331 1.000000
0.999695 0.998016 1.000000
0.988525 0.989380 1.000000
0.991119 0.991699 1.000000
0.994232 0.994354 1.000000
0.995972 0.995697 1.000000
0.997650 0.997101 1.000000
0.998901 0.998291 1.000000
0.999725 0.999359 1.000000
1.000000 1.000000 1.000000
0.994690 0.995758 1.000000
0.995636 0.996490 1.000000
0.997681 0.998047 1.000000
0.999512 0.999542 1.000000
1.000000 1.000000 1.000000
1.000000 1.000000 1.000000
1.000000 1.000000 1.000000
1.000000 1.000000 1.000000
0.998505 0.998901 1.000000
0.998779 0.999115 1.000000
0.999512 0.999634 1.000000
1.000000 1.000000 1.000000
1.000000 1.000000 1.000000
1.000000 1.000000 1.000000
1.000000 1.000000 1.000000
1.000000 1.000000 1.000000
1.000000 1.000000 1.000000
1.000000 1.000000 1.000000
1.000000 1.000000 1.000000
1.000000 1.000000 1.000000
1.000000 1.000000 1.000000
1.000000 1.000000 1.000000
1.000000 1.000000 1.000000
1.000000 1.000000 1.000000
1.000000 1.000000 1.000000
1.000000 1.000000 1.000000
1.000000 1.000000 1.000000
1.000000 1.000000 1.000000
1.000000 1.000000 1.000000
1.000000 1.000000 1.000000
1.000000 1.000000 1.000000
1.000000 1.000000 1.000000
