data/fiter_cube/51215349/1023017/file.cube
# Created by Adobe Lightroom plugin Export LUT (1.17.0)
# www.johnrellis.com/lightroom/exportlut.htm
# Preset: 日系旅行街拍胶片_04 云集后期
# Color profile: C:\Program Files (x86)\Common Files\Adobe\Color\Profiles\Recommended\AdobeRGB1998.icc
LUT_3D_SIZE 32
DOMAIN_MIN 0.0 0.0 0.0
DOMAIN_MAX 1.0 1.0 1.0
0.029938 0.092409 0.079988
0.041047 0.093111 0.080476
0.055146 0.093843 0.080262
0.071199 0.095705 0.080720
0.091981 0.097841 0.080903
0.118502 0.099519 0.081025
0.151369 0.100191 0.080629
0.191043 0.099031 0.079744
0.239322 0.094759 0.077577
0.297398 0.085328 0.073976
0.366186 0.067048 0.066255
0.442847 0.021241 0.046967
0.524926 0.000000 0.000000
0.608362 0.000000 0.000000
0.688441 0.074220 0.000000
0.761532 0.132448 0.000000
0.817716 0.182589 0.000000
0.861662 0.227298 0.000000
0.896818 0.266911 0.000000
0.926452 0.303227 0.000000
0.951781 0.336156 0.000000
0.973327 0.365942 0.000000
0.991638 0.392187 0.000000
1.000000 0.415473 0.000000
1.000000 0.436255 0.000000
1.000000 0.455543 0.000000
1.000000 0.473579 0.000000
1.000000 0.490944 0.000000
1.000000 0.507652 0.000000
1.000000 0.524254 0.000000
1.000000 0.541131 0.000000
1.000000 0.558526 0.000000
0.029450 0.094087 0.081086
0.040223 0.094545 0.080354
0.054353 0.095277 0.080446
0.070924 0.096834 0.080934
0.091402 0.098970 0.081117
0.117617 0.100771 0.080934
0.150332 0.101503 0.080873
0.189395 0.100679 0.080018
0.237217 0.096925 0.077882
0.294987 0.088014 0.074037
0.362860 0.072663 0.066438
0.439002 0.038972 0.048676
0.520470 0.000000 0.000000
0.603632 0.010498 0.000000
0.684016 0.080690 0.000000
0.756466 0.133913 0.000000
0.812772 0.182193 0.000000
0.857237 0.225742 0.000000
0.892912 0.264927 0.000000
0.923156 0.301183 0.000000
0.948943 0.334447 0.000000
0.970947 0.364263 0.000000
0.989624 0.390661 0.000000
1.000000 0.414191 0.000000
1.000000 0.435248 0.000000
1.000000 0.454658 0.000000
1.000000 0.472816 0.000000
1.000000 0.490303 0.000000
1.000000 0.507103 0.000000
1.000000 0.523766 0.000000
1.000000 0.540520 0.000000
1.000000 0.558038 0.000000
0.027039 0.096407 0.082399
0.037049 0.097719 0.080018
0.052918 0.097810 0.080842
0.070069 0.098817 0.080751
0.090425 0.100710 0.081270
0.116640 0.102480 0.081117
0.148867 0.103182 0.081086
0.187594 0.102602 0.079957
0.234958 0.099306 0.077852
0.292210 0.091981 0.074006
0.359655 0.078340 0.066926
0.435492 0.058534 0.049073
0.516838 0.026276 0.000000
0.600092 0.043458 0.000000
0.680842 0.089570 0.000000
0.753079 0.138094 0.000000
0.809476 0.184665 0.000000
0.854215 0.227298 0.000000
0.890410 0.265721 0.000000
0.921050 0.301732 0.000000
0.947234 0.334752 0.000000
0.969574 0.364599 0.000000
0.988495 0.391089 0.000000
1.000000 0.414466 0.000000
1.000000 0.435584 0.000000
1.000000 0.454871 0.000000
1.000000 0.473213 0.000000
1.000000 0.490486 0.000000
1.000000 0.507469 0.000000
1.000000 0.524071 0.000000
1.000000 0.540826 0.000000
1.000000 0.558221 0.000000
0.024292 0.101747 0.084932
0.029511 0.103212 0.081697
0.047974 0.103822 0.080568
0.068147 0.103944 0.081483
0.088930 0.105226 0.081453
0.114900 0.105806 0.081422
0.146822 0.106905 0.081086
0.185183 0.106905 0.079957
0.231968 0.104524 0.078218
0.288640 0.098970 0.074067
0.355291 0.088991 0.067018
0.430732 0.076356 0.049226
0.511589 0.067903 0.000000
0.594324 0.077211 0.000000
0.676234 0.107210 0.000000
0.748196 0.149386 0.000000
0.804868 0.191867 0.000000
0.849973 0.232242 0.000000
0.886564 0.269169 0.000000
0.917601 0.304173 0.000000
0.944213 0.336400 0.000000
0.966949 0.365881 0.000000
0.986450 0.392462 0.000000
1.000000 0.416175 0.000000
1.000000 0.437507 0.000000
1.000000 0.457069 0.000000
1.000000 0.475288 0.000000
1.000000 0.492805 0.000000
1.000000 0.509545 0.000000
1.000000 0.525933 0.000000
1.000000 0.542382 0.000000
1.000000 0.559503 0.000000
0.020966 0.107729 0.088930
0.026734 0.109285 0.086732
0.032807 0.110597 0.082368
0.063203 0.111849 0.080690
0.084596 0.111971 0.082338
0.111391 0.113252 0.082246
0.143008 0.113405 0.081453
0.181033 0.113100 0.080476
0.226993 0.112032 0.078431
0.282444 0.108949 0.074372
0.348241 0.102846 0.067048
0.422858 0.096223 0.049439
0.503136 0.094057 0.000977
0.586206 0.103853 0.000000
0.669398 0.129213 0.000000
0.741787 0.165286 0.000000
0.799771 0.203952 0.000000
0.846067 0.241886 0.000000
0.883513 0.277348 0.000000
0.915038 0.311070 0.000000
0.941955 0.342443 0.000000
0.965026 0.371099 0.000000
0.984802 0.397131 0.000000
1.000000 0.420294 0.000000
1.000000 0.441444 0.000000
1.000000 0.460761 0.000000
1.000000 0.478767 0.000000
1.000000 0.495857 0.000000
1.000000 0.512352 0.000000
1.000000 0.528496 0.000000
1.000000 0.544732 0.000000
1.000000 0.561639 0.000000
0.016205 0.114748 0.093141
0.023621 0.116091 0.092409
0.026581 0.117891 0.086610
0.049531 0.119631 0.082673
0.078370 0.121645 0.080995
0.104738 0.121614 0.082948
0.138674 0.123934 0.082155
0.176242 0.124239 0.080903
0.221866 0.122377 0.078859
0.276829 0.120363 0.074556
0.341558 0.118349 0.067140
0.415686 0.116976 0.049226
0.495460 0.119661 0.000000
0.578943 0.130556 0.000000
0.663508 0.153750 0.000000
0.736172 0.185275 0.000000
0.795102 0.220249 0.000000
0.842374 0.255406 0.000000
0.880644 0.289342 0.000000
0.912932 0.321538 0.000000
0.940398 0.351904 0.000000
0.963958 0.379919 0.000000
0.994751 0.420996 0.000000
1.000000 0.441657 0.000000
1.000000 0.460304 0.000000
1.000000 0.477424 0.000000
1.000000 0.493660 0.000000
1.000000 0.509087 0.000000
1.000000 0.524193 0.000000
1.000000 0.539269 0.000000
1.000000 0.554498 0.000000
1.000000 0.570428 0.000000
0.011963 0.123476 0.098878
0.018219 0.124758 0.097963
0.024140 0.126650 0.095155
0.034730 0.129702 0.086519
0.068177 0.132357 0.083436
0.099825 0.135195 0.080323
0.131411 0.135042 0.082795
0.173739 0.138857 0.081117
0.220005 0.139712 0.078340
0.275761 0.139315 0.073732
0.341527 0.137423 0.065370
0.416571 0.139315 0.042847
0.496895 0.146609 0.000000
0.581781 0.160586 0.000000
0.668482 0.184756 0.000000
0.740444 0.213840 0.000000
0.798520 0.245548 0.000000
0.845151 0.278233 0.000000
0.883299 0.309850 0.000000
0.915892 0.340703 0.000000
0.943908 0.370397 0.000000
0.968048 0.398138 0.000000
0.988617 0.423224 0.000000
1.000000 0.445502 0.000000
1.000000 0.465156 0.000000
1.000000 0.482612 0.000000
1.000000 0.498726 0.000000
1.000000 0.513848 0.000000
1.000000 0.528710 0.000000
1.000000 0.543359 0.000000
1.000000 0.558160 0.000000
1.000000 0.573816 0.000000
0.004608 0.133639 0.105409
0.010712 0.134981 0.104555
0.016938 0.136690 0.103151
0.020294 0.140963 0.091005
0.052613 0.144015 0.086976
0.088106 0.147616 0.083955
0.124971 0.151095 0.079896
0.161257 0.151095 0.081453
0.211734 0.157290 0.077943
0.266667 0.160678 0.072877
0.331609 0.163821 0.063722
0.405921 0.166903 0.037201
0.486275 0.170565 0.000000
0.573022 0.186191 0.000000
0.658747 0.209201 0.000000
0.731319 0.235294 0.000000
0.790524 0.264317 0.000000
0.838407 0.294133 0.000000
0.877684 0.323796 0.000000
0.911131 0.353246 0.000000
0.939940 0.381476 0.000000
0.964691 0.408057 0.000000
0.985748 0.432288 0.000000
1.000000 0.453651 0.000000
1.000000 0.472663 0.000000
1.000000 0.489693 0.000000
1.000000 0.505272 0.000000
1.000000 0.519951 0.000000
1.000000 0.534295 0.000000
1.000000 0.548516 0.000000
1.000000 0.562982 0.000000
1.000000 0.578241 0.000000
0.000000 0.146700 0.113436
0.000000 0.147921 0.112428
0.005066 0.149966 0.110658
0.012207 0.154299 0.102174
0.030671 0.159060 0.090944
0.074220 0.163058 0.087282
0.113161 0.167941 0.083497
0.155642 0.172030 0.078737
0.197757 0.172427 0.078035
0.257664 0.182864 0.071382
0.321843 0.190188 0.061006
0.395453 0.198032 0.027924
0.475685 0.206760 0.000000
0.564477 0.219211 0.000000
0.649378 0.234257 0.000000
0.722774 0.258549 0.000000
0.783291 0.285191 0.000000
0.832425 0.312932 0.000000
0.872587 0.340734 0.000000
0.906981 0.368353 0.000000
0.936492 0.395270 0.000000
0.961761 0.420691 0.000000
0.983215 0.443763 0.000000
1.000000 0.464179 0.000000
1.000000 0.482338 0.000000
1.000000 0.498482 0.000000
1.000000 0.513451 0.000000
1.000000 0.527581 0.000000
1.000000 0.541314 0.000000
1.000000 0.554925 0.000000
1.000000 0.568933 0.000000
1.000000 0.583703 0.000000
0.000000 0.163210 0.122225
0.000000 0.164614 0.121279
0.000000 0.166690 0.119448
0.000000 0.171084 0.113558
0.000244 0.177646 0.094423
0.053254 0.182162 0.090303
0.098146 0.187839 0.086275
0.144045 0.194186 0.080598
0.192264 0.198886 0.074891
0.241001 0.200198 0.070558
0.310979 0.215396 0.056489
0.383673 0.227237 0.016236
0.465888 0.240818 0.000000
0.553368 0.256291 0.000000
0.639307 0.272282 0.000000
0.714534 0.288121 0.000000
0.777096 0.307866 0.000000
0.827634 0.334356 0.000000
0.868864 0.360510 0.000000
0.903777 0.386358 0.000000
0.933501 0.411536 0.000000
0.958831 0.434974 0.000000
0.980438 0.456428 0.000000
0.998749 0.475532 0.000000
1.000000 0.492561 0.000000
1.000000 0.507988 0.000000
1.000000 0.522332 0.000000
1.000000 0.535882 0.000000
1.000000 0.549157 0.000000
1.000000 0.562524 0.000000
1.000000 0.576013 0.000000
1.000000 0.590478 0.000000
0.000000 0.183230 0.131838
0.000000 0.184848 0.130739
0.000000 0.186923 0.129030
0.000000 0.191684 0.124300
0.000000 0.199435 0.106294
0.011322 0.205509 0.093233
0.076844 0.211765 0.087861
0.128573 0.219211 0.082216
0.181796 0.227207 0.074128
0.232212 0.228672 0.067384
0.292241 0.235142 0.053223
0.372778 0.255894 0.001160
0.455116 0.273411 0.000000
0.541863 0.290959 0.000000
0.627863 0.308415 0.000000
0.704372 0.324743 0.000000
0.768399 0.341100 0.000000
0.820279 0.357977 0.000000
0.862913 0.379309 0.000000
0.898894 0.403876 0.000000
0.929473 0.427802 0.000000
0.955505 0.450233 0.000000
0.977630 0.470680 0.000000
0.996399 0.488808 0.000000
1.000000 0.504936 0.000000
1.000000 0.519432 0.000000
1.000000 0.532891 0.000000
1.000000 0.545678 0.000000
1.000000 0.558282 0.000000
1.000000 0.570855 0.000000
1.000000 0.583795 0.000000
1.000000 0.597711 0.000000
0.000000 0.208347 0.142641
0.000000 0.210056 0.141299
0.000000 0.212284 0.139681
0.000000 0.217136 0.134951
0.000000 0.225101 0.120424
0.000000 0.233829 0.095277
0.035859 0.240360 0.088808
0.107179 0.248539 0.082063
0.166506 0.257786 0.073243
0.228031 0.267308 0.059266
0.280705 0.265476 0.044251
0.354070 0.278477 0.000000
0.467170 0.318883 0.000000
0.558038 0.340398 0.000000
0.645258 0.360510 0.000000
0.720821 0.377844 0.000000
0.782345 0.394232 0.000000
0.831815 0.409247 0.000000
0.872221 0.423499 0.000000
0.906432 0.437598 0.000000
0.935424 0.457771 0.000000
0.959991 0.477272 0.000000
0.980896 0.494667 0.000000
0.998749 0.510277 0.000000
1.000000 0.524254 0.000000
1.000000 0.537072 0.000000
1.000000 0.548913 0.000000
1.000000 0.560327 0.000000
1.000000 0.571649 0.000000
1.000000 0.583062 0.000000
1.000000 0.595087 0.000000
1.000000 0.607996 0.000000
0.000000 0.241886 0.155398
0.000000 0.243412 0.154177
0.000000 0.245823 0.152193
0.000000 0.250614 0.147555
0.000000 0.258305 0.136294
0.000000 0.269230 0.105379
0.000000 0.276127 0.088991
0.071534 0.284031 0.079805
0.146242 0.294133 0.069795
0.214481 0.305028 0.049287
0.286442 0.316716 0.000000
0.348913 0.317357 0.000000
0.435462 0.335637 0.000000
0.537377 0.367163 0.000000
0.627558 0.390204 0.000000
0.706111 0.409339 0.000000
0.770382 0.425879 0.000000
0.821805 0.440681 0.000000
0.863890 0.454261 0.000000
0.899474 0.467323 0.000000
0.929656 0.479774 0.000000
0.955322 0.492836 0.000000
0.976898 0.509514 0.000000
0.995392 0.524193 0.000000
1.000000 0.537346 0.000000
1.000000 0.549340 0.000000
1.000000 0.560540 0.000000
1.000000 0.571283 0.000000
1.000000 0.581842 0.000000
1.000000 0.592767 0.000000
1.000000 0.604150 0.000000
1.000000 0.616388 0.000000
0.000000 0.276432 0.168307
0.000000 0.278111 0.166873
0.000000 0.280339 0.164920
0.000000 0.285222 0.160006
0.000000 0.292851 0.151034
0.000000 0.303655 0.122591
0.000000 0.313603 0.088258
0.000000 0.321202 0.077119
0.114504 0.330938 0.063935
0.193454 0.342535 0.032471
0.272435 0.356359 0.000000
0.353216 0.369299 0.000000
0.418891 0.368048 0.000000
0.509300 0.387060 0.000000
0.609766 0.418250 0.000000
0.691249 0.439155 0.000000
0.757778 0.456001 0.000000
0.811154 0.470771 0.000000
0.855131 0.484016 0.000000
0.892119 0.496590 0.000000
0.923522 0.508293 0.000000
0.950195 0.518822 0.000000
0.972869 0.527611 0.000000
0.992096 0.539361 0.000000
1.000000 0.551751 0.000000
1.000000 0.562982 0.000000
1.000000 0.573297 0.000000
1.000000 0.583368 0.000000
1.000000 0.593317 0.000000
1.000000 0.603510 0.000000
1.000000 0.614343 0.000000
1.000000 0.625910 0.000000
0.000000 0.315618 0.182315
0.000000 0.317479 0.181308
0.000000 0.319646 0.179141
0.000000 0.324315 0.174136
0.000000 0.331762 0.164981
0.000000 0.342107 0.141634
0.000000 0.354681 0.093782
0.000000 0.362249 0.073396
0.049134 0.370977 0.051270
0.166171 0.384283 0.003265
0.253910 0.397742 0.000000
0.340703 0.411109 0.000000
0.425177 0.422126 0.000000
0.491981 0.419226 0.000000
0.583368 0.438575 0.000000
0.675196 0.466987 0.000000
0.745266 0.485481 0.000000
0.800656 0.500328 0.000000
0.846342 0.513359 0.000000
0.884764 0.525505 0.000000
0.917266 0.536522 0.000000
0.944793 0.546288 0.000000
0.968261 0.554253 0.000000
0.988312 0.560754 0.000000
1.000000 0.566613 0.000000
1.000000 0.577203 0.000000
1.000000 0.587060 0.000000
1.000000 0.596612 0.000000
1.000000 0.606073 0.000000
1.000000 0.615839 0.000000
1.000000 0.626215 0.000000
1.000000 0.637232 0.000000
0.000000 0.358465 0.198550
0.000000 0.360327 0.197055
0.000000 0.362402 0.195163
0.000000 0.367193 0.190066
0.000000 0.374456 0.181094
0.000000 0.384558 0.162600
0.000000 0.397559 0.116304
0.000000 0.408301 0.066804
0.000000 0.418219 0.025605
0.123964 0.429725 0.000000
0.230106 0.442420 0.000000
0.324254 0.454749 0.000000
0.414923 0.466102 0.000000
0.499336 0.474372 0.000000
0.564324 0.469062 0.000000
0.650050 0.486763 0.000000
0.729702 0.511406 0.000000
0.789487 0.528191 0.000000
0.837369 0.541772 0.000000
0.877653 0.554070 0.000000
0.911559 0.565057 0.000000
0.940154 0.574365 0.000000
0.964385 0.581872 0.000000
0.985046 0.587701 0.000000
1.000000 0.592004 0.000000
1.000000 0.595605 0.000000
1.000000 0.602167 0.000000
1.000000 0.611017 0.000000
1.000000 0.619684 0.000000
1.000000 0.628687 0.000000
1.000000 0.638270 0.000000
1.000000 0.648280 0.000000
0.000000 0.403174 0.216312
0.000000 0.404639 0.214603
0.000000 0.406653 0.212772
0.000000 0.411292 0.207584
0.000000 0.418097 0.198825
0.000000 0.428565 0.184207
0.000000 0.441840 0.143038
0.000000 0.455695 0.060090
0.000000 0.464515 0.000000
0.015045 0.473945 0.000000
0.194186 0.485725 0.000000
0.300481 0.497353 0.000000
0.397894 0.508385 0.000000
0.490028 0.518456 0.000000
0.572045 0.524590 0.000000
0.632380 0.517144 0.000000
0.708553 0.531823 0.000000
0.776089 0.553399 0.000000
0.827665 0.568811 0.000000
0.869474 0.581048 0.000000
0.904692 0.591669 0.000000
0.934356 0.600641 0.000000
0.959411 0.607660 0.000000
0.980865 0.612909 0.000000
0.999237 0.616724 0.000000
1.000000 0.619684 0.000000
1.000000 0.622126 0.000000
1.000000 0.625086 0.000000
1.000000 0.633204 0.000000
1.000000 0.641627 0.000000
1.000000 0.650690 0.000000
1.000000 0.659937 0.009766
0.000000 0.451789 0.237156
0.000000 0.453620 0.235691
0.000000 0.465583 0.238010
0.000000 0.470527 0.233066
0.000000 0.478065 0.224002
0.000000 0.487831 0.209598
0.000000 0.500237 0.174594
0.000000 0.515221 0.100069
0.000000 0.524865 0.000000
0.000000 0.533410 0.000000
0.146212 0.542901 0.000000
0.278813 0.553826 0.000000
0.387701 0.563043 0.000000
0.486671 0.571221 0.000000
0.576745 0.578454 0.000000
0.652369 0.581506 0.000000
0.704646 0.570764 0.000000
0.768154 0.582666 0.000000
0.823178 0.600092 0.000000
0.866484 0.612726 0.000000
0.901762 0.622400 0.000000
0.931640 0.630304 0.000000
0.956970 0.636255 0.000000
0.978485 0.640528 0.000000
0.996887 0.643122 0.000000
1.000000 0.644862 0.000000
1.000000 0.646082 0.000000
1.000000 0.647364 0.000000
1.000000 0.648920 0.000000
1.000000 0.654902 0.000000
1.000000 0.663233 0.000000
1.000000 0.671717 0.049592
0.000000 0.506828 0.262486
0.000000 0.509941 0.261540
0.000000 0.513603 0.260197
0.000000 0.519432 0.256016
0.000000 0.527123 0.247135
0.000000 0.536553 0.233463
0.000000 0.547753 0.205570
0.000000 0.561273 0.140719
0.000000 0.573419 0.000000
0.000000 0.580957 0.000000
0.049897 0.588342 0.000000
0.235172 0.597040 0.000000
0.358404 0.605097 0.000000
0.464668 0.611627 0.000000
0.559564 0.617517 0.000000
0.643488 0.622675 0.000000
0.710628 0.623529 0.000000
0.755581 0.611719 0.000000
0.809842 0.621668 0.000000
0.856535 0.636133 0.000000
0.894133 0.646601 0.000000
0.925322 0.654719 0.000000
0.951690 0.660731 0.000000
0.974090 0.664759 0.000000
0.993133 0.667079 0.000000
1.000000 0.668421 0.000000
1.000000 0.669123 0.000000
1.000000 0.669825 0.000000
1.000000 0.670832 0.000000
1.000000 0.672419 0.000000
1.000000 0.676143 0.000000
1.000000 0.683955 0.073762
0.000000 0.559411 0.288518
0.000000 0.562402 0.287633
0.000000 0.565911 0.286290
0.000000 0.571405 0.282048
0.000000 0.578424 0.273381
0.000000 0.586786 0.259495
0.000000 0.596460 0.237797
0.000000 0.608270 0.180148
0.000000 0.621668 0.058747
0.000000 0.628351 0.000000
0.000000 0.634730 0.000000
0.171420 0.640925 0.000000
0.322332 0.647639 0.000000
0.438849 0.653101 0.000000
0.540581 0.657160 0.000000
0.629511 0.660975 0.000000
0.704891 0.664332 0.000000
0.759701 0.661128 0.000000
0.801358 0.651331 0.000000
0.847410 0.659419 0.000000
0.886748 0.670497 0.000000
0.919127 0.678614 0.000000
0.946532 0.684688 0.000000
0.969665 0.688594 0.000000
0.989410 0.690608 0.000000
1.000000 0.691493 0.000000
1.000000 0.691737 0.000000
1.000000 0.691890 0.000000
1.000000 0.692256 0.000000
1.000000 0.693233 0.000000
1.000000 0.694697 0.000000
1.000000 0.696742 0.090944
0.000000 0.611963 0.316075
0.000000 0.614832 0.315496
0.000000 0.618128 0.314031
0.000000 0.622980 0.309697
0.000000 0.629114 0.301335
0.000000 0.636255 0.287694
0.000000 0.644434 0.267124
0.000000 0.654200 0.221530
0.000000 0.666041 0.130251
0.000000 0.674739 0.000000
0.000000 0.679866 0.000000
0.099062 0.684504 0.000000
0.274113 0.689204 0.000000
0.407263 0.693324 0.000000
0.517449 0.696315 0.000000
0.612787 0.698909 0.000000
0.694301 0.702022 0.000000
0.760800 0.705013 0.000000
0.805783 0.699336 0.000000
0.844175 0.691676 0.000000
0.883238 0.697810 0.000000
0.916472 0.705928 0.000000
0.943999 0.711177 0.000000
0.967803 0.714870 0.000000
0.987915 0.716670 0.000000
1.000000 0.717067 0.000000
1.000000 0.716793 0.000000
1.000000 0.716335 0.000000
1.000000 0.716060 0.000000
1.000000 0.716396 0.000000
1.000000 0.716854 0.000000
1.000000 0.718166 0.131838
0.000000 0.669551 0.349584
0.000000 0.671351 0.348394
0.000000 0.673335 0.346593
0.000000 0.676539 0.341527
0.000000 0.681147 0.332891
0.000000 0.686854 0.319219
0.000000 0.693538 0.299687
0.000000 0.701747 0.265080
0.000000 0.712215 0.187747
0.000000 0.722560 0.000000
0.000000 0.727382 0.000000
0.000000 0.731197 0.000000
0.213199 0.734066 0.000000
0.372045 0.736751 0.000000
0.494423 0.738216 0.000000
0.597040 0.739101 0.000000
0.683253 0.740352 0.000000
0.754391 0.742763 0.000000
0.811276 0.744991 0.000000
0.846921 0.735592 0.000000
0.880735 0.728145 0.000000
0.912993 0.731228 0.000000
0.940429 0.735378 0.000000
0.963348 0.737209 0.000000
0.984039 0.738674 0.000000
1.000000 0.738888 0.000000
1.000000 0.738308 0.000000
1.000000 0.737514 0.000000
1.000000 0.736843 0.000000
1.000000 0.736599 0.000000
1.000000 0.736385 0.000000
1.000000 0.737057 0.152743
0.000000 0.717494 0.379736
0.000000 0.719081 0.378668
0.000000 0.720851 0.377050
0.000000 0.723659 0.372198
0.000000 0.727474 0.363500
0.000000 0.732143 0.350347
0.000000 0.737667 0.331731
0.000000 0.744045 0.305577
0.000000 0.752682 0.239322
0.000000 0.762478 0.122103
0.000000 0.768368 0.000000
0.000000 0.771267 0.000000
0.160403 0.773281 0.000000
0.321263 0.774685 0.000000
0.460426 0.775143 0.000000
0.572839 0.774777 0.000000
0.665705 0.774594 0.000000
0.741360 0.775509 0.000000
0.803342 0.777676 0.000000
0.852964 0.779416 0.000000
0.882322 0.768429 0.000000
0.911437 0.759976 0.000000
0.938598 0.760800 0.000000
0.961639 0.761898 0.000000
0.979492 0.759213 0.000000
0.997894 0.759274 0.000000
1.000000 0.758572 0.000000
1.000000 0.757534 0.000000
1.000000 0.756527 0.000000
1.000000 0.755703 0.000000
1.000000 0.755062 0.001984
1.000000 0.755276 0.170779
0.000000 0.767330 0.414893
0.000000 0.768826 0.413855
0.000000 0.770138 0.412146
0.000000 0.772213 0.407233
0.000000 0.774990 0.398505
0.000000 0.778470 0.385779
0.000000 0.782620 0.368200
0.000000 0.787350 0.343420
0.000000 0.793759 0.291264
0.000000 0.801511 0.198367
0.000000 0.808438 0.000000
0.000000 0.810391 0.000000
0.045502 0.811337 0.000000
0.266636 0.811307 0.000000
0.418952 0.810239 0.000000
0.542626 0.808164 0.000000
0.642847 0.806149 0.000000
0.723873 0.805081 0.000000
0.789639 0.805570 0.000000
0.843809 0.807523 0.000000
0.887419 0.808774 0.000000
0.912016 0.796780 0.000000
0.936461 0.786404 0.000000
0.959228 0.784817 0.000000
0.978424 0.783139 0.000000
0.994751 0.780056 0.000000
1.000000 0.779019 0.000000
1.000000 0.777584 0.000000
1.000000 0.776211 0.000000
1.000000 0.774716 0.000000
1.000000 0.773617 0.079042
1.000000 0.773373 0.191043
0.000000 0.807279 0.445441
0.000000 0.808560 0.444465
0.000000 0.809720 0.442573
0.000000 0.811460 0.438148
0.000000 0.813718 0.429725
0.000000 0.816526 0.417914
0.000000 0.819944 0.401373
0.000000 0.823941 0.379370
0.000000 0.828916 0.340337
0.000000 0.835752 0.261021
0.000000 0.843290 0.119326
0.000000 0.846281 0.000000
0.000000 0.846830 0.000000
0.224674 0.846372 0.000000
0.368688 0.844877 0.000000
0.509270 0.841917 0.000000
0.619409 0.838651 0.000000
0.707118 0.836210 0.000000
0.777066 0.835142 0.000000
0.834104 0.835416 0.000000
0.881285 0.836698 0.000000
0.919463 0.837430 0.000000
0.939696 0.823789 0.000000
0.959899 0.811460 0.000000
0.978912 0.807889 0.000000
0.995056 0.804196 0.000000
1.000000 0.799557 0.000000
1.000000 0.797818 0.000000
1.000000 0.796170 0.000000
1.000000 0.794125 0.000000
1.000000 0.792599 0.121706
1.000000 0.791806 0.217380
0.000000 0.845426 0.477485
0.000000 0.846281 0.476051
0.000000 0.847013 0.474220
0.000000 0.848203 0.469795
0.000000 0.849821 0.461799
0.000000 0.851896 0.450599
0.000000 0.854429 0.435187
0.000000 0.857450 0.414954
0.000000 0.860899 0.388464
0.000000 0.866789 0.319066
0.000000 0.873259 0.213352
0.000000 0.878508 0.000000
0.000000 0.878660 0.000000
0.163821 0.877836 0.000000
0.324681 0.875975 0.000000
0.466773 0.872557 0.000000
0.589502 0.868132 0.000000
0.685176 0.864317 0.000000
0.760555 0.861753 0.000000
0.821073 0.860563 0.000000
0.870787 0.860594 0.000000
0.912047 0.861173 0.000000
0.946258 0.861418 0.000000
0.962615 0.846036 0.000000
0.979492 0.832456 0.000000
0.995514 0.827543 0.000000
1.000000 0.822538 0.000000
1.000000 0.817014 0.000000
1.000000 0.814511 0.000000
1.000000 0.812161 0.000000
1.000000 0.810208 0.148409
1.000000 0.809018 0.239109
0.000000 0.878416 0.507164
0.000000 0.878996 0.505913
0.000000 0.879606 0.504173
0.000000 0.880552 0.499763
0.000000 0.881987 0.492714
0.000000 0.883940 0.482887
0.000000 0.886503 0.469642
0.000000 0.889464 0.452155
0.000000 0.892760 0.429999
0.000000 0.897826 0.378363
0.000000 0.904143 0.290654
0.000000 0.910491 0.138979
0.000000 0.912169 0.000000
0.061433 0.911254 0.000000
0.296666 0.909178 0.000000
0.423468 0.905974 0.000000
0.561364 0.900481 0.000000
0.666255 0.895293 0.000000
0.747158 0.891295 0.000000
0.811154 0.888670 0.000000
0.863127 0.887205 0.000000
0.906310 0.886717 0.000000
0.942138 0.886503 0.000000
0.973175 0.886168 0.000000
0.985748 0.868956 0.000000
0.999420 0.854459 0.000000
1.000000 0.848539 0.000000
1.000000 0.842252 0.000000
1.000000 0.835599 0.000000
1.000000 0.832059 0.085603
1.000000 0.829618 0.192569
1.000000 0.827817 0.276310
0.000000 0.912566 0.541466
0.000000 0.912871 0.540490
0.000000 0.913207 0.538659
0.000000 0.913817 0.534386
0.000000 0.914672 0.527825
0.000000 0.915923 0.518334
0.000000 0.917418 0.506310
0.000000 0.919219 0.490761
0.000000 0.921080 0.470954
0.000000 0.923980 0.434974
0.000000 0.929107 0.357946
0.000000 0.934569 0.245060
0.000000 0.937896 0.000000
0.000000 0.936461 0.000000
