data/fiter_cube/51215349/1023017/file.cube
# Created by Adobe Lightroom plugin Export LUT (1.17.0)
# www.johnrellis.com/lightroom/exportlut.htm
# Preset: 日系旅行街拍胶片_04 云集后期
# Color profile: C:\Program Files (x86)\Common Files\Adobe\Color\Profiles\Recommended\AdobeRGB1998.icc
LUT_3D_SIZE 5
DOMAIN_MIN 0.000000 0.000000 0.000000
DOMAIN_MAX 0.903226 0.903226 0.903226
0.029938 0.092409 0.079988
0.191043 0.099031 0.079744
0.688441 0.074220 0.000000
0.973327 0.365942 0.000000
1.000000 0.507652 0.000000
0.004608 0.133639 0.105409
0.161257 0.151095 0.081453
0.658747 0.209201 0.000000
0.964691 0.408057 0.000000
1.000000 0.534295 0.000000
0.000000 0.315618 0.182315
0.000000 0.362249 0.073396
0.583368 0.438575 0.000000
0.944793 0.546288 0.000000
1.000000 0.606073 0.000000
0.000000 0.669551 0.349584
0.000000 0.701747 0.265080
0.494423 0.738216 0.000000
0.912993 0.731228 0.000000
1.000000 0.736843 0.000000
0.000000 0.938018 0.568811
0.000000 0.942809 0.523949
0.183597 0.952819 0.000000
0.878813 0.923827 0.000000
1.000000 0.877745 0.154604
0.000000 0.116762 0.176547
0.137728 0.113222 0.170565
0.639918 0.122560 0.076997
0.955138 0.378790 0.000000
1.000000 0.511650 0.000000
0.000000 0.147860 0.187320
0.130587 0.164889 0.188113
0.615564 0.222568 0.099062
0.949584 0.416785 0.000000
1.000000 0.535271 0.000000
0.000000 0.308507 0.269017
0.000000 0.366247 0.258091
0.549187 0.430488 0.119631
0.932067 0.546685 0.000000
1.000000 0.608362 0.000000
0.000000 0.667628 0.448951
0.000000 0.700160 0.415686
0.438178 0.745785 0.063813
0.907286 0.732479 0.000000
1.000000 0.739284 0.000000
0.000000 0.935760 0.637385
0.000000 0.940368 0.606653
0.135317 0.957610 0.260838
0.866606 0.927001 0.000000
1.000000 0.879942 0.162570
0.000000 0.237552 0.484504
0.000000 0.208042 0.493568
0.497963 0.144564 0.442481
0.942962 0.401068 0.360113
1.000000 0.536614 0.160555
0.000000 0.306432 0.490761
0.000000 0.309758 0.492103
0.493843 0.248783 0.453956
0.933654 0.451087 0.376715
1.000000 0.555505 0.151369
0.000000 0.430610 0.525261
0.000000 0.444953 0.521935
0.478584 0.476631 0.496773
0.910826 0.572747 0.414313
1.000000 0.621546 0.158083
0.000000 0.657649 0.622919
0.000000 0.683223 0.633539
0.472633 0.745235 0.608911
0.878874 0.749813 0.449012
1.000000 0.746914 0.252964
0.000000 0.924865 0.788663
0.000000 0.930144 0.779690
0.484260 0.932128 0.729580
0.802365 0.931548 0.479561
1.000000 0.886503 0.374456
0.000000 0.498482 0.820218
0.000000 0.485298 0.822812
0.390661 0.347723 0.824704
0.840055 0.415595 0.753658
0.988190 0.764981 0.793484
0.000000 0.562951 0.816800
0.000000 0.550347 0.818936
0.403143 0.436439 0.822110
0.833921 0.476631 0.756954
0.985870 0.777523 0.798032
0.000000 0.642847 0.822629
0.000000 0.650141 0.820371
0.548852 0.666835 0.812894
0.815305 0.615473 0.766415
0.986419 0.790799 0.787076
0.000000 0.757595 0.838956
0.000000 0.761532 0.836851
0.555535 0.774685 0.830991
0.809232 0.787533 0.806577
0.989746 0.818662 0.758816
0.000000 0.901976 0.885771
0.000000 0.907134 0.883513
0.531060 0.919127 0.889220
0.813748 0.922850 0.864530
0.977234 0.911955 0.780423
0.296941 0.697383 0.947387
0.365301 0.707027 0.945800
0.623316 0.703090 0.945739
0.790188 0.630426 0.946960
0.950958 0.759640 0.912139
0.337041 0.721798 0.944366
0.392554 0.729793 0.942901
0.650507 0.736202 0.942382
0.787350 0.662135 0.943938
0.949248 0.772366 0.913176
0.429297 0.774716 0.941253
0.421332 0.775082 0.940429
0.653773 0.790616 0.937316
0.789731 0.754940 0.939055
0.945983 0.813870 0.918975
0.479500 0.828855 0.943633
0.468544 0.828794 0.942473
0.607965 0.836301 0.939513
0.828275 0.867460 0.937377
0.942107 0.870146 0.928832
0.550774 0.888243 0.947631
0.545678 0.889586 0.946990
0.597925 0.897948 0.946990
0.828550 0.917449 0.947356
0.936736 0.932647 0.941466
