data/fiter_cube/51215349/1023017/file.cube
# Created by Adobe Lightroom plugin Export LUT (1.17.0)
# www.johnrellis.com/lightroom/exportlut.htm
# Preset: 日系旅行街拍胶片_04 云集后期
# Color profile: C:\Program Files (x86)\Common Files\Adobe\Color\Profiles\Recommended\AdobeRGB1998.icc
LUT_3D_SIZE 8
DOMAIN_MIN 0.000000 0.000000 0.000000
DOMAIN_MAX 0.903226 0.903226 0.903226
0.029938 0.092409 0.079988
0.091981 0.097841 0.080903
0.239322 0.094759 0.077577
0.524926 0.000000 0.000000
0.817716 0.182589 0.000000
0.951781 0.336156 0.000000
1.000000 0.436255 0.000000
1.000000 0.507652 0.000000
0.020966 0.107729 0.088930
0.084596 0.111971 0.082338
0.226993 0.112032 0.078431
0.503136 0.094057 0.000977
0.799771 0.203952 0.000000
0.941955 0.342443 0.000000
1.000000 0.441444 0.000000
1.000000 0.512352 0.000000
0.000000 0.146700 0.113436
0.030671 0.159060 0.090944
0.197757 0.172427 0.078035
0.475685 0.206760 0.000000
0.783291 0.285191 0.000000
0.936492 0.395270 0.000000
1.000000 0.482338 0.000000
1.000000 0.541314 0.000000
0.000000 0.241886 0.155398
0.000000 0.258305 0.136294
0.146242 0.294133 0.069795
0.435462 0.335637 0.000000
0.770382 0.425879 0.000000
0.929656 0.479774 0.000000
1.000000 0.537346 0.000000
1.000000 0.581842 0.000000
0.000000 0.403174 0.216312
0.000000 0.418097 0.198825
0.000000 0.464515 0.000000
0.397894 0.508385 0.000000
0.708553 0.531823 0.000000
0.904692 0.591669 0.000000
0.999237 0.616724 0.000000
1.000000 0.633204 0.000000
0.000000 0.611963 0.316075
0.000000 0.629114 0.301335
0.000000 0.666041 0.130251
0.274113 0.689204 0.000000
0.694301 0.702022 0.000000
0.883238 0.697810 0.000000
0.987915 0.716670 0.000000
1.000000 0.716060 0.000000
0.000000 0.807279 0.445441
0.000000 0.813718 0.429725
0.000000 0.828916 0.340337
0.000000 0.846830 0.000000
0.619409 0.838651 0.000000
0.881285 0.836698 0.000000
0.978912 0.807889 0.000000
1.000000 0.796170 0.000000
0.000000 0.938018 0.568811
0.000000 0.939605 0.556268
0.000000 0.944030 0.507469
0.000000 0.959655 0.176669
0.462654 0.945983 0.000000
0.829679 0.925963 0.000000
0.984009 0.921019 0.000000
1.000000 0.877745 0.154604
0.016907 0.101259 0.114717
0.074830 0.101656 0.112764
0.215122 0.106935 0.095491
0.482551 0.093751 0.015137
0.787106 0.195590 0.000000
0.936187 0.334539 0.000000
1.000000 0.435401 0.000000
1.000000 0.506157 0.000000
0.013916 0.110353 0.117525
0.070832 0.116121 0.119081
0.206729 0.122530 0.102876
0.473304 0.124514 0.022705
0.777646 0.216831 0.000000
0.930846 0.344854 0.000000
1.000000 0.441505 0.000000
1.000000 0.510521 0.000000
0.000000 0.144259 0.139864
0.054322 0.159091 0.141176
0.189334 0.175326 0.112581
0.453223 0.211093 0.032776
0.759823 0.284306 0.000000
0.924529 0.392065 0.000000
1.000000 0.477607 0.000000
1.000000 0.537926 0.000000
0.000000 0.238041 0.185306
0.000000 0.255497 0.178683
0.130831 0.296971 0.109621
0.413794 0.326482 0.047211
0.737484 0.410346 0.000000
0.912993 0.469825 0.000000
1.000000 0.530175 0.000000
1.000000 0.577935 0.000000
0.000000 0.403113 0.250767
0.000000 0.418158 0.238865
0.000000 0.466041 0.105104
0.378088 0.501549 0.000000
0.689570 0.520195 0.000000
0.894743 0.585077 0.000000
0.994812 0.614557 0.000000
1.000000 0.631067 0.000000
0.000000 0.605768 0.346471
0.000000 0.617121 0.333074
0.000000 0.653223 0.228183
0.237491 0.682856 0.000000
0.681758 0.697932 0.000000
0.879057 0.695460 0.000000
0.985626 0.715846 0.000000
1.000000 0.715023 0.000000
0.000000 0.798428 0.467872
0.000000 0.802487 0.452735
0.000000 0.818967 0.385992
0.000000 0.842710 0.000000
0.602686 0.836759 0.000000
0.875151 0.834165 0.000000
0.975494 0.805051 0.000000
1.000000 0.794095 0.000000
0.000000 0.934356 0.586938
0.000000 0.936461 0.576379
0.000000 0.941344 0.533074
0.000000 0.956359 0.282872
0.459174 0.948882 0.000000
0.825498 0.927398 0.000000
0.982574 0.920745 0.000000
1.000000 0.877195 0.144991
0.000000 0.124758 0.207370
0.000000 0.121431 0.211398
0.169986 0.117525 0.197879
0.471229 0.087800 0.158755
0.780240 0.198398 0.031342
0.931792 0.354040 0.000000
1.000000 0.453773 0.000000
1.000000 0.515709 0.000000
0.000000 0.139834 0.207004
0.000458 0.142672 0.209476
0.167208 0.135592 0.202579
0.456336 0.134218 0.166293
0.767178 0.222263 0.064698
0.926696 0.362982 0.000000
1.000000 0.460029 0.000000
1.000000 0.521080 0.000000
0.000000 0.168368 0.220005
0.000000 0.174350 0.220462
0.161013 0.192508 0.219425
0.434241 0.221988 0.185336
0.753658 0.296147 0.088350
0.921294 0.406104 0.000000
1.000000 0.490852 0.000000
1.000000 0.544427 0.000000
0.000000 0.236515 0.249180
0.000000 0.252415 0.257420
0.136507 0.306493 0.257298
0.403265 0.342718 0.196811
0.731472 0.409125 0.102541
0.911040 0.477668 0.000000
1.000000 0.541650 0.000000
1.000000 0.584375 0.000000
0.000000 0.397711 0.333410
0.000000 0.415930 0.335851
0.000000 0.469795 0.318090
0.338994 0.521386 0.187625
0.687190 0.532616 0.124208
0.891936 0.588952 0.000000
0.993530 0.624598 0.000000
1.000000 0.635096 0.000000
0.000000 0.603906 0.437751
0.000000 0.616754 0.434943
0.000000 0.652247 0.402838
0.178714 0.694331 0.198520
0.656825 0.703456 0.081697
0.871214 0.696742 0.000000
0.982727 0.718685 0.000000
1.000000 0.718929 0.000000
0.000000 0.799466 0.556085
0.000000 0.804288 0.548028
0.000000 0.819089 0.509239
0.000000 0.845762 0.310765
0.552789 0.842466 0.105623
0.863645 0.837095 0.000000
0.974121 0.809354 0.000000
1.000000 0.798550 0.000000
0.000000 0.932586 0.654505
0.000000 0.933837 0.645411
0.000000 0.938201 0.615534
0.237247 0.944762 0.530632
0.434333 0.950683 0.235660
0.805753 0.929992 0.000000
0.977905 0.922332 0.000000
1.000000 0.879454 0.153384
0.000000 0.181521 0.373541
0.000000 0.180331 0.377661
0.000000 0.146578 0.384405
0.364691 0.131228 0.345525
0.762966 0.135805 0.295018
0.924224 0.345708 0.227054
1.000000 0.459480 0.102937
1.000000 0.519127 0.000000
0.000000 0.211673 0.374517
0.000000 0.208865 0.378790
0.013703 0.171359 0.386542
0.365545 0.161013 0.350988
0.756863 0.202335 0.304692
0.920012 0.362066 0.233371
1.000000 0.468208 0.109895
1.000000 0.524498 0.000000
0.000000 0.251499 0.385260
0.000000 0.257572 0.384985
0.128634 0.269749 0.384253
0.361028 0.244785 0.364721
0.735805 0.310216 0.324041
0.913817 0.422980 0.259953
1.000000 0.508110 0.141176
1.000000 0.549432 0.000000
0.000000 0.322148 0.408057
0.000000 0.327489 0.406928
0.110048 0.346380 0.403906
0.354040 0.371954 0.392920
0.701167 0.420722 0.350561
0.897978 0.494209 0.282750
0.997650 0.555840 0.159945
1.000000 0.587671 0.000000
0.000000 0.407538 0.425849
0.000000 0.414069 0.426123
0.000000 0.464576 0.452644
0.344152 0.534264 0.451850
0.665553 0.553460 0.365728
0.881437 0.598169 0.306004
0.989105 0.628351 0.196078
1.000000 0.639643 0.000000
0.000000 0.605097 0.546349
0.000000 0.620661 0.555505
0.000000 0.653620 0.560723
0.320562 0.698238 0.525383
0.605005 0.722560 0.366094
0.859373 0.710719 0.327977
0.976043 0.726589 0.240024
1.000000 0.722896 0.000000
0.000000 0.795224 0.663722
0.000000 0.801480 0.662318
0.000000 0.818418 0.651423
0.298283 0.837339 0.609033
0.490120 0.855741 0.401068
0.838651 0.844999 0.327428
0.964965 0.817685 0.285039
1.000000 0.803525 0.118959
0.000000 0.930785 0.747494
0.000000 0.932586 0.743832
0.000000 0.936339 0.725521
0.308995 0.937469 0.689784
0.448432 0.949676 0.503258
0.763912 0.934295 0.375128
0.960449 0.925017 0.280735
1.000000 0.883360 0.234501
0.000000 0.310491 0.599817
0.000000 0.306645 0.602625
0.000000 0.262272 0.609003
0.310063 0.174624 0.606653
0.629267 0.182895 0.543236
0.898650 0.294926 0.481788
0.988037 0.532799 0.482704
1.000000 0.583734 0.398596
0.000000 0.341802 0.599573
0.000000 0.337621 0.603967
0.000000 0.304540 0.610651
0.305577 0.210575 0.607782
0.626978 0.219028 0.545403
0.897368 0.326390 0.486702
0.986633 0.542718 0.486641
1.000000 0.588312 0.397742
0.000000 0.394873 0.605768
0.000000 0.399359 0.605615
0.000000 0.395666 0.606195
0.291295 0.315068 0.608759
0.619165 0.313787 0.553033
0.886473 0.445472 0.522576
0.981415 0.570459 0.494148
1.000000 0.600977 0.387823
0.000000 0.456458 0.618921
0.000000 0.460395 0.618463
0.000000 0.473243 0.615839
0.366979 0.484688 0.609003
0.613550 0.443091 0.573846
0.870420 0.556207 0.560204
0.975738 0.614527 0.503105
1.000000 0.621424 0.356481
0.000000 0.540856 0.640253
0.000000 0.544518 0.639734
0.000000 0.555383 0.636011
0.367712 0.570733 0.626734
0.602258 0.580011 0.601862
0.849271 0.628504 0.570001
0.968231 0.664637 0.504112
1.000000 0.666712 0.360876
0.000000 0.629755 0.658045
0.000000 0.633539 0.657740
0.000000 0.644129 0.654932
0.339971 0.678737 0.665980
0.594202 0.716274 0.650660
0.823911 0.726162 0.575677
0.955016 0.746212 0.531395
1.000000 0.735897 0.407782
0.000000 0.791562 0.745785
0.000000 0.795651 0.747036
0.000000 0.808164 0.750759
0.367102 0.823087 0.751492
0.600946 0.839567 0.714015
0.782345 0.849607 0.579644
0.941222 0.829740 0.548058
1.000000 0.815763 0.456672
0.000000 0.920562 0.826810
0.000000 0.921965 0.825925
0.000000 0.924773 0.819760
0.350866 0.928649 0.804868
0.612360 0.927092 0.770382
0.711910 0.936339 0.620661
0.925078 0.926696 0.557336
1.000000 0.892424 0.513420
0.000000 0.466468 0.789487
0.000000 0.464210 0.789944
0.000000 0.438880 0.792294
0.146548 0.334447 0.795651
0.599512 0.235477 0.786221
0.812070 0.361883 0.719539
0.952514 0.560967 0.700008
0.996643 0.742824 0.753048
0.000000 0.488563 0.784909
0.000000 0.483680 0.785946
0.000000 0.461707 0.789120
0.152895 0.359564 0.792233
0.592218 0.272068 0.783352
0.808774 0.381781 0.719203
0.950866 0.573205 0.702663
0.996338 0.743954 0.751888
0.000000 0.542473 0.786526
0.000000 0.544640 0.786069
0.000000 0.534813 0.788174
0.308659 0.483833 0.791409
0.583978 0.384863 0.784421
0.804623 0.455787 0.726436
0.947051 0.620294 0.717372
0.995789 0.751431 0.751003
0.000000 0.592432 0.793210
0.000000 0.594598 0.792203
0.000000 0.605005 0.790433
0.423163 0.613153 0.790646
0.591485 0.540063 0.789242
0.801297 0.561364 0.743008
0.942260 0.693874 0.745724
0.996307 0.762783 0.746365
0.000000 0.651514 0.798642
0.000000 0.654078 0.798398
0.000000 0.662531 0.796719
0.432380 0.676722 0.792844
0.643702 0.686793 0.784298
0.788998 0.654994 0.753902
0.932647 0.755032 0.765011
0.999237 0.767880 0.720027
0.000000 0.720272 0.807340
0.000000 0.723354 0.807889
0.000000 0.729732 0.806485
0.421271 0.738521 0.802609
0.639765 0.747585 0.794186
0.779568 0.753780 0.774228
0.924407 0.790219 0.760311
1.000000 0.792477 0.704219
0.000000 0.808286 0.833066
0.000000 0.810544 0.833433
0.000000 0.814969 0.832242
0.401129 0.819913 0.828885
0.633814 0.831724 0.827634
0.780697 0.850675 0.813016
0.909636 0.850553 0.760128
0.990478 0.847013 0.722835
0.000000 0.903471 0.870726
0.000000 0.906920 0.871733
0.000000 0.917906 0.876219
0.383368 0.921233 0.877775
0.652705 0.916320 0.872282
0.782284 0.922026 0.846647
0.881102 0.929046 0.764828
0.984222 0.907897 0.739193
0.000000 0.595972 0.896269
0.000000 0.603235 0.896635
0.000000 0.593439 0.897307
0.368414 0.561303 0.898985
0.556909 0.477790 0.898650
0.790463 0.401404 0.892241
0.902739 0.581079 0.839109
0.972930 0.749416 0.838987
0.000000 0.607813 0.890501
0.000000 0.610773 0.891295
0.000000 0.601678 0.892424
0.386877 0.577783 0.893462
0.547234 0.487251 0.893278
0.780453 0.409033 0.886046
0.896849 0.574456 0.832517
0.971557 0.742947 0.833371
0.000000 0.660609 0.890745
0.000000 0.658656 0.890898
0.198489 0.651026 0.890929
0.448890 0.637720 0.891478
0.568963 0.559686 0.891569
0.775113 0.495277 0.885435
0.895781 0.620233 0.839322
0.971618 0.768551 0.844175
0.000000 0.697139 0.894316
0.000000 0.698299 0.893187
0.284550 0.705318 0.890410
0.512047 0.709865 0.889891
0.636652 0.675746 0.890471
0.772915 0.616327 0.887388
0.894377 0.684962 0.850217
0.970794 0.801022 0.856809
0.000000 0.732509 0.892790
0.000000 0.732876 0.891539
0.243626 0.737301 0.888975
0.498817 0.749233 0.886473
0.675807 0.760616 0.883818
0.762966 0.713558 0.882628
0.885252 0.734798 0.853025
0.968566 0.834897 0.868711
0.000000 0.779324 0.894926
0.000000 0.780636 0.894560
0.237736 0.785000 0.893462
0.496132 0.793545 0.891966
0.677211 0.806699 0.889281
0.801602 0.823423 0.886412
0.883085 0.806516 0.868742
0.965606 0.872587 0.884092
0.000000 0.833738 0.901579
0.000000 0.835752 0.901762
0.250767 0.838376 0.900969
0.499306 0.842741 0.899687
0.675319 0.849241 0.896483
0.799100 0.860502 0.892485
0.877012 0.866087 0.880949
0.965087 0.884337 0.872435
0.215640 0.892241 0.916716
0.211673 0.893339 0.916411
0.240421 0.900084 0.917967
0.462715 0.902403 0.917052
0.655665 0.904387 0.914275
0.793606 0.913634 0.913146
0.880858 0.926299 0.905272
0.959106 0.924163 0.873472
0.296941 0.697383 0.947387
0.308659 0.702998 0.947112
0.406104 0.707240 0.945586
0.573266 0.712154 0.945159
0.633509 0.664057 0.947845
0.758236 0.638483 0.947051
0.887602 0.602106 0.946136
0.950958 0.759640 0.912139
0.298711 0.703090 0.945556
0.310094 0.708431 0.945281
0.408484 0.712642 0.944121
0.570184 0.715694 0.943542
0.636561 0.672633 0.946044
0.755703 0.644526 0.945464
0.884611 0.603113 0.944671
0.949859 0.760464 0.911376
0.344457 0.727565 0.943236
0.351141 0.731411 0.942748
0.425147 0.734157 0.941161
0.585687 0.740536 0.941955
0.676783 0.721950 0.942809
0.757900 0.680110 0.943175
0.879332 0.640436 0.942962
0.948577 0.775662 0.913298
0.416663 0.761410 0.941650
0.423621 0.764950 0.941375
0.449744 0.769589 0.939818
0.596643 0.773983 0.939605
0.717220 0.778805 0.939666
0.768856 0.738521 0.941680
0.873320 0.705745 0.941985
0.947417 0.801572 0.917510
0.435981 0.787747 0.941314
0.438209 0.788876 0.941497
0.430701 0.789334 0.940642
0.552544 0.796841 0.938964
0.710780 0.811734 0.936767
0.785214 0.798642 0.938445
0.865446 0.771572 0.940185
0.944823 0.828641 0.921263
0.457954 0.817868 0.941985
0.452796 0.817533 0.941466
0.441169 0.817380 0.940276
0.519768 0.820829 0.938598
0.676326 0.833097 0.936584
0.806912 0.855894 0.936767
0.869413 0.844816 0.941802
0.943175 0.862791 0.927825
0.500023 0.852964 0.944366
0.496651 0.852964 0.943999
0.487648 0.853544 0.942992
0.509758 0.856321 0.941985
0.669703 0.864347 0.940185
0.795956 0.880735 0.939361
0.887816 0.903655 0.942382
0.939483 0.894987 0.933196
0.550774 0.888243 0.947631
0.547936 0.888426 0.947326
0.545739 0.890288 0.946929
0.549432 0.895048 0.947021
0.677424 0.901732 0.946868
0.805600 0.914549 0.947631
0.885710 0.926543 0.946746
0.936736 0.932647 0.941466
