data/fiter_cube/89100697/1022667/file.cube
# Created by Adobe Lightroom plugin Export LUT (1.17.0)
# www.johnrellis.com/lightroom/exportlut.htm
# Preset: VSCO胶片_01 云集
# Color profile: C:\Program Files (x86)\Common Files\Adobe\Color\Profiles\Recommended\AdobeRGB1998.icc
LUT_3D_SIZE 5
DOMAIN_MIN 0.000000 0.000000 0.000000
DOMAIN_MAX 0.903226 0.903226 0.903226
0.014435 0.018006 0.019776
0.192752 0.000000 0.006439
0.687007 0.000000 0.000000
0.918242 0.000000 0.000000
1.000000 0.231052 0.000000
0.004395 0.137362 0.049195
0.149844 0.174228 0.000000
0.665614 0.185641 0.000000
0.907774 0.296330 0.000000
1.000000 0.371588 0.000000
0.000000 0.472023 0.000000
0.000000 0.457801 0.000000
0.556847 0.580835 0.000000
0.875120 0.614832 0.000000
1.000000 0.596918 0.000000
0.000000 0.750546 0.097017
0.000000 0.744442 0.000000
0.412696 0.728054 0.000000
0.790219 0.796536 0.000000
1.000000 0.797818 0.000000
0.329900 0.928893 0.425818
0.350591 0.928252 0.382269
0.524743 0.914824 0.364416
0.719875 0.924498 0.310002
0.955749 0.948913 0.000000
0.000000 0.025360 0.154452
0.197818 0.000000 0.162631
0.684657 0.000000 0.104402
0.911345 0.000000 0.086000
1.000000 0.265812 0.000000
0.000000 0.155520 0.146304
0.192752 0.186404 0.153140
0.671351 0.174990 0.118715
0.902586 0.303990 0.000000
1.000000 0.387488 0.000000
0.000000 0.503746 0.197910
0.125216 0.500999 0.157717
0.574426 0.580926 0.000000
0.871672 0.608911 0.000000
1.000000 0.601862 0.000000
0.112581 0.757839 0.316930
0.145998 0.754299 0.235111
0.438727 0.726467 0.187228
0.794553 0.796933 0.000000
1.000000 0.796628 0.000000
0.421241 0.925689 0.523705
0.424781 0.925780 0.484535
0.545281 0.917388 0.446876
0.721675 0.923705 0.405707
0.955474 0.949126 0.173404
0.000000 0.000000 0.541131
0.223636 0.000000 0.559991
0.673793 0.000000 0.575769
0.901549 0.000000 0.513603
1.000000 0.301793 0.490639
0.000000 0.179049 0.519829
0.212314 0.186587 0.541314
0.667414 0.073915 0.566278
0.891234 0.269322 0.517174
1.000000 0.496620 0.558495
0.000000 0.553399 0.503655
0.261265 0.568139 0.515618
0.624018 0.604059 0.527642
0.858824 0.629297 0.548302
1.000000 0.639094 0.548241
0.274205 0.775051 0.560021
0.399603 0.770230 0.564599
0.546654 0.754086 0.520684
0.798672 0.800473 0.510643
0.995056 0.798825 0.545037
0.521294 0.924102 0.674678
0.565087 0.921996 0.680262
0.595972 0.921263 0.623072
0.721553 0.915618 0.590753
0.948150 0.947387 0.530449
0.000000 0.000000 0.803281
0.334234 0.000000 0.808591
0.679927 0.000000 0.827359
0.878264 0.000000 0.803738
1.000000 0.316930 0.753872
0.000000 0.200107 0.794675
0.333501 0.191867 0.800290
0.671046 0.251286 0.818784
0.869627 0.314488 0.799100
1.000000 0.456031 0.759792
0.000000 0.555535 0.763180
0.249943 0.557641 0.764309
0.632410 0.605982 0.786954
0.845182 0.634882 0.791135
0.993988 0.666651 0.781765
0.345434 0.793912 0.759854
0.456733 0.793820 0.763058
0.652094 0.794888 0.772213
0.815274 0.810666 0.779416
0.979492 0.818448 0.794705
0.581384 0.931701 0.800443
0.613825 0.930419 0.802640
0.695338 0.927733 0.807034
0.756405 0.921904 0.769741
0.945251 0.946563 0.764065
0.376074 0.000000 0.958892
0.479530 0.000000 0.959503
0.679377 0.103944 0.961822
0.875212 0.341955 0.964172
1.000000 0.378149 0.926665
0.384405 0.268162 0.954620
0.482429 0.279118 0.955200
0.676356 0.353460 0.957214
0.871519 0.483040 0.960143
0.997436 0.490822 0.926116
0.295171 0.564843 0.939635
0.427741 0.574151 0.940642
0.661006 0.625635 0.943511
0.859861 0.680446 0.951293
0.985260 0.674891 0.928008
0.402319 0.791867 0.925200
0.469001 0.790738 0.925048
0.610254 0.785763 0.925444
0.820676 0.810117 0.937591
0.971862 0.833494 0.934691
0.576379 0.947112 0.919341
0.608759 0.946380 0.919707
0.705287 0.946868 0.923674
0.836057 0.944366 0.928252
0.954131 0.951629 0.938567
