data/fiter_cube/89100697/1022667/file.cube
# Created by Adobe Lightroom plugin Export LUT (1.17.0)
# www.johnrellis.com/lightroom/exportlut.htm
# Preset: VSCO胶片_01 云集
# Color profile: C:\Program Files (x86)\Common Files\Adobe\Color\Profiles\Recommended\AdobeRGB1998.icc
LUT_3D_SIZE 8
DOMAIN_MIN 0.000000 0.000000 0.000000
DOMAIN_MAX 0.903226 0.903226 0.903226
0.014435 0.018006 0.019776
0.081392 0.025025 0.017304
0.255009 0.000000 0.000000
0.563897 0.000000 0.000000
0.772732 0.000000 0.000000
0.893004 0.000000 0.000000
0.984039 0.083101 0.000000
1.000000 0.231052 0.000000
0.018036 0.073732 0.035431
0.073335 0.080110 0.019623
0.246189 0.045228 0.000000
0.553857 0.000000 0.000000
0.766598 0.000000 0.000000
0.886412 0.000000 0.000000
0.979370 0.195987 0.000000
1.000000 0.279911 0.000000
0.000000 0.170779 0.046326
0.036072 0.169375 0.039429
0.192386 0.223758 0.000000
0.527642 0.255009 0.000000
0.752834 0.295079 0.000000
0.876951 0.340124 0.000000
0.975128 0.378302 0.000000
1.000000 0.403754 0.000000
0.000000 0.362280 0.000000
0.000000 0.358465 0.000000
0.109712 0.362249 0.000000
0.440711 0.476570 0.000000
0.730709 0.545190 0.000000
0.859129 0.536004 0.000000
0.962127 0.538628 0.000000
1.000000 0.535485 0.000000
0.000000 0.569055 0.000000
0.000000 0.565606 0.000000
0.000000 0.552331 0.000000
0.321935 0.584558 0.000000
0.642634 0.657740 0.000000
0.834257 0.690669 0.000000
0.943999 0.671046 0.000000
1.000000 0.653986 0.000000
0.000000 0.718959 0.004547
0.000000 0.719417 0.000000
0.000000 0.710109 0.000000
0.293370 0.692012 0.000000
0.550896 0.728664 0.000000
0.764309 0.771511 0.000000
0.929168 0.794614 0.000000
1.000000 0.769558 0.000000
0.000000 0.830747 0.228702
0.000000 0.830503 0.198978
0.177279 0.824491 0.166995
0.360113 0.812375 0.146731
0.520867 0.805783 0.094789
0.701045 0.837095 0.000000
0.864836 0.866453 0.000000
1.000000 0.879301 0.000000
0.329900 0.928893 0.425818
0.332067 0.928893 0.410834
0.374365 0.927062 0.381140
0.478187 0.921141 0.376471
0.575647 0.910918 0.360693
0.688685 0.919432 0.327550
0.817807 0.937774 0.222660
0.955749 0.948913 0.000000
0.018738 0.020966 0.077546
0.080568 0.016083 0.078431
0.251621 0.000000 0.063172
0.554253 0.000000 0.000000
0.767849 0.000000 0.000000
0.886870 0.000000 0.000000
0.979889 0.090822 0.000000
1.000000 0.234989 0.000000
0.020691 0.075074 0.074281
0.079530 0.082582 0.076570
0.247837 0.044068 0.069337
0.549310 0.000000 0.000000
0.764065 0.000000 0.000000
0.882567 0.000000 0.000000
0.976104 0.198337 0.000000
1.000000 0.282017 0.000000
0.009033 0.181003 0.087495
0.064790 0.185702 0.081575
0.207340 0.227817 0.035981
0.527337 0.246860 0.000000
0.749783 0.289311 0.000000
0.873136 0.335790 0.000000
0.970336 0.375830 0.000000
1.000000 0.403815 0.000000
0.000000 0.375555 0.087129
0.000000 0.374304 0.048371
0.133486 0.367132 0.025879
0.444282 0.471595 0.000000
0.723293 0.532952 0.000000
0.852811 0.529778 0.000000
0.957244 0.535149 0.000000
1.000000 0.534295 0.000000
0.000000 0.577569 0.085451
0.000000 0.573938 0.000000
0.068696 0.559594 0.000000
0.331884 0.582055 0.000000
0.642359 0.654200 0.000000
0.831235 0.686152 0.000000
0.941497 0.668482 0.000000
1.000000 0.653651 0.000000
0.000000 0.720211 0.154025
0.000000 0.718807 0.111910
0.064820 0.710201 0.033753
0.307317 0.692531 0.000000
0.553307 0.726711 0.000000
0.765286 0.770748 0.000000
0.928161 0.792813 0.000000
1.000000 0.768276 0.000000
0.000000 0.828397 0.278813
0.012360 0.827359 0.252964
0.196017 0.822568 0.207828
0.368353 0.811185 0.190494
0.522332 0.803342 0.155276
0.700435 0.835172 0.000000
0.863554 0.864591 0.000000
1.000000 0.877195 0.000000
0.355200 0.926543 0.454139
0.357488 0.926757 0.440772
0.383246 0.925963 0.403052
0.482918 0.920256 0.397955
0.581506 0.912657 0.388952
0.689815 0.919432 0.357549
0.817380 0.937102 0.264378
0.955016 0.948180 0.000000
0.000000 0.027344 0.197543
0.065339 0.018555 0.203372
0.263767 0.000000 0.209171
0.567590 0.000000 0.189181
0.774716 0.000000 0.144137
0.887114 0.000000 0.176242
0.979278 0.180758 0.156588
1.000000 0.285466 0.119020
0.000000 0.081910 0.192416
0.069886 0.084291 0.198489
0.263249 0.000000 0.205173
0.562158 0.000000 0.181613
0.767575 0.000000 0.178195
0.882841 0.071901 0.170260
0.976104 0.246677 0.148714
1.000000 0.322606 0.109926
0.000000 0.199588 0.185031
0.078035 0.211398 0.191226
0.254093 0.241489 0.193881
0.549462 0.244663 0.185489
0.755642 0.290013 0.167391
0.873594 0.349950 0.149294
0.969299 0.396246 0.127718
1.000000 0.425513 0.082673
0.000000 0.407019 0.216068
0.027222 0.414710 0.221012
0.212375 0.416541 0.200259
0.484413 0.485328 0.152193
0.729183 0.527916 0.131716
0.855467 0.536889 0.128725
0.958160 0.544549 0.103334
1.000000 0.544701 0.000000
0.000000 0.600122 0.261021
0.058595 0.602014 0.264866
0.192081 0.594415 0.210666
0.376226 0.590692 0.182773
0.660090 0.661036 0.086793
0.832914 0.684230 0.027344
0.940703 0.669215 0.124819
1.000000 0.659358 0.097169
0.118074 0.731014 0.334936
0.169650 0.730068 0.326757
0.203952 0.724514 0.250492
0.364874 0.705470 0.225925
0.567254 0.726619 0.186465
0.769863 0.771450 0.079103
0.926421 0.790280 0.000000
1.000000 0.768612 0.106935
0.282750 0.830503 0.428077
0.285405 0.829618 0.411475
0.289647 0.827176 0.344121
0.409857 0.815488 0.315251
0.533013 0.800259 0.286809
0.703151 0.834348 0.245975
0.866178 0.865660 0.135714
1.000000 0.876768 0.000000
0.444800 0.923644 0.549554
0.442634 0.923644 0.537743
0.445472 0.923796 0.498390
0.506493 0.920745 0.473610
0.593042 0.913420 0.461128
0.691341 0.917388 0.439857
0.817044 0.936370 0.380926
0.954345 0.948394 0.233402
0.000000 0.016571 0.424567
0.000000 0.000000 0.431983
0.298344 0.000000 0.454932
0.564721 0.000000 0.456123
0.765438 0.000000 0.438758
0.883635 0.000000 0.393042
0.975799 0.000000 0.371771
1.000000 0.386114 0.445350
0.000000 0.085451 0.419562
0.000000 0.080262 0.426398
0.298070 0.000000 0.449470
0.564233 0.000000 0.453437
0.763241 0.000000 0.434272
0.880369 0.000000 0.392554
0.969848 0.231357 0.397620
1.000000 0.405921 0.440345
0.000000 0.220005 0.397803
0.000000 0.225498 0.402136
0.273777 0.241520 0.427070
0.556329 0.209873 0.440772
0.753445 0.224094 0.420203
0.866606 0.359014 0.427192
0.958679 0.448615 0.447425
1.000000 0.479072 0.435981
0.000000 0.438117 0.395880
0.000000 0.446601 0.400916
0.298283 0.469368 0.417639
0.529290 0.501793 0.417823
0.725643 0.527153 0.426856
0.847471 0.550225 0.432746
0.947936 0.566583 0.436133
1.000000 0.573724 0.427985
0.000000 0.629969 0.436072
0.130617 0.630365 0.437934
0.332433 0.631312 0.444587
0.459510 0.616938 0.409461
0.677180 0.670253 0.401221
0.826719 0.682765 0.423865
0.933379 0.679286 0.439887
1.000000 0.672908 0.429633
0.192569 0.745418 0.478340
0.255192 0.745571 0.482185
0.390753 0.740810 0.488167
0.457404 0.729427 0.431281
0.588647 0.728969 0.405585
0.775265 0.775662 0.399481
0.919066 0.788815 0.415656
1.000000 0.771664 0.442267
0.352483 0.835752 0.543603
0.383612 0.834623 0.546166
0.467659 0.830320 0.553277
0.478035 0.825956 0.480720
0.567407 0.809628 0.448920
0.705867 0.833799 0.434913
0.866300 0.866758 0.409155
0.995697 0.874907 0.398810
0.511223 0.923766 0.641871
0.526146 0.923003 0.644129
0.559808 0.920989 0.642359
0.551202 0.922240 0.583215
0.614527 0.915923 0.563012
0.693721 0.913237 0.544671
0.816098 0.934569 0.516533
0.950896 0.948272 0.445838
0.000000 0.000000 0.638544
0.000000 0.000000 0.642939
0.326726 0.000000 0.656458
0.592523 0.000000 0.675715
0.747189 0.000000 0.662928
0.867674 0.000000 0.627985
0.961913 0.000000 0.595727
1.000000 0.305455 0.580560
0.000000 0.072328 0.633845
0.000000 0.037903 0.638819
0.327306 0.000000 0.652857
0.591943 0.000000 0.673884
0.745205 0.000000 0.660731
0.865202 0.000000 0.626947
0.959289 0.195804 0.598352
1.000000 0.359228 0.586786
0.000000 0.228763 0.614008
0.000000 0.231052 0.620386
0.306828 0.243778 0.636896
0.581811 0.258061 0.662470
0.735073 0.246006 0.650568
0.854063 0.318395 0.622919
0.949218 0.411780 0.608545
1.000000 0.487617 0.609369
0.000000 0.453315 0.596521
0.000000 0.458106 0.598322
0.264073 0.470344 0.605615
0.542687 0.502556 0.632074
0.715450 0.515923 0.635004
0.836423 0.549981 0.627680
0.933623 0.592767 0.640009
1.000000 0.628290 0.656367
0.000000 0.645594 0.596429
0.126986 0.648157 0.599145
0.365484 0.653956 0.607172
0.556298 0.661189 0.621515
0.688563 0.678096 0.619684
0.815732 0.687861 0.633783
0.921691 0.695125 0.640558
1.000000 0.695949 0.639002
0.284184 0.759213 0.618524
0.329839 0.758114 0.619684
0.442969 0.753811 0.622705
0.563897 0.748196 0.629908
0.619409 0.732662 0.590265
0.778073 0.778775 0.605280
0.907103 0.788510 0.628870
0.991852 0.781186 0.639002
0.410040 0.843198 0.650477
0.434882 0.841947 0.651759
0.505852 0.838071 0.656306
0.590204 0.832883 0.662745
0.615412 0.824308 0.610224
0.706050 0.828336 0.589960
0.864683 0.866880 0.597833
0.982727 0.872648 0.610803
0.536065 0.925628 0.710506
0.548730 0.924865 0.711635
0.587060 0.922667 0.715145
0.640284 0.920897 0.719814
0.641749 0.920775 0.665949
0.702541 0.912566 0.644434
0.814084 0.930602 0.634546
0.946380 0.947173 0.608911
0.000000 0.000000 0.777401
0.071107 0.000000 0.779263
0.377966 0.000000 0.785153
0.596368 0.000000 0.797604
0.748013 0.000000 0.806302
0.855222 0.000000 0.781094
0.949737 0.081300 0.750790
1.000000 0.317510 0.724575
0.000000 0.000000 0.773220
0.091341 0.000000 0.775113
0.377996 0.000000 0.781765
0.593530 0.000000 0.794125
0.745235 0.000000 0.803311
0.852262 0.000000 0.779019
0.947021 0.219272 0.750515
1.000000 0.366888 0.726650
0.000000 0.251225 0.764248
0.069032 0.251835 0.766140
0.370581 0.253391 0.773129
0.584344 0.279606 0.785183
0.737057 0.332311 0.796231
0.843748 0.351232 0.774594
0.938964 0.419928 0.752377
1.000000 0.493111 0.736568
0.000000 0.454353 0.741390
0.000000 0.455024 0.741482
0.312810 0.468940 0.751034
0.561303 0.511345 0.766720
0.724025 0.560418 0.784939
0.829801 0.563043 0.770504
0.927733 0.589532 0.760311
1.000000 0.617456 0.753017
0.000000 0.644160 0.731991
0.139162 0.645167 0.732692
0.355047 0.648005 0.735073
0.532097 0.654383 0.739620
0.692042 0.680781 0.760678
0.812833 0.688533 0.763821
0.915892 0.702846 0.765805
0.991150 0.718502 0.769528
0.291722 0.768856 0.731838
0.340795 0.770077 0.734279
0.463203 0.769223 0.737209
0.593164 0.769558 0.743130
0.694545 0.773312 0.752224
0.791165 0.787106 0.752834
0.903075 0.794858 0.766384
0.983734 0.796719 0.769894
0.484260 0.854765 0.752560
0.504479 0.854154 0.753750
0.560052 0.851682 0.756374
0.627924 0.848814 0.759609
0.694179 0.845182 0.760555
0.726497 0.830777 0.723384
0.870512 0.870268 0.739651
0.973480 0.873869 0.757504
0.571984 0.930358 0.782895
0.582361 0.929808 0.783566
0.615015 0.928222 0.785611
0.661677 0.926574 0.788266
0.715358 0.924010 0.788968
0.731838 0.921172 0.748623
0.813291 0.924743 0.734127
0.945098 0.946715 0.736446
0.204990 0.000000 0.876432
0.279515 0.000000 0.877470
0.442359 0.000000 0.880430
0.603845 0.000000 0.885954
0.743069 0.000000 0.893370
0.859281 0.081758 0.895354
0.940520 0.196628 0.863493
1.000000 0.333074 0.833219
0.213687 0.000000 0.874113
0.284764 0.000000 0.875151
0.442817 0.000000 0.878172
0.602228 0.000000 0.883543
0.740444 0.151888 0.890929
0.856535 0.219425 0.893187
0.937713 0.275578 0.862089
1.000000 0.376257 0.833219
0.215549 0.269566 0.867826
0.284489 0.270359 0.868681
0.439948 0.277134 0.871550
0.596735 0.311833 0.876951
0.733150 0.387457 0.884428
0.849393 0.425483 0.888182
0.930968 0.445716 0.860594
1.000000 0.496925 0.837003
0.018433 0.460609 0.853544
0.198184 0.463539 0.854520
0.418097 0.492439 0.857633
0.581872 0.520653 0.864103
0.720790 0.567803 0.873533
0.839567 0.596277 0.881254
0.921660 0.597009 0.860288
0.993622 0.615290 0.843381
0.117586 0.637629 0.838163
0.205661 0.637110 0.838010
0.363470 0.635981 0.838010
0.534661 0.644465 0.843168
0.694697 0.679164 0.857664
0.826780 0.709468 0.873533
0.911528 0.705409 0.860075
0.985321 0.717067 0.851499
0.319768 0.765072 0.832517
0.356481 0.764858 0.832731
0.454810 0.764706 0.833341
0.565972 0.765774 0.834958
0.665919 0.767086 0.838010
0.796048 0.788205 0.857237
0.901427 0.798093 0.860777
0.976806 0.810086 0.862699
0.463050 0.861784 0.832151
0.485084 0.862089 0.833097
0.547234 0.863127 0.836057
0.626429 0.863279 0.838956
0.711910 0.863859 0.843046
0.800656 0.867002 0.851133
0.883268 0.876829 0.852354
0.968536 0.882200 0.864195
0.610986 0.936248 0.851987
0.619898 0.935973 0.852445
0.648981 0.935454 0.854307
0.692714 0.934508 0.856809
0.746334 0.933043 0.859525
0.803159 0.930694 0.860868
0.830655 0.923125 0.831296
0.947570 0.947234 0.843900
0.376074 0.000000 0.958892
0.411261 0.000000 0.959167
0.506737 0.000000 0.959716
0.622217 0.000000 0.961028
0.736080 0.190372 0.962646
0.851530 0.336248 0.964202
0.945617 0.345922 0.964141
1.000000 0.378149 0.926665
0.380102 0.097597 0.957549
0.414282 0.096407 0.957794
0.507988 0.107118 0.958373
0.621851 0.166598 0.959564
0.734890 0.267765 0.961151
0.849851 0.385077 0.962737
0.943603 0.391974 0.962829
1.000000 0.415961 0.926238
0.384375 0.319677 0.952972
0.416754 0.322942 0.953155
0.507408 0.336248 0.953613
0.619287 0.372686 0.954955
0.731014 0.432776 0.956512
0.845304 0.506584 0.958526
0.937835 0.510948 0.959380
0.995789 0.518273 0.925994
0.354253 0.500755 0.944884
0.405707 0.514183 0.944640
0.498634 0.524437 0.945312
0.611780 0.547723 0.946929
0.725063 0.583948 0.949432
0.838590 0.625635 0.953094
0.930205 0.629633 0.955383
0.988891 0.625635 0.927001
0.252506 0.635309 0.932830
0.305272 0.635920 0.933288
0.432990 0.639887 0.934630
0.577813 0.658534 0.937407
0.706630 0.685908 0.941161
0.824796 0.713466 0.946868
0.921324 0.727413 0.951598
0.981628 0.722957 0.929534
0.370672 0.764279 0.926207
0.395270 0.763790 0.926085
0.465919 0.762203 0.925872
0.553399 0.758785 0.925994
0.655329 0.757839 0.928466
0.798032 0.786496 0.938018
0.912413 0.817197 0.948241
0.973907 0.812955 0.933623
0.484749 0.865965 0.921874
0.499763 0.865721 0.921904
0.545586 0.865080 0.922026
0.610651 0.864256 0.922545
0.686519 0.863188 0.923583
0.769833 0.860899 0.925231
0.886076 0.877958 0.937530
0.965606 0.891020 0.938201
0.576379 0.947112 0.919341
0.586328 0.946868 0.919402
0.619257 0.946410 0.920043
0.672786 0.946654 0.922148
0.740444 0.947234 0.925536
0.816739 0.944701 0.927337
0.893156 0.944976 0.933074
0.954131 0.951629 0.938567
