data/fiter_cube/89100697/1022667/file.cube
# Created by Adobe Lightroom plugin Export LUT (1.17.0)
# www.johnrellis.com/lightroom/exportlut.htm
# Preset: VSCO胶片_01 云集
# Color profile: C:\Program Files (x86)\Common Files\Adobe\Color\Profiles\Recommended\AdobeRGB1998.icc
LUT_3D_SIZE 32
DOMAIN_MIN 0.0 0.0 0.0
DOMAIN_MAX 1.0 1.0 1.0
0.014435 0.018006 0.019776
0.023590 0.018860 0.019471
0.035492 0.019257 0.019135
0.061463 0.021851 0.018036
0.081392 0.025025 0.017304
0.107576 0.023560 0.014588
0.143893 0.008484 0.011322
0.192752 0.000000 0.006439
0.255009 0.000000 0.000000
0.328069 0.000000 0.000000
0.407691 0.000000 0.000000
0.488350 0.000000 0.000000
0.563897 0.000000 0.000000
0.630274 0.000000 0.000000
0.687007 0.000000 0.000000
0.733974 0.000000 0.000000
0.772732 0.000000 0.000000
0.807034 0.000000 0.000000
0.837827 0.000000 0.000000
0.866270 0.000000 0.000000
0.893004 0.000000 0.000000
0.918242 0.000000 0.000000
0.941741 0.000000 0.000000
0.963561 0.000000 0.000000
0.984039 0.083101 0.000000
1.000000 0.139803 0.000000
1.000000 0.177737 0.000000
1.000000 0.207095 0.000000
1.000000 0.231052 0.000000
1.000000 0.250584 0.000000
1.000000 0.266758 0.000000
1.000000 0.279362 0.000000
0.014191 0.026215 0.021302
0.020874 0.027497 0.019928
0.035126 0.029847 0.019348
0.061341 0.032471 0.018250
0.081331 0.035645 0.016449
0.107240 0.034394 0.014832
0.143465 0.019532 0.011597
0.191897 0.000000 0.005676
0.253758 0.000000 0.000000
0.326604 0.000000 0.000000
0.405890 0.000000 0.000000
0.486213 0.000000 0.000000
0.561975 0.000000 0.000000
0.628504 0.000000 0.000000
0.685389 0.000000 0.000000
0.732418 0.000000 0.000000
0.771328 0.000000 0.000000
0.805753 0.000000 0.000000
0.836301 0.000000 0.000000
0.864622 0.000000 0.000000
0.891386 0.000000 0.000000
0.916655 0.000000 0.000000
0.940246 0.000000 0.000000
0.962219 0.000000 0.000000
0.982788 0.098787 0.000000
1.000000 0.149386 0.000000
1.000000 0.183902 0.000000
1.000000 0.212253 0.000000
1.000000 0.235630 0.000000
1.000000 0.254765 0.000000
1.000000 0.270542 0.000000
1.000000 0.282658 0.000000
0.014618 0.037781 0.023590
0.019867 0.038087 0.023407
0.032074 0.040894 0.019623
0.060456 0.046906 0.018219
0.080262 0.049439 0.017517
0.106783 0.048341 0.014771
0.142977 0.034180 0.010468
0.190951 0.000000 0.005615
0.252598 0.000000 0.000000
0.324956 0.000000 0.000000
0.404089 0.000000 0.000000
0.484474 0.000000 0.000000
0.560388 0.000000 0.000000
0.627008 0.000000 0.000000
0.683803 0.000000 0.000000
0.731258 0.000000 0.000000
0.770291 0.000000 0.000000
0.804685 0.000000 0.000000
0.835264 0.000000 0.000000
0.863462 0.000000 0.000000
0.890288 0.000000 0.000000
0.915618 0.000000 0.000000
0.939269 0.000000 0.000000
0.961334 0.010834 0.000000
0.981994 0.118776 0.000000
1.000000 0.161044 0.000000
1.000000 0.193942 0.000000
1.000000 0.220432 0.000000
1.000000 0.242313 0.000000
1.000000 0.260990 0.000000
1.000000 0.275853 0.000000
1.000000 0.287694 0.000000
0.016083 0.059358 0.028931
0.021576 0.059480 0.027680
0.030945 0.059815 0.026307
0.056794 0.063142 0.019440
0.079683 0.066377 0.016022
0.104616 0.065461 0.015778
0.140810 0.060914 0.011322
0.189120 0.033021 0.005035
0.251072 0.000000 0.000000
0.323217 0.000000 0.000000
0.401923 0.000000 0.000000
0.482094 0.000000 0.000000
0.557885 0.000000 0.000000
0.624384 0.000000 0.000000
0.681758 0.000000 0.000000
0.729244 0.000000 0.000000
0.768429 0.000000 0.000000
0.803250 0.000000 0.000000
0.833494 0.000000 0.000000
0.861540 0.000000 0.000000
0.888304 0.000000 0.000000
0.913664 0.000000 0.000000
0.937499 0.000000 0.000000
0.959808 0.108614 0.000000
0.980804 0.153872 0.000000
1.000000 0.187411 0.000000
1.000000 0.214694 0.000000
1.000000 0.238254 0.000000
1.000000 0.258091 0.000000
1.000000 0.274357 0.000000
1.000000 0.287816 0.000000
1.000000 0.298436 0.000000
0.018036 0.073732 0.035431
0.022522 0.073518 0.033204
0.030518 0.073457 0.032990
0.050355 0.075044 0.029877
0.073335 0.080110 0.019623
0.103212 0.085725 0.012818
0.137911 0.082765 0.010834
0.184665 0.074739 0.005524
0.246189 0.045228 0.000000
0.318029 0.000000 0.000000
0.397436 0.000000 0.000000
0.478126 0.000000 0.000000
0.553857 0.000000 0.000000
0.620874 0.000000 0.000000
0.678492 0.000000 0.000000
0.726528 0.000000 0.000000
0.766598 0.000000 0.000000
0.801419 0.000000 0.000000
0.831632 0.000000 0.000000
0.859678 0.000000 0.000000
0.886412 0.000000 0.000000
0.911864 0.065248 0.000000
0.935729 0.127993 0.000000
0.958251 0.166079 0.000000
0.979370 0.195987 0.000000
0.999237 0.221714 0.000000
1.000000 0.243565 0.000000
1.000000 0.262882 0.000000
1.000000 0.279911 0.000000
1.000000 0.293980 0.000000
1.000000 0.305394 0.000000
1.000000 0.314580 0.000000
0.017609 0.089509 0.041749
0.020783 0.089693 0.038361
0.028779 0.089662 0.038178
0.046235 0.089235 0.037842
0.066560 0.094209 0.030945
0.091646 0.102693 0.017060
0.135836 0.113069 0.003662
0.181491 0.109163 0.000000
0.239902 0.097169 0.000000
0.311406 0.074891 0.000000
0.390509 0.000000 0.000000
0.471656 0.000000 0.000000
0.548486 0.000000 0.000000
0.616907 0.000000 0.000000
0.675135 0.000000 0.000000
0.723476 0.000000 0.000000
0.764614 0.000000 0.000000
0.799374 0.000000 0.000000
0.829496 0.000000 0.000000
0.857664 0.087007 0.000000
0.884550 0.132387 0.000000
0.910185 0.166476 0.000000
0.941527 0.207309 0.000000
0.963500 0.230289 0.000000
0.984070 0.250553 0.000000
1.000000 0.268650 0.000000
1.000000 0.284703 0.000000
1.000000 0.299260 0.000000
1.000000 0.311864 0.000000
1.000000 0.322637 0.000000
1.000000 0.331273 0.000000
1.000000 0.337987 0.000000
0.013672 0.111116 0.046937
0.016083 0.111086 0.041505
0.024079 0.111055 0.041291
0.041321 0.110719 0.042054
0.061524 0.112123 0.039673
0.081788 0.121920 0.027283
0.117281 0.134524 0.008362
0.180179 0.152041 0.000000
0.239536 0.147951 0.000000
0.309422 0.137881 0.000000
0.387030 0.119936 0.000000
0.468208 0.098512 0.000000
0.545678 0.068147 0.000000
0.614099 0.027344 0.000000
0.672755 0.041657 0.000000
0.722560 0.085054 0.000000
0.764370 0.118837 0.000000
0.798947 0.146700 0.000000
0.829160 0.171817 0.000000
0.857603 0.195468 0.000000
0.885039 0.218265 0.000000
0.911315 0.238987 0.000000
0.936156 0.258671 0.000000
0.959350 0.276097 0.000000
0.980865 0.292485 0.000000
1.000000 0.306401 0.000000
1.000000 0.319280 0.000000
1.000000 0.330602 0.000000
1.000000 0.340642 0.000000
1.000000 0.349126 0.000000
1.000000 0.355688 0.000000
1.000000 0.360845 0.000000
0.004395 0.137362 0.049195
0.005676 0.137362 0.043427
0.012696 0.137209 0.042267
0.029938 0.136934 0.043030
0.054444 0.136446 0.042603
0.073243 0.142763 0.034730
0.102022 0.157076 0.015839
0.149844 0.174228 0.000000
0.233860 0.200778 0.000000
0.303319 0.198978 0.000000
0.380102 0.192569 0.000000
0.458808 0.182010 0.000000
0.535973 0.175082 0.000000
0.605341 0.176150 0.000000
0.665614 0.185641 0.000000
0.717189 0.202945 0.000000
0.758968 0.220218 0.000000
0.794034 0.236118 0.000000
0.824796 0.251347 0.000000
0.853666 0.266392 0.000000
0.881285 0.281254 0.000000
0.907774 0.296330 0.000000
0.932769 0.310430 0.000000
0.956176 0.323430 0.000000
0.977996 0.335241 0.000000
0.998169 0.346105 0.000000
1.000000 0.355566 0.000000
1.000000 0.364050 0.000000
1.000000 0.371588 0.000000
1.000000 0.377752 0.000000
1.000000 0.382757 0.000000
1.000000 0.386114 0.000000
0.000000 0.170779 0.046326
0.000000 0.170779 0.040864
0.000000 0.170687 0.038636
0.008789 0.170199 0.038514
0.036072 0.169375 0.039429
0.064393 0.168429 0.039002
0.089876 0.183139 0.019806
0.129519 0.202243 0.000000
0.192386 0.223758 0.000000
0.296483 0.260166 0.000000
0.372747 0.260777 0.000000
0.451514 0.258244 0.000000
0.527642 0.255009 0.000000
0.597070 0.253574 0.000000
0.659144 0.266484 0.000000
0.710750 0.281529 0.000000
0.752834 0.295079 0.000000
0.788327 0.307408 0.000000
0.819425 0.318303 0.000000
0.848814 0.328954 0.000000
0.876951 0.340124 0.000000
0.904021 0.350439 0.000000
0.929412 0.360571 0.000000
0.953063 0.369909 0.000000
0.975128 0.378302 0.000000
0.995575 0.385657 0.000000
1.000000 0.392554 0.000000
1.000000 0.398505 0.000000
1.000000 0.403754 0.000000
1.000000 0.408057 0.000000
1.000000 0.411231 0.000000
1.000000 0.413062 0.000000
0.000000 0.211093 0.034882
0.000000 0.211002 0.030640
0.000000 0.210605 0.026520
0.000000 0.210117 0.026490
0.000336 0.209018 0.026703
0.046296 0.207553 0.026795
0.077516 0.212802 0.019257
0.113283 0.232456 0.000000
0.166476 0.255528 0.000000
0.244053 0.280308 0.000000
0.363958 0.325200 0.000000
0.442878 0.328008 0.000000
0.521050 0.330877 0.000000
0.591028 0.334417 0.000000
0.651637 0.339666 0.000000
0.703273 0.348577 0.000000
0.746334 0.360937 0.000000
0.782376 0.370794 0.000000
0.814084 0.379156 0.000000
0.843656 0.387091 0.000000
0.872160 0.394873 0.000000
0.899382 0.401892 0.000000
0.925078 0.408453 0.000000
0.949126 0.414221 0.000000
0.971679 0.419379 0.000000
0.992462 0.424292 0.000000
1.000000 0.428962 0.000000
1.000000 0.432898 0.000000
1.000000 0.436316 0.000000
1.000000 0.438911 0.000000
1.000000 0.440681 0.000000
1.000000 0.441199 0.000000
0.000000 0.256809 0.016327
0.000000 0.256718 0.010986
0.000000 0.256443 0.004700
0.000000 0.255680 0.005035
0.000000 0.254337 0.005676
0.000000 0.252506 0.005280
0.061738 0.250492 0.006683
0.097353 0.265202 0.000000
0.146181 0.288609 0.000000
0.213901 0.314549 0.000000
0.303624 0.342870 0.000000
0.435157 0.394842 0.000000
0.513603 0.401038 0.000000
0.583520 0.406104 0.000000
0.644007 0.412146 0.000000
0.695705 0.417639 0.000000
0.738460 0.420569 0.000000
0.775113 0.426856 0.000000
0.807370 0.433234 0.000000
0.837613 0.438849 0.000000
0.866545 0.444373 0.000000
0.894194 0.449104 0.000000
0.920378 0.453529 0.000000
0.944945 0.457191 0.000000
0.967864 0.460609 0.000000
0.989197 0.463172 0.000000
1.000000 0.465370 0.000000
1.000000 0.467323 0.000000
1.000000 0.469001 0.000000
1.000000 0.469978 0.000000
1.000000 0.470314 0.000000
1.000000 0.469703 0.000000
0.000000 0.307012 0.000000
0.000000 0.306676 0.000000
0.000000 0.306310 0.000000
0.000000 0.305425 0.000000
0.000000 0.304021 0.000000
0.000000 0.302129 0.000000
0.007935 0.299504 0.000000
0.079347 0.299718 0.000000
0.127840 0.323705 0.000000
0.190829 0.350744 0.000000
0.271916 0.379278 0.000000
0.369146 0.408392 0.000000
0.513481 0.472267 0.000000
0.586511 0.481666 0.000000
0.646448 0.487404 0.000000
0.697017 0.491554 0.000000
0.739132 0.492622 0.000000
0.774929 0.491371 0.000000
0.806638 0.489326 0.000000
0.836942 0.492744 0.000000
0.865965 0.495399 0.000000
0.893492 0.497993 0.000000
0.919524 0.499886 0.000000
0.943969 0.501396 0.000000
0.966827 0.502495 0.000000
0.988128 0.503380 0.000000
1.000000 0.503685 0.000000
1.000000 0.503777 0.000000
1.000000 0.503349 0.000000
1.000000 0.502373 0.000000
1.000000 0.501091 0.000000
1.000000 0.499092 0.000000
0.000000 0.362280 0.000000
0.000000 0.362066 0.000000
0.000000 0.361486 0.000000
0.000000 0.360418 0.000000
0.000000 0.358465 0.000000
0.000000 0.356695 0.000000
0.000000 0.354376 0.000000
0.049470 0.351415 0.000000
0.109712 0.362249 0.000000
0.171389 0.388830 0.000000
0.247288 0.417578 0.000000
0.338384 0.447364 0.000000
0.440711 0.476570 0.000000
0.565148 0.525689 0.000000
0.635767 0.540154 0.000000
0.687709 0.544488 0.000000
0.730709 0.545190 0.000000
0.767086 0.543420 0.000000
0.799405 0.540185 0.000000
0.829801 0.536889 0.000000
0.859129 0.536004 0.000000
0.887236 0.537407 0.000000
0.913787 0.538201 0.000000
0.938750 0.538506 0.000000
0.962127 0.538628 0.000000
0.983856 0.538323 0.000000
1.000000 0.537682 0.000000
1.000000 0.536828 0.000000
1.000000 0.535485 0.000000
1.000000 0.533562 0.000000
1.000000 0.531060 0.000000
1.000000 0.527672 0.000000
0.000000 0.417762 0.000000
0.000000 0.417578 0.000000
0.000000 0.417151 0.000000
0.000000 0.416022 0.000000
0.000000 0.414038 0.000000
0.000000 0.411627 0.000000
0.000000 0.408728 0.000000
0.000000 0.405097 0.000000
0.088594 0.401007 0.000000
0.151888 0.422919 0.000000
0.223789 0.450172 0.000000
0.307622 0.478584 0.000000
0.402106 0.506188 0.000000
0.501732 0.532219 0.000000
0.611200 0.573449 0.000000
0.678492 0.590753 0.000000
0.722103 0.591333 0.000000
0.759243 0.589410 0.000000
0.792142 0.585992 0.000000
0.822995 0.582300 0.000000
0.852598 0.578424 0.000000
0.880919 0.574426 0.000000
0.908019 0.574029 0.000000
0.933532 0.573663 0.000000
0.957427 0.572869 0.000000
0.979675 0.571832 0.000000
1.000000 0.570306 0.000000
1.000000 0.568658 0.000000
1.000000 0.566613 0.000000
1.000000 0.564080 0.000000
1.000000 0.560876 0.000000
1.000000 0.556909 0.000000
0.000000 0.472023 0.000000
0.000000 0.471901 0.000000
0.000000 0.471260 0.000000
0.000000 0.469856 0.000000
0.000000 0.467842 0.000000
0.000000 0.465095 0.000000
0.000000 0.461707 0.000000
0.000000 0.457801 0.000000
0.062989 0.453376 0.000000
0.132906 0.456336 0.000000
0.202853 0.481636 0.000000
0.282139 0.508202 0.000000
0.370428 0.533989 0.000000
0.464881 0.558099 0.000000
0.556847 0.580835 0.000000
0.651301 0.615198 0.000000
0.713832 0.632471 0.000000
0.751553 0.630457 0.000000
0.785000 0.627039 0.000000
0.816342 0.623255 0.000000
0.846342 0.619135 0.000000
0.875120 0.614832 0.000000
0.902342 0.610254 0.000000
0.928161 0.606378 0.000000
0.952575 0.605127 0.000000
0.975402 0.603540 0.000000
0.996582 0.601678 0.000000
1.000000 0.599481 0.000000
1.000000 0.596918 0.000000
1.000000 0.593927 0.000000
1.000000 0.590265 0.000000
1.000000 0.585840 0.000000
0.000000 0.523125 0.000000
0.000000 0.522881 0.000000
0.000000 0.522515 0.000000
0.000000 0.521294 0.000000
0.000000 0.519432 0.000000
0.000000 0.516808 0.000000
0.000000 0.513725 0.000000
0.000000 0.510155 0.000000
0.000000 0.505547 0.000000
0.118837 0.500175 0.000000
0.185702 0.513115 0.000000
0.261479 0.537102 0.000000
0.344121 0.560174 0.000000
0.432929 0.582147 0.000000
0.521965 0.602716 0.000000
0.603632 0.622522 0.000000
0.684413 0.649805 0.000000
0.743740 0.667262 0.000000
0.778042 0.664179 0.000000
0.810025 0.660548 0.000000
0.840543 0.656611 0.000000
0.869810 0.652094 0.000000
0.897551 0.647456 0.000000
0.923735 0.642420 0.000000
0.948363 0.637201 0.000000
0.971618 0.634028 0.000000
0.993256 0.631739 0.000000
1.000000 0.629145 0.000000
1.000000 0.626154 0.000000
1.000000 0.622614 0.000000
1.000000 0.618524 0.000000
1.000000 0.613642 0.000000
0.000000 0.569055 0.000000
0.000000 0.568841 0.000000
0.000000 0.568383 0.000000
0.000000 0.567437 0.000000
0.000000 0.565606 0.000000
0.000000 0.563287 0.000000
0.000000 0.560235 0.000000
0.000000 0.556573 0.000000
0.000000 0.552331 0.000000
0.108400 0.547356 0.000000
0.169833 0.541802 0.000000
0.243595 0.563378 0.000000
0.321935 0.584558 0.000000
0.405859 0.604791 0.000000
0.491493 0.623682 0.000000
0.571191 0.641230 0.000000
0.642634 0.657740 0.000000
0.712825 0.679622 0.000000
0.770932 0.697963 0.000000
0.803311 0.694514 0.000000
0.834257 0.690669 0.000000
0.863951 0.686275 0.000000
0.892210 0.681422 0.000000
0.918853 0.676356 0.000000
0.943999 0.671046 0.000000
0.967437 0.665614 0.000000
0.989349 0.660029 0.000000
1.000000 0.657221 0.000000
1.000000 0.653986 0.000000
1.000000 0.650233 0.000000
1.000000 0.645869 0.000000
1.000000 0.640742 0.000000
0.000000 0.611322 0.000000
0.000000 0.611109 0.000000
0.000000 0.617609 0.000000
0.000000 0.616693 0.000000
0.000000 0.614954 0.000000
0.000000 0.612573 0.000000
0.000000 0.609369 0.000000
0.000000 0.605585 0.000000
0.000000 0.601373 0.000000
0.107973 0.596429 0.000000
0.173709 0.590692 0.000000
0.234470 0.594141 0.000000
0.309941 0.612970 0.000000
0.389471 0.631037 0.000000
0.470375 0.647761 0.000000
0.547173 0.663050 0.000000
0.616876 0.677729 0.000000
0.679683 0.691737 0.000000
0.741360 0.709102 0.000000
0.798978 0.728115 0.000000
0.830106 0.724178 0.000000
0.860044 0.719661 0.000000
0.888426 0.714809 0.000000
0.915343 0.709529 0.000000
0.940581 0.703914 0.000000
0.964172 0.698116 0.000000
0.986145 0.692073 0.000000
1.000000 0.685969 0.000000
1.000000 0.680903 0.000000
1.000000 0.676936 0.000000
1.000000 0.672328 0.000000
1.000000 0.666987 0.000000
0.000000 0.651942 0.000000
0.000000 0.652522 0.000000
0.000000 0.653071 0.000000
0.000000 0.653132 0.000000
0.000000 0.652277 0.000000
0.000000 0.650446 0.000000
0.000000 0.647700 0.000000
0.000000 0.644434 0.000000
0.000000 0.640467 0.000000
0.106355 0.635981 0.000000
0.175662 0.630671 0.000000
0.228885 0.624720 0.000000
0.296239 0.635920 0.000000
0.371679 0.652247 0.000000
0.448310 0.667140 0.000000
0.522545 0.680903 0.000000
0.590600 0.694026 0.000000
0.652430 0.706722 0.000000
0.709255 0.719142 0.000000
0.764950 0.733639 0.000000
0.823697 0.753933 0.000000
0.854093 0.749813 0.000000
0.883055 0.745174 0.000000
0.910460 0.740078 0.000000
0.936217 0.734585 0.000000
0.960235 0.728786 0.000000
0.982666 0.722683 0.000000
1.000000 0.716426 0.000000
1.000000 0.710048 0.000000
1.000000 0.703273 0.000000
1.000000 0.698177 0.000000
1.000000 0.692714 0.000000
0.000000 0.687007 0.000000
0.000000 0.687465 0.000000
0.000000 0.687861 0.000000
0.000000 0.687922 0.000000
0.000000 0.687373 0.000000
0.000000 0.685695 0.000000
0.000000 0.683375 0.000000
0.000000 0.680385 0.000000
0.000000 0.676997 0.000000
0.112642 0.672938 0.000000
0.182101 0.668208 0.000000
0.236423 0.662959 0.000000
0.286717 0.659266 0.000000
0.358801 0.673640 0.000000
0.431708 0.686915 0.000000
0.502678 0.699245 0.000000
0.568536 0.711055 0.000000
0.629084 0.722469 0.000000
0.684840 0.733791 0.000000
0.736812 0.745174 0.000000
0.788418 0.757534 0.000000
0.848264 0.778897 0.000000
0.877714 0.774502 0.000000
0.905577 0.769711 0.000000
0.931792 0.764279 0.000000
0.956268 0.758511 0.000000
0.979065 0.752377 0.000000
1.000000 0.746120 0.000000
1.000000 0.739528 0.000000
1.000000 0.732570 0.000000
1.000000 0.725154 0.000000
1.000000 0.717922 0.000000
0.000000 0.718959 0.004547
0.000000 0.719387 0.000000
0.000000 0.719692 0.000000
0.000000 0.719844 0.000000
0.000000 0.719417 0.000000
0.000000 0.718013 0.000000
0.000000 0.715877 0.000000
0.000000 0.713283 0.000000
0.000000 0.710109 0.000000
0.124422 0.706569 0.000000
0.192081 0.702358 0.000000
0.245975 0.697536 0.000000
0.293370 0.692012 0.000000
0.349828 0.694942 0.000000
0.419074 0.706783 0.000000
0.487037 0.717891 0.000000
0.550896 0.728664 0.000000
0.609888 0.739315 0.000000
0.664515 0.749935 0.000000
0.715663 0.760708 0.000000
0.764309 0.771511 0.000000
0.812833 0.782071 0.000000
0.873198 0.803555 0.000000
0.902495 0.799741 0.000000
0.929168 0.794614 0.000000
0.954040 0.788968 0.000000
0.977111 0.782803 0.000000
0.998444 0.776425 0.000000
1.000000 0.769558 0.000000
1.000000 0.762387 0.000000
1.000000 0.754696 0.000000
1.000000 0.746822 0.000000
0.000000 0.750546 0.097017
0.000000 0.750698 0.092134
0.000000 0.750729 0.083833
0.000000 0.750484 0.058930
0.000000 0.749966 0.000000
0.000000 0.748562 0.000000
0.000000 0.746761 0.000000
0.000000 0.744442 0.000000
0.000000 0.741756 0.000000
0.145632 0.738552 0.000000
0.208286 0.734981 0.000000
0.260777 0.730739 0.000000
0.307622 0.725826 0.000000
0.350927 0.720363 0.000000
0.412696 0.728054 0.000000
0.477394 0.737942 0.000000
0.538170 0.747494 0.000000
0.594965 0.757107 0.000000
0.647761 0.766842 0.000000
0.697169 0.776791 0.000000
0.744228 0.786801 0.000000
0.790219 0.796536 0.000000
0.836942 0.805722 0.000000
0.895995 0.826169 0.000000
0.924743 0.822538 0.000000
0.950011 0.816983 0.000000
0.973510 0.811032 0.000000
0.995239 0.804623 0.000000
1.000000 0.797818 0.000000
1.000000 0.790494 0.000000
1.000000 0.782895 0.000000
1.000000 0.775265 0.000000
0.000000 0.777798 0.141970
0.000000 0.777920 0.139101
0.000000 0.777981 0.133333
0.000000 0.777798 0.119631
0.000000 0.777401 0.093019
0.000000 0.776394 0.068940
0.000000 0.774716 0.063142
0.000000 0.772549 0.052125
0.086152 0.770047 0.033204
0.168521 0.767086 0.006775
0.226108 0.763821 0.000000
0.276066 0.759976 0.000000
0.321447 0.755612 0.000000
0.364385 0.750698 0.000000
0.409186 0.748379 0.000000
0.470100 0.757168 0.000000
0.528099 0.765927 0.000000
0.582544 0.774838 0.000000
0.633570 0.783932 0.000000
0.681392 0.793271 0.000000
0.726986 0.802670 0.000000
0.771237 0.811978 0.000000
0.815702 0.820829 0.000000
0.861112 0.828977 0.000000
0.917540 0.847440 0.000000
0.945556 0.843992 0.000000
0.969482 0.838132 0.000000
0.991577 0.831876 0.000000
1.000000 0.825101 0.000000
1.000000 0.817960 0.000000
1.000000 0.810605 0.000000
1.000000 0.803281 0.000000
0.000000 0.805509 0.187411
0.000000 0.805692 0.184756
0.000000 0.805661 0.179538
0.000000 0.805478 0.169253
0.000000 0.805081 0.151461
0.000000 0.804288 0.129580
0.000000 0.802609 0.126375
0.000000 0.800473 0.121736
0.135164 0.798062 0.117494
0.197452 0.795193 0.110903
0.249271 0.791989 0.104982
0.295659 0.788357 0.096010
0.339055 0.784329 0.086336
0.380285 0.779812 0.073030
0.419013 0.774868 0.051667
0.467018 0.776883 0.000000
0.521508 0.784726 0.000000
0.573144 0.792844 0.000000
0.621881 0.801236 0.000000
0.667903 0.809934 0.000000
0.711849 0.818753 0.000000
0.754391 0.827512 0.000000
0.796780 0.835843 0.000000
0.839963 0.843473 0.000000
0.883482 0.850401 0.000000
0.936919 0.866880 0.000000
0.966003 0.865080 0.000000
0.988373 0.858854 0.000000
1.000000 0.852232 0.000000
1.000000 0.845212 0.000000
1.000000 0.838041 0.000000
1.000000 0.831022 0.000000
0.000000 0.830747 0.228702
0.000000 0.830930 0.226078
0.000000 0.830961 0.222263
0.000000 0.830869 0.214145
0.000000 0.830503 0.198978
0.000000 0.830076 0.178714
0.000000 0.828580 0.173983
0.112123 0.826719 0.170565
0.177279 0.824491 0.166995
0.228885 0.821988 0.162936
0.275212 0.819089 0.158114
0.318822 0.815915 0.152804
0.360113 0.812375 0.146731
0.399268 0.808408 0.139223
0.436622 0.804166 0.131624
0.471687 0.799588 0.121828
0.520867 0.805783 0.094789
0.569268 0.813260 0.021210
0.615259 0.821042 0.000000
0.659113 0.829007 0.000000
0.701045 0.837095 0.000000
0.741726 0.845182 0.000000
0.782162 0.852842 0.000000
0.823148 0.860014 0.000000
0.864836 0.866453 0.000000
0.906462 0.872282 0.000000
0.955749 0.885924 0.000000
0.985626 0.885771 0.000000
1.000000 0.879301 0.000000
1.000000 0.872435 0.000000
1.000000 0.865415 0.000000
1.000000 0.858671 0.000000
0.015137 0.856199 0.272892
0.027283 0.856321 0.271061
0.034455 0.856352 0.267643
0.045289 0.856199 0.260533
0.056123 0.855894 0.248081
0.065522 0.855497 0.230777
0.117281 0.854368 0.220859
0.173342 0.852628 0.218235
0.220432 0.850584 0.215122
0.263584 0.848325 0.211521
0.305119 0.845762 0.207797
0.345159 0.842954 0.204257
0.383398 0.839841 0.199344
0.420508 0.836393 0.194217
0.455573 0.832700 0.188022
0.488808 0.828763 0.181735
0.524071 0.827481 0.171633
0.568872 0.834287 0.151522
0.611780 0.841398 0.123995
0.653010 0.848661 0.080201
0.692775 0.856016 0.000000
0.731472 0.863340 0.000000
0.769833 0.870359 0.000000
0.808713 0.876921 0.000000
0.848356 0.882841 0.000000
0.888334 0.888151 0.000000
0.928099 0.892973 0.000000
0.973541 0.904204 0.000000
1.000000 0.905303 0.000000
1.000000 0.898589 0.000000
1.000000 0.891752 0.000000
1.000000 0.885222 0.000000
0.170748 0.880674 0.319188
0.171542 0.880735 0.317082
0.172305 0.880766 0.314000
0.174472 0.880705 0.308446
0.176425 0.880552 0.298192
0.178836 0.880430 0.283513
0.193393 0.880003 0.270451
0.231540 0.878721 0.268864
0.269413 0.877226 0.267582
0.306554 0.875608 0.265782
0.343420 0.873655 0.263340
0.379767 0.871550 0.261204
0.414954 0.869108 0.258366
0.448859 0.866423 0.254887
0.481056 0.863462 0.250919
0.511772 0.860258 0.246342
0.541100 0.856992 0.241184
0.576562 0.859373 0.230350
0.615717 0.865690 0.213718
0.653529 0.872160 0.193240
0.690455 0.878660 0.165988
0.726680 0.885100 0.128145
0.762783 0.891234 0.046509
0.799527 0.896971 0.000000
0.837095 0.902190 0.000000
0.875212 0.906859 0.000000
0.913390 0.911040 0.000000
0.950866 0.914733 0.000000
0.992157 0.923522 0.000000
1.000000 0.925353 0.000000
1.000000 0.918456 0.000000
1.000000 0.911925 0.000000
0.258274 0.906340 0.373480
0.258762 0.906401 0.371740
0.259434 0.906371 0.369574
0.259892 0.906279 0.363836
0.261082 0.906157 0.355138
0.262791 0.906035 0.343084
0.265141 0.905943 0.327398
0.292180 0.904692 0.325109
0.321721 0.903227 0.323583
0.352483 0.901610 0.321935
0.383551 0.899779 0.319890
0.414649 0.897765 0.317815
0.445136 0.895628 0.315251
0.475013 0.893278 0.312596
