data/fiter_cube/10491141/1023208/file.cube
# Created by Adobe Lightroom plugin Export LUT (1.17.0)
# www.johnrellis.com/lightroom/exportlut.htm
# Preset: 莫兰迪丛林_07 云集
# Color profile: C:\Program Files (x86)\Common Files\Adobe\Color\Profiles\Recommended\AdobeRGB1998.icc
LUT_3D_SIZE 5
DOMAIN_MIN 0.000000 0.000000 0.000000
DOMAIN_MAX 0.903226 0.903226 0.903226
0.069123 0.076112 0.088075
0.677974 0.000000 0.000000
0.879667 0.330755 0.000000
0.953002 0.462226 0.000000
0.986725 0.526055 0.000000
0.352728 0.502861 0.317418
0.505882 0.454078 0.297734
0.877165 0.538018 0.000000
0.947021 0.550652 0.000000
0.981903 0.577813 0.167025
0.689998 0.755642 0.658350
0.751858 0.793668 0.734829
0.726162 0.700343 0.600000
0.917144 0.731411 0.440589
0.955230 0.714382 0.469429
0.768490 0.832822 0.761013
0.796994 0.845975 0.796628
0.845670 0.873625 0.846525
0.808621 0.798672 0.726864
0.916838 0.814328 0.675898
0.811643 0.870085 0.813870
0.829526 0.876219 0.835599
0.867247 0.892271 0.878386
0.881071 0.899413 0.888701
0.870085 0.871427 0.838224
0.000000 0.173190 0.402441
0.663020 0.245029 0.455543
0.831022 0.491127 0.412573
0.918791 0.579461 0.418494
0.962402 0.613245 0.421881
0.340978 0.486885 0.416846
0.596826 0.575311 0.537804
0.836179 0.609766 0.469917
0.917876 0.625757 0.443275
0.959350 0.642847 0.449592
0.680568 0.745083 0.659388
0.746334 0.785031 0.740322
0.729152 0.713069 0.644465
0.900877 0.757626 0.585504
0.939879 0.740902 0.586511
0.767910 0.830961 0.764981
0.796231 0.844266 0.799405
0.848325 0.874418 0.853971
0.810269 0.804715 0.747158
0.913054 0.823972 0.713375
0.809751 0.869230 0.813321
0.827634 0.875334 0.834653
0.868986 0.893004 0.881376
0.883787 0.901457 0.893492
0.871427 0.874266 0.845548
0.433234 0.474464 0.678126
0.609888 0.478004 0.729213
0.811215 0.621363 0.702480
0.855344 0.677302 0.677119
0.914824 0.722683 0.693721
0.565270 0.612940 0.645441
0.635218 0.641566 0.707118
0.794919 0.676844 0.713863
0.858732 0.704799 0.691432
0.915496 0.734249 0.698634
0.643671 0.717159 0.671443
0.693507 0.741054 0.707271
0.760311 0.764126 0.746212
0.868803 0.784024 0.738643
0.914885 0.780026 0.727718
0.750637 0.817411 0.755947
0.778195 0.830533 0.787533
0.842924 0.867185 0.856809
0.817380 0.821530 0.793332
0.903990 0.848295 0.794156
0.805539 0.866819 0.814389
0.820829 0.872190 0.831418
0.860075 0.888457 0.873442
0.887602 0.904234 0.900450
0.874449 0.880613 0.861692
0.618097 0.645441 0.789578
0.656977 0.645106 0.805722
0.800534 0.657496 0.842130
0.864897 0.743648 0.800778
0.890410 0.784176 0.802762
0.661006 0.701472 0.775601
0.675715 0.696986 0.794919
0.796078 0.709987 0.841032
0.859556 0.764645 0.807675
0.887938 0.794827 0.809293
0.688075 0.758206 0.766354
0.711574 0.764096 0.774502
0.777340 0.793851 0.822477
0.846525 0.805814 0.821134
0.884855 0.825040 0.828428
0.735714 0.810483 0.779171
0.755520 0.816861 0.791714
0.806912 0.840848 0.829282
0.838315 0.850523 0.845548
0.894469 0.862608 0.849760
0.796780 0.862119 0.813779
0.810605 0.866972 0.827787
0.846830 0.881804 0.863676
0.883574 0.900938 0.898894
0.880461 0.890501 0.882719
0.706783 0.739376 0.855528
0.721157 0.739498 0.860807
0.782498 0.744961 0.878202
0.873808 0.778622 0.886625
0.891661 0.833799 0.866484
0.726680 0.766110 0.849546
0.732387 0.762234 0.855772
0.784054 0.767910 0.874479
0.870207 0.793271 0.886351
0.890776 0.840604 0.869535
0.740047 0.792721 0.827604
0.750393 0.796780 0.833982
0.788602 0.812528 0.863157
0.861906 0.829740 0.887785
0.889128 0.858762 0.878264
0.759060 0.839933 0.841367
0.769772 0.841428 0.844388
0.801633 0.847593 0.854978
0.850919 0.868162 0.884367
0.888701 0.881987 0.890684
0.794278 0.868162 0.844846
0.804135 0.870542 0.850217
0.834348 0.879423 0.867765
0.869505 0.893187 0.890288
0.890532 0.903563 0.904692
