data/fiter_cube/10491141/1023208/file.cube
# Created by Adobe Lightroom plugin Export LUT (1.17.0)
# www.johnrellis.com/lightroom/exportlut.htm
# Preset: 莫兰迪丛林_07 云集
# Color profile: C:\Program Files (x86)\Common Files\Adobe\Color\Profiles\Recommended\AdobeRGB1998.icc
LUT_3D_SIZE 32
DOMAIN_MIN 0.0 0.0 0.0
DOMAIN_MAX 1.0 1.0 1.0
0.069123 0.076112 0.088075
0.078767 0.077485 0.087770
0.095674 0.079622 0.087465
0.173831 0.084352 0.084169
0.336889 0.049104 0.068910
0.496498 0.000000 0.010040
0.605402 0.000000 0.000000
0.677974 0.000000 0.000000
0.727749 0.049744 0.000000
0.763394 0.131044 0.000000
0.793454 0.181582 0.000000
0.819974 0.226902 0.000000
0.843076 0.266453 0.000000
0.862760 0.300816 0.000000
0.879667 0.330755 0.000000
0.895079 0.357671 0.000000
0.908476 0.380957 0.000000
0.919768 0.401190 0.000000
0.929412 0.418677 0.000000
0.938048 0.434668 0.000000
0.945892 0.449165 0.000000
0.953002 0.462226 0.000000
0.959380 0.474159 0.000000
0.965118 0.484993 0.000000
0.970306 0.494667 0.000000
0.975006 0.503502 0.000000
0.979309 0.511711 0.000000
0.983185 0.519249 0.000000
0.986725 0.526055 0.000000
0.989929 0.532219 0.000000
0.992767 0.537682 0.060151
0.995270 0.542351 0.084810
0.071962 0.080873 0.091279
0.075196 0.082338 0.092744
0.095827 0.088319 0.089052
0.179324 0.102174 0.083955
0.347112 0.094026 0.065644
0.504662 0.000000 0.000000
0.610986 0.000000 0.000000
0.681453 0.023713 0.000000
0.729335 0.110750 0.000000
0.764309 0.158572 0.000000
0.793912 0.200748 0.000000
0.820157 0.240330 0.000000
0.843015 0.276768 0.000000
0.862608 0.309148 0.000000
0.879423 0.337285 0.000000
0.894713 0.362951 0.000000
0.907927 0.385168 0.000000
0.919158 0.404364 0.000000
0.928771 0.421424 0.000000
0.937469 0.436805 0.000000
0.945373 0.450904 0.000000
0.952514 0.463691 0.000000
0.958923 0.475380 0.000000
0.964721 0.486061 0.000000
0.969970 0.495613 0.000000
0.974701 0.504509 0.000000
0.979065 0.512444 0.000000
0.982940 0.520104 0.000000
0.986542 0.526848 0.000000
0.989746 0.532982 0.000000
0.992615 0.538354 0.059510
0.995178 0.543023 0.084382
0.074952 0.087098 0.095277
0.079561 0.091432 0.099397
0.085023 0.091859 0.098238
0.179843 0.125246 0.085115
0.356146 0.138216 0.060456
0.511559 0.115663 0.000000
0.614343 0.105867 0.000000
0.683162 0.126253 0.000000
0.730556 0.158816 0.000000
0.765103 0.190555 0.000000
0.794675 0.224613 0.000000
0.820737 0.258793 0.000000
0.843290 0.291112 0.000000
0.862730 0.320775 0.000000
0.879393 0.346807 0.000000
0.894652 0.370611 0.000000
0.907683 0.391547 0.000000
0.918853 0.409674 0.000000
0.928435 0.425818 0.000000
0.937163 0.440620 0.000000
0.945037 0.454231 0.000000
0.952239 0.466529 0.000000
0.958679 0.477943 0.000000
0.964477 0.488197 0.000000
0.969726 0.497719 0.000000
0.974487 0.506279 0.000000
0.978820 0.514214 0.000000
0.982757 0.521721 0.000000
0.986358 0.528344 0.000000
0.989563 0.534478 0.000000
0.992462 0.539727 0.063752
0.994995 0.544366 0.088075
0.086275 0.116243 0.107271
0.099763 0.131197 0.120607
0.113313 0.144442 0.126070
0.127993 0.133120 0.114931
0.328008 0.195071 0.066316
0.525933 0.220157 0.000000
0.622614 0.214206 0.000000
0.687770 0.220768 0.000000
0.732692 0.233433 0.000000
0.766232 0.249912 0.000000
0.795193 0.272068 0.000000
0.820890 0.297185 0.000000
0.843320 0.322789 0.000000
0.862608 0.346654 0.000000
0.879332 0.367681 0.000000
0.894560 0.388037 0.000000
0.907530 0.405585 0.000000
0.918547 0.421302 0.000000
0.928038 0.435737 0.000000
0.936645 0.449104 0.000000
0.944488 0.461555 0.000000
0.951690 0.472999 0.000000
0.958160 0.483711 0.000000
0.964050 0.493538 0.000000
0.969390 0.502525 0.000000
0.974182 0.510857 0.000000
0.978576 0.518517 0.000000
0.982513 0.525841 0.000000
0.986084 0.532311 0.000000
0.989288 0.538170 0.025818
0.992126 0.543359 0.076539
0.994690 0.547784 0.097597
0.113497 0.188907 0.133608
0.134829 0.210147 0.152712
0.166140 0.237461 0.175570
0.214054 0.269932 0.186374
0.210056 0.207767 0.144900
0.435645 0.265873 0.060609
0.621302 0.318975 0.000000
0.692927 0.326726 0.000000
0.735164 0.322850 0.000000
0.767330 0.325872 0.000000
0.795590 0.335668 0.000000
0.820737 0.350744 0.000000
0.842832 0.367803 0.000000
0.861845 0.384741 0.000000
0.878630 0.400641 0.000000
0.893584 0.416114 0.000000
0.906432 0.429938 0.000000
0.917540 0.442451 0.000000
0.927184 0.453864 0.000000
0.935912 0.464576 0.000000
0.943877 0.474617 0.000000
0.951202 0.484169 0.000000
0.957763 0.493263 0.000000
0.963622 0.502190 0.000000
0.968933 0.510460 0.000000
0.973785 0.518151 0.000000
0.978119 0.525414 0.000000
0.982086 0.532067 0.000000
0.985595 0.538293 0.000000
0.988800 0.543938 0.064820
0.991638 0.548852 0.092805
0.994141 0.553246 0.112428
0.163851 0.293889 0.176333
0.191928 0.316289 0.198276
0.235325 0.345556 0.230625
0.307286 0.391058 0.267735
0.357183 0.396765 0.256840
0.317052 0.294469 0.184237
0.510124 0.336736 0.094545
0.673518 0.396674 0.000000
0.737850 0.421881 0.000000
0.769039 0.411139 0.000000
0.796506 0.409857 0.000000
0.820981 0.414313 0.000000
0.842527 0.422400 0.000000
0.861234 0.431495 0.000000
0.877958 0.441444 0.000000
0.892607 0.451514 0.000000
0.905241 0.461067 0.000000
0.916258 0.469978 0.000000
0.925872 0.478462 0.000000
0.934630 0.486702 0.000000
0.942626 0.494759 0.000000
0.949950 0.502464 0.000000
0.958801 0.515007 0.000000
0.964508 0.521782 0.000000
0.969665 0.527947 0.000000
0.974365 0.533654 0.000000
0.978576 0.539055 0.000000
0.982238 0.544793 0.027863
0.985565 0.550317 0.084169
0.988464 0.555352 0.110506
0.991089 0.559930 0.130617
0.993378 0.563928 0.147127
0.248447 0.411048 0.239445
0.280339 0.427283 0.263035
0.324132 0.447852 0.295903
0.403296 0.485481 0.352483
0.475990 0.526268 0.389929
0.482734 0.494270 0.337316
0.424384 0.381415 0.236759
0.565179 0.404822 0.151583
0.702510 0.460426 0.000000
0.764034 0.483314 0.000000
0.799344 0.489845 0.000000
0.823026 0.484871 0.000000
0.843778 0.484169 0.000000
0.862058 0.485939 0.000000
0.878599 0.489815 0.000000
0.892699 0.494209 0.000000
0.904997 0.498909 0.000000
0.915740 0.503716 0.000000
0.925231 0.508934 0.000000
0.933928 0.514549 0.000000
0.941985 0.520562 0.000000
0.949401 0.526604 0.000000
0.956115 0.532708 0.000000
0.962188 0.538445 0.000000
0.967620 0.543938 0.000000
0.972442 0.548974 0.029480
0.976745 0.553735 0.079774
0.980621 0.558129 0.103304
0.984161 0.562097 0.121584
0.987274 0.565911 0.137545
0.990112 0.569116 0.150210
0.992370 0.572930 0.166476
0.352728 0.502861 0.317418
0.378302 0.512810 0.337255
0.411566 0.525658 0.363775
0.475654 0.551446 0.417823
0.531334 0.581720 0.456703
0.583734 0.613092 0.492317
0.562036 0.558282 0.405249
0.505882 0.454078 0.297734
0.602991 0.461646 0.216617
0.719387 0.510002 0.108400
0.782315 0.530602 0.000000
0.821439 0.548943 0.000000
0.843137 0.544213 0.000000
0.861387 0.540154 0.000000
0.877165 0.538018 0.000000
0.890898 0.536980 0.000000
0.902922 0.537285 0.000000
0.913512 0.538384 0.000000
0.922942 0.540307 0.000000
0.931609 0.543114 0.000000
0.939605 0.546746 0.000000
0.947021 0.550652 0.000000
0.953765 0.554803 0.005829
0.959838 0.559075 0.072145
0.965270 0.563134 0.098207
0.970123 0.567163 0.119570
0.974487 0.570855 0.137057
0.978393 0.574334 0.152346
0.981903 0.577813 0.167025
0.985077 0.580957 0.179843
0.987854 0.583917 0.191989
0.990295 0.586572 0.202884
0.450385 0.571679 0.396551
0.467781 0.577966 0.411688
0.490211 0.586419 0.431952
0.532158 0.603510 0.472175
0.577935 0.625727 0.515282
0.614221 0.647822 0.544213
0.634150 0.652979 0.545739
0.616388 0.606744 0.464454
0.566400 0.513695 0.357763
0.631922 0.509087 0.283238
0.731502 0.551598 0.210910
0.796017 0.571588 0.081178
0.834470 0.587671 0.000000
0.860624 0.594385 0.000000
0.875669 0.587060 0.000000
0.888945 0.581567 0.000000
0.900694 0.577661 0.000000
0.911131 0.575341 0.000000
0.920409 0.574121 0.028290
0.929015 0.574212 0.069306
0.937011 0.575311 0.090211
0.944366 0.577050 0.108919
0.951080 0.579400 0.126864
0.957122 0.582055 0.143771
0.962554 0.584863 0.159335
0.967407 0.587549 0.173800
0.971771 0.590204 0.186893
0.975708 0.592798 0.199405
0.979248 0.595361 0.211185
0.982391 0.597925 0.222660
0.985168 0.600366 0.233738
0.987549 0.602716 0.244511
0.524651 0.623072 0.465888
0.535668 0.627070 0.477028
0.549798 0.632288 0.491524
0.577935 0.643275 0.521599
0.614282 0.658900 0.563348
0.640406 0.675105 0.586694
0.667109 0.693812 0.610407
0.668208 0.682002 0.586877
0.652918 0.641688 0.512718
0.612024 0.561944 0.412360
0.654688 0.547326 0.342321
0.742214 0.586938 0.291203
0.803647 0.608240 0.215305
0.844694 0.619989 0.149355
0.870970 0.629206 0.139620
0.886778 0.625605 0.137972
0.898314 0.618524 0.139651
0.908537 0.613031 0.144259
0.917662 0.609277 0.150851
0.926116 0.606744 0.158968
0.933989 0.605463 0.168185
0.941222 0.605158 0.178439
0.947875 0.605432 0.188724
0.953857 0.606287 0.200107
0.959289 0.607477 0.211368
0.964172 0.608942 0.222477
0.968597 0.610437 0.233036
0.972595 0.612207 0.243778
0.976135 0.614160 0.254887
0.979278 0.616052 0.265476
0.981994 0.618158 0.276524
0.984344 0.620233 0.287510
0.576959 0.659388 0.522148
0.584375 0.662013 0.530388
0.594232 0.665614 0.541558
0.613611 0.673030 0.564202
0.639460 0.684779 0.595300
0.663020 0.699428 0.620356
0.683955 0.715633 0.638422
0.706142 0.733242 0.657282
0.695003 0.707027 0.618158
0.679194 0.668544 0.553155
0.646601 0.600946 0.461494
0.673610 0.579797 0.395270
0.751186 0.616571 0.357702
0.808743 0.637659 0.302281
0.852506 0.646754 0.225284
0.876493 0.654231 0.222599
0.895293 0.657862 0.219089
0.905241 0.649989 0.219791
0.914275 0.643610 0.221592
0.922637 0.638849 0.225040
0.930419 0.635584 0.230747
0.937652 0.633234 0.236881
0.944244 0.631983 0.244724
0.950225 0.631342 0.253056
0.955688 0.631220 0.261875
0.960601 0.631342 0.270634
0.965057 0.631800 0.279484
0.969024 0.632624 0.288884
0.972595 0.633692 0.298436
0.975738 0.634974 0.308385
0.978454 0.636561 0.318975
0.980652 0.638453 0.330419
0.616632 0.687404 0.568872
0.621759 0.689479 0.574975
0.628717 0.692409 0.583246
0.642237 0.698634 0.599512
0.661280 0.708705 0.622461
0.682521 0.722042 0.647547
0.699489 0.735744 0.662409
0.718166 0.750668 0.679011
0.731136 0.757870 0.685267
0.717830 0.729427 0.643244
0.701839 0.692775 0.587335
0.672450 0.632105 0.504173
0.692348 0.611810 0.448859
0.762692 0.646906 0.421363
0.815915 0.667231 0.380713
0.857694 0.675563 0.321355
0.883360 0.679835 0.297398
0.900725 0.683253 0.296483
0.912322 0.680354 0.295567
0.920317 0.673579 0.296239
0.927764 0.668208 0.298161
0.934661 0.664179 0.302037
0.941039 0.660975 0.306279
0.946838 0.658747 0.311864
0.952117 0.657099 0.318059
0.956909 0.656031 0.324895
0.961273 0.655421 0.332067
0.965179 0.655207 0.339605
0.968627 0.655390 0.347936
0.971679 0.656031 0.356909
0.974243 0.657069 0.366979
0.976349 0.658503 0.377966
0.648310 0.713832 0.607233
0.651911 0.715633 0.611566
0.656733 0.718044 0.617426
0.666621 0.723323 0.629358
0.680842 0.731655 0.646479
0.698604 0.742733 0.668299
0.714992 0.754879 0.685664
0.730983 0.767758 0.700649
0.748074 0.781216 0.716884
0.751034 0.776913 0.707332
0.738521 0.750301 0.666499
0.722988 0.715816 0.616480
0.694209 0.659998 0.544762
0.702510 0.631830 0.485023
0.768368 0.666316 0.464790
0.818235 0.686122 0.433845
0.857633 0.694759 0.389288
0.886168 0.697230 0.348150
0.902312 0.700130 0.349310
0.915740 0.702022 0.350072
0.923461 0.696040 0.350530
0.930327 0.690486 0.351995
0.936614 0.686152 0.354986
0.942443 0.682673 0.358770
0.947784 0.679957 0.363348
0.952575 0.677913 0.368658
0.956970 0.676417 0.374731
0.960876 0.675532 0.381689
0.964385 0.675044 0.389044
0.967376 0.675196 0.397894
0.969940 0.675776 0.407446
0.971954 0.677058 0.418830
0.670954 0.735775 0.634791
0.673823 0.737392 0.638300
0.677455 0.739498 0.642695
0.685328 0.744045 0.652277
0.697078 0.751034 0.666835
0.712154 0.760342 0.685969
0.728664 0.771237 0.706233
0.741970 0.781704 0.718868
0.756405 0.792844 0.732662
0.771603 0.804318 0.747066
0.765957 0.790646 0.723842
0.754025 0.765621 0.684352
0.739376 0.733455 0.637201
0.710994 0.681392 0.574884
0.712490 0.650568 0.517723
0.773983 0.683711 0.502281
0.820645 0.702480 0.477455
0.857450 0.711177 0.443732
0.887480 0.713100 0.398199
0.903777 0.715480 0.395575
0.916442 0.717311 0.398138
0.925872 0.716091 0.400000
0.932128 0.710597 0.401495
0.937957 0.706142 0.403906
0.943267 0.702480 0.407324
0.948089 0.699580 0.411719
0.952483 0.697322 0.416632
0.956420 0.695705 0.422705
0.959869 0.694759 0.429786
0.962890 0.694423 0.437903
0.965362 0.694759 0.447700
0.967285 0.695674 0.458625
0.689998 0.755642 0.658350
0.692287 0.756893 0.661158
0.695247 0.758541 0.664881
0.701747 0.762203 0.673091
0.711574 0.767849 0.685573
0.724208 0.775326 0.701900
0.739376 0.784573 0.721614
0.751858 0.793668 0.734829
0.764187 0.802976 0.746578
0.777401 0.812711 0.758968
0.788815 0.820157 0.767971
0.778439 0.801816 0.737697
0.767117 0.778470 0.700069
0.753292 0.748440 0.654841
0.726162 0.700343 0.600000
0.721981 0.667628 0.546593
0.779294 0.699184 0.534813
0.823026 0.716915 0.514611
0.857694 0.725765 0.488533
0.886198 0.728664 0.454444
0.905272 0.729671 0.436927
0.917144 0.731411 0.440589
0.927031 0.732509 0.443946
0.933440 0.728725 0.446204
0.938689 0.724269 0.448737
0.943542 0.720668 0.452277
0.947906 0.717830 0.456794
0.951781 0.715816 0.462654
0.955230 0.714382 0.469429
0.958160 0.713771 0.477729
0.960540 0.713924 0.487556
0.962371 0.714656 0.498482
0.705776 0.771969 0.678523
0.707790 0.773068 0.681056
0.710231 0.774411 0.684230
0.715755 0.777432 0.691371
0.724147 0.782101 0.702205
0.735134 0.788357 0.716518
0.748196 0.796078 0.733577
0.761440 0.804532 0.749599
0.772091 0.812406 0.759670
0.783474 0.820615 0.770199
0.795254 0.828977 0.781003
0.799008 0.828489 0.778347
0.789090 0.811185 0.749691
0.778256 0.789303 0.713802
0.764828 0.760922 0.670680
0.739742 0.716915 0.620813
0.730770 0.682856 0.571710
0.784329 0.712856 0.562921
0.825650 0.730007 0.547021
0.858579 0.739284 0.527214
0.885496 0.742916 0.501427
0.906859 0.743099 0.474861
0.917845 0.744900 0.479957
0.927031 0.745998 0.484535
0.934264 0.745663 0.488685
0.938994 0.741451 0.491737
0.943328 0.738064 0.495644
0.947173 0.735500 0.500877
0.950530 0.733730 0.507530
0.953399 0.732662 0.515221
0.955688 0.732479 0.524834
0.957427 0.732815 0.534997
0.719142 0.785489 0.696010
0.720729 0.786313 0.698054
0.722896 0.787442 0.700893
0.727596 0.789975 0.707057
0.734829 0.793851 0.716548
0.744289 0.799100 0.728908
0.755764 0.805539 0.743771
0.769009 0.813260 0.760708
0.778866 0.820157 0.770504
0.788754 0.827176 0.779599
0.799130 0.834379 0.789029
0.809628 0.841550 0.798489
0.807218 0.834958 0.786618
0.797940 0.818784 0.759640
0.787839 0.798520 0.725948
0.775051 0.772030 0.685451
0.752316 0.731899 0.639033
0.739467 0.697017 0.593927
0.789761 0.725582 0.587579
0.828855 0.742214 0.575311
0.859892 0.751644 0.560662
0.885283 0.755886 0.541283
0.906279 0.756344 0.517266
0.918456 0.757259 0.515160
0.926909 0.758480 0.520897
0.933898 0.759396 0.526635
0.938781 0.757290 0.531243
0.942565 0.754269 0.536187
0.945861 0.752102 0.542382
0.948669 0.750729 0.550011
0.950896 0.750240 0.559136
0.952636 0.750149 0.568505
0.730831 0.797116 0.711543
0.732326 0.797910 0.713527
0.736477 0.801022 0.719020
0.740566 0.803128 0.724361
0.746822 0.806363 0.732601
0.755001 0.810666 0.743221
0.765011 0.816007 0.756069
0.776577 0.822385 0.770657
0.787350 0.828916 0.782925
0.795895 0.834836 0.790677
0.804807 0.840940 0.798703
0.813962 0.847074 0.806882
0.823087 0.853056 0.814939
0.815702 0.841733 0.795712
0.807034 0.826810 0.770565
0.797787 0.808255 0.739376
0.785733 0.783688 0.701564
0.765499 0.747524 0.658015
0.750729 0.713283 0.616785
0.796780 0.739010 0.611597
0.833371 0.754818 0.602411
0.862486 0.764065 0.591211
0.886046 0.768612 0.577142
0.905394 0.769802 0.559991
0.919158 0.769711 0.549950
0.926757 0.770871 0.556268
0.933074 0.771756 0.562371
0.938170 0.772274 0.568719
0.941466 0.769558 0.574090
0.944244 0.767758 0.581140
0.946441 0.766781 0.589319
0.948150 0.766262 0.598047
0.741909 0.807858 0.726314
0.743374 0.808713 0.728237
0.745357 0.809812 0.730831
0.749203 0.811856 0.735897
0.754879 0.814755 0.743313
0.762295 0.818540 0.752834
0.771267 0.823178 0.764248
0.781582 0.828672 0.777188
0.793179 0.835019 0.791440
0.800839 0.840146 0.798459
0.808713 0.845487 0.805539
0.816861 0.850889 0.812772
0.825071 0.856199 0.820035
0.829435 0.857755 0.821317
0.821958 0.846555 0.802213
0.814023 0.832761 0.778683
0.805631 0.815793 0.749813
0.794430 0.793118 0.714931
0.776394 0.760433 0.674464
0.763333 0.729671 0.636805
0.802976 0.750240 0.631037
0.837552 0.765469 0.624292
0.864988 0.774563 0.615778
0.886961 0.779416 0.605707
0.904875 0.781186 0.593561
0.919738 0.780728 0.579614
0.926726 0.782010 0.586542
0.932372 0.783139 0.593805
0.936950 0.784298 0.601587
0.940124 0.783841 0.609216
0.942351 0.782315 0.616480
0.944030 0.781491 0.624659
0.751125 0.816739 0.738521
0.752499 0.817472 0.740322
0.754238 0.818418 0.742580
0.757626 0.820127 0.746975
0.762722 0.822660 0.753567
0.769345 0.825895 0.762020
0.777371 0.829923 0.772122
0.786648 0.834684 0.783658
0.797055 0.840146 0.796384
0.805997 0.845365 0.806088
0.812985 0.850004 0.812345
0.820218 0.854734 0.818753
0.827543 0.859464 0.825223
0.834836 0.864103 0.831632
0.834775 0.861601 0.826535
0.827939 0.851225 0.808682
0.820798 0.838621 0.786862
0.813352 0.823209 0.760372
0.803006 0.802426 0.728420
0.787106 0.773098 0.691188
0.775784 0.745388 0.656062
0.809689 0.761379 0.649744
0.842252 0.775875 0.644678
0.867918 0.784604 0.638117
0.888365 0.789548 0.630823
0.904936 0.791714 0.622431
0.918517 0.791989 0.613275
0.926726 0.792630 0.614740
0.931701 0.794003 0.623072
0.935607 0.795499 0.631983
0.938537 0.796963 0.641047
0.940093 0.795956 0.649409
0.759731 0.824796 0.749722
0.760891 0.825437 0.751278
0.762478 0.826261 0.753292
0.765530 0.827726 0.757229
0.770108 0.829923 0.763149
0.776089 0.832731 0.770657
0.783291 0.836210 0.779660
0.791653 0.840330 0.789975
0.801114 0.845090 0.801480
0.811215 0.850370 0.813504
0.817380 0.854398 0.818967
0.823819 0.858549 0.824643
0.830350 0.862730 0.830411
0.836942 0.866850 0.836179
0.843412 0.870878 0.841855
0.839902 0.865293 0.831785
0.833768 0.855863 0.815305
0.827512 0.844511 0.795407
0.821134 0.830838 0.771389
0.811856 0.812100 0.742794
0.798184 0.786252 0.709285
0.788663 0.761685 0.677058
0.817411 0.773648 0.670161
0.847745 0.787259 0.666712
0.871641 0.795529 0.661799
0.890440 0.800351 0.656855
0.905577 0.802701 0.651331
0.917815 0.803555 0.645991
0.926604 0.804044 0.645045
0.930663 0.805753 0.654841
0.933623 0.807553 0.664942
0.935546 0.809812 0.676234
0.768490 0.832822 0.761013
0.769467 0.833310 0.762295
0.770718 0.833890 0.763882
0.773404 0.835080 0.767300
0.777462 0.836942 0.772457
0.782834 0.839353 0.779171
0.789364 0.842344 0.787259
0.796994 0.845975 0.796628
0.805600 0.850156 0.807034
0.815000 0.854856 0.818235
0.822416 0.859068 0.826108
0.828153 0.862699 0.831174
0.833982 0.866361 0.836271
0.839841 0.870024 0.841428
0.845670 0.873625 0.846525
0.850462 0.876280 0.850187
0.845212 0.869230 0.837644
0.839780 0.860716 0.822507
0.834287 0.850553 0.804410
0.828763 0.838407 0.782681
0.820493 0.821561 0.757046
0.808621 0.798672 0.726864
0.800504 0.776699 0.697353
0.824460 0.785031 0.689570
0.852598 0.797696 0.687282
0.874723 0.805478 0.683711
0.892058 0.810269 0.680842
0.905852 0.812955 0.677974
0.916838 0.814328 0.675898
0.925505 0.814755 0.674281
0.929076 0.816648 0.683955
0.931060 0.819242 0.696071
0.775845 0.839475 0.770352
0.776730 0.839872 0.771450
0.777890 0.840421 0.772946
0.780362 0.841489 0.776059
0.784054 0.843076 0.780697
0.788937 0.845182 0.786770
0.794888 0.847837 0.794095
0.801816 0.850980 0.802548
0.809720 0.854643 0.812070
0.818326 0.858793 0.822324
0.827115 0.863218 0.832578
0.832212 0.866423 0.837003
0.837400 0.869627 0.841581
0.842679 0.872892 0.846220
0.847929 0.876097 0.850797
0.853117 0.879271 0.855375
0.854795 0.879240 0.854612
0.850095 0.872831 0.843137
0.845304 0.865202 0.829435
0.840604 0.856229 0.813107
0.836057 0.845609 0.793698
0.828763 0.830625 0.770962
0.818753 0.810727 0.744442
0.812039 0.791379 0.717983
0.831296 0.796048 0.708492
0.857298 0.807858 0.707393
0.877714 0.815305 0.705409
0.893553 0.820066 0.704463
0.905943 0.822934 0.703792
0.915618 0.824552 0.703700
0.923003 0.825772 0.705409
0.926879 0.827939 0.713558
0.783291 0.846036 0.779690
0.784115 0.846433 0.780728
0.785214 0.846860 0.782071
0.787411 0.847776 0.784848
0.790799 0.849149 0.789029
0.795193 0.850980 0.794461
0.800626 0.853269 0.801144
0.807004 0.856016 0.808865
0.814206 0.859220 0.817533
0.822080 0.862852 0.826871
0.830442 0.866850 0.836637
0.836576 0.870176 0.843046
0.841184 0.873014 0.847074
0.845853 0.875853 0.851102
0.850523 0.878660 0.855192
0.855131 0.881437 0.859220
0.859709 0.884184 0.863249
0.858793 0.881987 0.858976
0.854643 0.876249 0.848508
0.850523 0.869474 0.836118
0.846555 0.861601 0.821500
0.842863 0.852384 0.804257
0.836515 0.839139 0.784207
0.828092 0.821775 0.760800
0.822477 0.804746 0.737179
0.838468 0.807462 0.728206
0.862272 0.818448 0.728267
0.880797 0.825467 0.727779
0.894957 0.829892 0.727871
0.905821 0.832853 0.729000
0.914000 0.835080 0.731746
0.919860 0.837339 0.736965
0.789548 0.851499 0.787381
0.790311 0.851835 0.788327
0.791318 0.852232 0.789578
0.793362 0.853056 0.792111
0.796475 0.854276 0.795987
0.800595 0.855894 0.801053
0.805661 0.857969 0.807218
0.811582 0.860410 0.814389
0.818296 0.863310 0.822416
0.825681 0.866575 0.831144
0.833433 0.870146 0.840238
0.841062 0.873869 0.848966
0.845151 0.876341 0.852537
0.849332 0.878874 0.856168
0.853544 0.881376 0.859861
0.857694 0.883879 0.863493
0.861814 0.886351 0.867124
0.865843 0.888762 0.870695
0.863066 0.885069 0.863890
0.859495 0.880003 0.854551
0.856016 0.874113 0.843565
0.852750 0.867277 0.830655
0.849851 0.859403 0.815488
0.844511 0.847929 0.798062
0.837705 0.833158 0.777920
0.833280 0.818509 0.757412
0.845945 0.819181 0.748348
0.867308 0.829099 0.749142
0.883696 0.835477 0.749691
0.896117 0.839811 0.751339
0.905333 0.843107 0.754849
0.911894 0.846159 0.760494
0.795590 0.856687 0.794766
0.796323 0.856992 0.795651
0.797208 0.857298 0.796780
0.799100 0.858000 0.799100
0.801968 0.859068 0.802640
0.805814 0.860533 0.807309
0.810483 0.862364 0.813046
0.816068 0.864561 0.819730
0.822354 0.867185 0.827268
0.829221 0.870115 0.835355
0.836545 0.873350 0.843900
0.843931 0.876829 0.852476
0.849180 0.879606 0.857847
0.852873 0.881834 0.861143
0.856657 0.884062 0.864378
0.860410 0.886290 0.867674
0.864103 0.888487 0.870939
0.867735 0.890623 0.874174
0.870237 0.891844 0.875822
0.867124 0.887999 0.868711
0.864103 0.883574 0.860441
0.861204 0.878538 0.850736
0.858610 0.872740 0.839475
0.856474 0.866117 0.826352
0.852079 0.856260 0.811429
0.846738 0.843839 0.794217
0.843198 0.831205 0.776333
0.852964 0.830167 0.767178
0.871794 0.838895 0.768429
0.886198 0.844877 0.770321
0.896910 0.849241 0.773465
0.904387 0.853086 0.779294
0.801083 0.861357 0.801358
0.801724 0.861601 0.802152
0.802609 0.861906 0.803220
0.804349 0.862547 0.805386
0.807126 0.863554 0.808774
0.810788 0.864866 0.813260
0.815305 0.866606 0.818784
0.820676 0.868681 0.825193
0.826749 0.871122 0.832425
0.833371 0.873899 0.840269
0.840330 0.876890 0.848386
0.847379 0.880125 0.856504
0.854002 0.883330 0.863981
0.857359 0.885283 0.866911
0.860716 0.887266 0.869871
0.864012 0.889220 0.872770
0.867308 0.891173 0.875700
0.870573 0.893065 0.878569
0.873716 0.894957 0.881468
0.874418 0.894743 0.880735
0.871824 0.891478 0.874601
0.869322 0.887755 0.867491
0.867002 0.883543 0.859251
0.865049 0.878782 0.849668
0.863554 0.873350 0.838468
0.859953 0.864988 0.825772
0.855924 0.854765 0.811276
0.853361 0.844144 0.796170
0.860624 0.842130 0.787625
0.876646 0.849546 0.789303
0.888731 0.855131 0.792599
0.897398 0.859556 0.797513
0.806973 0.866148 0.808408
0.807584 0.866361 0.809110
0.808347 0.866636 0.810086
0.810025 0.867216 0.812131
0.812619 0.868101 0.815366
0.816098 0.869322 0.819577
0.820401 0.870848 0.824735
0.825406 0.872709 0.830777
0.831113 0.874876 0.837552
0.837369 0.877379 0.844938
0.843839 0.880095 0.852476
0.850401 0.882994 0.860044
0.856870 0.885954 0.867369
0.861265 0.888243 0.871885
