data/fiter_cube/10491141/1023208/file.cube
# Created by Adobe Lightroom plugin Export LUT (1.17.0)
# www.johnrellis.com/lightroom/exportlut.htm
# Preset: 莫兰迪丛林_07 云集
# Color profile: C:\Program Files (x86)\Common Files\Adobe\Color\Profiles\Recommended\AdobeRGB1998.icc
LUT_3D_SIZE 8
DOMAIN_MIN 0.000000 0.000000 0.000000
DOMAIN_MAX 0.903226 0.903226 0.903226
0.069123 0.076112 0.088075
0.336889 0.049104 0.068910
0.727749 0.049744 0.000000
0.843076 0.266453 0.000000
0.908476 0.380957 0.000000
0.945892 0.449165 0.000000
0.970306 0.494667 0.000000
0.986725 0.526055 0.000000
0.113497 0.188907 0.133608
0.210056 0.207767 0.144900
0.735164 0.322850 0.000000
0.842832 0.367803 0.000000
0.906432 0.429938 0.000000
0.943877 0.474617 0.000000
0.968933 0.510460 0.000000
0.985595 0.538293 0.000000
0.450385 0.571679 0.396551
0.577935 0.625727 0.515282
0.566400 0.513695 0.357763
0.834470 0.587671 0.000000
0.900694 0.577661 0.000000
0.937011 0.575311 0.090211
0.962554 0.584863 0.159335
0.979248 0.595361 0.211185
0.648310 0.713832 0.607233
0.680842 0.731655 0.646479
0.748074 0.781216 0.716884
0.694209 0.659998 0.544762
0.857633 0.694759 0.389288
0.923461 0.696040 0.350530
0.947784 0.679957 0.363348
0.964385 0.675044 0.389044
0.719142 0.785489 0.696010
0.734829 0.793851 0.716548
0.778866 0.820157 0.770504
0.807218 0.834958 0.786618
0.752316 0.731899 0.639033
0.859892 0.751644 0.560662
0.926909 0.758480 0.520897
0.945861 0.752102 0.542382
0.759731 0.824796 0.749722
0.770108 0.829923 0.763149
0.801114 0.845090 0.801480
0.830350 0.862730 0.830411
0.833768 0.855863 0.815305
0.798184 0.786252 0.709285
0.871641 0.795529 0.661799
0.926604 0.804044 0.645045
0.789548 0.851499 0.787381
0.796475 0.854276 0.795987
0.818296 0.863310 0.822416
0.845151 0.876341 0.852537
0.861814 0.886351 0.867124
0.856016 0.874113 0.843565
0.837705 0.833158 0.777920
0.883696 0.835477 0.749691
0.811643 0.870085 0.813870
0.817166 0.871885 0.820645
0.835050 0.878233 0.842161
0.859648 0.888518 0.870573
0.872587 0.895384 0.883146
0.882689 0.901305 0.892363
0.876097 0.891356 0.872557
0.870085 0.871427 0.838224
0.054170 0.099367 0.186069
0.357641 0.000000 0.222049
0.698573 0.163638 0.181033
0.824613 0.349248 0.162631
0.894224 0.440650 0.147036
0.934234 0.494759 0.161807
0.961120 0.532006 0.192447
0.979278 0.557092 0.222538
0.099794 0.203799 0.185428
0.314977 0.314946 0.295232
0.714229 0.373419 0.218143
0.828367 0.424842 0.170047
0.894743 0.476967 0.150729
0.933562 0.515648 0.168093
0.960082 0.545403 0.199161
0.978180 0.567315 0.231418
0.452125 0.564294 0.420661
0.584100 0.621454 0.543969
0.586206 0.546807 0.444831
0.824949 0.618311 0.305303
0.887602 0.602411 0.277562
0.926329 0.600397 0.275700
0.953674 0.606531 0.289281
0.972320 0.614466 0.309911
0.648310 0.710323 0.614008
0.680781 0.728817 0.652674
0.748287 0.779263 0.726040
0.693263 0.664424 0.569024
0.851713 0.702327 0.448280
0.913603 0.703822 0.426459
0.940002 0.689662 0.427527
0.958373 0.685359 0.442451
0.720150 0.784451 0.700832
0.734859 0.792447 0.719783
0.779110 0.818723 0.774319
0.809476 0.836790 0.794797
0.751308 0.732967 0.647547
0.857877 0.755215 0.580529
0.922210 0.764401 0.555505
0.941711 0.757321 0.570214
0.759792 0.823819 0.751705
0.769223 0.828305 0.763638
0.799466 0.843381 0.800717
0.830503 0.862150 0.832212
0.835142 0.857176 0.820340
0.798184 0.787686 0.715602
0.871153 0.797910 0.671534
0.924315 0.807095 0.659815
0.788876 0.850584 0.787533
0.795377 0.853117 0.795560
0.817075 0.862211 0.821653
0.845151 0.875975 0.853330
0.862211 0.886381 0.868345
0.856687 0.874815 0.846311
0.837186 0.833402 0.780362
0.883299 0.836210 0.753079
0.810727 0.869535 0.813291
0.816312 0.871397 0.820096
0.834226 0.877745 0.841520
0.858946 0.888121 0.869963
0.873411 0.895842 0.884398
0.883177 0.901610 0.893278
0.876585 0.891875 0.874113
0.870115 0.871794 0.839658
0.000000 0.211124 0.466377
0.322057 0.165774 0.540307
0.699855 0.349157 0.512627
0.766232 0.472724 0.477119
0.853544 0.547845 0.474067
0.900267 0.596612 0.483497
0.933074 0.620172 0.483009
0.955383 0.633722 0.480873
0.295140 0.389593 0.447730
0.409216 0.422889 0.531426
0.678676 0.475471 0.535119
0.771756 0.522728 0.496834
0.853330 0.574395 0.486732
0.900023 0.609064 0.487678
0.932555 0.628382 0.486000
0.954620 0.640681 0.485420
0.422614 0.546838 0.476814
0.525719 0.585016 0.530755
0.637507 0.620691 0.586725
0.788388 0.650446 0.556756
0.856229 0.651484 0.529015
0.899718 0.656123 0.514611
0.930785 0.661799 0.508141
0.951781 0.667720 0.509087
0.626276 0.692836 0.604334
0.660853 0.711360 0.642359
0.740291 0.766995 0.734768
0.703090 0.687984 0.632868
0.845182 0.735592 0.594079
0.892607 0.730770 0.583154
0.921294 0.722347 0.574975
0.941863 0.719142 0.574548
0.709834 0.775570 0.696040
0.726589 0.784695 0.717006
0.774014 0.812711 0.775387
0.821317 0.847227 0.822416
0.756649 0.745754 0.683070
0.858244 0.772091 0.642359
0.912078 0.783505 0.641596
0.930816 0.773953 0.643885
0.756252 0.820462 0.752193
0.766659 0.825376 0.765194
0.797086 0.840726 0.801633
0.832059 0.861601 0.838956
0.841642 0.863249 0.837736
0.800076 0.794369 0.737667
0.871183 0.807889 0.705531
0.917540 0.819486 0.709316
0.788113 0.849577 0.789670
0.794888 0.852262 0.797848
0.816037 0.861204 0.822660
0.845945 0.875639 0.856474
0.864012 0.887083 0.872740
0.860594 0.878691 0.857053
0.839384 0.838437 0.794583
0.884215 0.843442 0.773465
0.808743 0.868711 0.812741
0.813657 0.870298 0.818601
0.831662 0.876646 0.839780
0.856992 0.887175 0.868498
0.874418 0.896208 0.886534
0.884306 0.902281 0.895445
0.878630 0.894041 0.879698
0.871489 0.874632 0.846921
0.324651 0.391913 0.631312
0.426246 0.394446 0.656275
0.683345 0.412482 0.707546
0.783780 0.568597 0.658564
0.820188 0.592920 0.614740
0.862272 0.649470 0.629236
0.901915 0.679225 0.635706
0.928191 0.695125 0.636957
0.468177 0.521630 0.623468
0.497414 0.514397 0.649348
0.680262 0.519402 0.708003
0.776150 0.602411 0.666011
0.812100 0.618830 0.628321
0.862791 0.660060 0.634302
0.901762 0.685725 0.638819
0.928252 0.698817 0.637934
0.530602 0.615198 0.616541
0.572320 0.625605 0.629389
0.660182 0.659510 0.689631
0.754330 0.665766 0.677455
0.813107 0.677119 0.657710
0.866423 0.696986 0.654505
0.902525 0.711238 0.654719
0.927672 0.716945 0.649744
0.602899 0.679469 0.628107
0.629297 0.688380 0.644038
0.693812 0.724544 0.694270
0.730312 0.728481 0.705226
0.828885 0.755489 0.700587
0.869902 0.750027 0.685878
0.902037 0.748531 0.677485
0.925322 0.748318 0.672938
0.687861 0.756649 0.681758
0.703670 0.765225 0.700008
0.751339 0.793729 0.756130
0.811582 0.835904 0.821897
0.765438 0.764462 0.729763
0.861082 0.797482 0.719936
0.897612 0.800015 0.721981
0.917845 0.793454 0.718227
0.746578 0.812772 0.747799
0.757107 0.818051 0.760464
0.787625 0.833494 0.795804
0.828305 0.856657 0.840452
0.852415 0.873045 0.860288
0.805112 0.806058 0.769070
0.873259 0.824369 0.753628
0.909728 0.836362 0.766323
0.783413 0.846250 0.788907
0.790158 0.849058 0.796750
0.811429 0.858183 0.820890
0.840879 0.872465 0.853025
0.865110 0.887053 0.876982
0.867124 0.885039 0.871946
0.842710 0.845670 0.813626
0.885985 0.853422 0.799954
0.807462 0.867948 0.814542
0.812253 0.869566 0.820066
0.827573 0.874998 0.837278
0.851560 0.884672 0.863706
0.874907 0.896117 0.888487
0.885313 0.902800 0.897734
0.881865 0.897307 0.887480
0.873564 0.878752 0.856992
0.507744 0.538293 0.715328
0.539910 0.540215 0.726864
0.651392 0.542107 0.764279
0.778408 0.588556 0.773953
0.831601 0.660517 0.735378
0.853696 0.675990 0.706233
0.871611 0.721340 0.725185
0.901915 0.748623 0.740261
0.562005 0.597040 0.709255
0.574029 0.592432 0.721523
0.657130 0.594598 0.759152
0.776669 0.620081 0.776699
0.827634 0.675105 0.738766
0.850553 0.685847 0.710628
0.872282 0.726650 0.728115
0.902190 0.751583 0.741634
0.607935 0.650782 0.679988
0.625544 0.660121 0.691981
0.666285 0.676356 0.741695
0.768734 0.690150 0.781521
0.815183 0.713954 0.748257
0.839139 0.716793 0.725734
0.874540 0.743496 0.737087
0.903349 0.760616 0.745052
0.634516 0.712795 0.703243
0.647974 0.716426 0.708766
0.689876 0.730526 0.728908
0.752407 0.761105 0.778622
0.797543 0.755795 0.759121
0.841825 0.762539 0.752804
0.879454 0.771359 0.752346
0.906371 0.775570 0.749599
0.674006 0.748836 0.706966
0.685664 0.753079 0.714473
0.723445 0.771603 0.743069
0.775601 0.802579 0.789731
0.785031 0.792599 0.779355
0.854795 0.814878 0.784512
0.884001 0.809140 0.774929
0.906706 0.806943 0.770474
0.726619 0.799222 0.735927
0.736324 0.802304 0.745266
0.766262 0.816709 0.777890
0.808286 0.841184 0.823026
0.848936 0.869535 0.863188
0.811246 0.818051 0.797971
0.878172 0.842741 0.799954
0.902831 0.847715 0.807919
0.774716 0.840085 0.785000
0.780972 0.842618 0.791958
0.801389 0.851530 0.814237
0.830228 0.865599 0.844633
0.859556 0.882109 0.874296
0.874937 0.892302 0.886473
0.846555 0.853300 0.832486
0.888945 0.864439 0.826902
0.803616 0.865751 0.814572
0.808164 0.867277 0.819516
0.822843 0.872526 0.835386
0.844480 0.881315 0.858152
0.867857 0.892271 0.882139
0.884825 0.902251 0.898589
0.885832 0.901213 0.895842
0.875883 0.883177 0.867460
0.602930 0.629694 0.777340
0.616052 0.629877 0.783108
0.665644 0.629755 0.802457
0.762356 0.630182 0.833371
0.827390 0.678035 0.810452
0.859556 0.729091 0.789487
0.875914 0.746548 0.778378
0.889952 0.779904 0.794369
0.621149 0.653895 0.772549
0.628443 0.651606 0.778561
0.670039 0.651545 0.798337
0.758999 0.652613 0.829923
0.825193 0.692470 0.811551
0.857359 0.736721 0.791653
0.874388 0.751522 0.780697
0.888914 0.783841 0.797024
0.656184 0.698939 0.754757
0.664729 0.702907 0.762997
0.684840 0.703395 0.787411
0.752102 0.711666 0.821012
0.820432 0.734768 0.817380
0.851347 0.760372 0.799527
0.870085 0.768185 0.789181
0.885771 0.797543 0.806455
0.672084 0.732265 0.749172
0.680110 0.734157 0.751705
0.706905 0.742397 0.761746
0.750362 0.766842 0.806546
0.815915 0.782620 0.826963
0.843626 0.789639 0.810086
0.863981 0.792264 0.802304
0.886625 0.812711 0.815702
0.691341 0.778012 0.766934
0.699367 0.779812 0.770047
0.725399 0.786557 0.780972
0.762356 0.799161 0.799252
0.807218 0.820005 0.832212
0.833402 0.814725 0.818448
0.866300 0.820127 0.818296
0.891752 0.827298 0.821653
0.724025 0.799100 0.765743
0.731350 0.801633 0.770535
0.754147 0.810239 0.785977
0.787015 0.826291 0.810697
0.823545 0.847532 0.841825
0.828489 0.840146 0.833829
0.876707 0.856474 0.841276
0.896025 0.853513 0.837522
0.765133 0.835904 0.787655
0.770687 0.837949 0.792416
0.787747 0.844358 0.806973
0.815640 0.855955 0.833280
0.846403 0.873014 0.863462
0.874174 0.891630 0.889494
0.853239 0.863676 0.853635
0.893370 0.878050 0.856809
0.798581 0.863005 0.814206
0.802853 0.864439 0.818631
0.816709 0.869444 0.832883
0.837339 0.877714 0.853635
0.860044 0.888090 0.875944
0.880766 0.899321 0.895995
0.890929 0.905913 0.904509
0.879423 0.888945 0.879637
0.659022 0.688991 0.823301
0.666651 0.689601 0.826658
0.693263 0.689296 0.836698
0.747585 0.690883 0.853574
0.824216 0.706386 0.866087
0.861051 0.749111 0.843259
0.878691 0.784848 0.831785
0.890227 0.805325 0.832609
0.665522 0.699855 0.819059
0.671687 0.699977 0.822507
0.695766 0.700069 0.833005
0.746639 0.701930 0.850370
0.821836 0.714839 0.864561
0.858885 0.753017 0.842771
0.877073 0.785794 0.831174
0.889372 0.805203 0.831815
0.696681 0.739254 0.810086
0.702663 0.741360 0.814359
0.710597 0.735714 0.825986
0.750484 0.740169 0.844480
0.819272 0.749142 0.864225
0.856199 0.776364 0.847501
0.874815 0.801053 0.837644
0.888182 0.816892 0.838834
0.708644 0.758541 0.792142
0.713405 0.759457 0.793240
0.731685 0.770504 0.809506
0.758480 0.780392 0.835080
0.811795 0.790677 0.860319
0.853605 0.807340 0.855528
0.872129 0.821469 0.846830
0.886503 0.831693 0.847562
0.719631 0.790555 0.800931
0.724269 0.791226 0.802029
0.740261 0.794461 0.806790
0.764889 0.800931 0.815763
0.800870 0.819394 0.847715
0.849058 0.832517 0.862242
0.868070 0.838468 0.853635
0.884672 0.846708 0.856107
0.736690 0.822354 0.811551
0.741604 0.823575 0.813626
0.757595 0.827787 0.820615
0.781674 0.834745 0.831754
0.809964 0.843168 0.844877
0.844663 0.859190 0.868803
0.865873 0.859251 0.864103
0.885924 0.865904 0.868193
0.764645 0.838682 0.811917
0.769436 0.840238 0.814878
0.784024 0.844724 0.823697
0.805783 0.852445 0.837613
0.831205 0.863890 0.855406
0.857481 0.878172 0.875883
0.865110 0.878141 0.876493
0.892576 0.886564 0.880827
0.794339 0.863127 0.824033
0.798032 0.864286 0.826871
0.810941 0.868681 0.837034
0.828885 0.874968 0.851133
0.850584 0.883024 0.869078
0.872892 0.894499 0.889769
0.889860 0.905058 0.905211
0.884184 0.895750 0.892393
0.706783 0.739376 0.855528
0.711177 0.739742 0.857267
0.726375 0.739651 0.862547
0.758846 0.742245 0.872221
0.811093 0.748898 0.884642
0.863371 0.771267 0.887205
0.882506 0.805600 0.870085
0.891661 0.833799 0.866484
0.710719 0.746029 0.853391
0.714809 0.746456 0.855192
0.729122 0.746700 0.860777
0.759579 0.748898 0.870573
0.810025 0.755215 0.883330
0.862119 0.775509 0.886839
0.881834 0.807858 0.870390
0.891295 0.835416 0.867094
0.732601 0.773373 0.847410
0.733303 0.771908 0.849424
0.738552 0.767636 0.855680
0.765072 0.771786 0.866819
0.808835 0.777554 0.880278
0.859281 0.792142 0.886748
0.880522 0.819028 0.873411
0.890501 0.842374 0.870298
0.736233 0.785946 0.834318
0.741024 0.788479 0.837217
0.756985 0.796201 0.846616
0.772763 0.798459 0.860410
0.807279 0.805142 0.875578
0.855924 0.816190 0.887755
0.879301 0.836179 0.878843
0.889616 0.853025 0.875425
0.743893 0.805142 0.830442
0.747677 0.806058 0.831510
0.758480 0.807889 0.834043
0.776425 0.814572 0.844572
0.805753 0.827848 0.867582
0.848264 0.838590 0.886442
0.878050 0.854063 0.885191
0.888792 0.865171 0.881529
0.754391 0.832059 0.838071
0.757534 0.832395 0.838834
0.768276 0.833951 0.841764
0.785672 0.837064 0.847196
0.808255 0.842496 0.855314
0.841611 0.859861 0.880217
0.877806 0.872831 0.892973
0.888762 0.878935 0.889067
0.771786 0.856291 0.845609
0.774990 0.856962 0.846921
0.785855 0.859434 0.851438
0.803952 0.864286 0.859556
0.827024 0.871153 0.870237
0.850156 0.877806 0.880430
0.873442 0.888060 0.895293
0.889006 0.891539 0.896147
0.794278 0.868162 0.844846
0.797208 0.868833 0.846403
0.807431 0.871427 0.852079
0.824399 0.876280 0.861814
0.844694 0.882902 0.874022
0.864836 0.890990 0.887083
0.882048 0.899687 0.899413
0.890532 0.903563 0.904692
