data/fiter_cube/95423152/1023248/file.cube
# Created by Adobe Lightroom plugin Export LUT (1.17.0)
# www.johnrellis.com/lightroom/exportlut.htm
# Preset: 黑暗巧克力情绪人像_07 云集
# Color profile: C:\Program Files (x86)\Common Files\Adobe\Color\Profiles\Recommended\AdobeRGB1998.icc
LUT_3D_SIZE 8
DOMAIN_MIN 0.000000 0.000000 0.000000
DOMAIN_MAX 0.903226 0.903226 0.903226
0.000000 0.000000 0.000000
0.077028 0.007507 0.018036
0.161501 0.004852 0.036347
0.259403 0.000000 0.027893
0.369024 0.000000 0.041749
0.498085 0.000000 0.058412
0.667475 0.000000 0.057710
0.834409 0.000000 0.068482
0.045106 0.068360 0.024109
0.078431 0.065675 0.024964
0.169650 0.076631 0.024720
0.268742 0.074311 0.018463
0.379309 0.068116 0.037537
0.510307 0.030335 0.052766
0.678218 0.000000 0.049531
0.839597 0.000000 0.066133
0.086610 0.132174 0.050843
0.109621 0.132387 0.046204
0.150759 0.122164 0.054108
0.265019 0.150851 0.030915
0.403693 0.174014 0.013123
0.536584 0.175174 0.019348
0.697322 0.173709 0.004944
0.848142 0.172793 0.032197
0.124727 0.198550 0.072023
0.140932 0.198642 0.070039
0.188632 0.197269 0.061830
0.223575 0.179629 0.073762
0.332830 0.203983 0.078187
0.581659 0.301579 0.000000
0.735134 0.309636 0.000000
0.866758 0.311040 0.000000
0.165835 0.266697 0.092897
0.177737 0.266300 0.090974
0.215152 0.264073 0.084260
0.266209 0.258579 0.076692
0.296696 0.237034 0.092256
0.399817 0.254154 0.105226
0.704158 0.387427 0.000000
0.889281 0.446448 0.000000
0.207919 0.340948 0.109377
0.217288 0.339422 0.107332
0.249271 0.337499 0.100923
0.298497 0.333379 0.088502
0.351537 0.326909 0.084962
0.380926 0.301610 0.103639
0.480629 0.309819 0.122255
0.815457 0.471168 0.036011
0.262089 0.445747 0.116457
0.271397 0.445014 0.114260
0.303288 0.443854 0.106966
0.353979 0.440894 0.092103
0.418280 0.436408 0.063050
0.478401 0.430915 0.067781
0.512779 0.401221 0.100160
0.618738 0.399847 0.133150
0.349248 0.618250 0.107881
0.359777 0.618280 0.104860
0.395392 0.617945 0.092287
0.453407 0.616815 0.062165
0.532647 0.619806 0.000000
0.619989 0.619745 0.000000
0.699825 0.620264 0.000000
0.747585 0.585657 0.059480
0.026184 0.034058 0.075135
0.086519 0.000000 0.080018
0.163790 0.027497 0.084596
0.247868 0.032959 0.092500
0.357671 0.000000 0.100465
0.488777 0.000000 0.106844
0.660853 0.000000 0.108766
0.832059 0.000000 0.116121
0.038666 0.072694 0.070436
0.084108 0.077699 0.076204
0.160830 0.084657 0.086061
0.254734 0.084169 0.092714
0.366033 0.078187 0.100313
0.498360 0.046509 0.106172
0.670802 0.000000 0.107301
0.837491 0.000000 0.115175
0.077943 0.134279 0.077516
0.110231 0.137575 0.089387
0.155215 0.131533 0.089967
0.272099 0.163607 0.092287
0.391974 0.172000 0.098024
0.526665 0.172488 0.101564
0.693477 0.168826 0.099245
0.847288 0.166629 0.106996
0.116365 0.202274 0.090791
0.143587 0.203281 0.103212
0.188693 0.201694 0.096223
0.228305 0.187015 0.101320
0.344732 0.216709 0.109865
0.577173 0.298680 0.083436
0.733333 0.306706 0.077333
0.866300 0.308598 0.089845
0.162692 0.269749 0.111849
0.179171 0.270207 0.116457
0.215885 0.268193 0.110445
0.268681 0.263279 0.101350
0.301091 0.242863 0.113130
0.410315 0.264256 0.126497
0.714595 0.396216 0.079866
0.888151 0.444953 0.035584
0.207492 0.344823 0.128603
0.218173 0.344457 0.128389
0.250187 0.342199 0.122225
0.299504 0.337621 0.111055
0.353735 0.330755 0.105684
0.383825 0.305547 0.120668
0.489723 0.317693 0.137392
0.821561 0.477333 0.098695
0.260746 0.450782 0.135317
0.270573 0.450660 0.133577
0.302831 0.449012 0.126497
0.353796 0.445167 0.113405
0.418372 0.439704 0.090547
0.480201 0.434089 0.091035
0.516381 0.405158 0.116121
0.628840 0.407630 0.145449
0.344762 0.621637 0.129458
0.355261 0.621302 0.126741
0.391394 0.620783 0.116274
0.450141 0.619318 0.094057
0.527459 0.618677 0.023499
0.617365 0.619593 0.000000
0.699336 0.621332 0.000000
0.748867 0.587579 0.086763
0.062501 0.047639 0.159457
0.101167 0.027955 0.163455
0.181216 0.000000 0.166964
0.274205 0.000000 0.170535
0.362646 0.000000 0.173983
0.462959 0.000000 0.179385
0.620783 0.000000 0.182864
0.810788 0.000000 0.193271
0.078462 0.093904 0.150423
0.104524 0.093202 0.154330
0.176394 0.081788 0.162966
0.268070 0.077943 0.167788
0.357488 0.084901 0.173098
0.457984 0.068238 0.176791
0.630579 0.000000 0.183902
0.816037 0.000000 0.193820
0.091585 0.143648 0.139864
0.114809 0.146731 0.143038
0.176455 0.163027 0.160372
0.254734 0.164401 0.165255
0.357275 0.166842 0.173556
0.485634 0.162387 0.180789
0.658198 0.143648 0.185428
0.829984 0.130159 0.194278
0.118685 0.202304 0.145235
0.136233 0.205295 0.148348
0.188144 0.218601 0.160067
0.244266 0.211215 0.162112
0.378882 0.252811 0.179873
0.538384 0.277836 0.185458
0.703487 0.285527 0.186435
0.851499 0.291661 0.194461
0.140749 0.273594 0.146487
0.155612 0.275792 0.148318
0.217166 0.282597 0.170199
0.272923 0.278019 0.162356
0.313359 0.260624 0.165896
0.442664 0.295659 0.183627
0.740810 0.421851 0.186252
0.877440 0.435523 0.194705
0.170138 0.350561 0.145754
0.191318 0.351568 0.154421
0.250797 0.355596 0.178714
0.300511 0.350805 0.168582
0.359716 0.343114 0.158175
0.394415 0.319615 0.166842
0.521233 0.345068 0.183627
0.836637 0.496040 0.190494
0.226444 0.456153 0.156588
0.244236 0.457008 0.164034
0.295018 0.458930 0.179904
0.348150 0.455055 0.168521
0.415259 0.448859 0.150881
0.481941 0.441535 0.144686
0.520623 0.412573 0.159640
0.650324 0.426307 0.183230
0.308537 0.626581 0.161318
0.325872 0.627070 0.168276
0.373480 0.626978 0.176028
0.434821 0.624292 0.160403
0.515465 0.623133 0.134463
0.610468 0.622400 0.086976
0.695155 0.622858 0.097505
0.747524 0.589410 0.143130
0.091676 0.062684 0.252018
0.123049 0.059724 0.254337
0.200595 0.013153 0.265385
0.294560 0.000000 0.269566
0.408515 0.000000 0.279637
0.526268 0.000000 0.285161
0.659937 0.000000 0.289189
0.807706 0.000000 0.288457
0.103182 0.108431 0.241306
0.126986 0.106294 0.244480
0.195529 0.094362 0.257237
0.289464 0.064546 0.265415
0.404486 0.000000 0.276738
0.519951 0.000000 0.281285
0.654658 0.000000 0.285008
0.804349 0.000000 0.283391
0.119265 0.167605 0.223514
0.139528 0.169589 0.225803
0.192813 0.174197 0.241978
0.281621 0.164828 0.258976
0.393652 0.157809 0.268284
0.496040 0.148623 0.267979
0.629572 0.098085 0.268345
0.796323 0.000000 0.271824
0.131441 0.219150 0.213230
0.149050 0.221469 0.215579
0.199405 0.231815 0.226017
0.282933 0.260044 0.255314
0.369055 0.256718 0.256992
0.487221 0.255009 0.262577
0.654322 0.250248 0.270787
0.825406 0.254917 0.283909
0.164126 0.274510 0.216464
0.177188 0.277379 0.219059
0.217411 0.288579 0.227878
0.280858 0.312688 0.242374
0.349950 0.304723 0.245792
0.521355 0.363378 0.276219
0.722316 0.409522 0.292088
0.857725 0.417517 0.302586
0.179019 0.353124 0.219486
0.190158 0.354559 0.220279
0.226596 0.363592 0.224247
0.301427 0.379278 0.242374
0.373144 0.372381 0.233158
0.420081 0.350500 0.234226
0.586328 0.400122 0.259739
0.863066 0.537102 0.310796
0.189273 0.462867 0.214939
0.199863 0.464363 0.213596
0.234379 0.470588 0.208469
0.338598 0.477852 0.243198
0.410773 0.469642 0.226535
0.487739 0.458900 0.210880
0.534508 0.431037 0.219760
0.696559 0.466133 0.246921
0.201694 0.634150 0.187991
0.227726 0.634302 0.194003
0.303044 0.635523 0.213291
0.405737 0.636439 0.240574
0.492775 0.633783 0.219394
0.594018 0.630823 0.188449
0.689082 0.628138 0.181735
0.747616 0.595087 0.207919
0.129519 0.085451 0.356329
0.154971 0.082521 0.359014
0.226200 0.063447 0.371252
0.329747 0.000000 0.394507
0.434699 0.000000 0.395087
0.570611 0.000000 0.412451
0.733028 0.000000 0.434119
0.849760 0.000000 0.425452
0.134554 0.124697 0.346990
0.156771 0.122347 0.349645
0.222141 0.111177 0.362463
0.323064 0.066651 0.387335
0.430121 0.000000 0.391363
0.567285 0.000000 0.409369
0.728328 0.000000 0.429755
0.847105 0.000000 0.421607
0.146090 0.190097 0.325811
0.163882 0.190921 0.329961
0.216526 0.188602 0.343450
0.305760 0.176852 0.367803
0.418799 0.151827 0.382086
0.559747 0.107027 0.401770
0.713100 0.000000 0.415015
0.837919 0.000000 0.408270
0.157412 0.247257 0.304509
0.173007 0.248875 0.306310
0.220127 0.254582 0.314183
0.294896 0.266636 0.344366
0.408057 0.261143 0.373816
0.550896 0.248417 0.390448
0.682918 0.220676 0.386297
0.817136 0.186496 0.378515
0.170535 0.299870 0.291173
0.184451 0.301884 0.293156
0.228000 0.310155 0.301610
0.297673 0.329778 0.321538
0.406622 0.371557 0.365606
0.518120 0.363134 0.364996
0.663142 0.357977 0.366613
0.825284 0.375036 0.385351
0.202792 0.360754 0.294652
0.214878 0.363104 0.297002
0.254276 0.372534 0.306371
0.311223 0.393286 0.320928
0.390906 0.430335 0.337163
0.481483 0.417853 0.336980
0.697627 0.502159 0.392950
0.865354 0.562524 0.440803
0.213077 0.468910 0.311711
0.223209 0.471168 0.312291
0.255467 0.478889 0.313237
0.306035 0.493385 0.310918
0.402167 0.513634 0.319554
0.503258 0.499733 0.300664
0.567193 0.469581 0.300267
0.766262 0.535363 0.353887
0.216373 0.639429 0.327245
0.226780 0.640864 0.325017
0.260197 0.645716 0.315465
0.309453 0.652674 0.288884
0.461219 0.657038 0.322423
0.570153 0.650172 0.290776
0.682643 0.641688 0.266636
0.752712 0.609033 0.285405
0.170871 0.105592 0.489326
0.193790 0.102022 0.492226
0.262089 0.081392 0.504753
0.361395 0.000000 0.526146
0.490150 0.000000 0.558282
0.603235 0.000000 0.551202
0.748836 0.000000 0.568994
0.883238 0.000000 0.572564
0.170932 0.140871 0.483528
0.192935 0.137789 0.486976
0.258488 0.124178 0.499458
0.356298 0.079988 0.520989
0.484962 0.000000 0.553704
0.600549 0.000000 0.549004
0.747616 0.000000 0.567315
0.882811 0.000000 0.571008
0.166415 0.208682 0.459998
0.185641 0.207401 0.463813
0.245304 0.201816 0.476783
0.338262 0.186770 0.500023
0.465156 0.145754 0.535241
0.589899 0.068666 0.540154
0.742123 0.000000 0.560357
0.878386 0.000000 0.563226
0.176455 0.275944 0.422126
0.191318 0.277195 0.426520
0.238376 0.280095 0.442939
0.317571 0.278630 0.469398
0.436225 0.268315 0.506554
0.574884 0.243076 0.527489
0.734218 0.208103 0.547997
0.865537 0.197543 0.544701
0.186587 0.341222 0.404395
0.200198 0.342168 0.405951
0.243198 0.346014 0.412482
0.309941 0.353826 0.427527
0.412970 0.372015 0.476173
0.567712 0.372839 0.522179
0.730404 0.365454 0.534844
0.843900 0.356970 0.516381
0.200595 0.399573 0.387976
0.212833 0.400916 0.389349
0.252171 0.407416 0.396124
0.315282 0.422004 0.411292
0.406867 0.450477 0.440681
0.561883 0.512108 0.504631
0.686488 0.499123 0.496956
0.822721 0.510918 0.506615
0.226841 0.479194 0.396582
0.237888 0.480995 0.398169
0.274601 0.488899 0.404730
0.334752 0.504326 0.417090
0.413031 0.530480 0.432410
0.522057 0.573510 0.447913
0.635554 0.551751 0.443549
0.838193 0.654994 0.550011
0.251225 0.643336 0.448188
0.261021 0.644953 0.448035
0.293034 0.650385 0.446143
0.343084 0.659419 0.439551
0.412909 0.672938 0.424506
0.546654 0.684535 0.431373
0.673884 0.668666 0.390661
0.762417 0.636286 0.398138
0.219211 0.134463 0.654383
0.240818 0.130861 0.657862
0.303990 0.111910 0.664149
0.396155 0.028107 0.675868
0.508995 0.000000 0.693416
0.638025 0.000000 0.713649
0.752071 0.000000 0.702998
0.877836 0.000000 0.704402
0.213535 0.161898 0.643366
0.234714 0.158877 0.646876
0.297398 0.144106 0.654139
0.388983 0.105257 0.666682
0.501091 0.000000 0.684382
0.630518 0.000000 0.705928
0.744198 0.000000 0.694728
0.871885 0.000000 0.697536
0.199710 0.231540 0.631220
0.220584 0.229374 0.633295
0.283116 0.220798 0.640131
0.375097 0.202457 0.653956
0.487953 0.163882 0.672663
0.620722 0.034394 0.697810
0.741573 0.000000 0.692683
0.873320 0.000000 0.697169
0.186587 0.313481 0.604700
0.203708 0.311498 0.607019
0.260563 0.305699 0.615534
0.353643 0.299016 0.632837
0.468727 0.283879 0.655787
0.606867 0.256779 0.686122
0.738521 0.218967 0.689906
0.872221 0.196841 0.692470
0.191897 0.386877 0.560235
0.206058 0.385077 0.559594
0.250797 0.381323 0.562127
0.324529 0.382696 0.586877
0.435218 0.382940 0.620874
0.578698 0.380377 0.658259
0.725765 0.367315 0.675929
0.865354 0.377020 0.680995
0.196902 0.463447 0.540368
0.210544 0.463569 0.541283
0.253574 0.464088 0.544823
0.319585 0.466468 0.554040
0.410681 0.471351 0.570550
0.560296 0.504875 0.625940
0.725765 0.527672 0.671534
0.858762 0.543908 0.674525
0.209598 0.536400 0.523491
0.222354 0.538140 0.525353
0.262486 0.541527 0.529046
0.325689 0.549279 0.537530
0.415167 0.562524 0.551537
0.543572 0.592065 0.581415
0.720241 0.662043 0.649836
0.819821 0.652369 0.639612
0.241245 0.649256 0.546685
0.253605 0.650507 0.547539
0.296941 0.659144 0.554437
0.365332 0.668605 0.561486
0.459266 0.680140 0.571191
0.565057 0.696681 0.580835
0.681147 0.721096 0.588769
0.786007 0.695918 0.577844
0.274022 0.189853 0.780270
0.290318 0.186923 0.781613
0.339696 0.172580 0.783261
0.416632 0.141909 0.788724
0.510826 0.053559 0.796414
0.618006 0.000000 0.806516
0.734249 0.000000 0.815274
0.845090 0.000000 0.809110
0.270787 0.209415 0.775601
0.287083 0.206973 0.777005
0.336584 0.194430 0.779324
0.413031 0.168215 0.784573
0.507347 0.110933 0.792721
0.614893 0.000000 0.803250
0.731411 0.000000 0.812406
0.842679 0.000000 0.806332
0.262181 0.267430 0.766384
0.278050 0.265293 0.767514
0.326940 0.255375 0.769375
0.405768 0.240726 0.777737
0.500206 0.208499 0.786160
0.607843 0.145144 0.796872
0.726986 0.000000 0.808835
0.840421 0.000000 0.803616
0.248539 0.344579 0.752743
0.265293 0.343877 0.754391
0.315007 0.337621 0.757412
0.393225 0.327886 0.765042
0.489326 0.310613 0.775601
0.599329 0.281285 0.788846
0.722713 0.234318 0.805692
0.839109 0.190188 0.801541
0.239933 0.427314 0.725948
0.255070 0.427008 0.728115
0.299779 0.423011 0.732998
0.373968 0.417243 0.744503
0.471931 0.409186 0.756863
0.585870 0.397559 0.773281
0.714839 0.384802 0.794278
0.837675 0.373754 0.797482
0.234073 0.511559 0.704433
0.245457 0.509941 0.703883
0.283848 0.504967 0.703456
0.346899 0.497719 0.705776
0.446174 0.499763 0.722927
0.578393 0.515648 0.751553
0.716762 0.535119 0.781582
0.841855 0.549462 0.796323
0.241672 0.604120 0.695277
0.253147 0.603418 0.695064
0.291112 0.601587 0.695216
0.355749 0.600610 0.697932
0.444099 0.601160 0.703578
0.558709 0.608728 0.714443
0.714870 0.653590 0.755093
0.839841 0.681605 0.786831
0.266331 0.701564 0.690242
0.277043 0.701289 0.689937
0.314488 0.701656 0.690272
0.378882 0.703883 0.692561
0.465431 0.707668 0.696254
0.573938 0.715114 0.702968
0.701747 0.733516 0.719783
0.838865 0.787411 0.772061
