data/fiter_cube/95423152/1023248/file.cube
# Created by Adobe Lightroom plugin Export LUT (1.17.0)
# www.johnrellis.com/lightroom/exportlut.htm
# Preset: 黑暗巧克力情绪人像_07 云集
# Color profile: C:\Program Files (x86)\Common Files\Adobe\Color\Profiles\Recommended\AdobeRGB1998.icc
LUT_3D_SIZE 5
DOMAIN_MIN 0.000000 0.000000 0.000000
DOMAIN_MAX 0.903226 0.903226 0.903226
0.000000 0.000000 0.000000
0.139071 0.009491 0.034821
0.312627 0.000000 0.030793
0.537163 0.000000 0.059113
0.834409 0.000000 0.068482
0.076509 0.115724 0.043519
0.132113 0.107454 0.044465
0.336675 0.146304 0.013153
0.564996 0.144015 0.032013
0.843992 0.132570 0.046540
0.145663 0.232731 0.082918
0.188846 0.231540 0.076356
0.260014 0.208347 0.083314
0.568109 0.313909 0.028016
0.877989 0.378393 0.000000
0.219425 0.362280 0.111879
0.250462 0.360174 0.105715
0.338231 0.352728 0.081209
0.407050 0.321386 0.105135
0.779843 0.462623 0.080079
0.349248 0.618250 0.107881
0.384253 0.618097 0.096376
0.492470 0.620111 0.005402
0.639673 0.620050 0.000000
0.747585 0.585657 0.059480
0.057130 0.047883 0.137881
0.157137 0.002686 0.144747
0.308080 0.011475 0.150149
0.499947 0.000000 0.161013
0.818784 0.000000 0.174350
0.081941 0.125643 0.122194
0.151888 0.140597 0.138277
0.303380 0.145876 0.150851
0.528466 0.134401 0.162875
0.831388 0.089052 0.173098
0.125154 0.238285 0.129458
0.190555 0.245853 0.150332
0.273777 0.228855 0.147860
0.605310 0.345708 0.162081
0.867674 0.367285 0.167056
0.195804 0.369451 0.144015
0.248905 0.371466 0.164401
0.337865 0.363134 0.145022
0.415290 0.332921 0.152651
0.797726 0.481147 0.166781
0.322393 0.623224 0.156161
0.366308 0.623194 0.161379
0.477150 0.621363 0.129488
0.632593 0.620783 0.054994
0.746029 0.587152 0.127016
0.110140 0.074189 0.302068
0.190738 0.059174 0.312566
0.361669 0.000000 0.329656
0.597925 0.000000 0.356451
0.828855 0.000000 0.355535
0.130159 0.165225 0.277928
0.186862 0.163912 0.290990
0.348943 0.135744 0.319158
0.577325 0.043336 0.341100
0.817014 0.000000 0.339422
0.151675 0.259129 0.251804
0.199588 0.267247 0.260014
0.342870 0.314031 0.308659
0.532341 0.304082 0.310277
0.824918 0.313603 0.332677
0.194827 0.378820 0.260014
0.229770 0.387304 0.264561
0.343328 0.420020 0.281621
0.464424 0.390265 0.273045
0.855253 0.561395 0.368322
0.204746 0.637537 0.261021
0.238315 0.641169 0.246159
0.430030 0.645838 0.278538
0.611261 0.637476 0.227146
0.750454 0.601617 0.244450
0.183200 0.111696 0.532738
0.253178 0.094423 0.542748
0.430610 0.000000 0.578241
0.645991 0.000000 0.593194
0.882902 0.000000 0.605890
0.175113 0.195926 0.509941
0.239719 0.188479 0.521141
0.412970 0.144106 0.561059
0.637690 0.000000 0.586145
0.881254 0.000000 0.601038
0.184756 0.319158 0.448707
0.230259 0.319432 0.454170
0.368994 0.326604 0.508812
0.611383 0.300542 0.563073
0.867613 0.294194 0.577325
0.204685 0.429969 0.417700
0.244083 0.435706 0.423713
0.358679 0.460761 0.449897
0.604913 0.551720 0.543267
0.822629 0.548821 0.541558
0.263188 0.644800 0.477729
0.294316 0.649805 0.477272
0.387182 0.666926 0.470192
0.574640 0.691859 0.465156
0.766720 0.647395 0.435767
0.274022 0.189853 0.780270
0.324437 0.177371 0.782528
0.461952 0.114015 0.792386
0.646723 0.000000 0.809659
0.845090 0.000000 0.809110
0.266087 0.251408 0.770260
0.316228 0.242649 0.772976
0.453803 0.205478 0.784237
0.639307 0.042481 0.802548
0.841825 0.000000 0.805325
0.244999 0.386908 0.740780
0.291844 0.381781 0.745235
0.428565 0.365057 0.759487
0.620264 0.328985 0.783993
0.837827 0.285374 0.799130
0.239139 0.536828 0.704524
0.276921 0.532799 0.703914
0.392767 0.523033 0.708370
0.610376 0.547539 0.750851
0.841032 0.583734 0.793790
0.266331 0.701564 0.690242
0.302373 0.701381 0.690028
0.419593 0.705592 0.694301
0.603937 0.718166 0.705715
0.838865 0.787411 0.772061
