data/fiter_cube/95423152/1023248/file.cube
# Created by Adobe Lightroom plugin Export LUT (1.17.0)
# www.johnrellis.com/lightroom/exportlut.htm
# Preset: 黑暗巧克力情绪人像_07 云集
# Color profile: C:\Program Files (x86)\Common Files\Adobe\Color\Profiles\Recommended\AdobeRGB1998.icc
LUT_3D_SIZE 32
DOMAIN_MIN 0.0 0.0 0.0
DOMAIN_MAX 1.0 1.0 1.0
0.000000 0.000000 0.000000
0.000000 0.000000 0.000000
0.002319 0.000763 0.000946
0.049744 0.003052 0.008148
0.077028 0.007507 0.018036
0.097169 0.008728 0.026764
0.117586 0.010956 0.031586
0.139071 0.009491 0.034821
0.161501 0.004852 0.036347
0.184665 0.000183 0.035859
0.208896 0.000000 0.034516
0.233768 0.000000 0.030793
0.259403 0.000000 0.027893
0.285832 0.000000 0.026703
0.312627 0.000000 0.030793
0.340124 0.000000 0.036683
0.369024 0.000000 0.041749
0.398840 0.000000 0.047730
0.429694 0.000000 0.051759
0.462318 0.000000 0.056184
0.498085 0.000000 0.058412
0.537163 0.000000 0.059113
0.578515 0.000000 0.059205
0.622065 0.000000 0.059327
0.667475 0.000000 0.057710
0.712734 0.000000 0.057465
0.755703 0.000000 0.059266
0.796414 0.000000 0.062989
0.834409 0.000000 0.068482
0.869047 0.000000 0.078157
0.900633 0.000000 0.089754
0.929320 0.000000 0.104433
0.000000 0.000000 0.000000
0.000000 0.000000 0.000000
0.003693 0.000519 0.000946
0.050477 0.004028 0.009125
0.077241 0.012085 0.017639
0.097536 0.016693 0.026093
0.118624 0.018280 0.030823
0.140108 0.017792 0.033967
0.162509 0.015320 0.035309
0.185946 0.008789 0.034852
0.210117 0.003754 0.033204
0.235142 0.000000 0.029419
0.260899 0.000000 0.026398
0.287419 0.000000 0.026246
0.314183 0.000000 0.031281
0.341955 0.000000 0.035798
0.370794 0.000000 0.041810
0.400671 0.000000 0.047791
0.431739 0.000000 0.051606
0.464607 0.000000 0.054932
0.500420 0.000000 0.057771
0.539391 0.000000 0.058717
0.580865 0.000000 0.059113
0.624506 0.000000 0.057893
0.669612 0.000000 0.057404
0.714778 0.000000 0.056001
0.757565 0.000000 0.058259
0.797971 0.000000 0.062593
0.835599 0.000000 0.069123
0.870115 0.000000 0.078309
0.901427 0.000000 0.090547
0.930022 0.000000 0.104860
0.002808 0.005341 0.001648
0.003632 0.007507 0.002533
0.008728 0.009033 0.002289
0.052338 0.016602 0.006958
0.078370 0.023224 0.016632
0.098726 0.028809 0.023865
0.119539 0.030365 0.029725
0.141238 0.030640 0.032715
0.163943 0.028717 0.033906
0.187289 0.023163 0.033356
0.211490 0.018891 0.031586
0.236576 0.012787 0.027649
0.262425 0.007599 0.024475
0.288670 0.003540 0.025330
0.315465 0.000000 0.030335
0.343420 0.000000 0.035767
0.372564 0.000000 0.040406
0.402472 0.000000 0.046448
0.433478 0.000000 0.051148
0.466316 0.000000 0.055116
0.502251 0.000000 0.057130
0.541283 0.000000 0.057862
0.582818 0.000000 0.058381
0.626246 0.000000 0.057496
0.671565 0.000000 0.055695
0.716213 0.000000 0.056306
0.758846 0.000000 0.058442
0.799130 0.000000 0.061769
0.836545 0.000000 0.069276
0.870848 0.000000 0.078523
0.902068 0.000000 0.090150
0.930541 0.000000 0.104738
0.021759 0.041749 0.011170
0.022736 0.042725 0.012146
0.030365 0.044984 0.011749
0.056336 0.042451 0.013367
0.076417 0.046509 0.018158
0.099947 0.054719 0.021393
0.121187 0.057221 0.027008
0.143160 0.056916 0.029969
0.166049 0.055848 0.029908
0.189761 0.053559 0.030060
0.213993 0.050721 0.027070
0.239231 0.048035 0.023865
0.265049 0.044953 0.020447
0.291203 0.041413 0.024414
0.318120 0.035248 0.029267
0.346166 0.029023 0.034394
0.375219 0.020905 0.040955
0.405432 0.009064 0.046662
0.436622 0.000000 0.050172
0.469673 0.000000 0.053864
0.506035 0.000000 0.055146
0.545068 0.000000 0.055634
0.586450 0.000000 0.056611
0.629603 0.000000 0.055604
0.674403 0.000000 0.053742
0.718624 0.000000 0.052613
0.760616 0.000000 0.056031
0.800473 0.000000 0.061463
0.837705 0.000000 0.067689
0.871672 0.000000 0.077333
0.902770 0.000000 0.089448
0.931182 0.000000 0.103944
0.045106 0.068360 0.024109
0.044739 0.068788 0.025086
0.053346 0.069032 0.023682
0.068238 0.069245 0.021698
0.078431 0.065675 0.024964
0.092592 0.064607 0.030335
0.121523 0.073396 0.024598
0.146548 0.076661 0.023957
0.169650 0.076631 0.024720
0.193484 0.076448 0.023438
0.218021 0.075929 0.021118
0.243565 0.075380 0.017487
0.268742 0.074311 0.018463
0.294896 0.073579 0.023224
0.321843 0.072297 0.027680
0.350072 0.070466 0.032502
0.379309 0.068116 0.037537
0.409430 0.064759 0.042878
0.440467 0.060304 0.047852
0.473884 0.049714 0.051087
0.510307 0.030335 0.052766
0.549493 0.004089 0.053468
0.590753 0.000000 0.053040
0.633906 0.000000 0.051514
0.678218 0.000000 0.049531
0.721950 0.000000 0.049928
0.763485 0.000000 0.051575
0.802853 0.000000 0.059144
0.839597 0.000000 0.066133
0.873259 0.000000 0.075654
0.904021 0.000000 0.088472
0.932097 0.000000 0.103426
0.059388 0.084413 0.033448
0.059846 0.084688 0.033326
0.064637 0.084810 0.032990
0.074800 0.085115 0.029969
0.088533 0.084871 0.028779
0.096437 0.080018 0.033692
0.108217 0.075837 0.038788
0.138430 0.085969 0.031434
0.171756 0.096315 0.018250
0.198215 0.098604 0.014252
0.222904 0.098665 0.011536
0.247654 0.098299 0.013367
0.272953 0.098024 0.016114
0.299199 0.097200 0.019684
0.326513 0.096864 0.023590
0.354772 0.096254 0.028962
0.384100 0.095064 0.034668
0.414282 0.093507 0.039460
0.445289 0.091493 0.044251
0.478706 0.088106 0.047761
0.515129 0.083650 0.048951
0.554253 0.077790 0.049012
0.585992 0.068055 0.047974
0.628870 0.055268 0.046265
0.673457 0.026154 0.042023
0.717525 0.000000 0.039979
0.759609 0.000000 0.042451
0.799435 0.000000 0.048646
0.836545 0.000000 0.060365
0.870665 0.000000 0.070283
0.901793 0.000000 0.083619
0.930236 0.025269 0.098878
0.067048 0.099855 0.038666
0.068940 0.099916 0.038514
0.073426 0.099947 0.038148
0.081971 0.099977 0.036316
0.094820 0.100282 0.032746
0.107332 0.098970 0.032837
0.113863 0.093233 0.039368
0.121462 0.086000 0.047028
0.153689 0.097047 0.036896
0.188357 0.109010 0.023651
0.225223 0.120882 0.008301
0.250126 0.120851 0.008759
0.275486 0.120699 0.012421
0.302007 0.120638 0.014435
0.329564 0.120699 0.018982
0.358312 0.120821 0.023713
0.387701 0.120729 0.029908
0.417975 0.119905 0.034272
0.448981 0.118837 0.038697
0.482399 0.117433 0.040681
0.518303 0.115175 0.043153
0.556481 0.112093 0.042481
0.596429 0.108461 0.039521
0.638056 0.103487 0.036378
0.681209 0.097810 0.033509
0.723842 0.092317 0.030549
0.764828 0.087160 0.032288
0.803677 0.082643 0.040803
0.839994 0.081636 0.055695
0.873442 0.085206 0.067903
0.903990 0.092775 0.081300
0.931975 0.105470 0.097658
0.076509 0.115724 0.043519
0.079286 0.115877 0.043214
0.083101 0.116152 0.041657
0.090913 0.116121 0.039826
0.102510 0.116152 0.036347
0.116030 0.116091 0.032471
0.127138 0.114321 0.037018
0.132113 0.107454 0.044465
0.137484 0.098207 0.055116
0.169741 0.109651 0.049561
0.206546 0.122866 0.036652
0.245884 0.136385 0.018830
0.281926 0.145663 0.004669
0.308812 0.145846 0.007141
0.336675 0.146304 0.013153
0.365667 0.146792 0.017121
0.395422 0.146822 0.021546
0.425757 0.146914 0.026123
0.457221 0.146731 0.029389
0.490700 0.145937 0.033906
0.526909 0.145327 0.033814
0.564996 0.144015 0.032013
0.605035 0.142550 0.027619
0.646296 0.140291 0.025635
0.688991 0.137697 0.020813
0.730800 0.135622 0.017456
0.770626 0.133394 0.020752
0.808682 0.132570 0.028992
0.843992 0.132570 0.046540
0.876555 0.134737 0.063813
0.906432 0.139742 0.078553
0.933806 0.147494 0.095460
0.086610 0.132174 0.050843
0.089143 0.132113 0.049866
0.092775 0.132296 0.049531
0.099641 0.132296 0.048951
0.109621 0.132387 0.046204
0.122621 0.132448 0.042176
0.135409 0.131716 0.042695
0.146517 0.130068 0.046967
0.150759 0.122164 0.054108
0.154543 0.112062 0.061585
0.185550 0.121767 0.059754
0.223667 0.135958 0.049256
0.265019 0.150851 0.030915
0.310430 0.167239 0.007141
0.344610 0.172854 0.004120
0.373907 0.173648 0.007233
0.403693 0.174014 0.013123
0.434485 0.174472 0.016632
0.466102 0.174563 0.020203
0.500114 0.174685 0.022095
0.536584 0.175174 0.019348
0.574762 0.175021 0.017151
0.614374 0.174716 0.014008
0.655451 0.174441 0.010407
0.697322 0.173709 0.004944
0.737850 0.172763 0.004181
0.776944 0.172396 0.004822
0.813748 0.172030 0.014160
0.848142 0.172793 0.032197
0.879911 0.174655 0.058167
0.909026 0.178195 0.074372
0.935821 0.184115 0.092134
0.096407 0.148867 0.057862
0.098543 0.148959 0.057649
0.101503 0.148989 0.057374
0.107759 0.148989 0.055970
0.117159 0.149020 0.053376
0.129030 0.149111 0.051209
0.142763 0.148928 0.047944
0.154879 0.147707 0.049195
0.166232 0.146090 0.053010
0.169619 0.137209 0.060334
0.171969 0.125551 0.066224
0.200839 0.133455 0.066163
0.240757 0.149081 0.060670
0.284306 0.165438 0.048341
0.331945 0.183352 0.025574
0.383001 0.201694 0.000000
0.413001 0.202274 0.000000
0.443977 0.202945 0.002014
0.475990 0.203616 0.005310
0.510185 0.204135 0.006012
0.546960 0.205173 0.003906
0.585199 0.206119 0.001068
0.625025 0.206790 0.000000
0.666072 0.207828 0.000000
0.706966 0.207919 0.000000
0.746395 0.208072 0.000000
0.784054 0.208316 0.000000
0.819730 0.208469 0.000000
0.852873 0.209262 0.015686
0.883421 0.210727 0.046967
0.911681 0.213352 0.069490
0.937774 0.217838 0.088197
0.105837 0.165927 0.062593
0.107759 0.165896 0.062501
0.110689 0.166018 0.062318
0.116365 0.166018 0.061585
0.125002 0.165927 0.060670
0.135897 0.165866 0.059113
0.148928 0.165682 0.055451
0.163027 0.165286 0.051942
0.174563 0.163577 0.055756
0.185794 0.161746 0.059541
0.188418 0.151919 0.064790
0.189609 0.139498 0.070710
0.215183 0.144778 0.073152
0.256840 0.161715 0.068330
0.302464 0.179660 0.061677
0.352209 0.198734 0.045289
0.406867 0.219364 0.010803
0.455360 0.233280 0.000000
0.487984 0.234104 0.000000
0.522637 0.235172 0.000000
0.559167 0.236851 0.000000
0.597253 0.238193 0.000000
0.636652 0.239506 0.000000
0.677089 0.241001 0.000000
0.716793 0.241917 0.000000
0.755001 0.242527 0.000000
0.791379 0.242985 0.000000
0.825711 0.243412 0.000000
0.857755 0.244053 0.000000
0.887388 0.245121 0.027680
0.914733 0.247227 0.062379
0.940063 0.250462 0.083192
0.115511 0.182925 0.067750
0.117281 0.182895 0.067292
0.119997 0.182895 0.066773
0.125185 0.182742 0.066529
0.133181 0.182650 0.065309
0.143130 0.182528 0.064302
0.155459 0.182223 0.062165
0.168948 0.181979 0.059358
0.182467 0.180880 0.058320
0.193698 0.179141 0.060883
0.205112 0.177218 0.063691
0.206638 0.166384 0.069490
0.205570 0.152407 0.074342
0.226169 0.153689 0.078950
0.268864 0.171756 0.075502
0.315770 0.190738 0.070039
0.366918 0.210971 0.060822
0.423102 0.232670 0.031891
0.485115 0.256229 0.000000
0.529625 0.264897 0.000000
0.566155 0.266789 0.000000
0.604273 0.268772 0.000000
0.643885 0.270939 0.000000
0.684138 0.273014 0.000000
0.723140 0.274479 0.000000
0.760555 0.275547 0.000000
0.796017 0.276158 0.000000
0.829618 0.276616 0.000000
0.860868 0.277104 0.000000
0.889769 0.277836 0.000244
0.916564 0.279210 0.045808
0.941405 0.281559 0.075563
0.124727 0.198550 0.072023
0.126314 0.198520 0.071962
0.128786 0.198611 0.071443
0.133761 0.198581 0.070832
0.140932 0.198642 0.070039
0.150484 0.198611 0.068635
0.161807 0.198398 0.066743
0.174563 0.197940 0.064698
0.188632 0.197269 0.061830
0.201114 0.195712 0.062348
0.212222 0.193698 0.064363
0.222385 0.190890 0.067659
0.223575 0.179629 0.073762
0.224643 0.167361 0.079377
0.240024 0.164462 0.085603
0.284092 0.183658 0.083314
0.332830 0.203983 0.078187
0.386328 0.225589 0.069856
0.445502 0.249088 0.052003
0.512169 0.275151 0.000000
0.581659 0.301579 0.000000
0.619623 0.303807 0.000000
0.658564 0.306157 0.000000
0.697566 0.308293 0.000000
0.735134 0.309636 0.000000
0.770932 0.310338 0.000000
0.804898 0.310887 0.000000
0.836820 0.311009 0.000000
0.866758 0.311040 0.000000
0.894408 0.311162 0.000000
0.920195 0.311864 0.020050
0.944121 0.313268 0.067628
0.135103 0.215885 0.077729
0.136751 0.215824 0.077638
0.138979 0.215824 0.077546
0.143435 0.215702 0.076661
0.150240 0.215732 0.075624
0.159030 0.215518 0.074434
0.169650 0.215305 0.072694
0.181521 0.214847 0.070527
0.194736 0.214054 0.068055
0.209232 0.213107 0.064576
0.220310 0.211246 0.067170
0.231449 0.208988 0.069368
0.240787 0.205417 0.072694
0.241855 0.194186 0.078584
0.243015 0.181857 0.084657
0.253574 0.175082 0.091768
0.298528 0.194980 0.090303
0.349371 0.216739 0.086122
0.405554 0.239994 0.078523
0.469123 0.265934 0.064057
0.539910 0.294347 0.013489
0.613611 0.323796 0.000000
0.673884 0.342931 0.000000
0.711330 0.344640 0.000000
0.747066 0.345556 0.000000
0.781216 0.345769 0.000000
0.813535 0.345617 0.000000
0.844022 0.345342 0.000000
0.872496 0.344732 0.000000
0.899016 0.344152 0.000000
0.923735 0.343999 0.000000
0.946838 0.344579 0.053986
0.145663 0.232731 0.082918
0.146792 0.232731 0.082856
0.148867 0.232700 0.082429
0.153079 0.232792 0.081880
0.159457 0.232609 0.080964
0.167636 0.232425 0.079896
0.177401 0.232059 0.078340
0.188846 0.231540 0.076356
0.201389 0.230838 0.073823
0.215030 0.229831 0.070771
0.228367 0.228397 0.068666
0.239353 0.226322 0.071534
0.250401 0.224063 0.073854
0.258946 0.219638 0.077272
0.260014 0.208347 0.083314
0.261265 0.196109 0.089479
0.270390 0.188357 0.096529
0.312566 0.205600 0.096651
0.365362 0.228916 0.092927
0.425360 0.254643 0.085817
0.493385 0.282994 0.071656
0.568109 0.313909 0.028016
0.644038 0.344976 0.000000
0.716060 0.374304 0.000000
0.759365 0.382238 0.000000
0.791745 0.381842 0.000000
0.822293 0.380957 0.000000
0.851072 0.379797 0.000000
0.877989 0.378393 0.000000
0.903227 0.376989 0.000000
0.926848 0.375921 0.000000
0.949065 0.375341 0.021088
0.155612 0.249699 0.088167
0.157046 0.249668 0.087800
0.158633 0.249516 0.087770
0.162570 0.249485 0.087282
0.168399 0.249271 0.086152
0.176150 0.248997 0.084901
0.185397 0.248569 0.083497
0.196078 0.247929 0.081392
0.207980 0.247196 0.079103
0.220920 0.246220 0.076295
0.234653 0.245090 0.072877
0.247105 0.243412 0.072786
0.258244 0.241276 0.075441
0.269535 0.239170 0.077455
0.277134 0.233982 0.081697
0.278447 0.222782 0.087800
0.279637 0.210452 0.093843
0.287205 0.201755 0.100649
0.326177 0.216159 0.102846
0.382147 0.241398 0.099428
0.445899 0.269261 0.092134
0.518822 0.300633 0.078004
0.596612 0.333501 0.040711
0.674159 0.366094 0.000000
0.743740 0.395026 0.000000
0.801694 0.418341 0.000000
0.830564 0.416449 0.000000
0.857847 0.414496 0.000000
0.883452 0.412177 0.000000
0.907591 0.409979 0.000000
0.930266 0.407996 0.000000
0.951751 0.406592 0.000000
0.165835 0.266697 0.092897
0.166964 0.266667 0.092836
0.168765 0.266667 0.092470
0.172274 0.266484 0.092073
0.177737 0.266300 0.090974
0.185031 0.265934 0.089845
0.193637 0.265599 0.088563
0.203830 0.264897 0.086610
0.215152 0.264073 0.084260
0.227512 0.263127 0.081697
0.240696 0.261997 0.078584
0.254826 0.260502 0.074952
0.266209 0.258579 0.076692
0.277440 0.256504 0.078737
0.288701 0.254307 0.081300
0.295476 0.248386 0.085664
0.296696 0.237034 0.092256
0.298039 0.224796 0.098360
0.304540 0.215152 0.104952
0.340002 0.226566 0.108034
0.399817 0.254154 0.105226
0.468055 0.284825 0.098177
0.545647 0.318944 0.082948
0.626093 0.353857 0.051301
0.704158 0.387427 0.000000
0.770840 0.415686 0.000000
0.825956 0.438514 0.000000
0.865049 0.449805 0.000000
0.889281 0.446448 0.000000
0.912230 0.443244 0.000000
0.933867 0.440375 0.000000
0.954437 0.437964 0.000000
0.175906 0.283726 0.097444
0.177005 0.283543 0.097444
0.177188 0.281468 0.096529
0.180667 0.281376 0.096101
0.185794 0.281254 0.095064
0.192599 0.280888 0.094270
0.200839 0.280552 0.092805
0.210361 0.280003 0.090669
0.221134 0.279332 0.088716
0.233005 0.278447 0.086305
0.245853 0.277409 0.083101
0.259434 0.276127 0.080049
0.273075 0.274662 0.077058
0.284367 0.272831 0.079316
0.295781 0.270848 0.081788
0.307317 0.268803 0.084413
0.313268 0.262272 0.089204
0.314702 0.250919 0.095918
0.316167 0.238834 0.101656
0.321782 0.228428 0.108370
0.353491 0.236545 0.113069
0.416846 0.266423 0.110170
0.490211 0.300145 0.102510
0.571954 0.337011 0.087251
0.655329 0.374090 0.059388
0.732052 0.407874 0.000000
0.796323 0.435706 0.000000
0.848386 0.457771 0.000000
0.890257 0.474830 0.000000
0.916899 0.476997 0.000000
0.937560 0.472908 0.000000
0.957305 0.469490 0.000000
0.185855 0.300877 0.101595
0.186496 0.300603 0.101411
0.187900 0.300206 0.101198
0.191104 0.299840 0.100435
0.195682 0.299474 0.099794
0.202090 0.299107 0.098756
0.210086 0.298619 0.097169
0.219242 0.298070 0.095430
0.229648 0.297429 0.093324
0.241123 0.296574 0.090791
0.253513 0.295537 0.087831
0.266819 0.294316 0.084352
0.280766 0.293034 0.080842
0.293706 0.291447 0.079896
0.305272 0.289525 0.081971
0.316930 0.287694 0.084504
0.328710 0.285740 0.087160
0.333928 0.278325 0.092500
0.335424 0.266941 0.099153
0.337072 0.254734 0.105379
0.341497 0.243351 0.111849
0.369055 0.247684 0.117647
0.437110 0.280430 0.114748
0.515984 0.317479 0.106722
0.601495 0.356817 0.090852
0.686519 0.395666 0.063569
0.760861 0.429145 0.000000
0.821744 0.456062 0.000000
0.870329 0.476967 0.000000
0.909239 0.492958 0.000000
0.940948 0.505272 0.000000
0.960174 0.501244 0.000000
0.196536 0.320165 0.105837
0.197452 0.319829 0.105440
0.198734 0.319463 0.105257
0.201633 0.319066 0.104524
0.206210 0.318669 0.103700
0.212375 0.318334 0.102724
0.219883 0.317906 0.101411
0.228916 0.317388 0.099519
0.238956 0.316716 0.097261
0.250065 0.315862 0.094881
0.262242 0.314855 0.092073
0.275212 0.313756 0.088746
0.288975 0.312383 0.084901
0.303532 0.310979 0.080354
0.315740 0.309300 0.081605
0.327520 0.307500 0.084108
0.339574 0.305760 0.086397
0.351659 0.303838 0.089174
0.356115 0.295537 0.094850
0.357641 0.283879 0.101869
0.359258 0.271458 0.108370
0.362371 0.259007 0.114778
0.385443 0.259068 0.121920
0.458381 0.294987 0.118990
0.543084 0.335607 0.110109
0.632410 0.377691 0.093843
0.717800 0.417670 0.067384
0.789364 0.450721 0.008972
0.846525 0.476539 0.000000
0.891600 0.496223 0.000000
0.927825 0.511315 0.000000
0.957580 0.523003 0.000000
0.207919 0.340948 0.109377
0.208804 0.340581 0.109010
0.210025 0.340215 0.108614
0.212711 0.339849 0.108125
0.217288 0.339422 0.107332
0.223239 0.339025 0.106203
0.230655 0.338659 0.104677
0.239322 0.338170 0.102846
0.249271 0.337499 0.100923
0.260197 0.336736 0.098604
0.272068 0.335760 0.095369
0.285039 0.334630 0.092195
0.298497 0.333379 0.088502
0.312840 0.331975 0.084199
0.327428 0.330449 0.080140
0.339422 0.328740 0.082277
0.351537 0.326909 0.084962
0.363836 0.325048 0.087404
0.376013 0.323064 0.090059
0.379461 0.313573 0.096681
0.380926 0.301610 0.103639
0.382544 0.288823 0.110567
0.384649 0.275547 0.117067
0.407721 0.274937 0.124605
0.480629 0.309819 0.122255
0.570550 0.353735 0.112642
0.663569 0.398749 0.095552
0.747433 0.438941 0.072755
0.815457 0.471168 0.036011
0.869078 0.495918 0.000000
0.911315 0.514824 0.000000
0.945495 0.529473 0.000000
0.219425 0.362280 0.111879
0.220279 0.362097 0.111879
0.221622 0.361913 0.111421
0.224338 0.361730 0.110903
0.228824 0.361425 0.110109
0.234714 0.361151 0.109133
0.241947 0.360784 0.107698
0.250462 0.360174 0.105715
0.260197 0.359594 0.103822
0.271000 0.358770 0.101320
0.282750 0.357824 0.098207
0.295445 0.356725 0.094850
0.308995 0.355566 0.090944
0.323278 0.354223 0.086732
0.338231 0.352728 0.081209
0.352239 0.351202 0.079530
0.364599 0.349432 0.081880
0.377142 0.347662 0.084688
0.389868 0.345922 0.086915
0.402533 0.343969 0.089967
0.405249 0.333471 0.097261
0.407050 0.321386 0.105135
0.409064 0.308629 0.112123
0.411780 0.295140 0.119173
0.435859 0.294591 0.126589
0.507622 0.327581 0.125338
0.603418 0.375402 0.114961
0.698878 0.422797 0.098329
0.779843 0.462623 0.080079
0.843748 0.493690 0.066285
0.893370 0.517327 0.061830
0.932341 0.535180 0.063813
0.232425 0.387152 0.114290
0.233371 0.386969 0.114107
0.234623 0.386816 0.113863
0.237278 0.386511 0.113405
0.241672 0.386267 0.112764
0.247410 0.385992 0.111421
0.254673 0.385687 0.110170
0.263157 0.385260 0.108156
0.272923 0.384619 0.106081
0.283665 0.383886 0.103639
0.295567 0.382940 0.100557
0.308171 0.381872 0.097017
0.321843 0.380713 0.092897
0.336156 0.379400 0.088167
0.351171 0.378027 0.082918
0.366796 0.376501 0.076814
0.380224 0.374884 0.077028
0.393286 0.373266 0.079469
0.406348 0.371496 0.082124
0.419501 0.369726 0.085206
0.432563 0.367651 0.088197
0.434546 0.356085 0.096742
0.436713 0.343755 0.105196
0.438911 0.330602 0.112795
0.442939 0.317601 0.120546
0.468849 0.317510 0.128023
0.539391 0.348241 0.128115
0.641291 0.400305 0.117006
0.736690 0.449012 0.102541
0.813443 0.487922 0.091554
0.872496 0.517632 0.089876
0.917113 0.539300 0.094453
0.246220 0.413855 0.115602
0.246860 0.413703 0.115633
0.248234 0.413489 0.115419
0.250919 0.413306 0.114687
0.255406 0.413153 0.113832
0.261143 0.412940 0.112673
0.268437 0.412696 0.111147
0.276921 0.412360 0.109102
0.286839 0.411933 0.107149
0.297795 0.411322 0.104372
0.309758 0.410651 0.101411
0.322728 0.409827 0.097475
0.336522 0.408850 0.093538
0.351171 0.407721 0.088380
0.366583 0.406561 0.082612
0.382605 0.405341 0.076143
0.398993 0.403876 0.069215
0.412604 0.402380 0.071382
0.426337 0.400977 0.074647
0.440131 0.399207 0.077211
0.454047 0.397559 0.080446
0.466712 0.394629 0.084627
0.469184 0.382879 0.094697
0.471870 0.370367 0.103731
0.474952 0.357061 0.112581
0.478706 0.343114 0.120729
0.507378 0.343999 0.128359
0.575952 0.371923 0.130465
0.683375 0.428382 0.119478
0.775814 0.476967 0.109865
0.846555 0.514061 0.108186
0.899199 0.541192 0.114595
0.262089 0.445747 0.116457
0.263127 0.445502 0.116091
0.264195 0.445319 0.115877
0.267063 0.445136 0.115145
0.271397 0.445014 0.114260
0.277501 0.444770 0.112856
0.284672 0.444617 0.111513
0.293431 0.444312 0.109407
0.303288 0.443854 0.106966
0.314458 0.443336 0.104097
0.326696 0.442603 0.100587
0.339849 0.441779 0.096529
0.353979 0.440894 0.092103
0.368933 0.439826 0.086397
0.384741 0.438819 0.079957
0.401312 0.437659 0.072541
0.418280 0.436408 0.063050
0.434607 0.435004 0.056977
0.449012 0.433783 0.060853
0.463600 0.432380 0.064332
0.478401 0.430915 0.067781
0.493385 0.429450 0.071229
0.505974 0.425910 0.076967
0.509178 0.413947 0.089143
0.512779 0.401221 0.100160
0.516716 0.387640 0.110140
0.520989 0.373175 0.119570
0.552453 0.375006 0.127810
0.618738 0.399847 0.133150
0.728481 0.459236 0.124361
0.813748 0.505455 0.122164
0.877226 0.539879 0.129488
0.279973 0.481514 0.115663
0.280919 0.481300 0.115267
0.282261 0.481209 0.115206
0.285039 0.481147 0.114382
0.289525 0.481086 0.113649
0.295720 0.481025 0.112123
0.303166 0.480873 0.110262
0.312139 0.480690 0.108248
0.322393 0.480354 0.105379
0.333745 0.479866 0.102144
0.346380 0.479225 0.098390
0.359838 0.478553 0.094026
0.374487 0.477699 0.088716
0.389899 0.476844 0.082429
0.406348 0.476020 0.074800
0.423468 0.475105 0.065461
0.441352 0.474006 0.049805
0.459815 0.472816 0.019989
0.476081 0.471778 0.015747
0.491676 0.470710 0.023499
0.507500 0.469642 0.032868
0.523583 0.468635 0.041291
0.540032 0.467659 0.049989
0.552819 0.463447 0.062867
0.557122 0.451362 0.079530
0.561791 0.438453 0.093446
0.567041 0.424872 0.105623
0.572625 0.410040 0.116945
0.606775 0.412787 0.126741
0.669947 0.433722 0.137148
0.773892 0.491737 0.134096
0.851652 0.535698 0.141970
0.300511 0.522637 0.113863
0.301518 0.522515 0.113649
0.302922 0.522393 0.113161
0.305791 0.522301 0.112551
0.310430 0.522179 0.111330
0.316533 0.522026 0.109804
0.324163 0.521660 0.107729
0.333074 0.521233 0.105470
0.343450 0.520592 0.102174
0.354955 0.519890 0.098543
0.367529 0.519036 0.094179
0.381537 0.518090 0.088777
0.396307 0.517235 0.082277
0.412116 0.516381 0.074800
0.429084 0.515557 0.065827
0.446815 0.514794 0.049226
0.465492 0.514092 0.017884
0.484749 0.513268 0.000000
0.504448 0.512291 0.000000
0.520989 0.511681 0.000000
0.537926 0.511101 0.000000
0.555291 0.510552 0.000000
0.573053 0.510216 0.000000
0.591302 0.510033 0.000000
0.604517 0.505272 0.017975
0.610254 0.493355 0.063020
0.616480 0.480537 0.082521
0.623377 0.466896 0.098695
0.629694 0.451453 0.112642
0.663447 0.452979 0.124483
0.723201 0.470893 0.142519
0.817868 0.525170 0.150362
0.322637 0.566552 0.110689
0.323522 0.566552 0.110414
0.325078 0.566461 0.110109
0.328038 0.566583 0.109316
0.332921 0.566552 0.108156
0.339330 0.566552 0.106172
0.347204 0.566552 0.103944
0.356634 0.566400 0.101076
0.367437 0.566125 0.097200
0.379583 0.565820 0.093202
0.392981 0.565393 0.087373
0.407630 0.564996 0.081331
0.423285 0.564538 0.073365
0.440040 0.564141 0.063661
