data/fiter_cube/81078425/1022776/file.cube
# Created by Adobe Lightroom plugin Export LUT (1.17.0)
# www.johnrellis.com/lightroom/exportlut.htm
# Preset: 旅拍情绪景观_10 云集视觉
# Color profile: C:\Program Files (x86)\Common Files\Adobe\Color\Profiles\Recommended\AdobeRGB1998.icc
LUT_3D_SIZE 8
DOMAIN_MIN 0.000000 0.000000 0.000000
DOMAIN_MAX 0.903226 0.903226 0.903226
0.088106 0.091890 0.092256
0.140719 0.095674 0.091188
0.282750 0.111421 0.082185
0.569360 0.156069 0.000000
0.857328 0.212589 0.000000
0.985473 0.245090 0.000000
1.000000 0.268467 0.000000
1.000000 0.289067 0.000000
0.108675 0.117006 0.112978
0.117128 0.121889 0.112978
0.240543 0.148409 0.087343
0.496437 0.206363 0.001160
0.815579 0.274266 0.000000
0.968566 0.295415 0.000000
1.000000 0.305028 0.000000
1.000000 0.315618 0.000000
0.160128 0.180941 0.167849
0.167483 0.180545 0.174594
0.183963 0.191714 0.163912
0.342657 0.250156 0.108736
0.670405 0.362066 0.000000
0.920256 0.412818 0.000000
1.000000 0.407385 0.000000
1.000000 0.397528 0.000000
0.246311 0.294713 0.268437
0.254124 0.294224 0.275456
0.274327 0.296635 0.304845
0.303716 0.322118 0.258030
0.509300 0.417212 0.169802
0.769924 0.485573 0.000000
0.970977 0.519158 0.000000
1.000000 0.499641 0.000000
0.380316 0.481453 0.444862
0.389105 0.481697 0.453010
0.417517 0.486305 0.485695
0.439887 0.502831 0.501915
0.469612 0.509728 0.405066
0.661860 0.585016 0.293736
0.878233 0.620081 0.097688
1.000000 0.596704 0.000000
0.557092 0.691585 0.663661
0.571130 0.698390 0.676875
0.595666 0.700679 0.698756
0.629816 0.707301 0.736629
0.631952 0.715846 0.708003
0.661036 0.716915 0.614313
0.797971 0.748806 0.528527
0.949065 0.741970 0.383673
0.730220 0.832059 0.826017
0.735164 0.832914 0.829160
0.746517 0.832670 0.836301
0.764889 0.834409 0.849729
0.782681 0.837675 0.866270
0.778256 0.843168 0.840574
0.796536 0.845335 0.798154
0.864469 0.856504 0.770871
0.832059 0.898283 0.897795
0.833616 0.898222 0.898589
0.839353 0.898558 0.901793
0.849271 0.899840 0.907774
0.856321 0.898924 0.912993
0.863279 0.902953 0.916808
0.866484 0.908629 0.906645
0.879789 0.912413 0.891600
0.103761 0.108217 0.118074
0.120363 0.105501 0.125551
0.272648 0.029236 0.127749
0.575525 0.000000 0.087343
0.860258 0.121340 0.000000
0.983795 0.200076 0.000000
1.000000 0.249363 0.000000
1.000000 0.285771 0.087709
0.109499 0.124300 0.124239
0.130831 0.136934 0.136660
0.255833 0.140078 0.125368
0.516442 0.173800 0.100893
0.826383 0.229801 0.000000
0.970031 0.264500 0.000000
1.000000 0.289433 0.000000
1.000000 0.312016 0.079072
0.160220 0.187869 0.172610
0.178408 0.196323 0.188205
0.194278 0.203677 0.184970
0.350561 0.250370 0.136049
0.687007 0.356634 0.028077
0.921324 0.398077 0.000000
1.000000 0.397284 0.000000
1.000000 0.395178 0.088930
0.245182 0.300542 0.271611
0.259892 0.305333 0.285649
0.283848 0.309789 0.315404
0.303929 0.323522 0.271733
0.497597 0.405005 0.187869
0.774289 0.480751 0.000000
0.967346 0.511864 0.000000
1.000000 0.497322 0.046357
0.383886 0.490761 0.454261
0.392462 0.490059 0.461128
0.420386 0.492744 0.490486
0.441779 0.502770 0.511009
0.463691 0.504387 0.413336
0.656641 0.579431 0.305608
0.873503 0.612879 0.133333
1.000000 0.594751 0.000000
0.555444 0.692378 0.664515
0.563745 0.693385 0.671138
0.589349 0.696468 0.693324
0.626551 0.705501 0.732967
0.633234 0.716030 0.714412
0.661463 0.718288 0.625879
0.797910 0.749203 0.539086
0.947265 0.739406 0.393957
0.725887 0.830014 0.823423
0.728756 0.829374 0.824918
0.741695 0.830045 0.833097
0.762692 0.833371 0.848173
0.782712 0.838102 0.865995
0.778225 0.842741 0.842313
0.793912 0.843320 0.798703
0.862638 0.854246 0.768673
0.831083 0.898070 0.897429
0.833097 0.898314 0.898528
0.839170 0.898802 0.901854
0.849393 0.900267 0.907988
0.860105 0.901946 0.915373
0.866209 0.904845 0.919005
0.867430 0.909178 0.908019
0.879454 0.912200 0.892302
0.135561 0.142733 0.171481
0.142885 0.143404 0.172793
0.187106 0.141787 0.197360
0.444953 0.000000 0.305455
0.852628 0.000000 0.275456
1.000000 0.000000 0.217655
1.000000 0.227543 0.292790
1.000000 0.345892 0.352392
0.152834 0.166934 0.186740
0.160494 0.169314 0.189853
0.194644 0.165133 0.206271
0.459785 0.029664 0.294774
0.861784 0.000000 0.194766
0.996796 0.000000 0.222995
1.000000 0.273838 0.290410
1.000000 0.365484 0.348882
0.162600 0.200595 0.201633
0.177279 0.208835 0.210178
0.216861 0.230686 0.233158
0.462226 0.246098 0.219028
0.793118 0.305394 0.217685
0.955688 0.354345 0.245731
1.000000 0.397864 0.298131
1.000000 0.435401 0.350469
0.231754 0.313115 0.284520
0.250034 0.322179 0.297581
0.304845 0.347570 0.344823
0.329870 0.356786 0.333257
0.540154 0.419989 0.250584
0.843961 0.501762 0.225681
0.984649 0.520043 0.277958
1.000000 0.524193 0.335790
0.364416 0.498573 0.452705
0.383276 0.507836 0.469429
0.439490 0.531121 0.522637
0.485786 0.546563 0.580957
0.492378 0.540826 0.483345
0.687648 0.601099 0.370550
0.883177 0.604303 0.230320
1.000000 0.605371 0.260136
0.545830 0.702541 0.666285
0.562280 0.708736 0.680140
0.604700 0.719631 0.715023
0.643610 0.727108 0.749416
0.657862 0.735622 0.753231
0.672236 0.731807 0.671260
0.806607 0.759152 0.586084
0.948974 0.740688 0.453346
0.728267 0.837919 0.828428
0.736660 0.839414 0.833768
0.752987 0.841062 0.843534
0.772488 0.843229 0.855985
0.792630 0.847532 0.871946
0.791073 0.851286 0.858030
0.802853 0.851438 0.821592
0.870115 0.863310 0.793698
0.834379 0.902190 0.900603
0.837522 0.902678 0.902342
0.843259 0.902892 0.905211
0.854429 0.904875 0.911559
0.865110 0.906432 0.918456
0.873442 0.909239 0.924559
0.873167 0.912779 0.914244
0.883391 0.915282 0.899535
0.176883 0.189578 0.250095
0.183566 0.190555 0.251133
0.201358 0.189639 0.249454
0.280278 0.182834 0.308965
0.553674 0.134432 0.477119
0.928283 0.000000 0.554833
1.000000 0.168399 0.522362
1.000000 0.512749 0.636561
0.195956 0.216617 0.273075
0.200412 0.215396 0.271885
0.214054 0.209537 0.266056
0.287907 0.202396 0.319127
0.564416 0.174136 0.483223
0.931518 0.000000 0.547723
1.000000 0.250553 0.526146
1.000000 0.564508 0.666346
0.219455 0.262516 0.302556
0.231998 0.270176 0.310399
0.254490 0.276036 0.319677
0.310582 0.266758 0.349737
0.681300 0.237980 0.528161
0.949737 0.254765 0.521324
1.000000 0.513115 0.615808
1.000000 0.642420 0.703578
0.232639 0.325566 0.338537
0.245792 0.332830 0.346532
0.287968 0.355657 0.371588
0.350591 0.386938 0.406012
0.704067 0.447211 0.436469
0.909545 0.527764 0.510246
0.985290 0.607141 0.603357
1.000000 0.664027 0.671229
0.328161 0.512016 0.481483
0.346044 0.518059 0.490425
0.405982 0.541100 0.524926
0.496437 0.576287 0.594293
0.519188 0.577173 0.569299
0.724636 0.612879 0.463966
0.923003 0.644800 0.482307
1.000000 0.680293 0.584497
0.522911 0.714168 0.675807
0.544030 0.723201 0.690822
0.593042 0.735988 0.721523
0.660487 0.754910 0.769253
0.702113 0.769009 0.805539
0.693996 0.756313 0.736294
0.823239 0.773770 0.652430
0.952300 0.736812 0.527947
0.715908 0.841428 0.827268
0.725063 0.843595 0.832364
0.751919 0.850126 0.847532
0.785489 0.857969 0.867185
0.808072 0.862547 0.881834
0.812436 0.865537 0.880217
0.814298 0.861479 0.847776
0.879667 0.871977 0.818051
0.830716 0.905180 0.900633
0.834440 0.906126 0.902586
0.845853 0.908904 0.908537
0.860655 0.911711 0.916442
0.872068 0.913207 0.922911
0.882811 0.915831 0.930694
0.881651 0.918120 0.923095
0.888884 0.919493 0.909117
0.228672 0.253635 0.371466
0.234257 0.253544 0.370733
0.249882 0.249485 0.363592
0.269841 0.237949 0.347143
0.406714 0.231662 0.472541
0.718776 0.225650 0.673213
0.958831 0.242466 0.721614
1.000000 0.515160 0.747494
0.245274 0.279088 0.393896
0.250065 0.278019 0.392767
0.262760 0.270420 0.382635
0.279881 0.254398 0.361975
0.412696 0.251041 0.480812
0.723598 0.263188 0.677485
0.959594 0.312169 0.727443
1.000000 0.558312 0.761379
0.284764 0.345892 0.447211
0.293828 0.350195 0.452399
0.303532 0.339300 0.440772
0.316350 0.315312 0.414923
0.432502 0.316075 0.507591
0.734768 0.370459 0.687770
0.956146 0.496162 0.754177
0.999786 0.670832 0.801633
0.309209 0.412909 0.488106
0.321233 0.419318 0.494331
0.360937 0.440803 0.515373
0.394446 0.444007 0.520928
0.470985 0.431342 0.559075
0.808286 0.531548 0.735286
0.953826 0.686152 0.800870
0.985199 0.799008 0.857572
0.331029 0.508904 0.543481
0.344518 0.515557 0.550652
0.387915 0.535149 0.571496
0.454047 0.562737 0.600488
0.520745 0.585260 0.623743
0.832609 0.688380 0.714900
0.935851 0.773587 0.798947
0.974853 0.819944 0.842557
0.460945 0.710262 0.692317
0.478035 0.714229 0.698390
0.530205 0.725216 0.716609
0.606806 0.743404 0.748318
0.684840 0.764431 0.791135
0.701320 0.765682 0.776455
0.839475 0.772122 0.703731
0.955383 0.779873 0.719020
0.690547 0.843687 0.828031
0.699001 0.844816 0.831327
0.726772 0.849516 0.842832
0.766781 0.858274 0.861082
0.808011 0.869017 0.882841
0.831296 0.876738 0.898344
0.822782 0.868772 0.868132
0.890898 0.876219 0.834470
0.819791 0.906035 0.899138
0.823362 0.906676 0.900633
0.835172 0.909056 0.905852
0.855711 0.914672 0.915801
0.876005 0.919463 0.926177
0.889128 0.922148 0.933959
0.891112 0.923888 0.932494
0.893919 0.923369 0.918303
0.301884 0.350042 0.547295
0.306706 0.348516 0.544854
0.320043 0.340429 0.532464
0.339574 0.324743 0.510918
0.365576 0.301274 0.488655
0.566918 0.303563 0.668849
0.835935 0.405158 0.811490
0.955383 0.571435 0.842283
0.315099 0.371191 0.561303
0.318700 0.368566 0.557916
0.330541 0.358984 0.545495
0.347539 0.340337 0.521843
0.368048 0.312352 0.491005
0.568994 0.321386 0.671382
0.835996 0.429877 0.812650
0.956725 0.587121 0.844419
0.365606 0.449012 0.620356
0.367407 0.444831 0.616205
0.374304 0.430610 0.601831
0.385382 0.404791 0.574823
0.395636 0.364324 0.529229
0.586114 0.387762 0.691249
0.839994 0.516594 0.821164
0.961547 0.647303 0.854795
0.422889 0.539788 0.671778
0.429938 0.541802 0.673121
0.453956 0.549432 0.679591
0.466377 0.532067 0.666590
0.464820 0.478492 0.620874
0.619074 0.503075 0.727810
0.848142 0.642695 0.838529
0.963867 0.752255 0.878080
0.450996 0.613794 0.707118
0.462470 0.618738 0.711025
0.498909 0.634241 0.722927
0.551659 0.656367 0.739345
0.572320 0.643397 0.730282
0.649256 0.628504 0.759182
0.880491 0.761685 0.865934
0.961883 0.853208 0.907103
0.492256 0.709255 0.751919
0.505333 0.714229 0.756588
0.542199 0.725490 0.767056
0.595270 0.740963 0.781308
0.649653 0.755459 0.794400
0.698817 0.765408 0.803342
0.900908 0.855283 0.878019
0.955230 0.894896 0.911345
0.660426 0.845579 0.842710
0.670283 0.847715 0.845609
0.697749 0.853086 0.853117
0.739528 0.860227 0.864317
0.785306 0.868956 0.878294
0.829313 0.879850 0.897185
0.832822 0.877073 0.887907
0.906859 0.876646 0.853574
0.807218 0.909178 0.902312
0.810849 0.909636 0.903441
0.823117 0.911528 0.907439
0.843198 0.915587 0.914672
0.867338 0.921324 0.924346
0.892576 0.928344 0.936492
0.904875 0.932097 0.943938
0.901305 0.928923 0.929412
0.424903 0.495827 0.744076
0.430457 0.496498 0.744930
0.438972 0.486183 0.736233
0.452827 0.466163 0.719814
0.467750 0.431556 0.689631
0.523186 0.404303 0.699580
0.728511 0.429633 0.827756
0.900328 0.601709 0.888884
0.429847 0.505730 0.742824
0.434485 0.505486 0.743069
0.441932 0.494789 0.734829
0.452979 0.472602 0.716945
0.465339 0.435859 0.685115
0.513664 0.404730 0.687556
0.718868 0.429969 0.819760
0.896086 0.595544 0.884764
0.485847 0.578027 0.777310
0.486152 0.574212 0.774899
0.486641 0.559258 0.765133
0.490578 0.533288 0.747616
0.493660 0.488777 0.714321
0.523552 0.445014 0.696834
0.731044 0.493385 0.829831
0.899077 0.659632 0.892058
0.560449 0.668605 0.812558
0.562890 0.667781 0.811734
0.567681 0.661555 0.808042
0.562951 0.636255 0.794797
0.554925 0.589776 0.767453
0.549493 0.520500 0.720790
0.749905 0.590082 0.844602
0.902403 0.733883 0.900633
0.600458 0.725582 0.827695
0.604883 0.726314 0.827512
0.623835 0.732601 0.829374
0.643183 0.735348 0.831083
0.636103 0.707057 0.816922
0.612146 0.636561 0.777493
0.757900 0.677943 0.850278
0.906065 0.799405 0.908385
0.633478 0.779538 0.845365
0.639948 0.781582 0.846464
0.660914 0.788083 0.850095
0.692714 0.798459 0.856138
0.726619 0.808530 0.861906
0.733852 0.795834 0.855009
0.787839 0.787808 0.870909
0.928618 0.870329 0.926452
0.683833 0.840696 0.868803
0.691035 0.842710 0.870481
0.709621 0.846860 0.873991
0.737575 0.853635 0.879728
0.767483 0.860349 0.885405
0.798337 0.867338 0.891356
0.822721 0.869474 0.893278
0.943267 0.929259 0.941253
0.786343 0.906157 0.907317
0.790066 0.906889 0.908202
0.806058 0.911101 0.912963
0.826139 0.916136 0.918547
0.850950 0.921965 0.925414
0.879271 0.928283 0.933898
0.907561 0.936431 0.945708
0.908873 0.934569 0.940337
0.609400 0.680873 0.866911
0.611902 0.680751 0.867002
0.611322 0.670741 0.863493
0.617121 0.657710 0.859464
0.623865 0.632898 0.851438
0.632929 0.591394 0.837095
0.704402 0.580133 0.860563
0.838163 0.609186 0.908202
0.612268 0.686152 0.866239
0.614618 0.685878 0.866331
0.614740 0.676875 0.863340
0.617823 0.661555 0.858427
0.623468 0.636225 0.850217
0.631098 0.593744 0.835355
0.698909 0.578363 0.856565
0.835233 0.609125 0.906188
0.639368 0.718868 0.871763
0.639887 0.717311 0.871336
0.635981 0.706142 0.867430
0.642695 0.697047 0.865415
0.642054 0.669154 0.856596
0.642115 0.622126 0.840543
0.698421 0.599878 0.854704
0.835874 0.638941 0.906310
0.688228 0.771420 0.883635
0.688869 0.770596 0.883513
0.684871 0.762020 0.880552
0.682765 0.749172 0.876677
0.678614 0.725124 0.869169
0.673030 0.682033 0.855375
0.705013 0.644251 0.856229
0.841093 0.692866 0.909056
0.722103 0.809537 0.891234
0.725124 0.810758 0.891936
0.729000 0.810025 0.891844
0.734859 0.807553 0.891814
0.724269 0.786252 0.884123
0.711513 0.749325 0.871366
0.706447 0.689509 0.852781
0.847990 0.753933 0.912566
0.745174 0.839750 0.899229
0.746700 0.839780 0.899077
0.753414 0.840909 0.899290
0.766812 0.844327 0.900755
0.779202 0.845457 0.902068
0.777218 0.831357 0.897551
0.765743 0.792508 0.883391
0.864469 0.825498 0.921813
0.773281 0.873198 0.910613
0.775113 0.873442 0.910735
0.782010 0.874784 0.911498
0.795926 0.878477 0.913817
0.814572 0.883726 0.917205
0.836545 0.890196 0.921508
0.842924 0.884306 0.919677
0.877104 0.877714 0.928527
0.808469 0.908202 0.924590
0.810086 0.908446 0.924773
0.816953 0.909819 0.925933
0.829923 0.912993 0.928588
0.846830 0.917296 0.932189
0.866361 0.922545 0.936584
0.887114 0.928344 0.941436
0.901457 0.929198 0.942260
