data/fiter_cube/81078425/1022776/file.cube
# Created by Adobe Lightroom plugin Export LUT (1.17.0)
# www.johnrellis.com/lightroom/exportlut.htm
# Preset: 旅拍情绪景观_10 云集视觉
# Color profile: C:\Program Files (x86)\Common Files\Adobe\Color\Profiles\Recommended\AdobeRGB1998.icc
LUT_3D_SIZE 32
DOMAIN_MIN 0.0 0.0 0.0
DOMAIN_MAX 1.0 1.0 1.0
0.088106 0.091890 0.092256
0.093111 0.092256 0.092103
0.100160 0.092470 0.092134
0.116457 0.093843 0.092042
0.140719 0.095674 0.091188
0.168368 0.098116 0.090425
0.200046 0.101503 0.088716
0.237217 0.105745 0.086213
0.282750 0.111421 0.082185
0.338262 0.119478 0.075257
0.405646 0.128817 0.063050
0.483284 0.141390 0.023804
0.569360 0.156069 0.000000
0.655909 0.171939 0.000000
0.735653 0.187564 0.000000
0.803433 0.201297 0.000000
0.857328 0.212589 0.000000
0.899107 0.222263 0.000000
0.931792 0.230137 0.000000
0.961547 0.238071 0.000000
0.985473 0.245090 0.000000
1.000000 0.251560 0.000000
1.000000 0.257481 0.000000
1.000000 0.263188 0.000000
1.000000 0.268467 0.000000
1.000000 0.273655 0.000000
1.000000 0.278904 0.000000
1.000000 0.284092 0.000000
1.000000 0.289067 0.000000
1.000000 0.294133 0.000000
1.000000 0.299290 0.000000
1.000000 0.304295 0.000000
0.090028 0.094087 0.094392
0.091218 0.095033 0.094270
0.098482 0.096956 0.092897
0.115145 0.098543 0.091951
0.138613 0.100801 0.091096
0.165377 0.103487 0.090364
0.196536 0.107057 0.088716
0.232700 0.111452 0.086580
0.277165 0.117250 0.082734
0.331762 0.125521 0.076051
0.397559 0.135744 0.064515
0.474159 0.148196 0.027985
0.559411 0.163394 0.000000
0.646082 0.179416 0.000000
0.726680 0.195071 0.000000
0.796078 0.208713 0.000000
0.851286 0.220066 0.000000
0.894438 0.229160 0.000000
0.928069 0.236515 0.000000
0.958312 0.243900 0.000000
0.982544 0.250462 0.000000
1.000000 0.256321 0.000000
1.000000 0.261784 0.000000
1.000000 0.266941 0.000000
1.000000 0.272007 0.000000
1.000000 0.276829 0.000000
1.000000 0.281590 0.000000
1.000000 0.286564 0.000000
1.000000 0.291386 0.000000
1.000000 0.296269 0.000000
1.000000 0.301091 0.000000
1.000000 0.305760 0.000000
0.092836 0.097719 0.097108
0.093568 0.097841 0.098085
0.095369 0.099458 0.097414
0.110903 0.104189 0.094484
0.135866 0.106966 0.091463
0.161837 0.109560 0.090517
0.192020 0.113222 0.089204
0.227207 0.117983 0.087160
0.270420 0.124392 0.083162
0.323888 0.132601 0.076814
0.388373 0.143618 0.066163
0.463691 0.156893 0.033753
0.548425 0.172213 0.000000
0.635676 0.188968 0.000000
0.717006 0.205142 0.000000
0.788479 0.218784 0.000000
0.845182 0.229984 0.000000
0.889647 0.238712 0.000000
0.924468 0.245274 0.000000
0.955352 0.252140 0.000000
0.980072 0.257877 0.000000
1.000000 0.263096 0.000000
1.000000 0.268070 0.000000
1.000000 0.272587 0.000000
1.000000 0.277134 0.000000
1.000000 0.281437 0.000000
1.000000 0.285893 0.000000
1.000000 0.290440 0.000000
1.000000 0.294926 0.000000
1.000000 0.299535 0.000000
1.000000 0.303960 0.000000
1.000000 0.308537 0.000000
0.099458 0.105776 0.103792
0.100435 0.105562 0.104921
0.101167 0.105684 0.105592
0.104677 0.108827 0.104097
0.125063 0.116701 0.099886
0.153719 0.119753 0.092287
0.183444 0.123995 0.090150
0.217288 0.129244 0.088289
0.258335 0.135958 0.084627
0.309545 0.145296 0.079042
0.371618 0.157443 0.069001
0.444923 0.171695 0.043885
0.527520 0.188602 0.000000
0.615259 0.206760 0.000000
0.698909 0.223514 0.000000
0.773312 0.238010 0.000000
0.833463 0.248936 0.000000
0.880522 0.257176 0.000000
0.917754 0.263310 0.000000
0.949462 0.268803 0.000000
0.974945 0.273350 0.000000
0.995789 0.277256 0.000000
1.000000 0.281102 0.000000
1.000000 0.284611 0.000000
1.000000 0.288273 0.000000
1.000000 0.291875 0.000000
1.000000 0.295506 0.000000
1.000000 0.299474 0.000000
1.000000 0.303410 0.000000
1.000000 0.307134 0.000000
1.000000 0.311009 0.000000
1.000000 0.314824 0.000000
0.108675 0.117006 0.112978
0.109529 0.117067 0.113985
0.110628 0.116854 0.115236
0.112154 0.117891 0.115938
0.117128 0.121889 0.112978
0.137087 0.129732 0.107485
0.168185 0.135714 0.098207
0.202335 0.140566 0.090089
0.240543 0.148409 0.087343
0.287968 0.158694 0.082246
0.346502 0.171725 0.073671
0.416205 0.187869 0.057465
0.496437 0.206363 0.001160
0.584283 0.226810 0.000000
0.670680 0.245945 0.000000
0.749813 0.262364 0.000000
0.815579 0.274266 0.000000
0.867002 0.282414 0.000000
0.908293 0.287999 0.000000
0.941772 0.292241 0.000000
0.968566 0.295415 0.000000
0.990478 0.298070 0.000000
1.000000 0.300481 0.000000
1.000000 0.302678 0.000000
1.000000 0.305028 0.000000
1.000000 0.307347 0.000000
1.000000 0.310063 0.000000
1.000000 0.312688 0.000000
1.000000 0.315618 0.000000
1.000000 0.318639 0.000000
1.000000 0.321569 0.000000
1.000000 0.324651 0.000000
0.118990 0.129854 0.123934
0.120027 0.129854 0.124666
0.121035 0.129671 0.125582
0.122957 0.129305 0.127932
0.124605 0.131777 0.126955
0.130922 0.135744 0.122896
0.149386 0.143587 0.117647
0.183169 0.153079 0.106447
0.218357 0.158755 0.095369
0.263706 0.169284 0.086824
0.317784 0.183932 0.079683
0.383368 0.201694 0.067384
0.459815 0.222293 0.030732
0.546349 0.245212 0.000000
0.635279 0.267704 0.000000
0.719112 0.286870 0.000000
0.791501 0.301335 0.000000
0.848600 0.310582 0.000000
0.895201 0.316716 0.000000
0.931548 0.320165 0.000000
0.960601 0.322332 0.000000
0.984283 0.323491 0.000000
1.000000 0.328832 0.000000
1.000000 0.329595 0.000000
1.000000 0.330388 0.000000
1.000000 0.331243 0.000000
1.000000 0.332525 0.000000
1.000000 0.333837 0.000000
1.000000 0.335485 0.000000
1.000000 0.337346 0.000000
1.000000 0.339208 0.000000
1.000000 0.341283 0.000000
0.131502 0.145357 0.136934
0.132387 0.145357 0.137758
0.133700 0.145144 0.138735
0.135988 0.144900 0.140963
0.138125 0.144778 0.144411
0.140322 0.148745 0.140200
0.147341 0.152804 0.135164
0.164065 0.159884 0.130648
0.201938 0.173495 0.117342
0.241855 0.182864 0.104555
0.286778 0.192355 0.089906
0.351965 0.213230 0.076692
0.425208 0.236332 0.058625
0.509300 0.262211 0.000000
0.599908 0.288548 0.000000
0.686732 0.311284 0.000000
0.764920 0.329168 0.000000
0.830533 0.341253 0.000000
0.882292 0.348394 0.000000
0.922606 0.351843 0.000000
0.954742 0.353552 0.000000
0.980896 0.353979 0.000000
1.000000 0.354131 0.000000
1.000000 0.353887 0.000000
1.000000 0.353674 0.000000
1.000000 0.353338 0.000000
1.000000 0.353307 0.000000
1.000000 0.353460 0.000000
1.000000 0.353826 0.000000
1.000000 0.354467 0.000000
1.000000 0.355200 0.000000
1.000000 0.356176 0.000000
0.144778 0.161868 0.151156
0.145602 0.161715 0.151888
0.146761 0.161685 0.152773
0.148989 0.161440 0.154757
0.151797 0.161196 0.157992
0.153750 0.162600 0.159487
0.156741 0.166812 0.154360
0.164401 0.170871 0.148470
0.178836 0.176364 0.145144
0.220218 0.193790 0.130343
0.264500 0.207462 0.115450
0.312505 0.219364 0.098787
0.376959 0.238895 0.075135
0.455634 0.266758 0.042786
0.544396 0.296818 0.000000
0.635401 0.325200 0.000000
0.722042 0.349187 0.000000
0.797910 0.366766 0.000000
0.856779 0.376654 0.000000
0.902922 0.381415 0.000000
0.939391 0.383246 0.000000
0.968688 0.383398 0.000000
0.992218 0.382605 0.000000
1.000000 0.381109 0.000000
1.000000 0.379553 0.000000
1.000000 0.378088 0.000000
1.000000 0.376684 0.000000
1.000000 0.375525 0.000000
1.000000 0.374670 0.000000
1.000000 0.373999 0.000000
1.000000 0.373693 0.000000
1.000000 0.373510 0.000000
0.160128 0.180941 0.167849
0.161044 0.180911 0.168338
0.162173 0.180850 0.169375
0.164370 0.180728 0.171511
0.167483 0.180545 0.174594
0.170535 0.180575 0.178927
0.171847 0.183413 0.177066
0.175753 0.187655 0.170718
0.183963 0.191714 0.163912
0.197848 0.196384 0.159731
0.240940 0.216678 0.145327
0.290196 0.234348 0.127993
0.342657 0.250156 0.108736
0.398016 0.264683 0.084504
0.483070 0.295933 0.022522
0.576257 0.330449 0.000000
0.670405 0.362066 0.000000
0.755154 0.386297 0.000000
0.823758 0.401312 0.000000
0.877958 0.409339 0.000000
0.920256 0.412818 0.000000
0.953857 0.413153 0.000000
0.980560 0.411994 0.000000
1.000000 0.409918 0.000000
1.000000 0.407385 0.000000
1.000000 0.404578 0.000000
1.000000 0.402014 0.000000
1.000000 0.399573 0.000000
1.000000 0.397528 0.000000
1.000000 0.395636 0.000000
1.000000 0.394110 0.000000
1.000000 0.392859 0.000000
0.177676 0.202823 0.186984
0.178408 0.202792 0.187747
0.179599 0.202701 0.188540
0.181643 0.202701 0.190524
0.184878 0.202579 0.193668
0.188357 0.202579 0.197940
0.191531 0.202792 0.203525
0.192599 0.207004 0.196902
0.197208 0.211307 0.189456
0.206088 0.215305 0.181247
0.219791 0.219364 0.175540
0.263920 0.241520 0.161776
0.317876 0.263676 0.142275
0.374701 0.283116 0.120150
0.435187 0.301549 0.092592
0.503899 0.322301 0.029572
0.608209 0.364202 0.000000
0.701045 0.396612 0.000000
0.781704 0.419806 0.000000
0.846342 0.433509 0.000000
0.896422 0.440131 0.000000
0.935210 0.441993 0.000000
0.965698 0.441108 0.000000
0.989899 0.438636 0.000000
1.000000 0.435370 0.000000
1.000000 0.431830 0.000000
1.000000 0.428229 0.000000
1.000000 0.424781 0.000000
1.000000 0.421576 0.000000
1.000000 0.418799 0.000000
1.000000 0.416297 0.000000
1.000000 0.413947 0.000000
0.196597 0.227543 0.208652
0.197482 0.227481 0.209415
0.198642 0.227512 0.210208
0.200900 0.227512 0.212314
0.204288 0.227512 0.215549
0.208286 0.227756 0.220035
0.212314 0.228122 0.225956
0.214847 0.229892 0.228367
0.216403 0.234653 0.219883
0.221927 0.238987 0.210819
0.231724 0.242710 0.201053
0.244846 0.245701 0.193088
0.289799 0.269657 0.180819
0.349737 0.296971 0.158511
0.412268 0.320958 0.133364
0.476692 0.342412 0.102022
0.542473 0.361486 0.041749
0.630213 0.392218 0.000000
0.723507 0.426215 0.000000
0.802060 0.449317 0.000000
0.863706 0.462287 0.000000
0.910887 0.467842 0.000000
0.947173 0.468818 0.000000
0.975525 0.466987 0.000000
0.998108 0.463691 0.000000
1.000000 0.459571 0.000000
1.000000 0.455207 0.000000
1.000000 0.450935 0.000000
1.000000 0.446815 0.000000
1.000000 0.442939 0.000000
1.000000 0.439399 0.000000
1.000000 0.436133 0.000000
0.218570 0.256840 0.234318
0.219455 0.256840 0.235080
0.220615 0.256748 0.236088
0.222995 0.256870 0.238193
0.226627 0.256992 0.241672
0.230930 0.257237 0.246464
0.235721 0.257847 0.252720
0.240391 0.258640 0.260533
0.241703 0.262242 0.257420
0.244205 0.266972 0.246830
0.250736 0.271336 0.235599
0.262211 0.276036 0.224674
0.284703 0.287480 0.220249
0.332738 0.314305 0.208774
0.400855 0.347631 0.181277
0.470527 0.376013 0.150637
0.540459 0.400397 0.112490
0.607294 0.419226 0.044862
0.669245 0.432593 0.000000
0.762936 0.465095 0.000000
0.835691 0.485512 0.000000
0.890654 0.495308 0.000000
0.931975 0.498207 0.000000
0.963806 0.497169 0.000000
0.988830 0.493935 0.000000
1.000000 0.489418 0.000000
1.000000 0.484382 0.000000
1.000000 0.479286 0.000000
1.000000 0.474189 0.000000
1.000000 0.469306 0.000000
1.000000 0.464759 0.000000
1.000000 0.460517 0.000000
0.246311 0.294713 0.268437
0.247135 0.294713 0.269230
0.248295 0.294560 0.270024
0.250645 0.294377 0.272129
0.254124 0.294224 0.275456
0.258518 0.294102 0.280156
0.263645 0.294469 0.286503
0.269047 0.295201 0.294621
0.274327 0.296635 0.304845
0.275578 0.303349 0.295079
0.280613 0.310277 0.283574
0.290074 0.316533 0.271214
0.303716 0.322118 0.258030
0.317601 0.323064 0.244083
0.364111 0.349157 0.235019
0.436530 0.386328 0.203983
0.509300 0.417212 0.169802
0.579797 0.441901 0.129580
0.645472 0.459937 0.073304
0.707118 0.473060 0.000000
0.769924 0.485573 0.000000
0.847837 0.508690 0.000000
0.900725 0.518090 0.000000
0.940490 0.520623 0.000000
0.970977 0.519158 0.000000
0.994934 0.515435 0.000000
1.000000 0.510613 0.000000
1.000000 0.505180 0.000000
1.000000 0.499641 0.000000
1.000000 0.494179 0.000000
1.000000 0.488899 0.000000
1.000000 0.483894 0.000000
0.273960 0.332952 0.303593
0.274815 0.332982 0.304479
0.275883 0.332891 0.305364
0.278294 0.332830 0.307530
0.281987 0.332525 0.310918
0.286870 0.333043 0.316258
0.293034 0.334173 0.323674
0.299718 0.335821 0.332860
0.306706 0.338140 0.344274
0.311284 0.342412 0.350195
0.312902 0.349310 0.336950
0.318822 0.355932 0.322667
0.328801 0.361608 0.307378
0.342687 0.365881 0.290806
0.356603 0.365698 0.273472
0.396887 0.386297 0.265537
0.472663 0.426001 0.230228
0.547204 0.458259 0.192691
0.617517 0.482612 0.151217
0.683162 0.500572 0.098451
0.743587 0.512749 0.000000
0.796078 0.518486 0.000000
0.857267 0.529778 0.000000
0.910430 0.539422 0.000000
0.948699 0.541680 0.000000
0.978058 0.539879 0.000000
1.000000 0.535851 0.000000
1.000000 0.530755 0.000000
1.000000 0.525048 0.000000
1.000000 0.519219 0.000000
1.000000 0.513451 0.000000
1.000000 0.507805 0.000000
0.306798 0.378943 0.346777
0.307744 0.379217 0.347723
0.308782 0.379187 0.348699
0.311437 0.379126 0.351110
0.315251 0.379126 0.354833
0.320287 0.379309 0.359991
0.326452 0.379980 0.367102
0.333318 0.381262 0.376104
0.340826 0.383459 0.387396
0.348699 0.386572 0.401434
0.350958 0.392493 0.398108
0.353460 0.399268 0.382452
0.359960 0.405371 0.365454
0.370367 0.410040 0.346929
0.384039 0.412818 0.326818
0.397681 0.410956 0.305913
0.430457 0.424811 0.299596
0.509239 0.466865 0.260716
0.585107 0.499702 0.220523
0.655665 0.524071 0.178134
0.720760 0.541253 0.128206
0.777615 0.550805 0.038880
0.825834 0.553887 0.000000
0.866606 0.551873 0.000000
0.919677 0.559319 0.000000
0.956756 0.561395 0.000000
0.985290 0.559442 0.000000
1.000000 0.555444 0.000000
1.000000 0.550195 0.000000
1.000000 0.544457 0.000000
1.000000 0.538476 0.000000
1.000000 0.532494 0.000000
0.342809 0.429603 0.394934
0.343938 0.429999 0.396094
0.345159 0.429969 0.397192
0.347845 0.430091 0.399664
0.352026 0.430121 0.403510
0.357305 0.430640 0.409094
0.363867 0.431556 0.416327
0.371435 0.433204 0.425757
0.379706 0.435309 0.437263
0.388220 0.438300 0.450996
0.396521 0.441962 0.466865
0.395514 0.448096 0.450935
0.397498 0.453285 0.431586
0.403418 0.457252 0.410742
0.412970 0.459724 0.388190
0.425849 0.460334 0.364508
0.439490 0.457374 0.340490
0.467994 0.466804 0.333379
0.546502 0.508843 0.295781
0.623865 0.542473 0.254307
0.694850 0.566674 0.211551
0.757626 0.581750 0.164889
0.810300 0.588281 0.107759
0.854398 0.588403 0.000000
0.891295 0.583948 0.000000
0.926421 0.579126 0.000000
0.966094 0.580774 0.000000
0.993530 0.578698 0.000000
1.000000 0.574487 0.000000
1.000000 0.568994 0.000000
1.000000 0.562951 0.000000
1.000000 0.556695 0.000000
0.380316 0.481453 0.444862
0.381170 0.481483 0.445716
0.382422 0.481453 0.446815
0.385077 0.481514 0.449165
0.389105 0.481697 0.453010
0.394507 0.482094 0.458381
0.401251 0.482918 0.465583
0.408942 0.484260 0.474647
0.417517 0.486305 0.485695
0.426520 0.489052 0.498909
0.435889 0.492622 0.514397
0.441169 0.497292 0.521386
0.439887 0.502831 0.501915
0.442054 0.507103 0.480354
0.447883 0.509758 0.456672
0.457099 0.510582 0.431434
0.469612 0.509728 0.405066
0.483650 0.506371 0.378485
0.510674 0.513298 0.368658
0.584314 0.551659 0.335973
0.661860 0.585016 0.293736
0.731197 0.607385 0.251102
0.789456 0.619013 0.207431
0.837980 0.622583 0.159518
0.878233 0.620081 0.097688
0.912016 0.613642 0.000000
0.941009 0.604578 0.000000
0.973510 0.599573 0.000000
1.000000 0.596704 0.000000
1.000000 0.592309 0.000000
1.000000 0.586725 0.000000
1.000000 0.580529 0.000000
0.420905 0.536034 0.498238
0.422126 0.536553 0.499489
0.437507 0.554437 0.518791
0.440101 0.554437 0.521080
0.444129 0.554345 0.524712
0.449409 0.554192 0.529595
0.455909 0.554345 0.536065
0.463386 0.554833 0.544213
0.472053 0.556115 0.554528
0.481178 0.558190 0.566857
0.490669 0.560845 0.580774
0.499672 0.564019 0.596216
0.499916 0.567834 0.589960
0.497627 0.571221 0.567803
0.498726 0.573358 0.543206
0.503563 0.573938 0.516320
0.512230 0.573083 0.487953
0.524285 0.570703 0.458381
0.538720 0.566522 0.428321
0.562585 0.569360 0.415503
0.629480 0.602045 0.387915
0.705592 0.633082 0.344762
0.769619 0.650721 0.302281
0.822202 0.657893 0.260533
0.865202 0.657374 0.216953
0.900999 0.651881 0.168612
0.931487 0.643153 0.105562
0.958007 0.632349 0.000000
0.981567 0.620264 0.000000
1.000000 0.614282 0.000000
1.000000 0.609613 0.000000
1.000000 0.603784 0.000000
0.468452 0.594537 0.558862
0.471351 0.596918 0.562097
0.474586 0.599268 0.565698
0.479042 0.601465 0.570214
0.484413 0.603113 0.575372
0.490181 0.603937 0.580926
0.496651 0.604395 0.587274
0.503960 0.604974 0.594751
0.512383 0.606226 0.604150
0.521386 0.607965 0.614954
0.530785 0.610254 0.627375
0.540093 0.613001 0.641047
0.548547 0.615991 0.655634
0.544305 0.619257 0.637934
0.542016 0.621546 0.615930
0.542901 0.622583 0.591333
0.547448 0.622400 0.564355
0.555840 0.621088 0.535210
0.568078 0.618769 0.504845
0.583612 0.615473 0.473793
0.605005 0.615595 0.458717
0.665492 0.643946 0.438727
0.738430 0.672175 0.396735
0.797848 0.686336 0.355810
0.846006 0.690547 0.315770
0.885557 0.687984 0.275029
0.918853 0.680964 0.232059
0.947478 0.671199 0.184176
0.972717 0.659480 0.123171
0.995239 0.646448 0.000000
1.000000 0.634241 0.000000
1.000000 0.626490 0.000000
0.512230 0.644251 0.612177
0.515038 0.646357 0.615167
0.518151 0.648554 0.618463
0.522301 0.650446 0.622461
0.527337 0.651881 0.627131
0.532769 0.652705 0.632074
0.538842 0.653193 0.637751
0.545861 0.653773 0.644465
0.553887 0.654902 0.652644
0.562585 0.656367 0.662226
0.571893 0.658442 0.673152
0.581109 0.660883 0.685115
0.589776 0.663447 0.697658
0.593988 0.666285 0.702510
0.589197 0.668635 0.683864
0.586969 0.670069 0.662745
0.587823 0.670527 0.639216
0.592279 0.670100 0.613489
0.600549 0.668727 0.585657
0.612787 0.666743 0.556054
0.628473 0.663813 0.524773
0.648005 0.662318 0.507530
0.700435 0.685115 0.495796
0.767971 0.709346 0.455604
0.822354 0.720119 0.416144
0.866361 0.721767 0.377508
0.902892 0.717586 0.338903
0.933989 0.709651 0.299443
0.961151 0.699153 0.257450
0.985290 0.686793 0.210178
1.000000 0.673091 0.150362
1.000000 0.658320 0.000000
0.557092 0.691585 0.663661
0.559747 0.693477 0.666285
0.562676 0.695399 0.669154
0.566491 0.697139 0.672755
0.571130 0.698390 0.676875
0.576196 0.699062 0.681178
0.581872 0.699428 0.686000
0.588251 0.699916 0.691798
0.595666 0.700679 0.698756
0.603815 0.701839 0.706844
0.612451 0.703426 0.715999
0.621332 0.705257 0.726101
0.629816 0.707301 0.736629
0.637659 0.709651 0.747616
0.637232 0.712154 0.743069
0.633295 0.714168 0.726619
0.631952 0.715846 0.708003
0.633753 0.716976 0.687404
0.639094 0.717556 0.664942
0.648157 0.717586 0.640589
0.661036 0.716915 0.614313
0.677363 0.715389 0.585962
0.694514 0.712276 0.567803
0.736904 0.728939 0.565087
0.797971 0.748806 0.528527
0.846708 0.756313 0.491859
0.886564 0.755978 0.455634
0.920073 0.750668 0.420020
0.949065 0.741970 0.383673
0.974609 0.730922 0.345892
0.997559 0.718074 0.304936
1.000000 0.703761 0.258427
0.609522 0.740444 0.719203
0.611017 0.741207 0.720607
0.612634 0.741756 0.721981
0.615198 0.742275 0.724025
0.618677 0.742672 0.726741
0.622797 0.742855 0.729946
0.627741 0.743099 0.733883
0.633631 0.743465 0.738766
0.640436 0.744289 0.744625
0.647974 0.745357 0.751400
0.656001 0.746883 0.758968
0.664118 0.748501 0.767025
0.671931 0.750149 0.775265
0.679194 0.751949 0.783719
0.685847 0.753841 0.792325
0.681727 0.755734 0.781735
0.678462 0.757290 0.768185
0.677302 0.758541 0.752712
0.678828 0.759426 0.735164
0.683345 0.759792 0.715236
0.691310 0.759579 0.693141
0.702632 0.758572 0.668727
0.717403 0.756771 0.642115
0.730922 0.751583 0.622034
0.763729 0.763058 0.626398
0.818326 0.779751 0.594507
0.862455 0.785824 0.562768
0.899138 0.785092 0.531060
0.930480 0.779965 0.499550
0.957916 0.771664 0.467384
0.982361 0.761227 0.434485
1.000000 0.748836 0.398871
0.652552 0.775662 0.760708
0.653925 0.776272 0.761868
0.655421 0.776852 0.763088
0.657618 0.777279 0.764675
0.660517 0.777554 0.766812
0.663905 0.777615 0.769192
0.668025 0.777707 0.772152
0.672816 0.777890 0.775814
0.678553 0.778347 0.780209
0.684901 0.779110 0.785336
0.691798 0.780148 0.791135
0.698817 0.781338 0.797391
0.705715 0.782620 0.803830
0.712367 0.784054 0.810575
0.718654 0.785641 0.817441
0.721736 0.787442 0.820249
0.718044 0.789212 0.810666
0.715755 0.790768 0.799802
0.715358 0.792111 0.787533
0.717098 0.793149 0.773648
0.721431 0.793820 0.757931
0.728664 0.794034 0.739986
0.738979 0.793637 0.719753
0.752468 0.792508 0.696742
0.760769 0.783841 0.671595
0.787472 0.792752 0.680079
0.834714 0.806729 0.656245
0.874723 0.812467 0.630579
0.908385 0.812345 0.605310
0.937499 0.808377 0.580652
0.963226 0.801907 0.556481
0.986145 0.792782 0.529900
0.696773 0.808774 0.799252
0.698024 0.809323 0.800198
0.699123 0.809659 0.800992
0.700679 0.809812 0.802029
0.702663 0.809751 0.803311
0.705226 0.809598 0.804868
0.708248 0.809415 0.806821
0.711818 0.809201 0.809232
0.715999 0.809140 0.812161
0.720760 0.809293 0.815640
0.725978 0.809567 0.819577
0.731502 0.810117 0.824033
0.737057 0.810819 0.828794
0.742458 0.811551 0.833677
0.747524 0.812314 0.838712
0.752193 0.813291 0.843900
0.751644 0.814481 0.841611
0.748562 0.815732 0.833494
0.746975 0.817105 0.824643
0.747097 0.818479 0.814817
0.749142 0.819730 0.803891
0.753201 0.820584 0.791470
0.759487 0.820890 0.777188
0.768154 0.820523 0.760525
0.779629 0.819394 0.741207
0.788144 0.813352 0.721370
0.811490 0.821164 0.730373
0.849760 0.832425 0.716670
0.885527 0.838193 0.697414
0.916045 0.839231 0.679286
0.942504 0.837034 0.662226
0.965850 0.832181 0.644770
0.730220 0.832059 0.826017
0.731289 0.832517 0.826749
0.732204 0.832822 0.827359
0.733547 0.832914 0.828153
0.735164 0.832914 0.829160
0.737270 0.832822 0.830442
0.739834 0.832700 0.831998
0.742885 0.832639 0.833951
0.746517 0.832670 0.836301
0.750668 0.832883 0.839139
0.755154 0.833249 0.842344
0.760006 0.833768 0.845914
0.764889 0.834409 0.849729
0.769711 0.835080 0.853696
0.774258 0.835813 0.857755
0.778592 0.836637 0.861936
0.782681 0.837675 0.866270
0.780331 0.839017 0.861295
0.778408 0.840391 0.855039
0.777707 0.841855 0.848173
0.778256 0.843168 0.840574
0.780240 0.844297 0.832029
0.783810 0.845090 0.822263
0.789120 0.845457 0.811063
0.796536 0.845335 0.798154
0.806302 0.844724 0.783291
0.813169 0.839536 0.766873
0.833585 0.846586 0.775479
0.864469 0.856504 0.770871
0.896147 0.863157 0.759487
0.922942 0.865415 0.748226
0.946380 0.865080 0.738399
0.760952 0.852598 0.848997
0.761685 0.852842 0.849454
0.762295 0.852964 0.849821
0.763149 0.852964 0.850309
0.764279 0.852811 0.850950
0.765866 0.852659 0.851804
0.767819 0.852476 0.852964
0.770230 0.852354 0.854398
0.773220 0.852354 0.856229
0.776638 0.852537 0.858427
0.780392 0.852781 0.860960
0.784512 0.853269 0.863828
0.788754 0.853819 0.866911
0.792935 0.854398 0.870115
0.796933 0.855009 0.873350
0.800748 0.855619 0.876707
0.804379 0.856382 0.880217
0.806363 0.857389 0.881804
0.804410 0.858762 0.877165
0.803281 0.860197 0.872221
0.803128 0.861601 0.866758
0.804044 0.862913 0.860777
0.806027 0.863981 0.854002
0.809323 0.864836 0.846372
0.814054 0.865324 0.837675
0.820462 0.865476 0.827787
0.828946 0.865354 0.816617
0.835447 0.861814 0.804349
0.852689 0.867674 0.811368
0.877745 0.876463 0.812253
0.905577 0.883360 0.804990
0.929473 0.887144 0.799619
0.786496 0.869261 0.867155
0.786984 0.869383 0.867460
0.787472 0.869474 0.867735
0.788174 0.869474 0.868132
0.789334 0.869474 0.868772
0.790890 0.869535 0.869688
0.793057 0.869749 0.870909
0.795712 0.870085 0.872526
0.798795 0.870573 0.874418
0.802304 0.871153 0.876646
0.806058 0.871855 0.879057
0.809995 0.872587 0.881682
0.813962 0.873320 0.884398
0.817807 0.874022 0.887114
0.821439 0.874693 0.889860
0.824826 0.875273 0.892576
0.828061 0.875883 0.895384
0.831144 0.876646 0.898283
0.831449 0.877775 0.897581
0.830320 0.879149 0.894041
0.829831 0.880522 0.890257
0.830137 0.881865 0.886046
0.831174 0.883024 0.881437
0.833127 0.884092 0.876249
0.836118 0.884947 0.870542
0.840330 0.885618 0.864134
0.845975 0.886107 0.857084
0.853239 0.886442 0.849241
0.859037 0.884215 0.840543
0.872892 0.888640 0.845274
0.892943 0.896391 0.849393
0.917205 0.903685 0.846220
0.812833 0.886046 0.885130
0.813138 0.886137 0.885313
0.813443 0.886137 0.885435
0.813931 0.886076 0.885710
0.814694 0.886015 0.886107
0.815793 0.885954 0.886687
0.817258 0.885954 0.887480
0.819120 0.886015 0.888548
0.821286 0.886168 0.889799
0.823819 0.886412 0.891295
0.826566 0.886687 0.893004
0.829496 0.887053 0.894865
0.832547 0.887449 0.896849
0.835569 0.887846 0.898924
