data/fiter_cube/81078425/1022776/file.cube
# Created by Adobe Lightroom plugin Export LUT (1.17.0)
# www.johnrellis.com/lightroom/exportlut.htm
# Preset: 旅拍情绪景观_10 云集视觉
# Color profile: C:\Program Files (x86)\Common Files\Adobe\Color\Profiles\Recommended\AdobeRGB1998.icc
LUT_3D_SIZE 5
DOMAIN_MIN 0.000000 0.000000 0.000000
DOMAIN_MAX 0.903226 0.903226 0.903226
0.088106 0.091890 0.092256
0.237217 0.105745 0.086213
0.735653 0.187564 0.000000
1.000000 0.251560 0.000000
1.000000 0.289067 0.000000
0.144778 0.161868 0.151156
0.164401 0.170871 0.148470
0.544396 0.296818 0.000000
0.968688 0.383398 0.000000
1.000000 0.374670 0.000000
0.306798 0.378943 0.346777
0.333318 0.381262 0.376104
0.384039 0.412818 0.326818
0.777615 0.550805 0.038880
1.000000 0.550195 0.000000
0.609522 0.740444 0.719203
0.633631 0.743465 0.738766
0.685847 0.753841 0.792325
0.702632 0.758572 0.668727
0.930480 0.779965 0.499550
0.832059 0.898283 0.897795
0.837461 0.898375 0.900694
0.850736 0.897887 0.908843
0.863493 0.904570 0.914672
0.879789 0.912413 0.891600
0.126253 0.132662 0.155612
0.167971 0.131624 0.176211
0.718379 0.000000 0.230045
1.000000 0.000000 0.180850
1.000000 0.311009 0.272984
0.147860 0.178347 0.178775
0.192050 0.203037 0.204013
0.650080 0.249332 0.176364
0.982940 0.331701 0.193118
1.000000 0.393194 0.278935
0.296605 0.394171 0.354833
0.351232 0.417670 0.406409
0.395483 0.430243 0.380316
0.780056 0.532708 0.176974
1.000000 0.558587 0.243290
0.610681 0.752987 0.728084
0.648127 0.761685 0.757168
0.702937 0.772274 0.804593
0.712154 0.770077 0.710445
0.930358 0.782864 0.547967
0.836973 0.902739 0.901946
0.842374 0.902861 0.904631
0.858946 0.904662 0.914275
0.871397 0.909483 0.921111
0.883665 0.915435 0.898802
0.201511 0.219272 0.305608
0.219059 0.218112 0.302556
0.338903 0.205051 0.384497
0.906340 0.000000 0.652857
1.000000 0.508598 0.690669
0.245365 0.289342 0.363409
0.260899 0.286503 0.361456
0.362249 0.269322 0.416266
0.916838 0.296025 0.659358
1.000000 0.646235 0.755795
0.276951 0.410620 0.434333
0.319402 0.431952 0.457649
0.431708 0.483314 0.513207
0.903471 0.640803 0.653559
0.991394 0.758907 0.780789
0.555993 0.757076 0.726619
0.601709 0.765957 0.748653
0.713252 0.795773 0.814084
0.736233 0.796109 0.791073
0.935851 0.778622 0.642481
0.824796 0.904997 0.899107
0.837339 0.908019 0.905241
0.867979 0.915343 0.921141
0.888060 0.919432 0.934081
0.890562 0.920806 0.912963
0.323369 0.377691 0.593225
0.337713 0.371374 0.584314
0.370336 0.339147 0.542321
0.607385 0.326879 0.713313
0.931884 0.597375 0.857023
0.371283 0.450813 0.643153
0.378698 0.438392 0.631037
0.400122 0.392859 0.583398
0.618402 0.387915 0.725460
0.929992 0.651789 0.863859
0.466285 0.600824 0.722133
0.498024 0.614923 0.730892
0.526238 0.596521 0.717830
0.650721 0.561517 0.759579
0.953979 0.780240 0.891020
0.546715 0.753964 0.793606
0.577478 0.761074 0.799863
0.658473 0.782467 0.818723
0.735531 0.797910 0.832273
0.951843 0.905150 0.920348
0.802640 0.909850 0.903716
0.815579 0.911772 0.907530
0.852140 0.918975 0.919768
0.897246 0.930968 0.939361
0.903105 0.930266 0.932097
0.609400 0.680873 0.866911
0.611017 0.673610 0.864439
0.620691 0.647395 0.856229
0.636469 0.578576 0.832578
0.838163 0.609186 0.908202
0.633417 0.711116 0.870939
0.633265 0.703487 0.868528
0.636561 0.675532 0.860105
0.641291 0.600031 0.834379
0.836973 0.633356 0.907103
0.704921 0.790616 0.887358
0.708827 0.789487 0.887083
0.699886 0.764645 0.878691
0.681910 0.692866 0.854612
0.843290 0.720607 0.910063
0.755581 0.850370 0.903380
0.761929 0.851408 0.903624
0.785733 0.857450 0.906523
0.792020 0.843626 0.901976
0.867643 0.839536 0.923491
0.808469 0.908202 0.924590
0.814603 0.909300 0.925505
0.838041 0.915068 0.930327
0.871580 0.924010 0.937804
0.901457 0.929198 0.942260
