data/fiter_cube/96471014/1022819/file.cube
# Created by Adobe Lightroom plugin Export LUT (1.17.0)
# www.johnrellis.com/lightroom/exportlut.htm
# Preset: 古风山上预设2
# Color profile: C:\Program Files (x86)\Common Files\Adobe\Color\Profiles\Recommended\AdobeRGB1998.icc
LUT_3D_SIZE 8
DOMAIN_MIN 0.000000 0.000000 0.000000
DOMAIN_MAX 0.903226 0.903226 0.903226
0.071534 0.118593 0.093782
0.125246 0.118746 0.095155
0.253147 0.105470 0.094240
0.447150 0.000000 0.082795
0.667506 0.087465 0.000000
0.818112 0.277531 0.000000
0.917754 0.396735 0.000000
0.995300 0.472633 0.000000
0.082826 0.136721 0.097871
0.118868 0.132601 0.102724
0.260136 0.123873 0.095644
0.449805 0.088899 0.083467
0.664607 0.144808 0.000000
0.812131 0.297398 0.000000
0.913817 0.408911 0.000000
0.993347 0.481544 0.000000
0.102815 0.176913 0.103395
0.136080 0.169772 0.107973
0.195315 0.161288 0.114321
0.411994 0.175662 0.093751
0.686580 0.285008 0.000000
0.822263 0.390173 0.000000
0.923003 0.469184 0.000000
0.997864 0.521202 0.000000
0.122683 0.234501 0.104891
0.150027 0.226535 0.108278
0.207034 0.205386 0.117464
0.279728 0.204898 0.123049
0.536156 0.270512 0.074281
0.805020 0.469520 0.000000
0.930358 0.547906 0.000000
0.999908 0.576837 0.000000
0.138430 0.301274 0.098329
0.162020 0.292943 0.101778
0.216220 0.266423 0.111910
0.278294 0.253483 0.119265
0.352544 0.252995 0.126070
0.587366 0.339178 0.079133
0.860838 0.556329 0.000000
0.992828 0.632105 0.000000
0.151400 0.375006 0.078920
0.173526 0.369177 0.082765
0.226566 0.341772 0.096132
0.275883 0.298222 0.112551
0.353643 0.310918 0.113558
0.433997 0.315740 0.121523
0.654078 0.422400 0.070863
0.925872 0.631434 0.000000
0.168002 0.476417 0.000000
0.189578 0.469642 0.000000
0.244694 0.441840 0.022736
0.301854 0.396551 0.078981
0.348058 0.352361 0.101991
0.457496 0.401556 0.086915
0.549279 0.419379 0.096376
0.744991 0.527916 0.035706
0.222629 0.628321 0.000000
0.245426 0.622278 0.000000
0.307469 0.602106 0.000000
0.380957 0.568383 0.000000
0.432410 0.511376 0.000000
0.517845 0.516045 0.000000
0.651637 0.586755 0.000000
0.738521 0.608545 0.000000
0.059968 0.118959 0.125124
0.106111 0.120974 0.120394
0.223850 0.115419 0.118227
0.406836 0.068544 0.113375
0.631312 0.028931 0.084932
0.795315 0.243198 0.000000
0.905058 0.379065 0.000000
0.988800 0.463233 0.000000
0.060975 0.135256 0.126162
0.112428 0.138094 0.126497
0.230228 0.131899 0.122530
0.415106 0.101961 0.113741
0.634668 0.120211 0.081880
0.794553 0.270970 0.000000
0.902739 0.393378 0.000000
0.986786 0.472206 0.000000
0.076692 0.181796 0.118471
0.124147 0.183200 0.123659
0.200931 0.169528 0.130800
0.408606 0.182620 0.117494
0.656458 0.257115 0.062470
0.804654 0.367041 0.000000
0.909514 0.453559 0.000000
0.990814 0.512383 0.000000
0.085603 0.245609 0.106386
0.137148 0.242649 0.118563
0.209873 0.215640 0.127901
0.282322 0.210666 0.134096
0.525902 0.268406 0.100679
0.794491 0.458747 0.000000
0.917296 0.535149 0.000000
0.993378 0.569787 0.000000
0.112734 0.315251 0.101381
0.149203 0.309300 0.108583
0.215518 0.280156 0.118654
0.278874 0.257542 0.127321
0.354376 0.257145 0.134218
0.588312 0.342473 0.095033
0.858671 0.554925 0.000000
0.991333 0.631189 0.000000
0.131991 0.388281 0.083284
0.159182 0.380652 0.088350
0.221225 0.352605 0.101167
0.277958 0.307774 0.117098
0.353765 0.313756 0.120241
0.436805 0.320195 0.128481
0.657404 0.427100 0.085756
0.925170 0.631281 0.000000
0.147097 0.484565 0.000000
0.172824 0.475929 0.000000
0.235477 0.448737 0.037781
0.299413 0.403754 0.082795
0.345586 0.352667 0.106996
0.454902 0.400916 0.094545
0.546075 0.417731 0.104524
0.742916 0.526085 0.065187
0.197757 0.631830 0.000000
0.224369 0.626673 0.000000
0.294347 0.606622 0.000000
0.374090 0.572595 0.000000
0.437201 0.523095 0.000000
0.517266 0.517815 0.000000
0.648615 0.584924 0.000000
0.735073 0.605676 0.000000
0.000000 0.119234 0.215488
0.047822 0.115663 0.211185
0.187747 0.124758 0.184817
0.359777 0.044343 0.180240
0.572381 0.000000 0.163119
0.764523 0.169100 0.145571
0.891417 0.342077 0.107668
0.983276 0.443824 0.073732
0.000000 0.136110 0.220188
0.058503 0.133455 0.215000
0.192782 0.141390 0.189151
0.358923 0.091279 0.176761
0.574304 0.050721 0.166232
0.764553 0.207797 0.144656
0.890257 0.360601 0.106233
0.982483 0.455238 0.074800
0.000000 0.186557 0.204410
0.063203 0.189425 0.204440
0.192691 0.195285 0.198428
0.379950 0.189914 0.188113
0.602594 0.213840 0.173220
0.777676 0.321965 0.143893
0.895537 0.427588 0.109468
0.984161 0.497169 0.090578
0.000000 0.256382 0.183322
0.050141 0.261845 0.178286
0.184665 0.272099 0.167483
0.306218 0.243076 0.180362
0.557733 0.309331 0.173709
0.798306 0.464363 0.147463
0.905669 0.520470 0.127687
0.987976 0.560784 0.127382
0.000000 0.335180 0.146426
0.002960 0.339422 0.139254
0.188907 0.342473 0.148379
0.288945 0.284947 0.159731
0.378820 0.287846 0.168399
0.625238 0.385138 0.143099
0.870390 0.569268 0.125277
0.992584 0.634272 0.184390
0.000000 0.416632 0.092561
0.000000 0.419898 0.079500
0.189395 0.411048 0.120912
0.286351 0.355627 0.136172
0.360967 0.331853 0.144656
0.452247 0.341924 0.155093
0.680781 0.455573 0.129671
0.933379 0.640009 0.099886
0.000000 0.519707 0.000000
0.000000 0.516747 0.000000
0.195743 0.499275 0.059968
0.294774 0.447242 0.093782
0.352850 0.378851 0.119936
0.457404 0.411475 0.116701
0.556481 0.433448 0.129030
0.761563 0.546960 0.113252
0.000000 0.658198 0.000000
0.077638 0.654078 0.000000
0.239445 0.636347 0.000000
0.354467 0.601282 0.000000
0.435340 0.547601 0.000000
0.507622 0.517540 0.007538
0.645319 0.586542 0.000000
0.737697 0.610834 0.064027
0.000000 0.119570 0.411933
0.000000 0.114107 0.410193
0.167544 0.109743 0.358221
0.310887 0.114351 0.305608
0.497230 0.000000 0.309026
0.713405 0.000000 0.255039
0.855161 0.224460 0.249821
0.965545 0.389624 0.245121
0.000000 0.135836 0.418799
0.000000 0.127657 0.411536
0.161349 0.125124 0.371283
0.314549 0.136049 0.309850
0.502892 0.000000 0.309270
0.712215 0.000000 0.241794
0.855619 0.259159 0.252140
0.965911 0.404883 0.245426
0.000000 0.210971 0.406043
0.000000 0.208530 0.406165
0.082490 0.188388 0.387488
0.320958 0.204898 0.317449
0.516014 0.145785 0.301061
0.715114 0.220462 0.275334
0.866972 0.365637 0.269139
0.970977 0.461341 0.259007
0.000000 0.293156 0.346777
0.000000 0.295018 0.345556
0.044160 0.301427 0.340002
0.298466 0.309483 0.319890
0.542016 0.328405 0.310887
0.740627 0.399725 0.298131
0.875914 0.481147 0.288396
0.974426 0.537774 0.284367
0.000000 0.361334 0.297063
0.000000 0.365698 0.293187
0.000000 0.380560 0.274876
0.257786 0.399237 0.240513
0.419898 0.352483 0.258183
0.678340 0.459358 0.272984
0.890562 0.597955 0.329412
0.980041 0.623590 0.331273
0.000000 0.448768 0.241978
0.000000 0.454444 0.236423
0.000000 0.463813 0.207340
0.247715 0.467720 0.193851
0.375280 0.375036 0.202762
0.486336 0.390997 0.216220
0.728847 0.512322 0.214450
0.947295 0.658167 0.291966
0.000000 0.550195 0.180453
0.000000 0.551873 0.167666
0.000000 0.556237 0.111025
0.241794 0.542016 0.131319
0.371069 0.457649 0.150027
0.463600 0.435187 0.158450
0.574212 0.461433 0.175540
0.790982 0.579248 0.183536
0.000000 0.689326 0.000000
0.000000 0.689631 0.000000
0.000000 0.687495 0.000000
0.272251 0.660609 0.000000
0.422309 0.599298 0.000000
0.490028 0.521263 0.088533
0.637385 0.588739 0.073396
0.740444 0.618128 0.130098
0.000000 0.121553 0.622736
0.000000 0.113008 0.622248
0.000000 0.053010 0.600763
0.344518 0.063447 0.525383
0.470253 0.072999 0.469886
0.635126 0.000000 0.471901
0.820706 0.000000 0.458076
0.947723 0.000000 0.359747
0.000000 0.132815 0.624811
0.000000 0.118410 0.621820
0.000000 0.088441 0.606531
0.344732 0.097169 0.532372
0.471199 0.117647 0.471046
0.634852 0.000000 0.470283
0.821408 0.000000 0.451850
0.945403 0.160983 0.370733
0.000000 0.259403 0.628687
0.000000 0.243748 0.623590
0.000000 0.184207 0.602167
0.327459 0.178012 0.552026
0.471748 0.214755 0.473060
0.632868 0.132326 0.462470
0.822263 0.000000 0.423957
0.936461 0.384833 0.405707
0.000000 0.386755 0.584588
0.000000 0.383520 0.583856
0.000000 0.369879 0.581445
0.210147 0.323735 0.562890
0.471168 0.342382 0.474495
0.654627 0.294011 0.454322
0.818814 0.392187 0.419471
0.947478 0.485115 0.414923
0.000000 0.458656 0.508385
0.000000 0.459693 0.507591
0.000000 0.461006 0.501976
0.127504 0.461585 0.488594
0.417762 0.459937 0.458534
0.683375 0.499611 0.457862
0.844663 0.554253 0.453040
0.957549 0.595514 0.448035
0.000000 0.503258 0.437690
0.000000 0.504295 0.435554
0.000000 0.504997 0.424506
0.000000 0.517967 0.395178
0.331365 0.530816 0.322698
0.531151 0.471107 0.340337
0.786893 0.588891 0.388525
0.963165 0.695064 0.495644
0.000000 0.586755 0.394995
0.000000 0.588220 0.389105
0.000000 0.593225 0.364904
0.000000 0.600244 0.302159
0.307561 0.591669 0.233310
0.461280 0.469154 0.230869
0.598413 0.503532 0.254948
0.834073 0.624292 0.292668
0.000000 0.710903 0.371649
0.000000 0.710994 0.360388
0.000000 0.711208 0.312810
0.000000 0.713954 0.181949
0.316411 0.687343 0.110414
0.494270 0.593194 0.133028
0.618341 0.589105 0.148836
0.740108 0.625360 0.197177
0.000000 0.127077 0.759213
0.000000 0.127077 0.759426
0.000000 0.000000 0.750118
0.376593 0.000000 0.716579
0.548119 0.060945 0.651728
0.639704 0.074983 0.612726
0.769924 0.000000 0.611933
0.910552 0.000000 0.597559
0.000000 0.127108 0.757687
0.000000 0.111086 0.756710
0.000000 0.040162 0.748043
0.362036 0.000000 0.718074
0.546441 0.113893 0.652979
0.637812 0.132815 0.611505
0.768490 0.000000 0.609827
0.911192 0.000000 0.594476
0.000000 0.266361 0.759274
0.000000 0.245304 0.756802
0.000000 0.166842 0.747372
0.291997 0.099886 0.728084
0.545129 0.215579 0.663630
0.637781 0.248142 0.612238
0.767178 0.175326 0.605371
0.913237 0.153811 0.584497
0.000000 0.466407 0.746181
0.000000 0.458900 0.746517
0.000000 0.428321 0.747066
0.000000 0.325353 0.727504
0.523461 0.342351 0.681514
0.638300 0.387701 0.614221
0.765591 0.324804 0.595880
0.917144 0.342046 0.564141
0.000000 0.583093 0.698604
0.000000 0.581415 0.698665
0.000000 0.573846 0.698207
0.000000 0.555291 0.697261
0.395880 0.505638 0.685756
0.625605 0.514641 0.605035
0.777615 0.464424 0.578912
0.915251 0.535485 0.551080
0.000000 0.633600 0.633082
0.000000 0.634607 0.633112
0.000000 0.634363 0.630396
0.000000 0.631952 0.623804
0.244358 0.624109 0.609857
0.558709 0.611627 0.579828
0.802853 0.653223 0.591394
0.937377 0.683497 0.592309
0.000000 0.671809 0.581842
0.000000 0.672541 0.580835
0.000000 0.671778 0.574334
0.000000 0.667048 0.557855
0.000000 0.665309 0.517113
0.423896 0.662043 0.412299
0.645380 0.588403 0.420081
0.890501 0.696834 0.508690
0.000000 0.742306 0.561700
0.000000 0.742763 0.558312
0.000000 0.744533 0.544488
0.000000 0.748013 0.511467
0.000000 0.748653 0.421393
0.388678 0.723415 0.264469
0.586694 0.599359 0.242161
0.745449 0.645991 0.300694
0.000000 0.133577 0.842954
0.000000 0.133730 0.844480
0.000000 0.083345 0.842374
0.317296 0.000000 0.831388
0.569970 0.000000 0.800107
0.686336 0.260472 0.744228
0.766049 0.216342 0.719539
0.871672 0.157839 0.710445
0.000000 0.133120 0.838376
0.000000 0.133272 0.839780
0.000000 0.073335 0.837400
0.287358 0.000000 0.827298
0.556634 0.000000 0.794217
0.675746 0.260899 0.736110
0.753750 0.220523 0.708431
0.860838 0.148898 0.700465
0.000000 0.195956 0.843046
0.000000 0.207095 0.842802
0.000000 0.129274 0.838926
0.150759 0.000000 0.829648
0.535332 0.000000 0.799344
0.676539 0.328985 0.742855
0.757198 0.318456 0.712581
0.867277 0.269108 0.703670
0.000000 0.458595 0.841886
0.000000 0.444099 0.840696
0.000000 0.385595 0.837186
0.000000 0.272007 0.830564
0.477699 0.257023 0.811215
0.678370 0.434180 0.757961
0.761379 0.445563 0.718166
0.870176 0.385534 0.700893
0.000000 0.609888 0.815579
0.000000 0.604730 0.814908
0.000000 0.588067 0.815366
0.000000 0.554314 0.819516
0.307195 0.466438 0.806332
0.647547 0.514275 0.764553
0.747646 0.542718 0.706844
0.864256 0.485908 0.685634
0.000000 0.701198 0.778683
0.000000 0.700252 0.778897
0.000000 0.696437 0.779782
0.000000 0.688533 0.782681
0.000000 0.669429 0.785794
0.582605 0.652796 0.779202
0.749142 0.663813 0.708095
0.879728 0.615381 0.677790
0.000000 0.757321 0.732174
0.000000 0.758633 0.732906
0.000000 0.759060 0.732143
0.000000 0.759487 0.730465
0.000000 0.754482 0.723232
0.395117 0.743496 0.709133
0.692073 0.730220 0.678431
0.903899 0.768185 0.700465
0.000000 0.803983 0.693629
0.000000 0.803983 0.692531
0.000000 0.810330 0.693660
0.000000 0.810483 0.685267
0.000000 0.803738 0.663416
0.000000 0.793301 0.612909
0.522087 0.768917 0.486793
0.758206 0.696529 0.488014
0.000000 0.139406 0.879423
0.000000 0.139406 0.879789
0.000000 0.139406 0.879362
0.000000 0.000000 0.876646
0.499519 0.000000 0.866148
0.675990 0.000000 0.843503
0.767636 0.425330 0.801175
0.847532 0.329656 0.793088
0.000000 0.139071 0.878355
0.000000 0.139254 0.878721
0.000000 0.139254 0.878538
0.000000 0.000000 0.875364
0.497230 0.000000 0.864561
0.670619 0.000000 0.842100
0.763363 0.424750 0.798459
0.842741 0.333898 0.789151
0.000000 0.139071 0.878050
0.000000 0.139071 0.878172
0.000000 0.134798 0.877501
0.000000 0.000000 0.875639
0.457374 0.000000 0.866453
0.658839 0.089784 0.843046
0.761227 0.453803 0.799496
0.840360 0.386297 0.787442
0.000000 0.223941 0.877714
0.000000 0.234012 0.877806
0.000000 0.267796 0.876860
0.000000 0.152621 0.876188
0.344579 0.000000 0.870024
0.636255 0.249607 0.848325
0.762325 0.509300 0.805997
0.841367 0.473121 0.788693
0.000000 0.518059 0.869627
0.000000 0.519646 0.869902
0.000000 0.519371 0.869688
0.000000 0.452277 0.871275
0.000000 0.324071 0.868772
0.571252 0.361151 0.853513
0.756100 0.565148 0.812619
0.841886 0.571893 0.789120
0.000000 0.675105 0.852750
0.000000 0.674800 0.852232
0.000000 0.674098 0.851255
0.000000 0.655329 0.853758
0.000000 0.613367 0.859464
0.455695 0.561700 0.854093
0.752682 0.653956 0.827543
0.853605 0.686488 0.796872
0.000000 0.770657 0.831083
0.000000 0.770474 0.830533
0.000000 0.770230 0.829129
0.000000 0.764828 0.831052
0.000000 0.754086 0.834531
0.227176 0.734859 0.839567
0.715145 0.754940 0.836362
0.849271 0.766262 0.791501
0.000000 0.837369 0.803555
0.000000 0.837217 0.802792
0.000000 0.838712 0.802213
0.000000 0.843626 0.805112
0.000000 0.849088 0.808042
0.000000 0.845731 0.804807
0.540887 0.835569 0.795285
0.805966 0.823087 0.767788
