data/fiter_cube/96471014/1022819/file.cube
# Created by Adobe Lightroom plugin Export LUT (1.17.0)
# www.johnrellis.com/lightroom/exportlut.htm
# Preset: 古风山上预设2
# Color profile: C:\Program Files (x86)\Common Files\Adobe\Color\Profiles\Recommended\AdobeRGB1998.icc
LUT_3D_SIZE 32
DOMAIN_MIN 0.0 0.0 0.0
DOMAIN_MAX 1.0 1.0 1.0
0.071534 0.118593 0.093782
0.076967 0.118715 0.093935
0.084901 0.118959 0.094240
0.102083 0.119173 0.094820
0.125246 0.118746 0.095155
0.151858 0.117525 0.095216
0.181765 0.115419 0.095186
0.215427 0.111543 0.095003
0.253147 0.105470 0.094240
0.295293 0.096223 0.092927
0.341955 0.082277 0.091005
0.392889 0.060304 0.087617
0.447150 0.000000 0.082795
0.503197 0.000000 0.075837
0.558923 0.000000 0.064729
0.614038 0.000000 0.035828
0.667506 0.087465 0.000000
0.713893 0.144106 0.000000
0.753048 0.192874 0.000000
0.787381 0.237095 0.000000
0.818112 0.277531 0.000000
0.846159 0.313725 0.000000
0.871580 0.345373 0.000000
0.895384 0.372808 0.000000
0.917754 0.396735 0.000000
0.938842 0.418036 0.000000
0.958740 0.437568 0.000000
0.977569 0.455756 0.000000
0.995300 0.472633 0.000000
1.000000 0.488624 0.000000
1.000000 0.504021 0.000000
1.000000 0.518914 0.000000
0.073060 0.120333 0.094362
0.077119 0.120150 0.095064
0.085603 0.120150 0.094636
0.102937 0.120516 0.095155
0.126101 0.120272 0.095460
0.152560 0.119081 0.095552
0.182498 0.116732 0.095552
0.215793 0.113283 0.095064
0.253300 0.107332 0.094545
0.295201 0.098726 0.093233
0.341650 0.085481 0.091066
0.392187 0.065492 0.088014
0.446052 0.013428 0.083253
0.501884 0.000000 0.076020
0.557488 0.000000 0.065431
0.612238 0.000000 0.038117
0.664820 0.092378 0.000000
0.710842 0.145632 0.000000
0.749905 0.192874 0.000000
0.784573 0.236881 0.000000
0.815518 0.276768 0.000000
0.843656 0.312932 0.000000
0.869383 0.344732 0.000000
0.893370 0.372381 0.000000
0.915923 0.396399 0.000000
0.937224 0.417975 0.000000
0.957336 0.437568 0.000000
0.976318 0.455726 0.000000
0.994263 0.472663 0.000000
1.000000 0.488716 0.000000
1.000000 0.504021 0.000000
1.000000 0.519005 0.000000
0.074250 0.123140 0.095064
0.080995 0.122683 0.096010
0.085389 0.122408 0.096468
0.103059 0.122377 0.095735
0.127291 0.122377 0.095979
0.153689 0.121157 0.096040
0.183261 0.118898 0.096040
0.216556 0.115206 0.095583
0.253941 0.109895 0.094789
0.295445 0.101717 0.093477
0.341924 0.089570 0.091249
0.392493 0.072114 0.087831
0.446113 0.034180 0.083345
0.501640 0.000000 0.076143
0.557122 0.000000 0.065400
0.612055 0.033753 0.036500
0.663844 0.101625 0.000000
0.709499 0.151186 0.000000
0.748562 0.196597 0.000000
0.783230 0.239658 0.000000
0.814298 0.279179 0.000000
0.842588 0.315129 0.000000
0.868315 0.346563 0.000000
0.892424 0.373968 0.000000
0.915038 0.397711 0.000000
0.936370 0.419104 0.000000
0.956634 0.438605 0.000000
0.975708 0.456733 0.000000
0.993713 0.473640 0.000000
1.000000 0.489540 0.000000
1.000000 0.504845 0.000000
1.000000 0.519707 0.000000
0.078462 0.129122 0.096101
0.085542 0.128420 0.097292
0.092531 0.128023 0.098421
0.101442 0.126925 0.099550
0.124971 0.125978 0.097444
0.153750 0.125612 0.097078
0.186038 0.123751 0.096651
0.219181 0.120150 0.096193
0.256596 0.115114 0.095338
0.298161 0.107881 0.093660
0.344121 0.097566 0.091402
0.394232 0.083619 0.088167
0.447486 0.065888 0.083528
0.502861 0.038422 0.076081
0.557977 0.036805 0.064729
0.612848 0.077058 0.034516
0.663569 0.119783 0.000000
0.708522 0.164096 0.000000
0.747066 0.206332 0.000000
0.781430 0.246860 0.000000
0.812345 0.284977 0.000000
0.840665 0.319951 0.000000
0.866697 0.350744 0.000000
0.891142 0.377813 0.000000
0.914244 0.401709 0.000000
0.935973 0.423163 0.000000
0.956451 0.442359 0.000000
0.975677 0.460182 0.000000
0.993713 0.476875 0.000000
1.000000 0.492470 0.000000
1.000000 0.507378 0.000000
1.000000 0.521935 0.000000
0.082826 0.136721 0.097871
0.089570 0.135897 0.098817
0.096956 0.135073 0.099977
0.108522 0.134401 0.101656
0.118868 0.132601 0.102724
0.142947 0.130953 0.101106
0.179141 0.130220 0.098787
0.219516 0.127932 0.097322
0.260136 0.123873 0.095644
0.301244 0.117861 0.094148
0.347082 0.109865 0.091737
0.396826 0.099855 0.088350
0.449805 0.088899 0.083467
0.504814 0.081910 0.075624
0.559716 0.086275 0.063539
0.614496 0.109468 0.029572
0.664607 0.144808 0.000000
0.709102 0.184207 0.000000
0.747433 0.223239 0.000000
0.781552 0.261509 0.000000
0.812131 0.297398 0.000000
0.840299 0.330541 0.000000
0.866239 0.360113 0.000000
0.890715 0.386023 0.000000
0.913817 0.408911 0.000000
0.935637 0.429480 0.000000
0.956146 0.448127 0.000000
0.975311 0.465339 0.000000
0.993347 0.481544 0.000000
1.000000 0.496620 0.000000
1.000000 0.511162 0.000000
1.000000 0.525383 0.000000
0.087678 0.144991 0.099458
0.093416 0.144259 0.100160
0.100191 0.143374 0.101289
0.112093 0.141421 0.103334
0.126345 0.141390 0.104280
0.136843 0.138521 0.105867
0.159823 0.136172 0.104982
0.204257 0.135714 0.100404
0.249790 0.134249 0.098329
0.303716 0.131044 0.095247
0.352605 0.125948 0.092226
0.402136 0.119509 0.088533
0.454749 0.114260 0.082887
0.509361 0.113161 0.074342
0.564843 0.121859 0.060548
0.618433 0.143343 0.021088
0.667506 0.174380 0.000000
0.711299 0.209781 0.000000
0.749203 0.246372 0.000000
0.782925 0.281590 0.000000
0.813413 0.315190 0.000000
0.841459 0.346197 0.000000
0.880980 0.389563 0.000000
0.904051 0.411566 0.000000
0.925689 0.431037 0.000000
0.945953 0.448676 0.000000
0.964965 0.465003 0.000000
0.982818 0.480049 0.000000
0.999603 0.494392 0.000000
1.000000 0.508080 0.000000
1.000000 0.521386 0.000000
1.000000 0.534417 0.000000
0.092592 0.155062 0.100923
0.097749 0.154269 0.101381
0.104250 0.153262 0.102296
0.115785 0.151156 0.104128
0.129580 0.148836 0.106264
0.146426 0.149691 0.107149
0.156558 0.145602 0.108766
0.176913 0.141939 0.109194
0.232120 0.143038 0.101991
0.283177 0.143008 0.099306
0.343938 0.142763 0.095125
0.413733 0.143923 0.087617
0.467964 0.143679 0.080659
0.522240 0.147738 0.070832
0.578943 0.161440 0.048829
0.631128 0.184176 0.000000
0.678279 0.213565 0.000000
0.720394 0.246372 0.000000
0.757107 0.279454 0.000000
0.790188 0.312169 0.000000
0.820615 0.343511 0.000000
0.849180 0.372625 0.000000
0.875700 0.398505 0.000000
0.900572 0.420935 0.000000
0.923583 0.440742 0.000000
0.944640 0.458015 0.000000
0.963989 0.473732 0.000000
0.981994 0.488167 0.000000
0.998840 0.501701 0.000000
1.000000 0.514794 0.000000
1.000000 0.527489 0.000000
1.000000 0.540063 0.000000
0.097536 0.165377 0.102205
0.102113 0.164675 0.102663
0.107881 0.163516 0.103395
0.119051 0.161410 0.104952
0.132815 0.158297 0.107210
0.147433 0.157076 0.108827
0.166201 0.158236 0.109468
0.175540 0.153079 0.111635
0.192020 0.147799 0.113375
0.251957 0.151095 0.105379
0.312230 0.153597 0.100465
0.377752 0.157229 0.094911
0.451759 0.165377 0.084810
0.531365 0.183230 0.065827
0.585595 0.198398 0.034241
0.635645 0.220249 0.000000
0.681453 0.247440 0.000000
0.722377 0.277317 0.000000
0.758236 0.307134 0.000000
0.790738 0.336736 0.000000
0.820859 0.365362 0.000000
0.848997 0.391516 0.000000
0.875303 0.415076 0.000000
0.899962 0.435615 0.000000
0.922881 0.453803 0.000000
0.943877 0.469886 0.000000
0.963256 0.484413 0.000000
0.981292 0.497841 0.000000
0.998169 0.510643 0.000000
1.000000 0.522942 0.000000
1.000000 0.535027 0.000000
1.000000 0.546990 0.000000
0.102815 0.176913 0.103395
0.106874 0.176150 0.103883
0.112062 0.175265 0.104555
0.122408 0.173098 0.105928
0.136080 0.169772 0.107973
0.150179 0.165835 0.110445
0.166567 0.166415 0.111208
0.185611 0.167330 0.111910
0.195315 0.161288 0.114321
0.210636 0.155093 0.116518
0.270085 0.159884 0.109590
0.340551 0.166140 0.100954
0.411994 0.175662 0.093751
0.491676 0.192477 0.079591
0.572442 0.221927 0.046540
0.642451 0.259922 0.000000
0.686580 0.285008 0.000000
0.726314 0.312352 0.000000
0.760983 0.338781 0.000000
0.792721 0.365057 0.000000
0.822263 0.390173 0.000000
0.849973 0.413642 0.000000
0.875883 0.434211 0.000000
0.900298 0.452857 0.000000
0.923003 0.469184 0.000000
0.943816 0.483619 0.000000
0.963104 0.497017 0.000000
0.981048 0.509331 0.000000
0.997864 0.521202 0.000000
1.000000 0.532616 0.000000
1.000000 0.543847 0.000000
1.000000 0.555169 0.000000
0.108003 0.189731 0.104433
0.111574 0.189029 0.104921
0.116609 0.187961 0.105409
0.126375 0.185733 0.106600
0.139467 0.182467 0.108431
0.153872 0.178073 0.110750
0.168124 0.174594 0.112795
0.186282 0.176394 0.113405
0.204959 0.176883 0.114260
0.215274 0.170321 0.116640
0.230411 0.163455 0.119234
0.287968 0.169162 0.113375
0.369055 0.180667 0.100618
0.444678 0.196323 0.091402
0.525536 0.221103 0.073304
0.605249 0.259312 0.010224
0.678279 0.308904 0.000000
0.732143 0.350652 0.000000
0.765774 0.374060 0.000000
0.796414 0.396551 0.000000
0.824918 0.417884 0.000000
0.851652 0.437659 0.000000
0.876768 0.455421 0.000000
0.900481 0.471290 0.000000
0.922698 0.485664 0.000000
0.943420 0.498665 0.000000
0.962676 0.510704 0.000000
0.980682 0.522026 0.000000
0.997559 0.532921 0.000000
1.000000 0.543542 0.000000
1.000000 0.554162 0.000000
1.000000 0.564843 0.000000
0.112703 0.203372 0.104921
0.116121 0.202640 0.105409
0.120943 0.201541 0.105928
0.130190 0.199283 0.106935
0.142794 0.195926 0.108614
0.157107 0.191531 0.110750
0.171450 0.186404 0.113283
0.186831 0.185061 0.114839
0.206516 0.187228 0.115206
0.224491 0.186923 0.116487
0.235935 0.180575 0.119112
0.251072 0.173129 0.121675
0.304936 0.178714 0.117067
0.390173 0.195163 0.102846
0.473243 0.217807 0.088258
0.555047 0.250309 0.064881
0.633082 0.295293 0.000000
0.702419 0.347662 0.000000
0.760220 0.397070 0.000000
0.799344 0.427558 0.000000
0.827237 0.445716 0.000000
0.853483 0.462501 0.000000
0.878294 0.477882 0.000000
0.901671 0.491798 0.000000
0.923613 0.504173 0.000000
0.943969 0.515465 0.000000
0.962951 0.526024 0.000000
0.980743 0.536156 0.000000
0.997467 0.545861 0.000000
1.000000 0.555566 0.000000
1.000000 0.565240 0.000000
1.000000 0.575158 0.000000
0.117830 0.217868 0.105257
0.120912 0.217075 0.105531
0.125307 0.215976 0.106081
0.134005 0.213901 0.107088
0.146365 0.210300 0.108644
0.160220 0.205936 0.110597
0.174716 0.200504 0.113039
0.188327 0.194339 0.115846
0.205997 0.196109 0.116548
0.227146 0.199191 0.116945
0.244541 0.198184 0.118227
0.256504 0.191562 0.121187
0.277409 0.186374 0.124697
0.328283 0.191928 0.120974
0.420661 0.216068 0.104891
0.515373 0.249729 0.080049
0.598383 0.293370 0.028199
0.673274 0.345861 0.000000
0.737545 0.398688 0.000000
0.790463 0.443275 0.000000
0.835111 0.479469 0.000000
0.864286 0.497444 0.000000
0.887358 0.508537 0.000000
0.909331 0.519005 0.000000
0.929992 0.528618 0.000000
0.949279 0.537530 0.000000
0.967346 0.546075 0.000000
0.984283 0.554284 0.000000
1.000000 0.562524 0.000000
1.000000 0.570764 0.000000
1.000000 0.579248 0.000000
1.000000 0.588159 0.000000
0.122683 0.234501 0.104891
0.125612 0.233799 0.105196
0.129885 0.232609 0.105745
0.138338 0.230228 0.106874
0.150027 0.226535 0.108278
0.163699 0.221744 0.110201
0.178164 0.216129 0.112520
0.192569 0.209903 0.115206
0.207034 0.205386 0.117464
0.226658 0.208896 0.117617
0.249241 0.212985 0.118196
0.266270 0.211337 0.119905
0.279728 0.204898 0.123049
0.295201 0.196689 0.126314
0.339910 0.200198 0.124300
0.434150 0.228916 0.107912
0.536156 0.270512 0.074281
0.617609 0.319127 0.000000
0.691279 0.374853 0.000000
0.753933 0.427161 0.000000
0.805020 0.469520 0.000000
0.848539 0.503227 0.000000
0.886503 0.529381 0.000000
0.910094 0.539940 0.000000
0.930358 0.547906 0.000000
0.949462 0.555413 0.000000
0.967315 0.562615 0.000000
0.984070 0.569726 0.000000
0.999908 0.576837 0.000000
1.000000 0.584253 0.000000
1.000000 0.591852 0.000000
1.000000 0.600061 0.000000
0.126711 0.250431 0.104189
0.129976 0.249851 0.104463
0.133700 0.248661 0.104829
0.141970 0.246189 0.106020
0.153170 0.242741 0.107485
0.166659 0.237858 0.109285
0.181094 0.231998 0.111757
0.195468 0.225284 0.114229
0.208835 0.217777 0.117128
0.225010 0.216953 0.118379
0.245670 0.221042 0.118624
0.269261 0.225772 0.118837
0.285039 0.223301 0.121065
0.298711 0.216495 0.124208
0.313573 0.207889 0.127901
0.350744 0.208438 0.127321
0.446204 0.241215 0.110933
0.549462 0.287938 0.074647
0.635523 0.343816 0.000000
0.708675 0.402289 0.000000
0.769467 0.453407 0.000000
0.819272 0.493751 0.000000
0.861784 0.525048 0.000000
0.899046 0.549187 0.000000
0.931487 0.568170 0.000000
0.950286 0.574243 0.000000
0.967895 0.580194 0.000000
0.984436 0.586175 0.000000
1.000000 0.592248 0.000000
1.000000 0.598627 0.000000
1.000000 0.605463 0.000000
1.000000 0.612940 0.000000
0.130983 0.267491 0.102663
0.133913 0.266789 0.103212
0.137545 0.265629 0.103639
0.145235 0.263218 0.104616
0.156588 0.259129 0.106081
0.169558 0.254124 0.108003
0.183597 0.248112 0.110445
0.197910 0.241093 0.112917
0.211582 0.233371 0.115785
0.223850 0.225071 0.118837
0.242741 0.228763 0.119051
0.264500 0.233707 0.119112
0.288762 0.239017 0.119142
0.303471 0.235355 0.121798
0.317449 0.228763 0.125246
0.332280 0.220066 0.128908
0.360266 0.215915 0.130037
0.457404 0.252689 0.113741
0.561761 0.304814 0.076631
0.653590 0.368750 0.000000
0.725612 0.428443 0.000000
0.784482 0.477638 0.000000
0.832914 0.515709 0.000000
0.874693 0.545037 0.000000
0.911284 0.567529 0.000000
0.943053 0.585443 0.000000
0.968872 0.598535 0.000000
0.985351 0.603510 0.000000
1.000000 0.608789 0.000000
1.000000 0.614405 0.000000
1.000000 0.620539 0.000000
1.000000 0.627070 0.000000
0.134920 0.284489 0.100801
0.137819 0.283757 0.101137
0.141329 0.282597 0.101564
0.148653 0.280278 0.102602
0.159426 0.276219 0.104189
0.172213 0.271275 0.106264
0.186191 0.265141 0.108431
0.200412 0.257969 0.111086
0.214267 0.250095 0.114137
0.226993 0.241398 0.117037
0.240787 0.236362 0.119173
0.260929 0.241276 0.119326
0.283421 0.246647 0.119265
0.307713 0.252293 0.119020
0.320897 0.247196 0.122225
0.335088 0.240513 0.125643
0.350103 0.232181 0.129427
0.374762 0.226444 0.131319
0.468238 0.263981 0.116396
0.574334 0.321996 0.078401
0.671931 0.393866 0.000000
0.742916 0.453986 0.000000
0.799893 0.500999 0.000000
0.847440 0.537285 0.000000
0.888518 0.564569 0.000000
0.924498 0.585718 0.000000
0.955474 0.602594 0.000000
0.981964 0.616632 0.000000
1.000000 0.625971 0.000000
1.000000 0.630549 0.000000
1.000000 0.635737 0.000000
1.000000 0.641138 0.000000
0.138430 0.301274 0.098329
0.141085 0.300450 0.098726
0.144533 0.299382 0.099184
0.151827 0.296635 0.100191
0.162020 0.292943 0.101778
0.174380 0.287968 0.103792
0.188144 0.281682 0.106172
0.202365 0.274479 0.108827
0.216220 0.266423 0.111910
0.229282 0.257572 0.114992
0.241032 0.248020 0.118288
0.257237 0.247990 0.119265
0.278294 0.253483 0.119265
0.301457 0.259373 0.119051
0.324559 0.264195 0.119265
0.338048 0.259281 0.122408
0.352544 0.252995 0.126070
0.368109 0.244877 0.129946
0.392798 0.239567 0.131716
0.479103 0.275120 0.118410
0.587366 0.339178 0.079133
0.686427 0.415656 0.000000
0.758572 0.476722 0.000000
0.814206 0.522148 0.000000
0.860838 0.556329 0.000000
0.901610 0.582208 0.000000
0.936889 0.602289 0.000000
0.967224 0.618555 0.000000
0.992828 0.632105 0.000000
1.000000 0.643885 0.000000
1.000000 0.651270 0.000000
1.000000 0.655634 0.000000
0.141665 0.318608 0.095277
0.144289 0.317784 0.095430
0.148836 0.321538 0.095216
0.156130 0.318944 0.096315
0.166384 0.314794 0.097963
0.178592 0.309575 0.100282
0.192203 0.303014 0.102998
0.206455 0.295232 0.105806
0.220493 0.286717 0.109041
0.233829 0.277287 0.112306
0.245975 0.267124 0.115785
0.256596 0.256779 0.119112
0.276371 0.262394 0.118929
0.298375 0.268437 0.118746
0.322118 0.274998 0.118318
0.344244 0.278965 0.118776
0.358343 0.274174 0.122011
0.373480 0.268254 0.125765
0.389563 0.260533 0.129885
0.414710 0.255802 0.131930
0.494240 0.289342 0.120119
0.604456 0.360327 0.077974
0.703395 0.439887 0.000000
0.776974 0.501610 0.000000
0.830716 0.544305 0.000000
0.876158 0.575982 0.000000
0.915862 0.599908 0.000000
0.950103 0.618830 0.000000
0.979339 0.634302 0.000000
1.000000 0.647608 0.000000
1.000000 0.659205 0.000000
1.000000 0.669001 0.021149
0.145296 0.337560 0.091005
0.147738 0.337469 0.091188
0.151461 0.336797 0.091554
0.158297 0.335119 0.092683
0.168460 0.331670 0.094240
0.180545 0.326604 0.096468
0.193942 0.320134 0.099397
0.208133 0.312535 0.102449
0.222202 0.303807 0.105806
0.235752 0.294438 0.109346
0.248142 0.284123 0.112673
0.259251 0.273350 0.116335
0.272587 0.268528 0.118502
0.293126 0.274662 0.118196
0.315648 0.281285 0.117617
0.340185 0.288518 0.116915
0.360998 0.291539 0.117800
0.375586 0.287236 0.121248
0.391424 0.281804 0.125032
0.408240 0.274662 0.129335
0.434028 0.270878 0.131411
0.506340 0.301335 0.121126
0.618158 0.378180 0.077424
0.716701 0.459602 0.000000
0.792355 0.522271 0.000000
0.845121 0.563104 0.000000
0.890501 0.593469 0.000000
0.929839 0.616510 0.000000
0.963592 0.634943 0.000000
0.992065 0.650233 0.000000
1.000000 0.662959 0.000000
1.000000 0.673762 0.000000
0.148653 0.355444 0.085847
0.151034 0.355413 0.086030
0.154421 0.354925 0.086366
0.160983 0.353246 0.087617
0.170871 0.349706 0.089448
0.182681 0.344854 0.091829
0.196048 0.338293 0.094606
0.210056 0.330816 0.097963
0.224094 0.322210 0.101411
0.237888 0.312718 0.105318
0.250706 0.302220 0.109010
0.262211 0.291234 0.112856
0.272099 0.279484 0.116640
0.289097 0.281102 0.117403
0.310674 0.287938 0.116670
0.334051 0.295323 0.116030
0.359197 0.303349 0.114992
0.378820 0.305364 0.116304
0.394293 0.301823 0.119905
0.410925 0.297002 0.123842
0.428626 0.290684 0.128084
0.454994 0.287816 0.130343
0.519615 0.314519 0.122072
0.632959 0.397101 0.075898
0.731075 0.479744 0.000000
0.806546 0.541558 0.000000
0.860533 0.581842 0.000000
0.905821 0.610834 0.000000
0.944762 0.633234 0.000000
0.977813 0.651301 0.000000
1.000000 0.665431 0.000000
1.000000 0.677668 0.000000
0.151400 0.375006 0.078920
0.154055 0.374640 0.078981
0.157534 0.374182 0.079347
0.163973 0.372534 0.080781
0.173526 0.369177 0.082765
0.185275 0.364233 0.085298
0.198306 0.358038 0.088624
0.212314 0.350347 0.092256
0.226566 0.341772 0.096132
0.240391 0.332036 0.100343
0.253452 0.321660 0.104433
0.265599 0.310216 0.108522
0.275883 0.298222 0.112551
0.285893 0.287907 0.116274
0.306523 0.294804 0.115541
0.329046 0.302525 0.114656
0.353643 0.310918 0.113558
0.379980 0.320195 0.112306
0.399237 0.321752 0.113863
0.416022 0.319249 0.117647
0.433997 0.315740 0.121523
0.453315 0.310704 0.125917
0.480690 0.309209 0.128511
0.538140 0.332158 0.122072
0.654078 0.422400 0.070863
0.750942 0.505028 0.000000
0.824704 0.564416 0.000000
0.880858 0.603845 0.000000
0.925872 0.631434 0.000000
0.963287 0.652399 0.000000
0.993561 0.668788 0.000000
1.000000 0.682521 0.000000
0.154940 0.398840 0.067506
0.157656 0.398138 0.068208
0.160616 0.397467 0.068818
0.167330 0.395056 0.070344
0.176791 0.391577 0.072877
0.188296 0.386450 0.076448
0.201419 0.380102 0.080232
0.215518 0.372625 0.084413
0.229923 0.364019 0.088685
0.244266 0.354284 0.093507
0.257816 0.343755 0.097993
0.270420 0.332189 0.102937
0.281559 0.319921 0.107515
0.291020 0.307164 0.111910
0.304784 0.303471 0.113863
0.326726 0.311528 0.112856
0.350408 0.320104 0.111482
0.376165 0.329625 0.109957
0.403632 0.340032 0.107973
0.421973 0.340734 0.110445
0.439704 0.338964 0.114168
0.458473 0.336187 0.118379
0.478431 0.332006 0.123079
0.506035 0.331426 0.125856
0.555261 0.349218 0.121492
0.672663 0.444831 0.065827
0.768063 0.526818 0.000000
0.841093 0.584527 0.000000
0.899962 0.623468 0.000000
0.943023 0.648798 0.000000
0.978515 0.668482 0.000000
1.000000 0.684596 0.000000
0.158633 0.421302 0.048493
0.160983 0.420996 0.049409
0.163943 0.420233 0.050935
0.170382 0.418158 0.054658
0.180148 0.414435 0.059480
0.191623 0.409461 0.063630
0.204959 0.402960 0.068605
0.218936 0.395483 0.073548
0.233555 0.386816 0.079225
0.247929 0.377142 0.084749
0.261997 0.366461 0.090059
0.274998 0.354894 0.095766
0.286748 0.342260 0.100893
0.296971 0.329198 0.105989
0.305333 0.315526 0.110903
0.324590 0.320165 0.110628
0.347723 0.329137 0.109071
0.372869 0.339147 0.107332
0.399817 0.349889 0.104952
0.428626 0.361700 0.102083
0.446540 0.361913 0.105196
0.465492 0.361303 0.109102
0.485542 0.359808 0.113466
0.506706 0.357061 0.118502
0.532219 0.355749 0.121859
0.574670 0.368811 0.119905
0.692927 0.468818 0.059998
0.786801 0.549645 0.000000
0.858579 0.604578 0.000000
0.917266 0.640986 0.000000
0.960082 0.665614 0.000000
0.994446 0.684993 0.000000
0.163058 0.449287 0.000000
0.165682 0.448890 0.000000
0.168551 0.448249 0.001801
0.175326 0.445777 0.006775
0.184756 0.442054 0.014771
0.196384 0.436927 0.026123
0.209720 0.430488 0.040436
0.223819 0.422705 0.055055
0.238773 0.413458 0.064057
0.253422 0.403632 0.071504
0.267674 0.392523 0.078950
0.281193 0.380499 0.085603
0.293431 0.367712 0.091829
0.304143 0.354040 0.098054
0.313298 0.339879 0.103944
0.323522 0.329839 0.107790
0.346166 0.338933 0.106142
0.370611 0.349035 0.104067
0.397131 0.360052 0.101411
0.425605 0.372412 0.097902
0.453956 0.384070 0.095003
0.473030 0.385412 0.098268
0.493172 0.386053 0.102052
0.514000 0.385657 0.106935
0.535668 0.384100 0.112306
0.563012 0.385779 0.115938
0.608972 0.404669 0.112795
0.718013 0.497475 0.047578
0.807706 0.573877 0.000000
0.877867 0.624994 0.000000
0.935760 0.659480 0.000000
0.979309 0.683925 0.000000
0.168002 0.476417 0.000000
0.170077 0.476295 0.000000
0.173556 0.475532 0.000000
0.180117 0.473274 0.000000
0.189578 0.469642 0.000000
0.201480 0.464607 0.000000
0.214786 0.458412 0.000000
0.229465 0.450568 0.004273
0.244694 0.441840 0.022736
0.259800 0.431952 0.044892
0.274662 0.421241 0.061250
0.288731 0.409308 0.070497
0.301854 0.396551 0.078981
0.313603 0.382666 0.086610
0.323705 0.368414 0.094026
0.332036 0.353460 0.100526
0.348058 0.352361 0.101991
0.372564 0.363104 0.099367
0.398871 0.374731 0.096101
0.427375 0.387579 0.091829
0.457496 0.401556 0.086915
0.485573 0.413123 0.083589
0.505974 0.415839 0.086549
0.527245 0.418006 0.091188
0.549279 0.419379 0.096376
0.571954 0.419745 0.102480
0.599329 0.423011 0.107393
0.647822 0.446479 0.102876
0.744991 0.527916 0.035706
0.832151 0.600458 0.000000
0.901610 0.648249 0.000000
0.958434 0.681117 0.000000
0.174685 0.508049 0.000000
0.177310 0.507561 0.000000
0.180362 0.506798 0.000000
0.186923 0.504601 0.000000
0.196597 0.500847 0.000000
0.208530 0.495888 0.000000
0.222202 0.489631 0.000000
0.236942 0.482246 0.000000
0.252598 0.473487 0.000000
0.268132 0.463966 0.000000
0.283543 0.453254 0.004822
0.298497 0.441596 0.031678
0.312352 0.428809 0.056886
0.324987 0.415259 0.069001
0.336095 0.400824 0.079164
0.345525 0.385595 0.087648
0.353246 0.369940 0.095796
0.376654 0.379461 0.093080
0.403235 0.391913 0.088808
0.431800 0.405310 0.083650
0.462226 0.420081 0.076692
0.494148 0.435889 0.068147
0.521782 0.447395 0.063844
0.543542 0.451911 0.067994
0.566064 0.455940 0.073457
0.588525 0.458442 0.080171
0.610803 0.459327 0.088716
0.636652 0.462043 0.096010
0.687251 0.489204 0.091341
0.773770 0.559655 0.038453
0.858793 0.627741 0.000000
0.927916 0.672602 0.000000
0.184268 0.541833 0.000000
0.186923 0.541314 0.000000
0.190097 0.540459 0.000000
0.196689 0.538506 0.000000
0.206485 0.535149 0.000000
0.218662 0.530694 0.000000
0.232792 0.525566 0.000000
0.248295 0.519341 0.000000
0.264988 0.511925 0.000000
0.281743 0.503716 0.000000
0.298558 0.494118 0.000000
0.314824 0.483742 0.000000
0.330175 0.472023 0.000000
0.344213 0.459052 0.003967
0.356847 0.444953 0.037324
0.367742 0.429908 0.062928
0.376928 0.414130 0.075135
0.390265 0.406775 0.081086
0.417945 0.420325 0.074556
0.447578 0.435004 0.066529
0.479072 0.450935 0.053376
0.512016 0.467933 0.024384
0.545739 0.485756 0.000000
0.572259 0.496315 0.000000
0.593927 0.501122 0.000000
0.615961 0.505119 0.017609
0.638270 0.508171 0.044739
0.660761 0.510277 0.066194
0.685725 0.513390 0.080079
0.736751 0.542504 0.081453
0.812955 0.601038 0.069245
0.896513 0.662898 0.049866
0.201328 0.585443 0.000000
0.203403 0.585107 0.000000
0.206577 0.584222 0.000000
0.213321 0.582086 0.000000
0.223331 0.578943 0.000000
0.235782 0.574517 0.000000
0.250248 0.569360 0.000000
0.266148 0.563012 0.000000
0.283238 0.555810 0.000000
0.300603 0.547509 0.000000
0.317906 0.538384 0.000000
0.334905 0.528008 0.000000
0.351171 0.516808 0.000000
0.366125 0.504387 0.000000
