data/fiter_cube/96471014/1022819/file.cube
# Created by Adobe Lightroom plugin Export LUT (1.17.0)
# www.johnrellis.com/lightroom/exportlut.htm
# Preset: 古风山上预设2
# Color profile: C:\Program Files (x86)\Common Files\Adobe\Color\Profiles\Recommended\AdobeRGB1998.icc
LUT_3D_SIZE 5
DOMAIN_MIN 0.000000 0.000000 0.000000
DOMAIN_MAX 0.903226 0.903226 0.903226
0.071534 0.118593 0.093782
0.215427 0.111543 0.095003
0.558923 0.000000 0.064729
0.846159 0.313725 0.000000
0.995300 0.472633 0.000000
0.097536 0.165377 0.102205
0.175540 0.153079 0.111635
0.585595 0.198398 0.034241
0.848997 0.391516 0.000000
0.998169 0.510643 0.000000
0.130983 0.267491 0.102663
0.197910 0.241093 0.112917
0.317449 0.228763 0.125246
0.784482 0.477638 0.000000
1.000000 0.608789 0.000000
0.154940 0.398840 0.067506
0.215518 0.372625 0.084413
0.304784 0.303471 0.113863
0.458473 0.336187 0.118379
0.899962 0.623468 0.000000
0.222629 0.628321 0.000000
0.289616 0.608484 0.000000
0.405158 0.536736 0.000000
0.551202 0.533135 0.000000
0.738521 0.608545 0.000000
0.000000 0.119173 0.183444
0.162966 0.124514 0.164126
0.471717 0.000000 0.149111
0.806668 0.238499 0.100618
0.983825 0.449042 0.000000
0.014557 0.169680 0.179507
0.170077 0.176425 0.175998
0.501274 0.165347 0.157321
0.814969 0.337163 0.093050
0.985809 0.489998 0.000000
0.003723 0.291447 0.139925
0.173098 0.297124 0.143557
0.335119 0.253605 0.159609
0.789242 0.487556 0.091371
0.992950 0.600092 0.108827
0.000000 0.437934 0.050355
0.182254 0.426337 0.099245
0.314794 0.331914 0.130587
0.471382 0.354589 0.141787
0.906706 0.630671 0.000000
0.092378 0.654810 0.000000
0.237339 0.637263 0.000000
0.404242 0.568780 0.000000
0.546746 0.536309 0.000000
0.740963 0.613336 0.033600
0.000000 0.120119 0.529473
0.000000 0.092561 0.507469
0.386786 0.098543 0.386236
0.729580 0.000000 0.378424
0.951202 0.348669 0.324498
0.000000 0.207279 0.538842
0.000000 0.164981 0.511315
0.393042 0.185031 0.394141
0.730709 0.000000 0.350408
0.955627 0.411383 0.330907
0.000000 0.370001 0.431037
0.000000 0.373816 0.425483
0.356054 0.382025 0.389837
0.756985 0.465522 0.378515
0.966613 0.564446 0.369970
0.000000 0.491402 0.324956
0.000000 0.499947 0.303471
0.281468 0.514611 0.233127
0.523796 0.435554 0.252384
0.933318 0.664240 0.345861
0.000000 0.697810 0.237003
0.000000 0.699031 0.166415
0.291722 0.672267 0.000000
0.507622 0.531853 0.114504
0.738277 0.619104 0.160464
0.000000 0.128542 0.783047
0.000000 0.084352 0.779446
0.487343 0.000000 0.727016
0.675563 0.104585 0.641047
0.892424 0.000000 0.627588
0.000000 0.210819 0.784237
0.000000 0.135500 0.777737
0.461280 0.000000 0.733761
0.672908 0.232029 0.639734
0.895354 0.118135 0.620752
0.000000 0.541344 0.755734
0.000000 0.523613 0.755795
0.228275 0.406104 0.737453
0.653620 0.443336 0.626642
0.905272 0.402533 0.590509
0.000000 0.672267 0.661524
0.000000 0.670863 0.658442
0.000000 0.666255 0.647730
0.594446 0.644953 0.605829
0.930144 0.705226 0.620813
0.000000 0.750210 0.596368
0.000000 0.753079 0.587793
0.000000 0.760098 0.539117
0.413458 0.734920 0.311589
0.747189 0.654078 0.337102
0.000000 0.139406 0.879423
0.000000 0.139406 0.879423
0.316960 0.000000 0.873747
0.705104 0.119509 0.835447
0.847532 0.329656 0.793088
0.000000 0.139254 0.878599
0.000000 0.139254 0.878599
0.301335 0.000000 0.872923
0.695003 0.200320 0.834531
0.842832 0.375647 0.789456
0.000000 0.375738 0.874357
0.000000 0.376501 0.874113
0.000000 0.222751 0.872465
0.655940 0.357580 0.839963
0.840299 0.518212 0.787900
0.000000 0.705440 0.849454
0.000000 0.705104 0.848325
0.000000 0.677333 0.852415
0.533135 0.616114 0.849393
0.852659 0.706447 0.795712
0.000000 0.837369 0.803555
0.000000 0.838010 0.801938
0.000000 0.846769 0.806912
0.102541 0.843656 0.803311
0.805966 0.823087 0.767788
