data/fiter_cube/95423152/1023246/file.cube
# Created by Adobe Lightroom plugin Export LUT (1.17.0)
# www.johnrellis.com/lightroom/exportlut.htm
# Preset: 黑暗巧克力情绪人像_05 云集
# Color profile: C:\Program Files (x86)\Common Files\Adobe\Color\Profiles\Recommended\AdobeRGB1998.icc
LUT_3D_SIZE 8
DOMAIN_MIN 0.000000 0.000000 0.000000
DOMAIN_MAX 0.903226 0.903226 0.903226
0.000000 0.000000 0.000000
0.077699 0.017395 0.025818
0.176120 0.000641 0.049836
0.288212 0.000000 0.042023
0.421576 0.000000 0.039582
0.573816 0.000000 0.058167
0.747402 0.000000 0.072419
0.887938 0.000000 0.114931
0.049958 0.067536 0.029541
0.078828 0.064607 0.033814
0.187350 0.079957 0.039185
0.301732 0.076936 0.025910
0.434791 0.078462 0.031586
0.587640 0.066011 0.052003
0.756802 0.024781 0.070283
0.891783 0.081880 0.115145
0.096925 0.138766 0.054780
0.122011 0.139071 0.047303
0.159518 0.122713 0.057496
0.312016 0.171603 0.006714
0.466926 0.195041 0.000000
0.617731 0.199863 0.011719
0.772885 0.203342 0.050996
0.897612 0.214725 0.110140
0.144747 0.208347 0.071046
0.161501 0.208194 0.068818
0.209018 0.205783 0.061555
0.235966 0.179690 0.079286
0.400763 0.236851 0.075471
0.667567 0.336614 0.000000
0.804013 0.337896 0.000000
0.910948 0.338842 0.102968
0.194797 0.280034 0.094636
0.206790 0.279423 0.092744
0.244572 0.276707 0.084688
0.292943 0.270085 0.082368
0.314336 0.238132 0.102235
0.497505 0.304234 0.107668
0.799985 0.438361 0.001556
0.927062 0.465980 0.094850
0.247532 0.360418 0.113680
0.256626 0.358801 0.111269
0.288853 0.356390 0.103975
0.339483 0.351568 0.089784
0.389960 0.345006 0.095949
0.408545 0.306523 0.120455
0.619715 0.385107 0.129763
0.891325 0.519402 0.136263
0.319188 0.479622 0.124544
0.328618 0.478737 0.122225
0.361181 0.477546 0.114076
0.414099 0.474434 0.096986
0.479500 0.470558 0.077150
0.543359 0.467018 0.089845
0.567071 0.420203 0.131014
0.782895 0.498787 0.168765
0.430213 0.666011 0.139712
0.440589 0.666133 0.136934
0.476020 0.666102 0.126711
0.535149 0.665583 0.104005
0.617670 0.669062 0.050690
0.699794 0.668208 0.012116
0.780636 0.667384 0.086244
0.809232 0.605798 0.173678
0.030243 0.032197 0.063844
0.086458 0.008881 0.069368
0.173312 0.042023 0.079316
0.278386 0.049134 0.089021
0.408820 0.028901 0.099672
0.564630 0.000000 0.108309
0.742977 0.000000 0.117525
0.886717 0.000000 0.148531
0.037659 0.068238 0.061097
0.085084 0.074495 0.068513
0.177005 0.090913 0.082155
0.287266 0.094148 0.089052
0.419074 0.095888 0.099489
0.575952 0.083925 0.107179
0.751583 0.053254 0.116793
0.890623 0.091096 0.149569
0.093965 0.139834 0.077150
0.123934 0.139712 0.085145
0.159304 0.127840 0.087984
0.311467 0.180179 0.087282
0.452583 0.194736 0.095644
0.608026 0.201083 0.101228
0.770626 0.205051 0.111360
0.897337 0.218051 0.147066
0.148074 0.209934 0.098848
0.164523 0.209445 0.098695
0.209476 0.207279 0.091615
0.237827 0.184543 0.102937
0.409216 0.247227 0.109621
0.663325 0.335363 0.080079
0.803189 0.338750 0.099489
0.910735 0.341283 0.145266
0.197421 0.281193 0.116945
0.208865 0.280766 0.115023
0.245426 0.278386 0.108034
0.294255 0.272496 0.104738
0.316777 0.242191 0.120027
0.506279 0.312688 0.129915
0.805203 0.445197 0.100252
0.926116 0.467689 0.144686
0.249088 0.362524 0.131777
0.258640 0.361791 0.129854
0.290288 0.359350 0.123140
0.340307 0.354040 0.110384
0.391089 0.347143 0.113710
0.409766 0.308934 0.134157
0.626276 0.391485 0.147005
0.893950 0.524834 0.166415
0.319402 0.483009 0.141543
0.329381 0.482948 0.139376
0.361822 0.481300 0.131838
0.414313 0.477333 0.116640
0.479988 0.472358 0.098421
0.544579 0.469123 0.108400
0.569665 0.423133 0.143862
0.788571 0.504692 0.184024
0.427924 0.668421 0.157504
0.438148 0.668238 0.154818
0.473762 0.667964 0.145602
0.533104 0.667140 0.125765
0.613001 0.667170 0.088411
0.697261 0.667445 0.073274
0.780667 0.668574 0.108125
0.810025 0.607446 0.185855
0.061677 0.059998 0.140566
0.102998 0.029755 0.147036
0.189456 0.010620 0.149722
0.285832 0.034485 0.153841
0.382086 0.074006 0.162387
0.521202 0.061036 0.176394
0.710445 0.000000 0.189487
0.872282 0.000000 0.215793
0.084871 0.093812 0.131838
0.109957 0.094087 0.135836
0.185245 0.089631 0.144961
0.277897 0.101656 0.152346
0.380194 0.114992 0.163882
0.532616 0.104829 0.178134
0.719570 0.042420 0.190646
0.875853 0.080781 0.217319
0.102846 0.139834 0.125277
0.126864 0.144717 0.130434
0.184787 0.160281 0.146365
0.286473 0.178347 0.158511
0.410895 0.190219 0.171695
0.565911 0.195743 0.181796
0.743282 0.196689 0.193088
0.885435 0.215671 0.220432
0.136507 0.212284 0.136446
0.154543 0.214939 0.138888
0.212284 0.217807 0.150240
0.245457 0.200198 0.153170
0.429999 0.274144 0.176944
0.624475 0.318181 0.185855
0.780240 0.328862 0.196902
0.900023 0.340246 0.226596
0.183291 0.286839 0.148836
0.206455 0.287541 0.159365
0.248142 0.285863 0.161837
0.297124 0.279850 0.154604
0.321569 0.252964 0.163821
0.528191 0.336675 0.186862
0.815335 0.465003 0.203677
0.917693 0.468818 0.238712
0.245823 0.368536 0.173190
0.258854 0.368017 0.175631
0.291508 0.365515 0.171878
0.340154 0.360204 0.161013
0.393347 0.353277 0.159274
0.414282 0.317449 0.172976
0.647578 0.412512 0.196506
0.899107 0.541924 0.244419
0.312810 0.486702 0.186587
0.323033 0.486397 0.185336
0.355993 0.484810 0.179446
0.409094 0.481147 0.166934
0.477333 0.475532 0.148562
0.542779 0.471534 0.155062
0.568841 0.426062 0.179904
0.797024 0.517205 0.226658
0.414679 0.670192 0.207492
0.424842 0.670588 0.204593
0.461494 0.670649 0.196811
0.521416 0.668940 0.181308
0.602777 0.668574 0.155917
0.691005 0.667811 0.140352
0.777371 0.669642 0.160433
0.807553 0.608606 0.219883
0.091432 0.063386 0.227634
0.125856 0.060761 0.229587
0.210147 0.015686 0.239994
0.309972 0.000000 0.242191
0.435157 0.000000 0.254704
0.548974 0.000000 0.257115
0.694179 0.000000 0.265965
0.849363 0.000000 0.289067
0.111482 0.111116 0.213352
0.134615 0.109529 0.216861
0.205783 0.099245 0.229862
0.305089 0.088563 0.237369
0.425940 0.085328 0.249393
0.541100 0.078035 0.253727
0.688228 0.000000 0.262913
0.853452 0.000000 0.290593
0.131960 0.167025 0.198001
0.152377 0.170108 0.199985
0.207980 0.179141 0.217227
0.302281 0.179385 0.231937
0.400977 0.187320 0.237644
0.512840 0.188052 0.244114
0.696162 0.174533 0.263859
0.863706 0.195071 0.295872
0.152712 0.214939 0.191501
0.170382 0.218509 0.195224
0.225681 0.236362 0.213016
0.298405 0.256474 0.233310
0.428626 0.286168 0.251865
0.575067 0.298680 0.264652
0.744564 0.310307 0.280858
0.882322 0.333623 0.311864
0.188907 0.290074 0.205478
0.202426 0.292668 0.207584
0.244450 0.304631 0.214572
0.314763 0.307012 0.223484
0.345129 0.282841 0.226352
0.583917 0.388769 0.270756
0.796597 0.460121 0.306249
0.902922 0.470466 0.337987
0.216861 0.375402 0.205875
0.228153 0.376562 0.206271
0.288090 0.382330 0.228183
0.345953 0.379187 0.227939
0.403082 0.370184 0.218814
0.428595 0.337072 0.227695
0.689601 0.454200 0.272587
0.908385 0.580987 0.360540
0.271214 0.496590 0.216159
0.289982 0.496742 0.223239
0.349310 0.498268 0.246128
0.400946 0.493019 0.232883
0.470954 0.485237 0.214511
0.542473 0.479561 0.213230
0.573571 0.436194 0.231144
0.816678 0.545312 0.297734
0.375280 0.675471 0.254490
0.392462 0.675105 0.261051
0.441352 0.674678 0.272770
0.499367 0.674739 0.253849
0.583307 0.673274 0.232975
0.679713 0.670649 0.209537
0.770169 0.671595 0.224979
0.805051 0.612604 0.271031
0.134157 0.091981 0.320684
0.161410 0.090303 0.323308
0.237278 0.075959 0.335546
0.344091 0.000000 0.351476
0.459419 0.000000 0.355840
0.625818 0.000000 0.384070
0.752621 0.000000 0.385565
0.872740 0.000000 0.397589
0.146792 0.132235 0.309026
0.168368 0.130556 0.311955
0.235264 0.122072 0.325353
0.339147 0.091951 0.344762
0.454994 0.047639 0.351415
0.617823 0.000000 0.378119
0.747311 0.000000 0.381598
0.870024 0.000000 0.395850
0.168673 0.195254 0.286259
0.186801 0.197757 0.290562
0.236637 0.198215 0.305180
0.331151 0.189822 0.331609
0.447150 0.181796 0.342168
0.594324 0.169436 0.361028
0.729854 0.155001 0.369421
0.860624 0.189792 0.390631
0.182376 0.247379 0.271153
0.198123 0.250065 0.273381
0.246921 0.261143 0.283909
0.331090 0.283391 0.319249
0.449348 0.286625 0.337926
0.558312 0.284337 0.339025
0.696895 0.278080 0.348974
0.853391 0.306981 0.385565
0.205203 0.296910 0.263706
0.219242 0.300023 0.266667
0.265629 0.313695 0.279911
0.345830 0.348638 0.311620
0.432563 0.367864 0.332830
0.611231 0.418463 0.366461
0.757717 0.432227 0.385687
0.881712 0.461250 0.423102
0.243076 0.382879 0.283207
0.254063 0.385443 0.284886
0.290471 0.395972 0.291142
0.351110 0.419806 0.301762
0.435065 0.417609 0.303075
0.469825 0.381842 0.304723
0.756985 0.530846 0.394263
0.904723 0.614923 0.482673
0.267063 0.505577 0.294652
0.277409 0.507378 0.294591
0.311009 0.514122 0.293400
0.391699 0.524224 0.311223
0.469856 0.516838 0.299901
0.552636 0.504173 0.284611
0.592096 0.460639 0.297856
0.846250 0.597803 0.408148
0.318456 0.686915 0.312383
0.328649 0.687770 0.310735
0.376593 0.689723 0.315831
0.477638 0.688319 0.350011
0.555627 0.686549 0.326299
0.659907 0.681025 0.295079
0.761715 0.678950 0.300603
0.804959 0.623590 0.339971
0.180911 0.119356 0.440253
0.205081 0.116701 0.443915
0.277684 0.101625 0.458137
0.387549 0.000000 0.483223
0.511223 0.000000 0.494026
0.644160 0.000000 0.500481
0.804044 0.000000 0.524346
0.900542 0.000000 0.518578
0.187625 0.154330 0.432227
0.209079 0.152346 0.436133
0.276738 0.141634 0.450507
0.383459 0.106172 0.476509
0.508049 0.000000 0.490059
0.641718 0.000000 0.497658
0.802731 0.000000 0.522667
0.898680 0.011688 0.517967
0.200168 0.221439 0.404669
0.216587 0.221042 0.409125
0.272251 0.218021 0.424445
0.368963 0.207004 0.452552
0.496193 0.180575 0.475898
0.632929 0.152834 0.487221
0.792691 0.144717 0.513176
0.891020 0.216281 0.514946
0.213870 0.280095 0.370520
0.228336 0.281498 0.372168
0.277012 0.291417 0.390539
0.357305 0.298436 0.423499
0.485695 0.294072 0.462562
0.624231 0.288243 0.475532
0.769650 0.297581 0.494881
0.876799 0.337072 0.509148
0.229923 0.341405 0.359777
0.243046 0.343389 0.361761
0.286290 0.351812 0.370428
0.359045 0.372229 0.393713
0.482216 0.409613 0.454200
0.628595 0.416907 0.475349
0.738552 0.413428 0.473945
0.855161 0.443641 0.500816
0.255100 0.397467 0.351171
0.267216 0.399939 0.353552
0.308049 0.411170 0.364172
0.378546 0.436927 0.388434
0.486885 0.486793 0.434485
0.597864 0.509972 0.463416
0.776516 0.578790 0.523095
0.878965 0.600824 0.554864
0.298589 0.513512 0.387549
0.308171 0.515343 0.388434
0.340978 0.523369 0.392584
0.395544 0.539483 0.399756
0.474861 0.566979 0.410529
0.580102 0.560998 0.403601
0.634638 0.514885 0.405768
0.876188 0.686336 0.572747
0.351659 0.690852 0.433875
0.361608 0.691920 0.433936
0.395239 0.695613 0.433753
0.447395 0.701289 0.430945
0.536461 0.707240 0.441962
0.636194 0.702541 0.426917
0.749569 0.693446 0.404273
0.805203 0.644709 0.436622
0.237247 0.151644 0.608057
0.260838 0.148684 0.612482
0.330846 0.131991 0.621759
0.435309 0.078309 0.638880
0.567529 0.000000 0.664302
0.694057 0.000000 0.661494
0.809659 0.000000 0.647456
0.914824 0.000000 0.641596
0.235264 0.179629 0.594141
0.257572 0.177066 0.598688
0.325353 0.164218 0.609216
0.428077 0.130098 0.627680
0.558923 0.000000 0.653559
0.684901 0.000000 0.651575
0.801236 0.000000 0.638911
0.909728 0.000000 0.636255
0.235355 0.250828 0.575738
0.255009 0.249119 0.578943
0.317876 0.242405 0.589441
0.417243 0.227512 0.610101
0.546624 0.194003 0.638300
0.678035 0.143648 0.643763
0.798825 0.134157 0.635645
0.908965 0.238895 0.639979
0.240635 0.328801 0.540612
0.256352 0.328496 0.543908
0.309270 0.327581 0.557458
0.402289 0.326268 0.583185
0.530144 0.318608 0.617395
0.672358 0.301946 0.637598
0.795804 0.311070 0.632959
0.904692 0.384039 0.645624
0.249729 0.396551 0.503044
0.262516 0.395636 0.502708
0.304997 0.394812 0.505699
0.379400 0.403082 0.529168
0.499794 0.419654 0.579248
0.656580 0.428626 0.623621
0.783383 0.441840 0.623163
0.888579 0.501305 0.643824
0.265782 0.467659 0.485084
0.277897 0.468574 0.486336
0.318364 0.472511 0.491707
0.385473 0.483009 0.505913
0.485634 0.505211 0.535393
0.648066 0.562768 0.610834
0.783658 0.588098 0.633875
0.867796 0.602869 0.641566
0.295628 0.539391 0.475898
0.307622 0.542077 0.478553
0.346563 0.549035 0.485512
0.413428 0.563928 0.500908
0.511315 0.589349 0.528557
0.646082 0.637079 0.582330
0.754818 0.667475 0.622309
0.878752 0.729671 0.685481
0.397345 0.692256 0.543938
0.406439 0.693111 0.544549
0.440864 0.698939 0.549462
0.493324 0.705806 0.554803
0.563806 0.714839 0.562707
0.649073 0.728756 0.576165
0.742916 0.726131 0.566613
0.809537 0.688319 0.574426
0.296056 0.205478 0.749081
0.314794 0.202853 0.750942
0.372198 0.189364 0.754055
0.461524 0.160647 0.762631
0.571496 0.090639 0.774594
0.696986 0.000000 0.789609
0.815763 0.000000 0.783139
0.908507 0.000000 0.754177
0.294530 0.227176 0.742977
0.313115 0.224887 0.744930
0.370092 0.213169 0.748959
0.458259 0.188937 0.757382
0.568109 0.139773 0.769986
0.693904 0.000000 0.786069
0.812558 0.000000 0.779538
0.906004 0.000000 0.751492
0.291569 0.289464 0.729702
0.309148 0.287877 0.731411
0.363745 0.279240 0.735195
0.453285 0.267582 0.747585
0.562005 0.241581 0.761013
0.687373 0.195682 0.777981
0.807797 0.154971 0.774655
0.902525 0.207401 0.749386
0.284825 0.368688 0.709377
0.304509 0.369604 0.711666
0.357488 0.365667 0.717220
0.443885 0.360632 0.729610
0.553063 0.351629 0.746487
0.679652 0.337469 0.767178
0.802670 0.321813 0.770230
0.898405 0.358679 0.749599
0.278355 0.445686 0.673304
0.293492 0.446113 0.676295
0.340551 0.444862 0.683619
0.423499 0.446998 0.700526
0.534997 0.451209 0.721553
0.664302 0.456336 0.748104
0.794369 0.461189 0.763516
0.892180 0.504112 0.752560
0.289586 0.535637 0.658961
0.300908 0.534142 0.658350
0.339879 0.530236 0.658045
0.404852 0.525689 0.661311
0.502556 0.529686 0.677028
0.650538 0.567407 0.722408
0.794339 0.606439 0.763363
0.884947 0.631891 0.758328
0.320775 0.631708 0.653773
0.331884 0.631250 0.653681
0.369909 0.630426 0.654658
0.435370 0.631830 0.659419
0.526909 0.637598 0.669612
0.640833 0.653620 0.688746
0.778500 0.703304 0.743252
0.877073 0.732082 0.763882
0.369848 0.723507 0.650111
0.380041 0.723110 0.649989
0.416724 0.723201 0.651392
0.481514 0.725307 0.656336
0.569543 0.729061 0.665492
0.671260 0.738369 0.683253
0.780636 0.764706 0.722011
0.861936 0.797360 0.765011
