data/fiter_cube/95423152/1023246/file.cube
# Created by Adobe Lightroom plugin Export LUT (1.17.0)
# www.johnrellis.com/lightroom/exportlut.htm
# Preset: 黑暗巧克力情绪人像_05 云集
# Color profile: C:\Program Files (x86)\Common Files\Adobe\Color\Profiles\Recommended\AdobeRGB1998.icc
LUT_3D_SIZE 32
DOMAIN_MIN 0.0 0.0 0.0
DOMAIN_MAX 1.0 1.0 1.0
0.000000 0.000000 0.000000
0.000000 0.000000 0.000000
0.000000 0.000000 0.000000
0.041779 0.006806 0.010254
0.077699 0.017395 0.025818
0.101167 0.018341 0.037446
0.125521 0.012512 0.045441
0.150271 0.009064 0.049317
0.176120 0.000641 0.049836
0.202762 0.000000 0.049470
0.230228 0.000000 0.047395
0.258610 0.000000 0.044190
0.288212 0.000000 0.042023
0.319310 0.000000 0.042634
0.351904 0.000000 0.041901
0.385901 0.000000 0.041749
0.421576 0.000000 0.039582
0.457282 0.000000 0.043977
0.493690 0.000000 0.050141
0.532799 0.000000 0.053773
0.573816 0.000000 0.058167
0.616602 0.000000 0.060945
0.660883 0.000000 0.063600
0.705104 0.000000 0.067384
0.747402 0.000000 0.072419
0.787076 0.000000 0.080323
0.823972 0.000000 0.089509
0.857572 0.000000 0.100954
0.887938 0.000000 0.114931
0.915373 0.000000 0.130800
0.940185 0.060273 0.149050
0.962676 0.106966 0.169284
0.000000 0.000000 0.000000
0.000000 0.000000 0.000000
0.000000 0.000000 0.000000
0.044343 0.007568 0.010132
0.078462 0.016968 0.026886
0.102235 0.021057 0.037079
0.126650 0.021973 0.044495
0.151553 0.018097 0.048585
0.177432 0.011627 0.049744
0.204257 0.002930 0.048463
0.231815 0.000000 0.046082
0.260410 0.000000 0.042542
0.290166 0.000000 0.041169
0.321386 0.000000 0.041627
0.354162 0.000000 0.040681
0.388403 0.000000 0.039002
0.424109 0.000000 0.037659
0.459632 0.000000 0.043122
0.496284 0.000000 0.049165
0.535363 0.000000 0.054261
0.576410 0.000000 0.058412
0.619257 0.000000 0.060029
0.663325 0.000000 0.063569
0.707424 0.000000 0.066896
0.749416 0.000000 0.072358
0.788876 0.000000 0.079927
0.825406 0.000000 0.089479
0.858762 0.000000 0.101411
0.888853 0.000000 0.115236
0.916167 0.000000 0.131411
0.940856 0.071901 0.149447
0.963256 0.113649 0.169741
0.000000 0.000000 0.000000
0.000000 0.000000 0.000000
0.000000 0.000000 0.000000
0.048402 0.011475 0.010773
0.079683 0.025696 0.026062
0.103578 0.032959 0.037049
0.127932 0.034852 0.043244
0.153262 0.032471 0.047456
0.179263 0.027741 0.048432
0.205936 0.018830 0.047120
0.233677 0.008698 0.044068
0.262303 0.000000 0.040375
0.292058 0.000000 0.038758
0.323430 0.000000 0.038941
0.356207 0.000000 0.038727
0.390661 0.000000 0.036957
0.426246 0.000000 0.036469
0.461769 0.000000 0.042847
0.498421 0.000000 0.048890
0.537713 0.000000 0.052766
0.578607 0.000000 0.056825
0.621332 0.000000 0.059602
0.665400 0.000000 0.062531
0.709071 0.000000 0.066804
0.750881 0.000000 0.072267
0.790219 0.000000 0.079805
0.826535 0.000000 0.089723
0.859586 0.000000 0.101717
0.889616 0.000000 0.115450
0.916716 0.014313 0.131624
0.941314 0.083253 0.149660
0.963592 0.120302 0.170230
0.021180 0.034730 0.012848
0.021973 0.036927 0.013733
0.025330 0.039857 0.014466
0.051667 0.036347 0.016205
0.081239 0.051484 0.024781
0.106081 0.058717 0.034302
0.130709 0.060090 0.040253
0.156161 0.060212 0.044312
0.182254 0.058320 0.045441
0.209049 0.054383 0.043244
0.236881 0.047730 0.039826
0.265904 0.041260 0.035584
0.295750 0.039460 0.034577
0.327306 0.038117 0.033326
0.360235 0.038483 0.032685
0.394781 0.039094 0.031250
0.429877 0.035187 0.035218
0.465522 0.027070 0.040070
0.502556 0.016388 0.046967
0.541650 0.001343 0.051575
0.582879 0.000000 0.055055
0.625391 0.000000 0.058839
0.669032 0.000000 0.062165
0.712367 0.000000 0.065980
0.753384 0.000000 0.071717
0.792081 0.000000 0.079469
0.827939 0.000000 0.089021
0.860624 0.000000 0.101381
0.890349 0.007538 0.115450
0.917327 0.069947 0.131655
0.941802 0.102419 0.149691
0.964019 0.133761 0.170382
0.049958 0.067536 0.029541
0.050568 0.068299 0.030426
0.055421 0.068757 0.030152
0.069642 0.069368 0.028077
0.078828 0.064607 0.033814
0.102388 0.070436 0.037629
0.135378 0.079927 0.034760
0.160952 0.080690 0.038453
0.187350 0.079957 0.039185
0.214298 0.079286 0.036469
0.242313 0.077821 0.032410
0.271397 0.076967 0.028656
0.301732 0.076936 0.025910
0.333379 0.077913 0.026093
0.366278 0.078798 0.023804
0.400519 0.079316 0.024262
0.434791 0.078462 0.031586
0.470527 0.076997 0.036835
0.507439 0.074281 0.043366
0.546715 0.070863 0.048127
0.587640 0.066011 0.052003
0.630152 0.059327 0.056428
0.673732 0.047700 0.059968
0.716274 0.030579 0.064546
0.756802 0.024781 0.070283
0.794888 0.025757 0.078279
0.830137 0.041382 0.088594
0.862425 0.063081 0.100710
0.891783 0.081880 0.115145
0.918425 0.102968 0.131472
0.942657 0.126192 0.149905
0.964660 0.151614 0.170748
0.064118 0.086030 0.042390
0.064607 0.086275 0.042267
0.068360 0.086763 0.041871
0.079164 0.087190 0.038697
0.093141 0.086488 0.038636
0.099214 0.080354 0.045167
0.122499 0.084108 0.048981
0.158419 0.095918 0.039612
0.193393 0.104128 0.029694
0.220737 0.103883 0.026490
0.248844 0.103914 0.021729
0.278294 0.103944 0.017243
0.308721 0.104646 0.014923
0.340612 0.105867 0.013275
0.373449 0.107424 0.013489
0.406592 0.107790 0.019593
0.440955 0.107607 0.026307
0.476570 0.107424 0.032013
0.513664 0.107027 0.037385
0.552789 0.105440 0.042023
0.593469 0.103944 0.046387
0.635492 0.101503 0.051362
0.668666 0.096956 0.054383
0.711574 0.094484 0.059846
0.752346 0.093263 0.066072
0.790860 0.094270 0.074159
0.826780 0.098085 0.083955
0.859403 0.104799 0.097230
0.889158 0.115816 0.111727
0.916258 0.129946 0.127993
0.940795 0.147341 0.146639
0.963134 0.168460 0.167697
0.072694 0.103304 0.049989
0.074861 0.103304 0.049866
0.078981 0.103365 0.048768
0.088594 0.103670 0.047181
0.102205 0.103914 0.043549
0.114473 0.102510 0.045747
0.118685 0.094057 0.051911
0.140108 0.096193 0.054505
0.177707 0.109041 0.044587
0.218570 0.122408 0.023651
0.254337 0.129732 0.007385
0.283696 0.130282 0.002411
0.314305 0.131380 0.000000
0.345586 0.132876 0.001862
0.377935 0.134005 0.006409
0.411322 0.134981 0.012787
0.445899 0.135653 0.018616
0.481880 0.136385 0.023255
0.518822 0.136233 0.028321
0.557397 0.136416 0.033417
0.597101 0.135897 0.038087
0.637995 0.135073 0.042817
0.679713 0.134188 0.047425
0.720302 0.133486 0.054994
0.759121 0.133577 0.063172
0.796139 0.134676 0.072084
0.830808 0.137514 0.083162
0.862669 0.142580 0.096223
0.891752 0.150484 0.111025
0.918242 0.161074 0.128267
0.942382 0.174899 0.146822
0.964355 0.192264 0.168063
0.083803 0.120912 0.053498
0.086671 0.121004 0.053254
0.090822 0.121187 0.052094
0.099123 0.121218 0.050568
0.111513 0.121401 0.047730
0.125032 0.120912 0.045228
0.136904 0.119356 0.048798
0.139162 0.108461 0.056062
0.158724 0.108461 0.058808
0.198367 0.122805 0.045380
0.241154 0.137728 0.021881
0.287755 0.153872 0.000000
0.323461 0.159670 0.000000
0.354803 0.161135 0.000000
0.387366 0.162417 0.000000
0.420874 0.163546 0.002838
0.455818 0.164706 0.008453
0.491859 0.165866 0.014160
0.529046 0.166598 0.017731
0.567407 0.167453 0.022858
0.606867 0.167788 0.026490
0.647395 0.168246 0.032227
0.688533 0.168460 0.036286
0.728084 0.168521 0.046509
0.765805 0.169070 0.059785
0.801816 0.170687 0.069337
0.835355 0.173068 0.081788
0.866331 0.177188 0.095277
0.894591 0.183078 0.110933
0.920500 0.191348 0.127993
0.944060 0.202609 0.147341
0.965637 0.217044 0.168643
0.096925 0.138766 0.054780
0.099397 0.138857 0.053712
0.103243 0.138949 0.052491
0.110475 0.138827 0.051057
0.122011 0.139071 0.047303
0.135927 0.139132 0.041993
0.147585 0.137667 0.045045
0.157565 0.134310 0.048615
0.159518 0.122713 0.057496
0.176272 0.120241 0.061799
0.217533 0.136141 0.051392
0.262516 0.153079 0.031586
0.312016 0.171603 0.006714
0.364843 0.190372 0.000000
0.397528 0.191806 0.000000
0.431647 0.193637 0.000000
0.466926 0.195041 0.000000
0.503258 0.196628 0.000000
0.540246 0.197665 0.004273
0.578454 0.198856 0.008301
0.617731 0.199863 0.011719
0.657771 0.200839 0.015564
0.697780 0.201846 0.022614
0.736294 0.202457 0.032929
0.772885 0.203342 0.050996
0.807675 0.204685 0.065461
0.840208 0.206699 0.079255
0.870207 0.209995 0.093477
0.897612 0.214725 0.110140
0.922850 0.221530 0.127687
0.945892 0.230594 0.147219
0.966979 0.242771 0.169314
0.109224 0.156588 0.056458
0.111910 0.156619 0.055360
0.115023 0.156558 0.054261
0.121859 0.156527 0.053529
0.131838 0.156527 0.049928
0.144442 0.156435 0.047547
0.157656 0.155734 0.044587
0.169284 0.154147 0.048951
0.177707 0.149264 0.054597
0.179355 0.137362 0.062470
0.193484 0.132570 0.067811
0.236393 0.150149 0.062287
0.283726 0.168856 0.050843
0.336004 0.189120 0.028870
0.393896 0.211307 0.000000
0.443793 0.224918 0.000000
0.479286 0.226780 0.000000
0.515831 0.228336 0.000000
0.552667 0.229770 0.000000
0.590356 0.231022 0.000000
0.629267 0.232639 0.000000
0.669123 0.234104 0.000000
0.708278 0.235325 0.003754
0.745510 0.236240 0.018830
0.780972 0.237186 0.039918
0.814572 0.238315 0.060975
0.845792 0.240085 0.075929
0.874571 0.242588 0.091768
0.901030 0.246036 0.109071
0.925383 0.251286 0.127321
0.947723 0.258610 0.147311
0.968261 0.268864 0.169436
0.120974 0.174319 0.061189
0.123140 0.174228 0.060670
0.126345 0.174258 0.060456
0.132296 0.174258 0.059632
0.141390 0.174105 0.057832
0.152956 0.173922 0.053895
0.166842 0.173495 0.049531
0.178988 0.172152 0.051453
0.190646 0.170443 0.055085
0.197269 0.163973 0.061280
0.198886 0.151827 0.067353
0.209964 0.144594 0.074372
0.254643 0.163790 0.070832
0.304631 0.184360 0.065064
0.359564 0.206394 0.051698
0.420569 0.230198 0.016541
0.488106 0.256138 0.000000
0.530510 0.262272 0.000000
0.566949 0.263676 0.000000
0.604425 0.265171 0.000000
0.642817 0.266728 0.000000
0.681575 0.268223 0.000000
0.719265 0.269352 0.000000
0.755093 0.270146 0.000000
0.789212 0.270817 0.021454
0.821378 0.271702 0.052033
0.851286 0.272831 0.072511
0.879026 0.274601 0.089815
0.904570 0.277287 0.108064
0.928130 0.281346 0.126955
0.949828 0.287175 0.147555
0.969818 0.295659 0.169833
0.133089 0.191867 0.065888
0.134981 0.191897 0.065766
0.137728 0.191836 0.064820
0.143313 0.191684 0.064485
0.151492 0.191562 0.062623
0.162020 0.191318 0.061006
0.174929 0.190951 0.058686
0.188632 0.190158 0.055116
0.199863 0.188479 0.058717
0.211643 0.186526 0.061067
0.216587 0.178439 0.066621
0.218021 0.166262 0.072786
0.225925 0.156832 0.079683
0.269291 0.174868 0.078401
0.320470 0.196689 0.073823
0.377264 0.220035 0.065126
0.440375 0.245396 0.040681
0.510002 0.272709 0.000000
0.575463 0.295811 0.000000
0.612665 0.297276 0.000000
0.650813 0.299046 0.000000
0.689174 0.300847 0.000000
0.725917 0.301915 0.000000
0.761166 0.302739 0.000000
0.794247 0.303197 0.000000
0.825528 0.303685 0.033417
0.854673 0.304479 0.065461
0.881712 0.305486 0.084932
0.906676 0.307225 0.104524
0.929717 0.310338 0.124697
0.950988 0.314916 0.145907
0.970642 0.321813 0.168765
0.144747 0.208347 0.071046
0.146456 0.208377 0.070924
0.148898 0.208438 0.070405
0.153841 0.208316 0.069703
0.161501 0.208194 0.068818
0.171328 0.208072 0.066926
0.183047 0.207706 0.064485
0.196475 0.207034 0.062043
0.209018 0.205783 0.061555
0.220249 0.203799 0.063966
0.231662 0.201755 0.066926
0.234653 0.192081 0.072694
0.235966 0.179690 0.079286
0.245518 0.171664 0.086397
0.287449 0.188418 0.086976
0.340795 0.211673 0.082643
0.400763 0.236851 0.075471
0.466987 0.264012 0.060822
0.539757 0.293309 0.010651
0.614618 0.323247 0.000000
0.667567 0.336614 0.000000
0.703975 0.337469 0.000000
0.739162 0.338018 0.000000
0.772519 0.338201 0.000000
0.804013 0.337896 0.000000
0.833738 0.337865 0.012207
0.861326 0.337682 0.059602
0.887083 0.337896 0.082155
0.910948 0.338842 0.102968
0.933043 0.340795 0.124269
0.953521 0.344244 0.146181
0.972473 0.349706 0.169650
0.157504 0.226230 0.077455
0.159091 0.226169 0.077363
0.161288 0.226230 0.076875
0.165774 0.226230 0.076265
0.172702 0.226017 0.075196
0.181827 0.225803 0.073518
0.192630 0.225406 0.071687
0.205142 0.224735 0.068910
0.218814 0.223758 0.065888
0.230167 0.222049 0.067170
0.241367 0.219913 0.070069
0.252659 0.217746 0.072694
0.254032 0.206607 0.079072
0.255406 0.194308 0.085267
0.264042 0.185794 0.092348
0.304723 0.201144 0.094514
0.360937 0.226291 0.091463
0.423682 0.253178 0.084810
0.493751 0.282658 0.071687
0.569818 0.314183 0.034668
0.646754 0.345556 0.000000
0.718135 0.374640 0.000000
0.752407 0.375097 0.000000
0.783932 0.374365 0.000000
0.813718 0.373327 0.000000
0.841672 0.372168 0.000000
0.867857 0.371130 0.047761
0.892332 0.370520 0.078431
0.915068 0.370459 0.101595
0.936248 0.371221 0.123690
0.955932 0.373541 0.146578
0.974273 0.377752 0.170382
0.170199 0.244114 0.083406
0.171481 0.243961 0.083040
0.173373 0.243931 0.082948
0.177646 0.243931 0.082368
0.184024 0.243748 0.081361
0.192538 0.243442 0.079927
0.202609 0.242985 0.077607
0.214176 0.242344 0.075532
0.226993 0.241459 0.072450
0.240055 0.240055 0.070832
0.251041 0.238163 0.073091
0.262272 0.235904 0.075349
0.272313 0.232609 0.078492
0.273533 0.221256 0.084688
0.274784 0.208774 0.091188
0.282750 0.199741 0.098268
0.321813 0.213657 0.101686
0.380529 0.240421 0.099367
0.446693 0.269505 0.093507
0.521721 0.301823 0.080995
0.600610 0.335241 0.056764
0.678614 0.367987 0.000000
0.747433 0.396643 0.000000
0.795529 0.411505 0.000000
0.823453 0.409247 0.000000
0.849790 0.407141 0.000000
0.874357 0.404974 0.029450
0.897398 0.403174 0.074739
0.919005 0.401984 0.099489
0.939208 0.401709 0.122286
0.958068 0.402686 0.145602
0.975708 0.405493 0.170474
0.182315 0.261967 0.089265
0.183810 0.261814 0.088930
0.185397 0.261723 0.088869
0.189273 0.261631 0.088075
0.195254 0.261295 0.086915
0.203067 0.261051 0.085573
0.212314 0.260380 0.083864
0.223209 0.259709 0.081331
0.235386 0.258762 0.078614
0.248600 0.257542 0.075380
0.260563 0.255833 0.075654
0.271733 0.253941 0.077638
0.283085 0.251743 0.080629
0.291783 0.247288 0.084047
0.293095 0.235874 0.090761
0.294469 0.223545 0.096742
0.301671 0.213779 0.103883
0.338689 0.225834 0.108309
0.400549 0.254612 0.106630
0.471046 0.286381 0.100923
0.550164 0.321263 0.088869
0.631647 0.356603 0.067964
0.708797 0.389776 0.010620
0.773922 0.417456 0.000000
0.827268 0.439826 0.000000
0.857298 0.442084 0.000000
0.880552 0.438849 0.006806
0.902342 0.436072 0.069245
0.922881 0.433783 0.097169
0.942199 0.432410 0.121736
0.960388 0.432288 0.145602
0.977478 0.434058 0.171298
0.194797 0.280034 0.094636
0.195987 0.279973 0.094575
0.197757 0.279881 0.094240
0.201328 0.279789 0.093782
0.206790 0.279423 0.092744
0.214023 0.279026 0.091249
0.222843 0.278508 0.089418
0.233097 0.277653 0.087129
0.244572 0.276707 0.084688
0.257267 0.275486 0.081422
0.270726 0.274022 0.078218
0.281712 0.272099 0.080232
0.292943 0.270085 0.082368
0.304387 0.267918 0.085054
0.311559 0.262028 0.089448
0.312871 0.250614 0.095949
0.314336 0.238132 0.102235
0.320836 0.227970 0.109194
0.355779 0.237888 0.114443
0.421637 0.269230 0.113161
0.497505 0.304234 0.107668
0.580560 0.341619 0.096101
0.663783 0.378637 0.077333
0.738338 0.411536 0.048310
0.799985 0.438361 0.001556
0.849485 0.459571 0.000000
0.887022 0.473426 0.000000
0.907622 0.469429 0.063905
0.927062 0.465980 0.094850
0.945495 0.463569 0.121035
0.962860 0.462257 0.146120
0.979278 0.462837 0.172519
0.207248 0.298131 0.099977
0.208286 0.298009 0.099702
0.208255 0.295811 0.098878
0.211673 0.295598 0.097993
0.216770 0.295384 0.097230
0.223636 0.294957 0.095857
0.231937 0.294469 0.094087
0.241581 0.293767 0.092226
0.252628 0.292882 0.089662
0.264744 0.291905 0.086580
0.277745 0.290623 0.083284
0.290288 0.288975 0.082155
0.301549 0.287205 0.083894
0.313024 0.285252 0.086702
0.324865 0.283391 0.089021
0.330724 0.276341 0.094270
0.332372 0.264897 0.100771
0.334081 0.252628 0.107088
0.339879 0.242008 0.113954
0.372595 0.249790 0.120241
0.442908 0.283848 0.119081
0.524163 0.322118 0.113313
0.610254 0.361700 0.102083
0.694026 0.400000 0.086610
0.765713 0.432380 0.070497
0.823972 0.458473 0.059968
0.870085 0.478737 0.060090
0.906920 0.494789 0.069764
0.931212 0.498573 0.092836
0.948760 0.495003 0.120607
0.965362 0.492531 0.147127
0.981109 0.491829 0.173709
0.219486 0.316594 0.104677
0.220371 0.316228 0.104494
0.221530 0.315923 0.103853
0.224521 0.315465 0.103304
0.229282 0.314946 0.102205
0.235691 0.314549 0.101167
0.243656 0.313939 0.099306
0.252873 0.313298 0.097322
0.263462 0.312444 0.094881
0.275120 0.311406 0.092073
0.287755 0.310246 0.088716
0.301427 0.308721 0.084596
0.313268 0.307073 0.085512
0.324804 0.305333 0.087892
0.336706 0.303502 0.090120
0.348730 0.301671 0.093019
0.353429 0.293400 0.098634
0.355077 0.281834 0.105287
0.356939 0.269322 0.112184
0.362219 0.258091 0.118837
0.392462 0.263401 0.125765
0.468147 0.300725 0.124971
0.554437 0.341985 0.119051
0.643336 0.383978 0.108827
0.726040 0.422736 0.096681
0.793851 0.454231 0.088624
0.847837 0.478950 0.087129
0.890257 0.498207 0.094942
0.924071 0.513481 0.106966
0.951598 0.525750 0.121462
0.967895 0.523003 0.148043
0.982605 0.520775 0.175143
0.233036 0.337560 0.109377
0.233921 0.337163 0.109010
0.235203 0.336797 0.108583
0.237980 0.336431 0.108095
0.242527 0.335943 0.107057
0.248692 0.335515 0.105623
0.256291 0.334997 0.104280
0.265141 0.334234 0.102205
0.275425 0.333501 0.099916
0.286778 0.332433 0.097017
0.299260 0.331243 0.093599
0.312566 0.329839 0.089693
0.326146 0.328252 0.086366
0.337835 0.326726 0.088624
0.349920 0.325048 0.091005
0.362158 0.323278 0.093538
0.374701 0.321599 0.096071
0.377935 0.311803 0.102785
0.379858 0.300114 0.109804
0.381872 0.287327 0.116640
0.386481 0.275242 0.123384
0.413733 0.277684 0.131167
0.495766 0.318761 0.130373
0.586786 0.363287 0.124514
0.678157 0.407568 0.115572
0.757473 0.445686 0.107973
0.821134 0.476143 0.106538
0.870695 0.499580 0.112490
0.909545 0.517906 0.124636
0.940673 0.532616 0.139376
0.966003 0.544915 0.157168
0.984131 0.549950 0.176638
0.247532 0.360418 0.113680
0.248356 0.360052 0.113313
0.249577 0.359655 0.112947
0.252293 0.359258 0.112276
0.256626 0.358801 0.111269
0.262669 0.358282 0.110140
0.270054 0.357794 0.108431
0.278782 0.357153 0.106386
0.288853 0.356390 0.103975
0.300084 0.355444 0.101381
0.312230 0.354376 0.097871
0.325414 0.353002 0.094118
0.339483 0.351568 0.089784
0.352605 0.349950 0.088716
0.364752 0.348394 0.091005
0.377264 0.346746 0.093416
0.389960 0.345006 0.095949
0.402594 0.343114 0.098878
0.404547 0.331853 0.106233
0.406470 0.319615 0.113588
0.408545 0.306523 0.120455
0.412329 0.293462 0.127260
0.437812 0.293889 0.135988
0.524590 0.337621 0.135012
0.619715 0.385107 0.129763
0.710933 0.430457 0.123079
0.786526 0.467720 0.120027
0.845609 0.496925 0.125093
0.891325 0.519402 0.136263
0.927214 0.537163 0.151736
0.955596 0.551385 0.169711
0.977966 0.562799 0.187472
0.262394 0.384344 0.117006
0.263279 0.384070 0.116823
0.264378 0.383856 0.116609
0.267247 0.383612 0.115908
0.271702 0.383368 0.115053
0.277531 0.382971 0.113710
0.284886 0.382483 0.112032
0.293523 0.381842 0.110292
0.303258 0.381079 0.107942
0.314366 0.380041 0.104799
0.326482 0.378912 0.101442
0.339513 0.377691 0.097810
0.353491 0.376287 0.093355
0.368261 0.374731 0.088197
0.381018 0.373388 0.089479
0.393774 0.371862 0.092348
0.406775 0.370306 0.094484
0.420111 0.368658 0.096986
0.431891 0.365637 0.100832
0.434089 0.354040 0.108827
0.436561 0.341741 0.116396
0.439094 0.328496 0.123903
0.442420 0.314549 0.131319
0.470741 0.316106 0.140261
0.558556 0.359716 0.140352
0.657954 0.410590 0.135683
0.746883 0.455940 0.132876
0.817411 0.492012 0.136324
0.871366 0.519646 0.147524
0.912932 0.541253 0.164187
0.944579 0.557794 0.182528
0.969604 0.571435 0.202274
0.279637 0.412390 0.120241
0.280308 0.412146 0.120089
0.281498 0.411963 0.119875
0.284428 0.411658 0.119203
0.288579 0.411414 0.118379
0.294530 0.411017 0.116854
0.301823 0.410651 0.115389
0.310369 0.410101 0.113191
0.320226 0.409430 0.110872
0.331304 0.408484 0.107759
0.343542 0.407507 0.104402
0.356664 0.406287 0.100343
0.370703 0.405035 0.095918
0.385687 0.403632 0.090486
0.400641 0.402136 0.086641
0.413825 0.400793 0.088869
0.427314 0.399329 0.091463
0.441169 0.397925 0.094331
0.455238 0.396429 0.097047
0.465980 0.392035 0.101808
0.468727 0.380224 0.110445
0.471595 0.367437 0.118685
0.474556 0.353796 0.126925
0.477821 0.339147 0.134615
0.510033 0.342412 0.144503
0.598016 0.385351 0.145815
0.699763 0.438819 0.143435
0.783841 0.483131 0.146090
0.848264 0.517479 0.156802
0.896056 0.543206 0.173709
0.932189 0.563073 0.193637
0.960235 0.579522 0.215854
0.297826 0.443122 0.122560
0.298619 0.442847 0.122408
0.299718 0.442664 0.122225
0.302586 0.442451 0.121492
0.306981 0.442267 0.120455
0.312840 0.441993 0.119112
0.320134 0.441779 0.117556
0.329015 0.441444 0.115297
0.339117 0.440925 0.112673
0.350439 0.440314 0.109651
0.362890 0.439551 0.106172
0.376349 0.438605 0.101747
0.390875 0.437568 0.097139
0.406287 0.436408 0.091279
0.422705 0.435248 0.084657
0.437720 0.434119 0.083406
0.452064 0.433173 0.085969
0.466743 0.432136 0.088899
0.481727 0.430945 0.091859
0.496864 0.429603 0.094697
0.506859 0.423865 0.100832
0.510124 0.411627 0.110689
0.513725 0.398627 0.120241
0.517784 0.384741 0.129183
0.522210 0.369848 0.137819
0.554803 0.372412 0.148470
0.642206 0.414435 0.152316
0.742367 0.468696 0.154208
0.819516 0.511070 0.163790
0.875792 0.542412 0.180789
0.917662 0.566522 0.202457
0.949584 0.586297 0.227573
0.319188 0.479622 0.124544
0.320073 0.479255 0.124056
0.321263 0.479133 0.123995
0.324132 0.478889 0.123293
0.328618 0.478737 0.122225
0.334600 0.478553 0.120607
0.341955 0.478340 0.119265
0.350927 0.478004 0.116762
0.361181 0.477546 0.114076
0.372686 0.477028 0.110750
0.385382 0.476265 0.107027
0.399268 0.475410 0.102449
0.414099 0.474434 0.096986
0.429908 0.473457 0.090822
0.446723 0.472419 0.083528
0.464393 0.471290 0.074739
0.479500 0.470558 0.077150
0.495064 0.469764 0.079957
0.510826 0.468910 0.083375
0.526940 0.467994 0.086488
0.543359 0.467018 0.089845
0.552728 0.459876 0.098543
0.557031 0.447578 0.110079
0.561761 0.434302 0.120577
0.567071 0.420203 0.131014
0.572900 0.405066 0.140932
0.606409 0.407385 0.153109
0.690852 0.447272 0.160769
0.782895 0.498787 0.168765
0.850889 0.537743 0.185214
0.900389 0.567376 0.208804
0.937224 0.591211 0.236606
0.343053 0.520043 0.126131
0.343877 0.519799 0.125795
0.345129 0.519738 0.125521
0.348119 0.519615 0.124941
0.352697 0.519524 0.123629
0.358801 0.519493 0.122133
0.366522 0.519463 0.120241
0.375738 0.519310 0.117800
0.386267 0.518914 0.114595
0.398169 0.518486 0.111116
0.411200 0.517967 0.106905
0.425483 0.517266 0.102083
0.440803 0.516503 0.096254
0.457343 0.515709 0.088838
0.474769 0.514916 0.080842
0.493233 0.514122 0.070222
0.511467 0.513451 0.062135
0.527916 0.513054 0.066011
0.544793 0.512688 0.069612
0.562066 0.512200 0.073823
0.579797 0.511864 0.078035
0.597986 0.511528 0.081971
0.607019 0.503136 0.094270
0.612696 0.490669 0.108248
0.618952 0.477394 0.120974
0.625910 0.463294 0.133333
0.632654 0.447395 0.144839
0.665797 0.448554 0.159396
0.738888 0.481209 0.173068
0.821805 0.529900 0.189273
0.881010 0.566339 0.214206
0.923827 0.595178 0.245365
0.370001 0.566186 0.127901
0.370916 0.566033 0.127535
0.372290 0.565972 0.127260
0.375372 0.565881 0.126253
0.380041 0.565759 0.125124
0.386145 0.565606 0.123659
0.393927 0.565301 0.121279
0.403204 0.564874 0.118532
0.413611 0.564324 0.115389
0.425544 0.563653 0.111543
0.438666 0.562860 0.106722
0.453254 0.562036 0.100832
0.468971 0.561273 0.094179
0.485847 0.560571 0.086213
0.503868 0.559899 0.076417
0.523064 0.559380 0.064027
0.543267 0.558984 0.035828
0.561883 0.558953 0.027802
0.579736 0.558984 0.040131
0.598260 0.559167 0.049805
0.617182 0.559411 0.059388
0.636744 0.559869 0.065309
0.657008 0.560601 0.070954
0.665522 0.550591 0.089479
0.671443 0.537133 0.106722
0.677913 0.522759 0.122377
0.684749 0.507103 0.136690
0.692042 0.490578 0.150301
0.722438 0.489662 0.168246
0.783658 0.514946 0.190219
0.856291 0.560418 0.215579
0.907439 0.595575 0.249790
0.398291 0.614008 0.130526
0.399237 0.613916 0.130312
0.400610 0.613947 0.129976
0.403723 0.614008 0.129427
0.408606 0.614038 0.128023
0.415045 0.614069 0.126223
0.423072 0.614130 0.123812
0.432624 0.614008 0.121035
0.443610 0.613825 0.117403
0.456184 0.613611 0.113191
0.469947 0.613306 0.108370
0.485237 0.613001 0.101778
0.501640 0.612757 0.095003
0.519493 0.612451 0.085756
