data/fiter_cube/95423152/1023246/file.cube
# Created by Adobe Lightroom plugin Export LUT (1.17.0)
# www.johnrellis.com/lightroom/exportlut.htm
# Preset: 黑暗巧克力情绪人像_05 云集
# Color profile: C:\Program Files (x86)\Common Files\Adobe\Color\Profiles\Recommended\AdobeRGB1998.icc
LUT_3D_SIZE 5
DOMAIN_MIN 0.000000 0.000000 0.000000
DOMAIN_MAX 0.903226 0.903226 0.903226
0.000000 0.000000 0.000000
0.150271 0.009064 0.049317
0.351904 0.000000 0.041901
0.616602 0.000000 0.060945
0.887938 0.000000 0.114931
0.083803 0.120912 0.053498
0.139162 0.108461 0.056062
0.387366 0.162417 0.000000
0.647395 0.168246 0.032227
0.894591 0.183078 0.110933
0.170199 0.244114 0.083406
0.214176 0.242344 0.075532
0.274784 0.208774 0.091188
0.678614 0.367987 0.000000
0.919005 0.401984 0.099489
0.262394 0.384344 0.117006
0.293523 0.381842 0.110292
0.381018 0.373388 0.089479
0.439094 0.328496 0.123903
0.871366 0.519646 0.147524
0.430213 0.666011 0.139712
0.464851 0.666194 0.130007
0.575799 0.669184 0.086793
0.719814 0.668208 0.038605
0.809232 0.605798 0.173678
0.054932 0.059266 0.120699
0.163455 0.012024 0.129793
0.324926 0.071565 0.140414
0.580560 0.000000 0.163485
0.877684 0.000000 0.198672
0.090211 0.121523 0.108919
0.158938 0.138094 0.126101
0.345190 0.163851 0.147768
0.612055 0.169619 0.164889
0.886351 0.185946 0.200259
0.161227 0.249027 0.131319
0.217014 0.248753 0.142885
0.280827 0.221927 0.145632
0.697627 0.391424 0.163790
0.911254 0.403418 0.207828
0.261753 0.389197 0.165347
0.293400 0.386542 0.161440
0.380926 0.377356 0.141787
0.441718 0.334874 0.163455
0.878141 0.535119 0.220737
0.417365 0.667872 0.191012
0.452613 0.667933 0.183505
0.563134 0.667781 0.153323
0.713039 0.667140 0.127657
0.806699 0.606683 0.208255
0.112428 0.077638 0.272404
0.199313 0.065644 0.282475
0.381109 0.000000 0.296422
0.617426 0.000000 0.316258
0.857877 0.000000 0.340398
0.147372 0.168399 0.244327
0.202274 0.170504 0.258213
0.370977 0.158602 0.285405
0.592676 0.147402 0.302281
0.846525 0.145571 0.332738
0.179110 0.255528 0.227451
0.229435 0.268650 0.240299
0.363134 0.310521 0.281590
0.629969 0.358618 0.315862
0.881773 0.396094 0.365026
0.234775 0.404181 0.245640
0.270665 0.412207 0.248020
0.393683 0.416449 0.262119
0.470283 0.371679 0.261234
0.900237 0.606653 0.416541
0.336370 0.682704 0.270176
0.397986 0.681697 0.291325
0.525536 0.680568 0.288060
0.695918 0.674922 0.249271
0.805631 0.617884 0.303319
0.195377 0.127138 0.481666
0.269596 0.113924 0.493690
0.469093 0.000000 0.538750
0.692103 0.000000 0.540642
0.907317 0.000000 0.551049
0.205142 0.210849 0.452918
0.265843 0.206058 0.466651
0.452613 0.169253 0.516960
0.684840 0.085298 0.531640
0.901061 0.193637 0.549279
0.228397 0.324193 0.398901
0.272618 0.328313 0.404791
0.420752 0.352880 0.466773
0.666926 0.351446 0.510094
0.876371 0.405737 0.541161
0.266117 0.428168 0.377874
0.305486 0.438331 0.387457
0.434394 0.483131 0.430732
0.641657 0.550683 0.502708
0.879118 0.636866 0.590661
0.362737 0.692226 0.463111
0.395270 0.695491 0.463752
0.489815 0.706111 0.462257
0.660121 0.707057 0.457282
0.806027 0.653285 0.467292
0.296056 0.205478 0.749081
0.354467 0.193729 0.752865
0.514336 0.135256 0.768307
0.726894 0.000000 0.788083
0.908507 0.000000 0.754177
0.293614 0.272496 0.734951
0.349981 0.264836 0.739559
0.507561 0.233127 0.757290
0.720729 0.143221 0.781155
0.904265 0.170230 0.750820
0.280003 0.407874 0.693355
0.329717 0.405066 0.699855
0.486000 0.402564 0.723537
0.704280 0.392859 0.762814
0.895079 0.429694 0.749905
0.298833 0.561822 0.659785
0.336980 0.558648 0.659297
0.455818 0.554009 0.666163
0.683040 0.600855 0.725521
0.882444 0.657618 0.758846
0.369848 0.723507 0.650111
0.404791 0.723018 0.650752
0.523064 0.726925 0.660334
0.698177 0.742672 0.690242
0.861936 0.797360 0.765011
