data/fiter_cube/15997792/1023460/file.cube
# Created by Adobe Lightroom plugin Export LUT (1.17.0)
# www.johnrellis.com/lightroom/exportlut.htm
# Preset: 日系A通透明亮[云集]-1
# Color profile: C:\Program Files (x86)\Common Files\Adobe\Color\Profiles\Recommended\AdobeRGB1998.icc
LUT_3D_SIZE 8
DOMAIN_MIN 0.000000 0.000000 0.000000
DOMAIN_MAX 0.903226 0.903226 0.903226
0.000000 0.000000 0.000000
0.113832 0.000000 0.006470
0.351141 0.000000 0.000000
0.567071 0.000000 0.000000
0.755184 0.000000 0.000000
0.886351 0.000000 0.000000
0.992432 0.000000 0.000000
1.000000 0.007568 0.143587
0.000000 0.119905 0.000000
0.119417 0.128511 0.000000
0.357916 0.115175 0.000000
0.575830 0.099214 0.000000
0.759548 0.091066 0.000000
0.888823 0.070375 0.000000
0.993439 0.101289 0.035737
1.000000 0.159365 0.153597
0.000000 0.349615 0.000000
0.113588 0.350591 0.000000
0.348302 0.350408 0.000000
0.585321 0.365515 0.000000
0.768063 0.348760 0.000000
0.892180 0.323888 0.000000
0.992920 0.311406 0.104005
1.000000 0.315160 0.182467
0.000000 0.552819 0.000000
0.104738 0.553063 0.000000
0.346868 0.551995 0.000000
0.546715 0.547906 0.000000
0.746975 0.545006 0.000000
0.896818 0.520012 0.107546
0.992950 0.489113 0.171847
1.000000 0.471534 0.231937
0.000000 0.722530 0.000000
0.054688 0.721920 0.000000
0.327489 0.719051 0.000000
0.521691 0.713161 0.000000
0.704005 0.705043 0.000000
0.864958 0.684016 0.000000
0.986206 0.653620 0.204746
1.000000 0.625177 0.299413
0.000000 0.849821 0.000000
0.077241 0.848661 0.000000
0.310063 0.846281 0.000000
0.490364 0.841764 0.000000
0.661494 0.835264 0.000000
0.825864 0.826841 0.000000
0.962860 0.799893 0.099489
1.000000 0.762234 0.289372
0.000000 0.955596 0.000000
0.142397 0.954925 0.000000
0.310246 0.953002 0.000000
0.470161 0.949310 0.010620
0.626825 0.943999 0.064973
0.779690 0.937102 0.095277
0.928374 0.929198 0.126650
1.000000 0.898039 0.214237
0.179446 1.000000 0.185183
0.225376 1.000000 0.186831
0.336034 1.000000 0.191928
0.467536 1.000000 0.200870
0.603967 1.000000 0.213352
0.739437 1.000000 0.226749
0.871580 1.000000 0.243442
0.998077 0.998566 0.263859
0.000000 0.008362 0.093141
0.090242 0.000000 0.095186
0.335607 0.000000 0.115389
0.550256 0.000000 0.099886
0.743496 0.000000 0.106661
0.880034 0.000000 0.131594
0.988922 0.000000 0.170748
1.000000 0.109957 0.218692
0.000000 0.086946 0.098512
0.098390 0.098390 0.098390
0.335058 0.095094 0.102754
0.556634 0.073121 0.102876
0.747036 0.050355 0.111788
0.881865 0.081147 0.138674
0.989715 0.130617 0.177890
1.000000 0.187625 0.225620
0.000000 0.334356 0.109224
0.083619 0.330877 0.085451
0.331121 0.331731 0.078340
0.574151 0.352911 0.118593
0.756985 0.342931 0.134890
0.885924 0.326604 0.163912
0.989868 0.320897 0.201236
1.000000 0.328985 0.246738
0.000000 0.544244 0.058381
0.002106 0.542596 0.019318
0.333837 0.541985 0.000000
0.539055 0.539849 0.000000
0.743984 0.541924 0.118379
0.892302 0.521660 0.210941
0.990234 0.494850 0.244511
1.000000 0.480598 0.286412
0.000000 0.717067 0.000000
0.000000 0.716609 0.000000
0.320500 0.714015 0.000000
0.517479 0.709010 0.000000
0.700771 0.701595 0.000000
0.862943 0.682765 0.148836
0.984253 0.656886 0.273777
1.000000 0.631464 0.344976
0.000000 0.847227 0.086213
0.076844 0.846555 0.087465
0.309514 0.844236 0.089509
0.489570 0.839719 0.093690
0.660182 0.833219 0.101045
0.824033 0.824857 0.110475
0.961151 0.799313 0.197818
1.000000 0.765164 0.338842
0.000000 0.954437 0.162020
0.157839 0.954009 0.163088
0.315709 0.952056 0.165743
0.472877 0.948241 0.170596
0.627985 0.942870 0.178653
0.779904 0.936187 0.190249
0.927886 0.928618 0.207095
1.000000 0.898131 0.271305
0.202060 1.000000 0.245090
0.242435 1.000000 0.245975
0.346410 1.000000 0.249821
0.473945 1.000000 0.256931
0.607385 1.000000 0.264958
0.741390 1.000000 0.276402
0.872374 1.000000 0.290471
0.997772 0.998230 0.308019
0.000000 0.013977 0.291814
0.000000 0.013916 0.292699
0.292485 0.000000 0.294377
0.520714 0.000000 0.312352
0.714931 0.000000 0.307347
0.854276 0.000000 0.310277
0.973419 0.031006 0.330938
1.000000 0.196170 0.358251
0.000000 0.013825 0.295109
0.000000 0.000000 0.295689
0.294224 0.000000 0.294469
0.519402 0.000000 0.306676
0.713069 0.000000 0.305821
0.856016 0.054658 0.315435
0.974182 0.172641 0.335943
1.000000 0.245426 0.363104
0.000000 0.294224 0.295384
0.000000 0.292576 0.293004
0.295537 0.295537 0.295537
0.521569 0.303410 0.306279
0.718532 0.311040 0.318029
0.861601 0.322179 0.332952
0.975189 0.339239 0.352941
1.000000 0.364508 0.379736
0.000000 0.518059 0.306523
0.000000 0.516106 0.301366
0.294438 0.512993 0.294621
0.512016 0.512291 0.292607
0.728908 0.529076 0.341070
0.870237 0.518303 0.368292
0.976135 0.507103 0.385718
1.000000 0.505425 0.411109
0.000000 0.704036 0.295598
0.000000 0.702052 0.294438
0.295384 0.696773 0.296117
0.500359 0.692317 0.295750
0.685542 0.686000 0.295811
0.852873 0.677424 0.347662
0.975067 0.669306 0.430518
1.000000 0.650690 0.460761
0.000000 0.839628 0.290837
0.000000 0.837888 0.296330
0.309026 0.833890 0.310094
0.486244 0.830106 0.311162
0.654780 0.824613 0.312963
0.816800 0.817350 0.315648
0.954162 0.797452 0.365942
1.000000 0.776211 0.469551
0.000000 0.949676 0.311620
0.176791 0.948302 0.323430
0.335607 0.945739 0.336889
0.482612 0.942473 0.339330
0.631983 0.937743 0.343206
0.779782 0.931670 0.349248
0.924224 0.924804 0.358648
1.000000 0.897185 0.407111
0.243412 1.000000 0.366796
0.297368 1.000000 0.381689
0.383124 1.000000 0.384466
0.497475 1.000000 0.389349
0.621942 1.000000 0.394751
0.749477 1.000000 0.402197
0.875334 1.000000 0.411749
0.996368 0.996704 0.423651
0.000000 0.013672 0.478676
0.000000 0.013672 0.478859
0.234043 0.000000 0.479805
0.480476 0.000000 0.481331
0.689784 0.000000 0.486549
0.840604 0.000000 0.466926
0.960876 0.000000 0.462776
1.000000 0.225467 0.486610
0.000000 0.013611 0.479561
0.000000 0.000000 0.480110
0.258091 0.000000 0.481270
0.480049 0.000000 0.480323
0.687770 0.000000 0.483711
0.838712 0.000000 0.467994
0.959106 0.103090 0.468544
1.000000 0.288792 0.497475
0.000000 0.261631 0.481788
0.000000 0.250797 0.480323
0.236515 0.237461 0.478096
0.477089 0.232517 0.477180
0.680903 0.241367 0.478309
0.831052 0.281651 0.475135
0.951080 0.347265 0.491890
1.000000 0.407904 0.518425
0.000000 0.478065 0.478950
0.000000 0.476936 0.477607
0.226322 0.474281 0.474525
0.478004 0.478004 0.478004
0.679133 0.489326 0.491279
0.831876 0.504601 0.508568
0.952667 0.520562 0.526360
1.000000 0.538598 0.545830
0.000000 0.679408 0.475563
0.000000 0.678065 0.474037
0.232609 0.673640 0.471595
0.478218 0.666987 0.478401
0.662409 0.662562 0.478279
0.837919 0.679225 0.539086
0.955322 0.681178 0.572564
1.000000 0.673976 0.585321
0.000000 0.826871 0.454170
0.000000 0.825071 0.455238
0.267735 0.820340 0.464271
0.488228 0.813046 0.488472
0.648157 0.809171 0.489387
0.803983 0.804288 0.490913
0.942199 0.798306 0.541863
1.000000 0.795529 0.616907
0.000000 0.944182 0.442664
0.000000 0.942809 0.448066
0.319493 0.938079 0.471534
0.505058 0.931731 0.505455
0.641627 0.928069 0.507622
0.780514 0.923491 0.511223
0.918181 0.918547 0.517388
1.000000 0.897398 0.560632
0.124971 1.000000 0.451240
0.219852 1.000000 0.461677
0.394049 1.000000 0.501762
0.536095 1.000000 0.536675
0.646418 1.000000 0.540063
0.762875 1.000000 0.544060
0.880064 1.000000 0.549248
0.994049 0.994293 0.555779
0.000000 0.020478 0.647578
0.000000 0.020447 0.647669
0.000000 0.000000 0.648310
0.428901 0.000000 0.648646
0.648981 0.000000 0.649500
0.818235 0.000000 0.627008
0.949645 0.000000 0.598657
1.000000 0.000000 0.581140
0.000000 0.020386 0.648371
0.000000 0.020386 0.648310
0.099489 0.000000 0.648829
0.437446 0.000000 0.649683
0.648127 0.000000 0.648554
0.816770 0.000000 0.625818
0.948150 0.000000 0.600031
1.000000 0.000000 0.586267
0.000000 0.176089 0.650324
0.000000 0.151064 0.649592
0.117922 0.130343 0.648859
0.429938 0.109010 0.647425
0.643244 0.083070 0.643427
0.811704 0.152834 0.624353
0.942687 0.239017 0.608453
1.000000 0.337682 0.608148
0.000000 0.433906 0.647822
0.000000 0.430732 0.647028
0.081147 0.426184 0.643702
0.427649 0.427924 0.639979
0.637079 0.429053 0.637110
0.801846 0.451240 0.629236
0.932189 0.484169 0.630762
1.000000 0.529870 0.644343
0.000000 0.638972 0.639826
0.000000 0.638056 0.638788
0.036408 0.635645 0.636042
0.429297 0.633692 0.633783
0.636835 0.636835 0.636835
0.801053 0.649805 0.651179
0.930144 0.663966 0.666743
1.000000 0.677913 0.681758
0.000000 0.808316 0.617273
0.000000 0.807248 0.616876
0.139620 0.803372 0.617151
0.447456 0.796506 0.624689
0.637873 0.791592 0.637934
0.788327 0.788388 0.637293
0.932433 0.804593 0.693751
1.000000 0.807828 0.726040
0.000000 0.935790 0.585901
0.000000 0.934722 0.587793
0.218601 0.930663 0.596887
0.472175 0.923369 0.620447
0.646174 0.917235 0.646296
0.778195 0.914061 0.648066
0.910674 0.910857 0.651911
1.000000 0.898802 0.696864
0.000000 1.000000 0.560296
0.000000 1.000000 0.565637
0.301732 1.000000 0.587823
0.511955 1.000000 0.628626
0.666926 1.000000 0.667109
0.774319 1.000000 0.669642
0.883940 0.999573 0.672847
0.991302 0.991424 0.676936
0.000000 0.034058 0.782681
0.000000 0.034028 0.782864
0.000000 0.000000 0.783627
0.321782 0.000000 0.784024
0.578943 0.000000 0.784634
0.782650 0.000000 0.783230
0.932158 0.000000 0.748836
1.000000 0.000000 0.703426
0.000000 0.033875 0.784146
0.000000 0.033814 0.784390
0.000000 0.000000 0.784817
0.335760 0.000000 0.785183
0.583490 0.000000 0.785641
0.782345 0.000000 0.782773
0.931395 0.000000 0.748318
1.000000 0.000000 0.704707
0.000000 0.034546 0.786221
0.000000 0.000000 0.786465
0.000000 0.000000 0.786831
0.355077 0.000000 0.786404
0.580957 0.000000 0.783780
0.779019 0.000000 0.779232
0.927459 0.000000 0.747280
1.000000 0.000000 0.711025
0.000000 0.356451 0.785397
0.000000 0.350835 0.785122
0.000000 0.347112 0.783078
0.348394 0.350286 0.779599
0.578515 0.352331 0.776364
0.772702 0.358190 0.772793
0.919066 0.386389 0.749783
1.000000 0.427070 0.728695
0.000000 0.576745 0.779751
0.000000 0.575738 0.779080
0.000000 0.574884 0.776699
0.363439 0.580652 0.773068
0.592279 0.592432 0.769894
0.767636 0.593744 0.767666
0.910063 0.607568 0.758450
1.000000 0.634424 0.756741
0.000000 0.770993 0.771908
0.000000 0.770413 0.771206
0.000000 0.768856 0.769375
0.364385 0.766598 0.766842
0.593194 0.765011 0.765103
0.767056 0.767025 0.767056
0.908049 0.781155 0.782284
1.000000 0.795071 0.797086
0.000000 0.922942 0.739620
0.000000 0.921996 0.739345
0.000000 0.918639 0.739712
0.382879 0.912169 0.744137
0.603052 0.905211 0.753811
0.769894 0.900664 0.769924
0.899229 0.899290 0.772335
1.000000 0.905058 0.821561
0.000000 1.000000 0.690120
0.000000 1.000000 0.691737
0.000000 1.000000 0.699397
0.415503 1.000000 0.719234
0.628962 1.000000 0.750454
0.785000 0.999115 0.785092
0.887236 0.993896 0.787106
0.987457 0.987518 0.789883
0.000000 0.055634 0.899840
0.000000 0.056092 0.901915
0.000000 0.000000 0.902342
0.000000 0.000000 0.902403
0.475807 0.000000 0.902037
0.701167 0.000000 0.900053
0.896391 0.000000 0.897734
1.000000 0.000000 0.848631
0.000000 0.054108 0.894163
0.000000 0.054627 0.895995
0.000000 0.000000 0.896757
0.058839 0.000000 0.896757
0.475563 0.000000 0.895415
0.696132 0.000000 0.892180
0.888121 0.000000 0.888975
1.000000 0.000000 0.841093
0.000000 0.055482 0.900908
0.000000 0.055512 0.900847
0.000000 0.000000 0.899870
0.154910 0.000000 0.899413
0.486946 0.000000 0.896788
0.700221 0.000000 0.893828
0.891051 0.000000 0.891386
1.000000 0.000000 0.843320
0.000000 0.194217 0.905913
0.000000 0.201541 0.905119
0.000000 0.166018 0.902953
0.135744 0.154513 0.901762
0.480171 0.139467 0.897673
0.698634 0.133669 0.894835
0.892576 0.147463 0.892760
1.000000 0.135531 0.845823
0.000000 0.486671 0.895506
0.000000 0.481788 0.893919
0.000000 0.473976 0.890806
0.140383 0.479042 0.888273
0.489601 0.490608 0.884947
0.696712 0.495277 0.881590
0.878843 0.503716 0.878935
1.000000 0.520531 0.849546
0.000000 0.689815 0.886503
0.000000 0.688808 0.886229
0.000000 0.687404 0.885008
0.129122 0.690333 0.883787
0.512169 0.702907 0.880766
0.720180 0.720241 0.879667
0.878752 0.724331 0.878782
0.996033 0.737850 0.865415
0.000000 0.881163 0.882231
0.000000 0.881926 0.882902
0.000000 0.881315 0.882017
0.141054 0.880461 0.880919
0.515984 0.876951 0.877195
0.722133 0.874632 0.874693
0.877836 0.877806 0.877836
0.988434 0.893400 0.894163
0.000000 1.000000 0.838346
0.000000 1.000000 0.837888
0.000000 1.000000 0.839872
0.149264 1.000000 0.842527
0.533165 1.000000 0.850950
0.740688 0.993347 0.865263
0.887022 0.985107 0.887022
0.980957 0.980957 0.888273
0.000000 0.074250 0.980987
0.000000 0.074525 0.981811
0.000000 0.074250 0.981018
0.000000 0.000000 0.981384
0.297887 0.000000 0.980621
0.575067 0.000000 0.979492
0.784787 0.000000 0.979187
0.973907 0.000000 0.977050
0.000000 0.073426 0.978698
0.000000 0.073701 0.979522
0.000000 0.073701 0.979309
0.000000 0.000000 0.978973
0.297765 0.000000 0.978302
0.573510 0.000000 0.977142
0.782162 0.000000 0.976074
0.970916 0.000000 0.973754
0.000000 0.073457 0.978302
0.000000 0.073426 0.978637
0.000000 0.073182 0.977417
0.000000 0.000000 0.979797
0.296239 0.000000 0.978332
0.571191 0.000000 0.976013
0.780636 0.000000 0.974975
0.971374 0.000000 0.973022
0.000000 0.073976 0.980499
0.000000 0.074250 0.981140
0.000000 0.073945 0.980591
0.000000 0.000000 0.980926
0.273808 0.000000 0.980194
0.563561 0.000000 0.978546
0.779019 0.000000 0.977295
0.974060 0.000000 0.974365
0.000000 0.274937 0.978698
0.000000 0.272862 0.979553
0.000000 0.259861 0.979492
0.000000 0.198276 0.980407
0.153689 0.172122 0.977661
0.533288 0.135714 0.974304
0.766079 0.100069 0.971557
0.969451 0.110872 0.969604
0.000000 0.553643 0.971435
0.000000 0.552453 0.970733
0.000000 0.547631 0.969604
0.000000 0.529107 0.969116
0.116976 0.530510 0.967742
0.559869 0.560845 0.966888
0.781491 0.577722 0.967285
0.967529 0.599268 0.967559
0.000000 0.764126 0.966125
0.000000 0.763699 0.965606
0.000000 0.762325 0.964599
0.000000 0.755734 0.964080
0.064820 0.757992 0.962097
0.583368 0.779171 0.959136
0.807950 0.807980 0.959228
0.964599 0.827634 0.964630
0.000000 0.961334 0.965148
0.000000 0.961761 0.964782
0.000000 0.964324 0.965423
0.000000 0.966613 0.967346
0.214359 0.967407 0.967773
0.622126 0.964965 0.965118
0.831388 0.962860 0.962921
0.962036 0.962005 0.962036
