data/fiter_cube/15997792/1023460/file.cube
# Created by Adobe Lightroom plugin Export LUT (1.17.0)
# www.johnrellis.com/lightroom/exportlut.htm
# Preset: 日系A通透明亮[云集]-1
# Color profile: C:\Program Files (x86)\Common Files\Adobe\Color\Profiles\Recommended\AdobeRGB1998.icc
LUT_3D_SIZE 5
DOMAIN_MIN 0.000000 0.000000 0.000000
DOMAIN_MAX 0.903226 0.903226 0.903226
0.000000 0.000000 0.000000
0.296025 0.000000 0.000000
0.668818 0.000000 0.000000
0.914885 0.000000 0.000000
1.000000 0.007568 0.143587
0.000000 0.296239 0.000000
0.294865 0.298497 0.000000
0.685298 0.304326 0.000000
0.918212 0.268467 0.000000
1.000000 0.275822 0.172885
0.000000 0.644800 0.000000
0.285924 0.643183 0.000000
0.632197 0.633173 0.000000
0.915557 0.597925 0.121309
1.000000 0.548974 0.263554
0.000000 0.877897 0.000000
0.261540 0.875547 0.000000
0.568658 0.867552 0.000000
0.853178 0.854063 0.000000
1.000000 0.796201 0.276677
0.179446 1.000000 0.185183
0.305333 1.000000 0.190127
0.535912 1.000000 0.207736
0.772854 1.000000 0.230808
0.998077 0.998566 0.263859
0.000000 0.016754 0.244205
0.244205 0.000000 0.246372
0.632227 0.000000 0.262669
0.894224 0.000000 0.275700
1.000000 0.176089 0.322393
0.000000 0.245914 0.248051
0.247959 0.247959 0.247959
0.637659 0.259403 0.266361
0.898222 0.277012 0.292271
1.000000 0.319982 0.338689
0.000000 0.625696 0.253391
0.244541 0.620447 0.245121
0.613611 0.614130 0.242496
0.906554 0.604150 0.352697
1.000000 0.571099 0.399634
0.000000 0.870420 0.253117
0.265965 0.866789 0.267674
0.566308 0.859770 0.270848
0.847257 0.847929 0.278202
1.000000 0.802823 0.420081
0.246128 1.000000 0.342748
0.343786 1.000000 0.345647
0.552483 1.000000 0.354986
0.778805 1.000000 0.368750
0.996674 0.997101 0.389868
0.000000 0.016754 0.568688
0.000000 0.000000 0.569604
0.570733 0.000000 0.571435
0.864714 0.000000 0.540856
1.000000 0.110445 0.530266
0.000000 0.149081 0.571862
0.080446 0.096651 0.570520
0.567376 0.000000 0.567529
0.858854 0.163394 0.544274
1.000000 0.348791 0.557977
0.000000 0.564813 0.565667
0.000000 0.561669 0.562097
0.563622 0.563622 0.563622
0.850248 0.586969 0.589776
1.000000 0.612940 0.618189
0.000000 0.851682 0.529107
0.141329 0.847562 0.533989
0.569970 0.835203 0.570092
0.828489 0.828672 0.571313
1.000000 0.827787 0.674189
0.000000 1.000000 0.503319
0.304753 1.000000 0.531243
0.603845 1.000000 0.604211
0.797269 1.000000 0.609430
0.992859 0.993011 0.617548
0.000000 0.038300 0.815000
0.000000 0.000000 0.815457
0.435523 0.000000 0.815854
0.813596 0.000000 0.814298
1.000000 0.000000 0.738216
0.000000 0.038941 0.817227
0.000000 0.000000 0.817624
0.457771 0.000000 0.818143
0.811826 0.000000 0.812161
1.000000 0.000000 0.740963
0.000000 0.451545 0.815854
0.000000 0.445686 0.812985
0.457710 0.458534 0.805509
0.794705 0.460243 0.794766
1.000000 0.508354 0.763851
0.000000 0.801236 0.802121
0.000000 0.799985 0.800656
0.471290 0.796292 0.796536
0.797116 0.797086 0.797116
1.000000 0.822690 0.824308
0.000000 1.000000 0.726101
0.000000 1.000000 0.729976
0.505028 1.000000 0.758389
0.812253 0.995850 0.812284
0.986328 0.986358 0.816403
0.000000 0.074250 0.980987
0.000000 0.074250 0.981079
0.000000 0.000000 0.981201
0.630610 0.000000 0.979522
0.973907 0.000000 0.977050
0.000000 0.073701 0.979400
0.000000 0.073701 0.979522
0.000000 0.000000 0.979492
0.627710 0.000000 0.976501
0.972625 0.000000 0.974609
0.000000 0.074250 0.980926
0.000000 0.073945 0.980591
0.000000 0.000000 0.979004
0.605249 0.000000 0.974029
0.971405 0.000000 0.971618
0.000000 0.611139 0.972625
0.000000 0.607782 0.971435
0.000000 0.589319 0.969726
0.631312 0.631861 0.963775
0.965911 0.664912 0.965942
0.000000 0.961334 0.965148
0.000000 0.963836 0.965148
0.000000 0.967803 0.968322
0.683864 0.964416 0.964508
0.962036 0.962005 0.962036
