data/fiter_cube/15997792/1023460/file.cube
# Created by Adobe Lightroom plugin Export LUT (1.17.0)
# www.johnrellis.com/lightroom/exportlut.htm
# Preset: 日系A通透明亮[云集]-1
# Color profile: C:\Program Files (x86)\Common Files\Adobe\Color\Profiles\Recommended\AdobeRGB1998.icc
LUT_3D_SIZE 32
DOMAIN_MIN 0.0 0.0 0.0
DOMAIN_MAX 1.0 1.0 1.0
0.000000 0.000000 0.000000
0.000000 0.000000 0.000000
0.000000 0.000000 0.000000
0.009125 0.000000 0.000885
0.113832 0.000000 0.006470
0.176852 0.000000 0.007813
0.238437 0.000000 0.002441
0.296025 0.000000 0.000000
0.351141 0.000000 0.000000
0.405097 0.000000 0.000000
0.459022 0.000000 0.000000
0.512932 0.000000 0.000000
0.567071 0.000000 0.000000
0.619959 0.000000 0.000000
0.668818 0.000000 0.000000
0.713893 0.000000 0.000000
0.755184 0.000000 0.000000
0.791714 0.000000 0.000000
0.825010 0.000000 0.000000
0.856413 0.000000 0.000000
0.886351 0.000000 0.000000
0.914885 0.000000 0.000000
0.942107 0.000000 0.000000
0.967926 0.000000 0.000000
0.992432 0.000000 0.000000
1.000000 0.000000 0.065339
1.000000 0.000000 0.096223
1.000000 0.000000 0.121126
1.000000 0.007568 0.143587
1.000000 0.089662 0.164340
1.000000 0.124880 0.184573
1.000000 0.154147 0.204318
0.000000 0.000000 0.000000
0.000000 0.000000 0.000000
0.000000 0.000000 0.000000
0.015900 0.000000 0.000793
0.115572 0.000000 0.007355
0.178073 0.000000 0.007691
0.239506 0.000000 0.002258
0.297032 0.000000 0.000000
0.351965 0.000000 0.000000
0.406165 0.000000 0.000000
0.460151 0.000000 0.000000
0.514214 0.000000 0.000000
0.568353 0.000000 0.000000
0.621241 0.000000 0.000000
0.670039 0.000000 0.000000
0.715023 0.000000 0.000000
0.756039 0.000000 0.000000
0.792477 0.000000 0.000000
0.825711 0.000000 0.000000
0.857053 0.000000 0.000000
0.886961 0.000000 0.000000
0.915435 0.000000 0.000000
0.942565 0.000000 0.000000
0.968353 0.000000 0.000000
0.992798 0.000000 0.000000
1.000000 0.000000 0.067567
1.000000 0.000000 0.097536
1.000000 0.000000 0.123079
1.000000 0.060395 0.144900
1.000000 0.103120 0.165743
1.000000 0.134005 0.185580
1.000000 0.161135 0.205356
0.000000 0.000000 0.000000
0.000000 0.000000 0.000000
0.000000 0.000000 0.000000
0.025391 0.000000 0.000671
0.117586 0.000000 0.007202
0.179904 0.000000 0.007477
0.240665 0.000000 0.001526
0.297887 0.000000 0.000000
0.353002 0.000000 0.000000
0.407172 0.000000 0.000000
0.461372 0.000000 0.000000
0.515465 0.000000 0.000000
0.569635 0.000000 0.000000
0.622461 0.000000 0.000000
0.671077 0.000000 0.000000
0.716030 0.000000 0.000000
0.756771 0.000000 0.000000
0.793088 0.000000 0.000000
0.826291 0.000000 0.000000
0.857542 0.000000 0.000000
0.887358 0.000000 0.000000
0.915801 0.000000 0.000000
0.942870 0.000000 0.000000
0.968597 0.000000 0.000000
0.992981 0.000000 0.000000
1.000000 0.000000 0.070130
1.000000 0.000000 0.099916
1.000000 0.015900 0.124575
1.000000 0.084871 0.146334
1.000000 0.117769 0.167147
1.000000 0.144472 0.186831
1.000000 0.169528 0.206577
0.000000 0.036835 0.000000
0.000000 0.046235 0.000000
0.000000 0.055421 0.000000
0.037110 0.065827 0.000000
0.118502 0.059632 0.005402
0.181064 0.043153 0.002930
0.241825 0.000641 0.000000
0.299443 0.000000 0.000000
0.354864 0.000000 0.000000
0.409277 0.000000 0.000000
0.463508 0.000000 0.000000
0.517845 0.000000 0.000000
0.572045 0.000000 0.000000
0.624598 0.000000 0.000000
0.673121 0.000000 0.000000
0.717800 0.000000 0.000000
0.757992 0.000000 0.000000
0.794186 0.000000 0.000000
0.827237 0.000000 0.000000
0.858366 0.000000 0.000000
0.888121 0.000000 0.000000
0.916442 0.000000 0.000000
0.943389 0.000000 0.000000
0.968963 0.000000 0.000000
0.993225 0.000000 0.011414
1.000000 0.000000 0.075196
1.000000 0.063844 0.103487
1.000000 0.095735 0.127596
1.000000 0.120729 0.149050
1.000000 0.143435 0.169406
1.000000 0.164858 0.189090
1.000000 0.186252 0.208713
0.000000 0.119905 0.000000
0.000000 0.121645 0.000000
0.000000 0.124147 0.000000
0.018280 0.127993 0.000000
0.119417 0.128511 0.000000
0.181552 0.128756 0.000000
0.243931 0.127047 0.000000
0.302098 0.122194 0.000000
0.357916 0.115175 0.000000
0.412543 0.109010 0.000000
0.467109 0.104097 0.000000
0.521538 0.100526 0.000000
0.575830 0.099214 0.000000
0.628016 0.099428 0.000000
0.676051 0.099977 0.000000
0.720119 0.098634 0.000000
0.759548 0.091066 0.000000
0.795377 0.084016 0.000000
0.828244 0.076417 0.000000
0.859281 0.072053 0.000000
0.888823 0.070375 0.000000
0.917052 0.073091 0.000000
0.943847 0.080262 0.000000
0.969329 0.089662 0.000000
0.993439 0.101289 0.035737
1.000000 0.114260 0.083040
1.000000 0.128908 0.109560
1.000000 0.143679 0.132418
1.000000 0.159365 0.153597
1.000000 0.175540 0.173556
1.000000 0.192050 0.192813
1.000000 0.209445 0.212284
0.000000 0.182010 0.000000
0.000000 0.183444 0.000000
0.000000 0.185245 0.000000
0.000000 0.188022 0.000000
0.118410 0.188693 0.000000
0.182223 0.189212 0.000000
0.241917 0.190433 0.000000
0.302800 0.190463 0.000000
0.361151 0.188418 0.000000
0.416358 0.186374 0.000000
0.471199 0.185183 0.000000
0.525780 0.184451 0.000000
0.580163 0.184482 0.000000
0.631952 0.184329 0.000000
0.679500 0.183169 0.000000
0.722469 0.178683 0.000000
0.761318 0.173404 0.000000
0.796841 0.167971 0.000000
0.829374 0.163058 0.000000
0.860197 0.159091 0.000000
0.889555 0.156802 0.000000
0.917540 0.155825 0.000000
0.941863 0.154971 0.000000
0.967407 0.158114 0.000000
0.991608 0.162783 0.051667
1.000000 0.168978 0.088594
1.000000 0.177066 0.113985
1.000000 0.186099 0.136446
1.000000 0.196750 0.156954
1.000000 0.208347 0.176669
1.000000 0.221103 0.196078
1.000000 0.235080 0.215274
0.000000 0.240757 0.000000
0.000000 0.241611 0.000000
0.000000 0.243015 0.000000
0.000000 0.244572 0.000000
0.113893 0.244999 0.000000
0.181521 0.245151 0.000000
0.239811 0.245090 0.000000
0.295811 0.245701 0.000000
0.355749 0.247288 0.000000
0.416571 0.248844 0.000000
0.474250 0.249516 0.000000
0.529076 0.249638 0.000000
0.583368 0.250340 0.000000
0.634821 0.249454 0.000000
0.681575 0.245945 0.000000
0.723751 0.241184 0.000000
0.762417 0.235813 0.000000
0.797726 0.230167 0.000000
0.830014 0.225071 0.000000
0.860502 0.220523 0.000000
0.889525 0.217380 0.000000
0.917144 0.214969 0.000000
0.943420 0.214054 0.000000
0.968444 0.213993 0.005249
0.992248 0.215793 0.071260
1.000000 0.218814 0.099702
1.000000 0.223423 0.123323
1.000000 0.229252 0.144594
1.000000 0.236271 0.164370
1.000000 0.244724 0.183658
1.000000 0.254215 0.202304
1.000000 0.265171 0.221347
0.000000 0.296239 0.000000
0.000000 0.297124 0.000000
0.000000 0.298192 0.000000
0.000000 0.298619 0.000000
0.111482 0.298863 0.000000
0.181186 0.298894 0.000000
0.240238 0.298619 0.000000
0.294865 0.298497 0.000000
0.348211 0.298772 0.000000
0.408576 0.302770 0.000000
0.470161 0.306767 0.000000
0.532769 0.310338 0.000000
0.589563 0.310948 0.000000
0.639826 0.308690 0.000000
0.685298 0.304326 0.000000
0.727016 0.299107 0.000000
0.765194 0.293248 0.000000
0.800046 0.287297 0.000000
0.831968 0.281498 0.000000
0.862150 0.276310 0.000000
0.890837 0.272007 0.000000
0.918212 0.268467 0.000000
0.944244 0.266178 0.000000
0.969055 0.264805 0.054078
0.992645 0.264469 0.087770
1.000000 0.265690 0.112612
1.000000 0.267857 0.133791
1.000000 0.271153 0.153780
1.000000 0.275822 0.172885
1.000000 0.281559 0.191470
1.000000 0.288762 0.210025
1.000000 0.297185 0.228733
0.000000 0.349615 0.000000
0.000000 0.349889 0.000000
0.000000 0.350195 0.000000
0.000000 0.350317 0.000000
0.113588 0.350591 0.000000
0.182803 0.350622 0.000000
0.241337 0.350622 0.000000
0.295842 0.350622 0.000000
0.348302 0.350408 0.000000
0.399939 0.350835 0.000000
0.460212 0.356451 0.000000
0.522515 0.361547 0.000000
0.585321 0.365515 0.000000
0.643977 0.365850 0.000000
0.689174 0.361151 0.000000
0.730373 0.355322 0.000000
0.768063 0.348760 0.000000
0.802518 0.342107 0.000000
0.833921 0.335241 0.000000
0.863798 0.329137 0.000000
0.892180 0.323888 0.000000
0.919280 0.319249 0.000000
0.945037 0.315679 0.028779
0.969574 0.313085 0.078340
0.992920 0.311406 0.104005
1.000000 0.310582 0.125673
1.000000 0.311162 0.145541
1.000000 0.312657 0.164279
1.000000 0.315160 0.182467
1.000000 0.319005 0.200595
1.000000 0.323980 0.218723
1.000000 0.330327 0.237003
0.000000 0.401190 0.000000
0.000000 0.401282 0.000000
0.000000 0.401404 0.000000
0.000000 0.401587 0.000000
0.120180 0.401831 0.000000
0.186984 0.401923 0.000000
0.244083 0.401953 0.000000
0.297581 0.401892 0.000000
0.349432 0.401862 0.000000
0.400153 0.401587 0.000000
0.450599 0.401617 0.000000
0.510307 0.407324 0.000000
0.573053 0.413336 0.000000
0.632502 0.415808 0.000000
0.687037 0.414923 0.000000
0.734035 0.410620 0.000000
0.771115 0.403174 0.000000
0.804898 0.395270 0.000000
0.835904 0.387579 0.000000
0.865354 0.380407 0.000000
0.893523 0.374182 0.000000
0.920317 0.368627 0.016724
0.945892 0.363806 0.072786
0.970184 0.359930 0.099001
0.993286 0.356970 0.120363
1.000000 0.354925 0.140169
1.000000 0.353796 0.158328
1.000000 0.353674 0.175998
1.000000 0.354528 0.193515
1.000000 0.356481 0.210666
1.000000 0.359716 0.228305
1.000000 0.364111 0.246342
0.000000 0.452399 0.000000
0.000000 0.452522 0.000000
0.000000 0.452613 0.000000
0.000000 0.452705 0.000000
0.120912 0.452766 0.000000
0.187015 0.452888 0.000000
0.244297 0.452918 0.000000
0.297734 0.452949 0.000000
0.349737 0.452766 0.000000
0.400427 0.452308 0.000000
0.450324 0.451637 0.000000
0.500298 0.451301 0.000000
0.559136 0.456916 0.000000
0.619715 0.461921 0.000000
0.675349 0.462837 0.000000
0.725856 0.460548 0.000000
0.771481 0.455970 0.000000
0.807675 0.448310 0.000000
0.838224 0.439338 0.000000
0.867308 0.431037 0.000000
0.895048 0.423651 0.019898
0.921477 0.416876 0.072419
0.946685 0.411048 0.097841
0.970642 0.405982 0.118715
0.993469 0.401801 0.137453
1.000000 0.398352 0.155184
1.000000 0.395911 0.172122
1.000000 0.394354 0.188846
1.000000 0.393805 0.205417
1.000000 0.394263 0.222110
1.000000 0.395880 0.239292
1.000000 0.398749 0.257053
0.000000 0.503471 0.000000
0.000000 0.503532 0.000000
0.000000 0.503532 0.000000
0.000000 0.503563 0.000000
0.114839 0.503685 0.000000
0.184085 0.503746 0.000000
0.242527 0.503838 0.000000
0.296635 0.503502 0.000000
0.348913 0.502983 0.000000
0.399969 0.502525 0.000000
0.450263 0.501854 0.000000
0.500008 0.501244 0.000000
0.546929 0.498116 0.000000
0.602441 0.501823 0.000000
0.659327 0.504936 0.000000
0.711330 0.504234 0.000000
0.758419 0.500908 0.000000
0.800565 0.495521 0.000000
0.838407 0.489174 0.000000
0.867491 0.479988 0.030457
0.895018 0.471412 0.075776
0.921202 0.463752 0.099336
0.946258 0.456703 0.118746
0.970092 0.450660 0.136690
0.992737 0.445258 0.153536
1.000000 0.440742 0.169863
1.000000 0.437049 0.185824
1.000000 0.434302 0.201541
1.000000 0.432471 0.217624
1.000000 0.431525 0.233799
1.000000 0.431861 0.250797
1.000000 0.433295 0.268193
0.000000 0.552819 0.000000
0.000000 0.552911 0.000000
0.000000 0.552972 0.000000
0.000000 0.553033 0.000000
0.104738 0.553063 0.000000
0.178866 0.553094 0.000000
0.238956 0.552941 0.000000
0.294041 0.552575 0.000000
0.346868 0.551995 0.000000
0.398108 0.551324 0.000000
0.448341 0.550378 0.000000
0.497902 0.549096 0.000000
0.546715 0.547906 0.000000
0.595300 0.546624 0.000000
0.645441 0.546227 0.000000
0.698604 0.547326 0.000000
0.746975 0.545006 0.000000
0.790463 0.540185 0.000000
0.829587 0.533959 0.000000
0.865568 0.527428 0.053925
0.896818 0.520012 0.107546
0.922637 0.511009 0.124910
0.947234 0.503014 0.141329
0.970703 0.495644 0.156863
0.992950 0.489113 0.171847
1.000000 0.483436 0.186679
1.000000 0.478645 0.201572
1.000000 0.474678 0.216770
1.000000 0.471534 0.231937
1.000000 0.469429 0.247684
1.000000 0.468360 0.263951
1.000000 0.468513 0.281224
0.000000 0.600824 0.000000
0.000000 0.600763 0.000000
0.000000 0.600793 0.000000
0.000000 0.600793 0.000000
0.092256 0.600671 0.000000
0.173007 0.600488 0.000000
0.234684 0.600214 0.000000
0.290532 0.599725 0.000000
0.343633 0.598932 0.000000
0.395026 0.598047 0.000000
0.445228 0.596796 0.000000
0.494606 0.595483 0.000000
0.543175 0.593957 0.000000
0.591333 0.592370 0.000000
0.638880 0.590753 0.000000
0.684535 0.587335 0.000000
0.734310 0.586542 0.000000
0.779202 0.582696 0.000000
0.819852 0.576867 0.000000
0.857145 0.570428 0.000000
0.891234 0.563592 0.093843
0.922332 0.556909 0.141207
0.948150 0.548669 0.163790
0.971160 0.540185 0.177310
0.993011 0.532525 0.190890
1.000000 0.525719 0.204654
1.000000 0.519677 0.218479
1.000000 0.514580 0.232639
1.000000 0.510369 0.247318
1.000000 0.507103 0.262455
1.000000 0.504936 0.278508
1.000000 0.503868 0.295384
0.000000 0.644800 0.000000
0.000000 0.644739 0.000000
0.000000 0.644709 0.000000
0.000000 0.644678 0.000000
0.079530 0.644495 0.000000
0.166629 0.644343 0.000000
0.229526 0.643854 0.000000
0.285924 0.643183 0.000000
0.338933 0.642329 0.000000
0.390356 0.641291 0.000000
0.440192 0.639979 0.000000
0.489174 0.638453 0.000000
0.537438 0.636805 0.000000
0.585046 0.635096 0.000000
0.632197 0.633173 0.000000
0.678828 0.631312 0.000000
0.720333 0.625269 0.000000
0.766812 0.622797 0.000000
0.809049 0.617945 0.000000
0.847868 0.611902 0.000000
0.883268 0.605035 0.052125
0.915557 0.597925 0.121309
0.944915 0.590967 0.163210
0.971527 0.584344 0.198306
0.993011 0.575494 0.210758
1.000000 0.567559 0.223301
1.000000 0.560479 0.236271
1.000000 0.554284 0.249699
1.000000 0.548974 0.263554
1.000000 0.544579 0.278080
1.000000 0.541222 0.293584
1.000000 0.539025 0.310399
0.000000 0.685328 0.000000
0.000000 0.685206 0.000000
0.000000 0.685115 0.000000
0.000000 0.684962 0.000000
0.066926 0.684627 0.000000
0.160616 0.684291 0.000000
0.224002 0.683711 0.000000
0.280308 0.683009 0.000000
0.333227 0.682063 0.000000
0.384070 0.680903 0.000000
0.433722 0.679561 0.000000
0.482277 0.678126 0.000000
0.529992 0.676417 0.000000
0.577203 0.674647 0.000000
0.623743 0.672724 0.000000
0.669764 0.670771 0.000000
0.715145 0.668544 0.000000
0.753994 0.661128 0.000000
0.797269 0.656977 0.000000
0.837613 0.651637 0.000000
0.874449 0.645106 0.000000
0.907988 0.637842 0.092988
0.938476 0.630365 0.145296
0.966064 0.623011 0.184298
0.990997 0.616114 0.218082
1.000000 0.608942 0.242771
1.000000 0.600763 0.254734
1.000000 0.593530 0.267460
1.000000 0.587213 0.280888
1.000000 0.581811 0.294804
1.000000 0.577447 0.310185
1.000000 0.574395 0.327001
0.000000 0.722530 0.000000
0.000000 0.722530 0.000000
0.000000 0.722408 0.000000
0.000000 0.722225 0.000000
0.054688 0.721920 0.000000
0.155367 0.721462 0.000000
0.218906 0.720821 0.000000
0.275120 0.720027 0.000000
0.327489 0.719051 0.000000
0.377813 0.717830 0.000000
0.426764 0.716457 0.000000
0.474647 0.714900 0.000000
0.521691 0.713161 0.000000
0.568109 0.711299 0.000000
0.613977 0.709316 0.000000
0.659236 0.707240 0.000000
0.704005 0.705043 0.000000
0.748287 0.702785 0.000000
0.786404 0.695521 0.000000
0.826535 0.689937 0.000000
0.864958 0.684016 0.000000
0.899901 0.676936 0.017151
0.931609 0.669184 0.120699
0.960296 0.661372 0.167300
0.986206 0.653620 0.204746
1.000000 0.646418 0.238254
1.000000 0.639887 0.269108
1.000000 0.632563 0.286656
1.000000 0.625177 0.299413
1.000000 0.618891 0.313146
1.000000 0.613550 0.328038
1.000000 0.609094 0.343847
0.000000 0.756619 0.000000
0.000000 0.756497 0.000000
0.000000 0.754879 0.000000
0.000000 0.754635 0.000000
0.046479 0.754330 0.000000
0.150698 0.753902 0.000000
0.214267 0.753323 0.000000
0.269230 0.752621 0.000000
0.321141 0.751705 0.000000
0.370672 0.750576 0.000000
0.418738 0.749325 0.000000
0.465919 0.747890 0.000000
0.512291 0.746334 0.000000
0.558160 0.744656 0.000000
0.603265 0.742885 0.000000
0.647944 0.740993 0.000000
0.692226 0.739040 0.000000
0.735927 0.736904 0.000000
0.779110 0.734707 0.000000
0.816770 0.727901 0.000000
0.854063 0.721004 0.000000
0.890654 0.714473 0.000000
0.923827 0.706905 0.082307
0.953796 0.698817 0.144472
0.980774 0.690578 0.187961
1.000000 0.682643 0.224979
1.000000 0.675135 0.258305
1.000000 0.668482 0.289525
1.000000 0.662806 0.319097
1.000000 0.655573 0.332494
1.000000 0.649409 0.347295
1.000000 0.643397 0.361517
0.000000 0.788540 0.000000
0.000000 0.788296 0.000000
0.000000 0.787991 0.000000
0.000000 0.787625 0.000000
0.048493 0.787167 0.000000
0.149630 0.786679 0.000000
0.211643 0.786160 0.000000
0.265782 0.785397 0.000000
0.316564 0.784604 0.000000
0.365026 0.783536 0.000000
0.412421 0.782345 0.000000
0.458778 0.781003 0.000000
0.504479 0.779568 0.000000
0.549554 0.778012 0.000000
0.594110 0.776333 0.000000
0.638117 0.774533 0.000000
0.681727 0.772610 0.000000
0.724788 0.770596 0.000000
0.767453 0.768429 0.000000
0.809659 0.766171 0.000000
0.846860 0.759823 0.000000
0.881285 0.751553 0.000000
0.915923 0.744259 0.000000
0.947173 0.736110 0.113985
0.975280 0.727474 0.167514
1.000000 0.718807 0.209049
1.000000 0.710384 0.245396
1.000000 0.702663 0.279179
1.000000 0.695796 0.311101
1.000000 0.690120 0.342473
1.000000 0.684688 0.367498
1.000000 0.677241 0.380102
0.000000 0.819821 0.000000
0.000000 0.819608 0.000000
0.000000 0.819364 0.000000
0.000000 0.819028 0.000000
0.062928 0.818631 0.000000
0.150607 0.818173 0.000000
0.210605 0.817594 0.000000
0.263310 0.816892 0.000000
0.312688 0.816129 0.000000
0.360357 0.815152 0.000000
0.406836 0.814023 0.000000
0.452338 0.812741 0.000000
0.497230 0.811368 0.000000
0.541466 0.809873 0.000000
0.585290 0.808225 0.000000
0.628565 0.806516 0.000000
0.671473 0.804715 0.000000
0.713924 0.802762 0.000000
0.755978 0.800687 0.000000
0.797574 0.798520 0.000000
0.838712 0.796201 0.000000
0.875486 0.790402 0.000000
0.907408 0.780880 0.000000
0.940063 0.772915 0.060487
0.969482 0.764096 0.140505
0.995789 0.754910 0.189700
1.000000 0.745754 0.230350
1.000000 0.737057 0.267063
1.000000 0.729061 0.301610
1.000000 0.722103 0.335058
1.000000 0.715572 0.365972
1.000000 0.709682 0.394812
0.000000 0.849821 0.000000
0.000000 0.849607 0.000000
0.000000 0.849393 0.000000
0.000000 0.849088 0.000000
0.077241 0.848661 0.000000
0.154055 0.848234 0.000000
0.210971 0.847715 0.000000
0.261753 0.847074 0.000000
0.310063 0.846281 0.000000
0.356512 0.845365 0.000000
0.401831 0.844327 0.000000
0.446479 0.843076 0.000000
0.490364 0.841764 0.000000
0.533837 0.840330 0.000000
0.576867 0.838743 0.000000
0.619348 0.837095 0.000000
0.661494 0.835264 0.000000
0.703243 0.833341 0.000000
0.744564 0.831296 0.000000
0.785428 0.829099 0.000000
0.825864 0.826841 0.000000
0.865965 0.824430 0.000000
0.902464 0.819150 0.000000
0.932128 0.808652 0.000000
0.962860 0.799893 0.099489
0.990356 0.790524 0.164187
1.000000 0.780789 0.211368
1.000000 0.771298 0.252049
1.000000 0.762234 0.289372
1.000000 0.753841 0.324743
1.000000 0.745418 0.356634
1.000000 0.737819 0.386755
0.000000 0.877897 0.000000
0.000000 0.877775 0.000000
0.000000 0.877623 0.000000
0.000000 0.877440 0.000000
0.091249 0.877104 0.000000
0.159121 0.876707 0.000000
0.212680 0.876219 0.000000
0.261540 0.875547 0.000000
0.308080 0.874815 0.000000
0.353246 0.873869 0.000000
0.397436 0.872862 0.000000
0.441047 0.871702 0.000000
0.484047 0.870420 0.000000
0.526513 0.869047 0.000000
0.568658 0.867552 0.000000
0.610468 0.865965 0.000000
0.651759 0.864225 0.000000
0.692836 0.862425 0.000000
0.733455 0.860502 0.000000
0.773739 0.858427 0.000000
0.813687 0.856321 0.000000
0.853178 0.854063 0.000000
0.892332 0.851774 0.000000
0.928710 0.847288 0.000000
0.956451 0.835996 0.000000
0.985229 0.826505 0.131014
1.000000 0.816373 0.189090
1.000000 0.806149 0.235264
1.000000 0.796201 0.276677
1.000000 0.785885 0.312993
1.000000 0.775937 0.346715
1.000000 0.766690 0.378302
0.000000 0.905180 0.000000
0.000000 0.905089 0.000000
0.000000 0.904967 0.000000
0.000000 0.904723 0.000000
0.107790 0.904417 0.000000
0.166506 0.904021 0.000000
0.216373 0.903593 0.000000
0.262638 0.902983 0.000000
0.307561 0.902281 0.000000
0.351263 0.901396 0.000000
0.394232 0.900450 0.000000
0.436652 0.899321 0.000000
0.478523 0.898131 0.000000
0.520134 0.896788 0.000000
0.561395 0.895384 0.000000
0.602289 0.893858 0.000000
0.642847 0.892180 0.000000
0.683131 0.890410 0.000000
0.723049 0.888548 0.000000
0.762631 0.886595 0.000000
0.801846 0.884520 0.000000
0.840757 0.882353 0.000000
0.879271 0.880156 0.000000
0.917479 0.877897 0.000000
0.954070 0.874479 0.000000
0.980194 0.862699 0.081086
1.000000 0.852232 0.160800
1.000000 0.841428 0.215488
1.000000 0.830106 0.260410
1.000000 0.818296 0.299382
1.000000 0.806821 0.335180
1.000000 0.795895 0.368658
0.000000 0.930816 0.000000
0.000000 0.930694 0.000000
0.000000 0.930571 0.000000
0.055482 0.930358 0.000000
0.124453 0.930114 0.000000
0.175021 0.929778 0.000000
0.221164 0.929351 0.000000
0.265110 0.928832 0.000000
0.308141 0.928161 0.000000
0.350256 0.927398 0.000000
0.391882 0.926513 0.000000
0.432990 0.925505 0.000000
0.473884 0.924407 0.000000
0.514427 0.923156 0.000000
0.554742 0.921843 0.000000
0.594812 0.920439 0.000000
0.634638 0.918883 0.000000
0.674098 0.917266 0.000000
0.713283 0.915496 0.000000
0.752163 0.913603 0.000000
0.790677 0.911589 0.008026
0.828885 0.909575 0.034180
0.866850 0.907500 0.059815
0.904509 0.905364 0.072450
0.941863 0.903227 0.084016
0.978241 0.900542 0.096864
1.000000 0.888396 0.130526
1.000000 0.876738 0.190097
1.000000 0.863981 0.239963
1.000000 0.850980 0.282933
1.000000 0.838071 0.321630
1.000000 0.825467 0.357305
0.000000 0.955596 0.000000
0.000000 0.955474 0.000000
0.016938 0.955383 0.000000
0.094972 0.955200 0.000000
0.142397 0.954925 0.000000
0.186191 0.954620 0.000000
0.228305 0.954162 0.000000
0.269352 0.953674 0.000000
0.310246 0.953002 0.000000
0.350591 0.952239 0.000000
0.390539 0.951415 0.000000
0.430518 0.950408 0.000000
0.470161 0.949310 0.010620
0.509575 0.948119 0.023041
0.548821 0.946868 0.039429
0.587915 0.945495 0.055177
0.626825 0.943999 0.064973
0.665461 0.942443 0.072847
0.703761 0.940734 0.080598
0.741909 0.938964 0.087709
0.779690 0.937102 0.095277
0.817288 0.935119 0.102846
0.854582 0.933165 0.110170
0.891600 0.931212 0.118074
0.928374 0.929198 0.126650
0.964874 0.927214 0.135348
1.000000 0.925139 0.144167
1.000000 0.911772 0.168124
1.000000 0.898039 0.214237
1.000000 0.883879 0.262730
1.000000 0.869535 0.305211
1.000000 0.855283 0.343603
0.046693 0.978882 0.072145
0.072663 0.978790 0.072206
0.092988 0.978698 0.072450
0.125246 0.978546 0.073152
0.161349 0.978332 0.074281
0.199008 0.978027 0.076143
0.237125 0.977630 0.077974
0.275395 0.977142 0.080232
0.313909 0.976501 0.083009
0.352178 0.975769 0.085542
0.390723 0.974945 0.088808
0.429084 0.973999 0.092195
0.467384 0.972961 0.095460
0.505760 0.971801 0.099580
0.543847 0.970581 0.103944
0.581903 0.969268 0.108522
0.619867 0.967864 0.113497
0.657588 0.966369 0.118624
0.695125 0.964782 0.123690
0.732387 0.963073 0.129061
0.769497 0.961303 0.135042
0.806332 0.959472 0.141482
0.842954 0.957641 0.148196
0.879301 0.955749 0.155367
0.915129 0.953613 0.161868
0.950347 0.951110 0.167788
0.985168 0.948516 0.174044
1.000000 0.945830 0.180270
1.000000 0.932494 0.200259
1.000000 0.917296 0.238529
1.000000 0.901518 0.286046
1.000000 0.885649 0.328008
0.107668 1.000000 0.117830
0.117617 1.000000 0.117891
0.129885 1.000000 0.118227
0.152285 1.000000 0.118257
0.181552 1.000000 0.118959
0.213870 1.000000 0.120089
0.247868 0.999542 0.121157
0.283024 0.998993 0.122621
0.318944 0.998322 0.124331
0.355261 0.997559 0.126253
0.391791 0.996674 0.128359
0.428565 0.995697 0.130434
0.465461 0.994659 0.133181
0.502403 0.993500 0.136019
0.539422 0.992309 0.139742
0.576379 0.991028 0.143343
0.613306 0.989715 0.147890
0.650050 0.988281 0.152316
0.686732 0.986725 0.157565
0.723171 0.985138 0.162478
0.759396 0.983490 0.168276
0.795346 0.981628 0.173983
0.830716 0.979400 0.178622
0.865751 0.977050 0.183536
0.900481 0.974609 0.188815
0.934813 0.972045 0.194217
0.968750 0.969390 0.199741
1.000000 0.966644 0.205600
1.000000 0.963775 0.211643
1.000000 0.950378 0.229007
1.000000 0.933684 0.261387
1.000000 0.916197 0.308110
0.144442 1.000000 0.151736
0.151186 1.000000 0.151888
0.160128 1.000000 0.152163
0.177676 1.000000 0.152468
0.201877 1.000000 0.153140
0.229862 1.000000 0.154177
0.260319 1.000000 0.155428
0.292454 1.000000 0.156558
0.325872 1.000000 0.158145
0.360204 1.000000 0.160311
0.394934 1.000000 0.162387
0.430091 1.000000 0.164706
0.465522 1.000000 0.167514
0.501122 1.000000 0.170657
