data/fiter_cube/44540723/1023230/file.cube
# Created by Adobe Lightroom plugin Export LUT (1.17.0)
# www.johnrellis.com/lightroom/exportlut.htm
# Preset: 奶油色调低饱和（弱光环境）_01 云集
# Color profile: C:\Program Files (x86)\Common Files\Adobe\Color\Profiles\Recommended\AdobeRGB1998.icc
LUT_3D_SIZE 32
DOMAIN_MIN 0.0 0.0 0.0
DOMAIN_MAX 1.0 1.0 1.0
0.074922 0.071351 0.069123
0.081056 0.073243 0.071382
0.089357 0.075715 0.073762
0.104463 0.082734 0.080354
0.124697 0.090639 0.088167
0.148348 0.098146 0.095674
0.175235 0.105837 0.104005
0.206241 0.113985 0.112795
0.241428 0.122652 0.123232
0.280980 0.131472 0.134646
0.325017 0.140597 0.147646
0.371008 0.151186 0.162203
0.417762 0.163729 0.177737
0.462898 0.178805 0.194766
0.505364 0.196414 0.212406
0.544915 0.216037 0.230533
0.580957 0.237156 0.248814
0.614496 0.259861 0.267552
0.645502 0.282933 0.286534
0.683589 0.314183 0.311345
0.718135 0.345769 0.336492
0.748074 0.376410 0.361547
0.774014 0.405035 0.386053
0.797086 0.432319 0.409888
0.818112 0.458473 0.433631
0.838224 0.484718 0.458015
0.857908 0.511955 0.483589
0.877195 0.540642 0.511131
0.896208 0.570977 0.540795
0.914702 0.603540 0.573419
0.932464 0.637629 0.608301
0.949584 0.671962 0.644038
0.077150 0.077974 0.071809
0.080842 0.077638 0.073518
0.089723 0.081575 0.075013
0.105684 0.088197 0.080751
0.126131 0.095735 0.088502
0.149691 0.103029 0.095979
0.176486 0.110506 0.104036
0.207065 0.118746 0.113191
0.241947 0.127108 0.123232
0.281254 0.135988 0.134951
0.324743 0.145022 0.147768
0.370367 0.155428 0.161929
0.416358 0.167605 0.177676
0.461097 0.182681 0.194614
0.503227 0.199710 0.211948
0.542565 0.218570 0.229892
0.578607 0.239353 0.247807
0.612024 0.261051 0.266300
0.643061 0.283970 0.285252
0.680385 0.314000 0.309392
0.714229 0.344121 0.333806
0.744015 0.373816 0.358038
0.769924 0.401953 0.382025
0.793179 0.428809 0.405646
0.814389 0.454780 0.429114
0.834714 0.480964 0.453376
0.854612 0.508110 0.479103
0.874296 0.536828 0.506615
0.893614 0.567285 0.536400
0.912413 0.599786 0.568933
0.930480 0.633967 0.603967
0.947784 0.668544 0.639948
0.080201 0.087343 0.075105
0.083925 0.086366 0.078065
0.088838 0.087373 0.079469
0.105226 0.095216 0.083497
0.127871 0.103304 0.089143
0.151614 0.110109 0.096498
0.178317 0.117403 0.104677
0.208835 0.125246 0.113771
0.243565 0.133608 0.123873
0.282719 0.142184 0.135348
0.326055 0.151339 0.148379
0.371496 0.161868 0.162570
0.417212 0.173831 0.178103
0.461769 0.188632 0.195193
0.503593 0.205173 0.212467
0.542657 0.223606 0.230289
0.578393 0.243717 0.248386
0.611536 0.265080 0.266453
0.642634 0.287449 0.285130
0.679652 0.316747 0.309087
0.713039 0.346288 0.333074
0.742489 0.375067 0.357031
0.768429 0.402869 0.380743
0.791531 0.429053 0.404120
0.812741 0.454688 0.427466
0.833097 0.480415 0.451606
0.853147 0.507469 0.477211
0.872923 0.536034 0.504631
0.892393 0.566308 0.534386
0.911315 0.598718 0.566918
0.929473 0.632837 0.601892
0.946838 0.667292 0.637964
0.086976 0.105684 0.083894
0.090486 0.104646 0.086275
0.094301 0.103761 0.089387
0.103578 0.105257 0.091707
0.125338 0.116335 0.095399
0.156954 0.127504 0.097719
0.184146 0.133547 0.106203
0.214939 0.140658 0.115419
0.249699 0.148348 0.125856
0.289067 0.157046 0.137453
0.331945 0.165774 0.150607
0.376867 0.175937 0.164767
0.421973 0.188296 0.180423
0.465614 0.202213 0.197391
0.506828 0.217929 0.214420
0.545098 0.235721 0.232334
0.580224 0.254643 0.250126
0.612879 0.274937 0.267948
0.644617 0.297093 0.287144
0.679683 0.324346 0.309880
0.711604 0.351690 0.332708
0.740322 0.378790 0.355810
0.766201 0.405646 0.379126
0.789731 0.431556 0.402777
0.811612 0.457404 0.426642
0.832670 0.483680 0.451484
0.853178 0.510857 0.477699
0.873167 0.539422 0.505577
0.892607 0.569451 0.535454
0.911376 0.601190 0.567529
0.929229 0.634424 0.601984
0.946349 0.667964 0.637263
0.093294 0.131350 0.092622
0.096193 0.130404 0.095003
0.100160 0.128908 0.098116
0.108309 0.127321 0.102907
0.121736 0.129397 0.105776
0.146456 0.141054 0.109682
0.183932 0.156069 0.111940
0.223239 0.165957 0.117159
0.258244 0.172457 0.128023
0.297551 0.180026 0.140261
0.340032 0.188296 0.153445
0.384649 0.198306 0.168185
0.428748 0.209873 0.184268
0.471809 0.223026 0.200961
0.512444 0.237949 0.218082
0.550256 0.254582 0.235691
0.585138 0.272465 0.253635
0.617426 0.291783 0.271641
0.650324 0.313848 0.291752
0.683619 0.338964 0.313573
0.713924 0.364141 0.335637
0.741573 0.389502 0.358068
0.766781 0.414618 0.380743
0.789975 0.439307 0.404028
0.811673 0.464118 0.427680
0.832609 0.489540 0.452399
0.852964 0.515953 0.478462
0.872831 0.543511 0.505821
0.892119 0.572778 0.535363
0.910765 0.603845 0.567224
0.928588 0.636316 0.601282
0.945708 0.669306 0.636378
0.098116 0.163149 0.102510
0.101472 0.162203 0.104891
0.105623 0.160403 0.107729
0.113405 0.156832 0.114199
0.125948 0.156130 0.119417
0.142977 0.158450 0.123079
0.170718 0.170504 0.128908
0.214481 0.190066 0.130556
0.267430 0.205997 0.134463
0.312352 0.213993 0.144900
0.354955 0.221225 0.158694
0.398596 0.229862 0.174166
0.441718 0.240238 0.190219
0.483497 0.252171 0.206882
0.522881 0.265568 0.223972
0.559503 0.280552 0.241672
0.593439 0.296941 0.259556
0.624811 0.314641 0.277348
0.658717 0.336858 0.298497
0.690547 0.359716 0.319799
0.719631 0.383154 0.341741
0.746487 0.406897 0.363867
0.797787 0.462470 0.416236
0.818601 0.485664 0.439918
0.837949 0.508537 0.463508
0.856352 0.531640 0.487282
0.874022 0.555535 0.512047
0.891173 0.580529 0.538231
0.907927 0.607172 0.566308
0.924163 0.635462 0.596582
0.939879 0.664302 0.627619
0.954925 0.693233 0.659327
0.103670 0.206027 0.115938
0.107332 0.204471 0.118105
0.111788 0.203067 0.121553
0.120821 0.199283 0.128389
0.132296 0.194095 0.138766
0.150729 0.195590 0.142763
0.172366 0.197940 0.147158
0.204379 0.209751 0.155337
0.258091 0.234958 0.158053
0.321019 0.255406 0.162844
0.387213 0.272160 0.170291
0.430304 0.278386 0.186221
0.471534 0.286564 0.203006
0.510613 0.295933 0.219883
0.546746 0.306737 0.236942
0.579919 0.319036 0.253788
0.611139 0.332738 0.271122
0.643946 0.350835 0.291203
0.677058 0.371832 0.312413
0.707820 0.393500 0.334783
0.736995 0.416938 0.358465
0.764462 0.441077 0.383307
0.789944 0.465797 0.409064
0.813352 0.490333 0.435187
0.834958 0.514611 0.461036
0.854520 0.538170 0.486305
0.872679 0.561730 0.511620
0.889952 0.585931 0.537652
0.906706 0.611566 0.565454
0.922789 0.638605 0.595117
0.938415 0.666377 0.625696
0.953460 0.694514 0.657069
0.108827 0.247837 0.130648
0.112398 0.246769 0.132876
0.117159 0.244877 0.135988
0.126680 0.241428 0.142367
0.139345 0.236210 0.152316
0.155428 0.232090 0.162356
0.177737 0.234104 0.166873
0.202976 0.236881 0.172366
0.237247 0.246830 0.183200
0.297917 0.276219 0.186526
0.365515 0.299901 0.192386
0.434424 0.319738 0.199893
0.489509 0.332250 0.212100
0.526513 0.338628 0.228885
0.560662 0.346563 0.245823
0.592065 0.355932 0.262516
0.623621 0.368688 0.280613
0.656062 0.385046 0.301061
0.686030 0.401892 0.321202
0.714321 0.420203 0.342229
0.741512 0.439826 0.364843
0.767391 0.460945 0.388556
0.791623 0.482704 0.413336
0.814054 0.504631 0.438392
0.834928 0.526726 0.463386
0.854093 0.548577 0.487861
0.871977 0.570489 0.512535
0.889097 0.593317 0.538079
0.905699 0.617731 0.565484
0.921721 0.643549 0.594598
0.937346 0.670344 0.624933
0.952392 0.697475 0.655879
0.115785 0.294102 0.148867
0.119692 0.292821 0.150942
0.124422 0.291569 0.153872
0.134524 0.288029 0.160067
0.148135 0.283055 0.169528
0.163699 0.276463 0.181857
0.184665 0.274998 0.189761
0.210452 0.277104 0.194888
0.239597 0.279881 0.200961
0.278325 0.289769 0.211917
0.342138 0.319493 0.218540
0.411292 0.345220 0.224796
0.478523 0.366491 0.232914
0.540551 0.385351 0.242374
0.578088 0.392920 0.257633
0.609155 0.400275 0.274998
0.641230 0.411963 0.294591
0.670466 0.423743 0.313329
0.697383 0.436561 0.332433
0.723354 0.451087 0.352575
0.748501 0.467292 0.374060
0.772732 0.485145 0.396857
0.795468 0.504051 0.420661
0.816892 0.523400 0.444617
0.836851 0.543206 0.468727
0.855344 0.562737 0.492348
0.872770 0.582910 0.516197
0.889433 0.604089 0.541100
0.905699 0.626825 0.567712
0.921447 0.651057 0.596033
0.936767 0.676265 0.625452
0.951629 0.702144 0.655756
0.125277 0.342260 0.169711
0.129122 0.341009 0.171664
0.134127 0.339391 0.174136
0.144228 0.336492 0.180087
0.158541 0.331731 0.188754
0.175265 0.325475 0.200320
0.193606 0.317906 0.214725
0.219730 0.319219 0.219364
0.249210 0.321386 0.224826
0.281346 0.323888 0.231205
0.322972 0.333043 0.241794
0.385779 0.361059 0.251316
0.454170 0.387762 0.258122
0.518334 0.409949 0.266392
0.578698 0.431830 0.277714
0.631739 0.451606 0.292088
0.660945 0.458869 0.310704
0.687495 0.466743 0.329046
0.711910 0.475776 0.347509
0.735225 0.486336 0.366552
0.757748 0.498634 0.386481
0.779385 0.512383 0.407507
0.799954 0.527337 0.428992
0.819455 0.543145 0.450935
0.838132 0.559747 0.473213
0.855863 0.577234 0.495979
0.872953 0.595575 0.519158
0.889525 0.615442 0.543816
0.905730 0.637079 0.570397
0.921508 0.660304 0.598596
0.936889 0.684535 0.627893
0.951781 0.709438 0.658045
0.138277 0.388525 0.191775
0.142000 0.387610 0.193637
0.147219 0.386419 0.196078
0.157137 0.383917 0.201450
0.171847 0.379675 0.209598
0.189395 0.374365 0.220462
0.208988 0.367803 0.234165
0.231662 0.363195 0.246220
0.261540 0.364752 0.251225
0.294224 0.366705 0.257023
0.328069 0.368566 0.263340
0.367987 0.374853 0.272496
0.430762 0.402533 0.285710
0.499702 0.432258 0.294774
0.562219 0.457069 0.305150
0.617853 0.478523 0.317052
0.667750 0.497505 0.329442
0.702480 0.508873 0.344671
0.724178 0.513878 0.362066
0.745418 0.520806 0.379889
0.766110 0.529992 0.399054
0.786191 0.540734 0.418830
0.805539 0.552941 0.439521
0.824094 0.566461 0.460609
0.841825 0.580682 0.481788
0.858671 0.595789 0.503258
0.874876 0.611963 0.525566
0.890776 0.629755 0.549096
0.906401 0.649317 0.574548
0.921721 0.670558 0.601678
0.936767 0.693050 0.630091
0.951446 0.716487 0.659419
0.156466 0.435126 0.216129
0.160159 0.434546 0.217899
0.164920 0.433417 0.220096
0.174807 0.431098 0.225193
0.189639 0.427588 0.232792
0.207370 0.422827 0.242741
0.227878 0.417060 0.255406
0.249271 0.410132 0.269841
0.276860 0.408270 0.278691
0.309087 0.409705 0.284092
0.342962 0.411505 0.290257
0.381231 0.416327 0.299229
0.448096 0.444587 0.327337
0.510765 0.472236 0.345739
0.574090 0.500938 0.355291
0.629969 0.524163 0.366003
0.679133 0.543542 0.377203
0.720760 0.559411 0.389563
0.756283 0.573205 0.402655
0.776425 0.577996 0.418433
0.793027 0.582422 0.435218
0.809506 0.589014 0.452674
0.825467 0.596826 0.470375
0.841093 0.606348 0.488808
0.856321 0.617121 0.507836
0.871183 0.629175 0.527337
0.885557 0.642420 0.547784
0.899657 0.657282 0.569482
0.913634 0.673823 0.592828
0.927642 0.691981 0.617548
0.941436 0.711421 0.643488
0.955108 0.732204 0.670771
0.185336 0.489143 0.247318
0.188907 0.488380 0.248844
0.193454 0.486915 0.250736
0.202640 0.484108 0.254826
0.216312 0.479988 0.261112
0.233799 0.474708 0.269902
0.253574 0.468757 0.280919
0.275395 0.462013 0.294255
0.298741 0.455116 0.310002
0.333959 0.459571 0.318303
0.372473 0.465217 0.327611
0.412390 0.471168 0.337804
0.452430 0.477089 0.348669
0.491035 0.482399 0.359442
0.548119 0.507164 0.379950
0.606409 0.534600 0.389319
0.657801 0.556512 0.399145
0.701595 0.573846 0.409430
0.739132 0.588373 0.421118
0.772366 0.601617 0.434150
0.800015 0.613062 0.448920
0.815183 0.616785 0.464973
0.830045 0.622187 0.481209
0.844572 0.629145 0.498360
0.858915 0.637598 0.515984
0.872953 0.647486 0.534264
0.886717 0.658747 0.553643
0.900298 0.671748 0.574548
0.913909 0.686427 0.596826
0.927611 0.702876 0.620691
0.941222 0.720851 0.645899
0.954742 0.740261 0.672572
0.213718 0.528191 0.273075
0.217014 0.527642 0.274510
0.220890 0.526329 0.276036
0.229557 0.523980 0.279759
0.242191 0.520195 0.285405
0.259525 0.516472 0.294041
0.280064 0.512779 0.305303
0.302953 0.508507 0.318730
0.327489 0.503716 0.334447
0.355840 0.501457 0.349248
0.391363 0.505119 0.357061
0.428412 0.509331 0.365728
0.465644 0.513573 0.375128
0.501274 0.517296 0.384436
0.534508 0.520348 0.393408
0.581720 0.538567 0.412390
0.634546 0.563836 0.420325
0.680781 0.583886 0.429206
0.720760 0.600214 0.439368
0.755917 0.614466 0.451087
0.787228 0.627680 0.464332
0.815549 0.640620 0.478981
0.835508 0.648707 0.494179
0.849241 0.653620 0.510155
0.862699 0.660060 0.526757
0.875975 0.667903 0.544060
0.889097 0.677302 0.562463
0.902159 0.688411 0.582147
0.915282 0.701320 0.603388
0.928557 0.716030 0.626154
0.941833 0.732357 0.650507
0.955138 0.750240 0.676356
0.250706 0.570245 0.303746
0.253819 0.569848 0.305303
0.257328 0.568902 0.306706
0.265629 0.566979 0.310338
0.277714 0.563928 0.315770
0.293095 0.560052 0.323033
0.311681 0.555688 0.332586
0.332586 0.550896 0.344182
0.355627 0.546197 0.358099
0.380346 0.541344 0.374456
0.410498 0.541253 0.385412
0.444831 0.544335 0.392981
0.479316 0.547539 0.401160
0.512444 0.550317 0.409491
0.543603 0.552392 0.417212
0.571954 0.553307 0.423957
0.611231 0.566400 0.442023
0.659541 0.590112 0.449195
0.701839 0.608942 0.457954
0.739071 0.624842 0.468330
0.772030 0.638972 0.480476
0.801602 0.652094 0.493629
0.828305 0.664637 0.507652
0.852506 0.676967 0.522850
0.866850 0.682887 0.538567
0.879606 0.689174 0.555077
0.892302 0.697261 0.573175
0.905150 0.707210 0.592676
0.918120 0.718929 0.613489
0.931273 0.732479 0.635950
0.944427 0.747677 0.659876
0.957519 0.764309 0.685328
0.290257 0.608484 0.334874
0.293248 0.608301 0.336400
0.296727 0.607507 0.337743
0.304021 0.605890 0.340948
0.314946 0.603296 0.345922
0.329442 0.599939 0.352667
0.346838 0.596338 0.361517
0.366583 0.592248 0.372259
0.388190 0.587671 0.384894
0.410803 0.582910 0.399176
0.433906 0.577508 0.415137
0.464179 0.578668 0.421546
0.494331 0.579828 0.427466
0.523827 0.580743 0.433722
0.551843 0.581323 0.439704
0.578363 0.581598 0.445228
0.603449 0.581598 0.451026
0.638666 0.592493 0.467262
0.682246 0.613977 0.476539
0.722164 0.632868 0.486275
0.757443 0.649042 0.497749
0.788907 0.663447 0.510491
0.817014 0.676844 0.524315
0.842557 0.689570 0.538750
0.865660 0.702022 0.554284
0.885100 0.713069 0.570581
0.897185 0.719509 0.587549
0.909331 0.727657 0.605737
0.921660 0.737545 0.625177
0.934051 0.749081 0.646082
0.946441 0.762081 0.668330
0.958892 0.776699 0.692042
0.327214 0.640589 0.363165
0.329381 0.640070 0.364080
0.332280 0.639277 0.365332
0.338750 0.637659 0.368048
0.348547 0.635248 0.372381
0.361364 0.632136 0.378363
0.376867 0.628687 0.386084
0.394659 0.624842 0.395544
0.414466 0.620478 0.406683
0.435279 0.615930 0.419562
0.456703 0.611017 0.433814
0.479957 0.607599 0.446204
0.507988 0.608545 0.451698
0.535454 0.609186 0.457252
0.561578 0.609277 0.462348
0.586450 0.608972 0.467201
0.610163 0.608484 0.471992
0.632898 0.608118 0.476875
0.665492 0.618097 0.491432
0.703548 0.636408 0.503044
0.740780 0.654841 0.513359
0.773800 0.670649 0.525017
0.803464 0.685023 0.537957
0.830381 0.698512 0.551934
0.854826 0.711482 0.566949
0.877012 0.724147 0.582940
0.897368 0.736690 0.599603
0.912566 0.746365 0.616968
0.924376 0.754665 0.635401
0.936339 0.764675 0.655268
0.948394 0.776272 0.676539
0.960418 0.789517 0.699550
0.364141 0.669459 0.391180
0.366949 0.669490 0.392584
0.392767 0.684871 0.411292
0.398138 0.683436 0.413489
0.406561 0.681147 0.417334
0.417090 0.678004 0.422065
0.430060 0.674311 0.428290
0.444892 0.670130 0.435950
0.461616 0.665705 0.445258
0.479835 0.661097 0.456306
0.498512 0.656092 0.468482
0.517144 0.650782 0.481605
0.538903 0.648127 0.489174
0.562829 0.647425 0.492988
0.585962 0.646448 0.496742
0.608270 0.645258 0.500389
0.629664 0.643885 0.503929
0.650233 0.642542 0.507713
0.670100 0.641474 0.511589
0.699275 0.649928 0.524132
0.731044 0.664637 0.537377
0.764675 0.681819 0.547723
0.795041 0.696956 0.559258
0.822324 0.710811 0.571984
0.846952 0.723445 0.585199
0.869383 0.735531 0.599054
0.889921 0.747341 0.613672
0.908904 0.759152 0.629328
0.926604 0.771328 0.646296
0.938659 0.780209 0.664668
0.950195 0.790219 0.684749
0.961700 0.801877 0.706630
0.405982 0.698665 0.422889
0.410773 0.700252 0.425971
0.416236 0.701717 0.429389
0.423865 0.702205 0.433631
0.433295 0.701595 0.438514
0.443977 0.699641 0.443946
0.455634 0.696712 0.449683
0.469123 0.693141 0.456703
0.484169 0.689296 0.465095
0.500298 0.685054 0.474647
0.517479 0.680690 0.485512
0.534691 0.675898 0.497383
0.551476 0.670375 0.509636
0.573083 0.669245 0.513481
0.594446 0.668055 0.516686
0.615198 0.666682 0.519829
0.635248 0.665187 0.522911
0.654749 0.663844 0.526116
0.673945 0.662837 0.530053
0.692744 0.662287 0.534356
0.719509 0.669917 0.546044
0.748562 0.683558 0.561730
0.780697 0.700801 0.572961
0.809628 0.716182 0.585199
0.835782 0.730068 0.597986
0.859556 0.743038 0.611414
0.881254 0.755428 0.625544
0.901335 0.767636 0.640803
0.919951 0.780026 0.657343
0.937255 0.792538 0.675013
0.952209 0.804440 0.693812
0.963256 0.814694 0.714626
0.437537 0.719417 0.447089
0.441871 0.720729 0.449958
0.446754 0.721950 0.453040
0.453407 0.722347 0.456855
0.461952 0.721889 0.461463
0.470985 0.720180 0.466011
0.481727 0.717617 0.471473
0.493477 0.714504 0.477546
0.507164 0.711208 0.485145
0.521782 0.707515 0.493812
0.537407 0.703578 0.503624
0.553582 0.699367 0.514488
0.569177 0.694423 0.525597
0.585718 0.690364 0.534905
0.605371 0.689113 0.537682
0.624598 0.687739 0.540459
0.643336 0.686305 0.543206
0.661769 0.684932 0.546258
0.679866 0.683803 0.549676
0.697871 0.683253 0.553765
0.715511 0.683162 0.558373
0.739376 0.689723 0.569512
0.766384 0.702693 0.587060
0.796902 0.719905 0.598657
0.824460 0.735134 0.610834
0.849485 0.749050 0.623529
0.872313 0.762081 0.637079
0.893309 0.774807 0.651698
0.912871 0.787411 0.667597
0.930938 0.800076 0.684688
0.947601 0.812833 0.703029
0.962951 0.825742 0.722591
0.468269 0.738705 0.470954
0.472145 0.739925 0.473701
0.476661 0.741054 0.476661
0.482826 0.741421 0.480293
0.490181 0.740993 0.484321
0.498512 0.739498 0.488624
0.507591 0.737179 0.493294
0.518151 0.734432 0.498848
0.530205 0.731380 0.505516
0.543481 0.727993 0.513237
0.557580 0.724453 0.522087
0.572168 0.720546 0.531731
0.586786 0.716152 0.541894
0.601160 0.711482 0.552728
0.617792 0.708919 0.558770
0.635950 0.707942 0.561822
0.654170 0.707118 0.565087
0.672328 0.706630 0.568963
0.690425 0.706477 0.573327
0.708370 0.706813 0.578363
0.726040 0.707576 0.583948
0.743221 0.708705 0.590021
0.764645 0.714626 0.600610
0.790127 0.727382 0.619623
0.819059 0.744686 0.631708
0.845212 0.760037 0.644282
0.868925 0.774105 0.657527
0.890623 0.787411 0.671778
0.910643 0.800290 0.687007
0.929015 0.812985 0.703578
0.945892 0.825620 0.721370
0.961425 0.838254 0.740230
0.508751 0.762600 0.503197
0.511162 0.763027 0.504814
0.513664 0.763119 0.506249
0.517632 0.762753 0.508446
0.523247 0.761776 0.511437
0.530022 0.760220 0.514885
0.537957 0.758206 0.518944
0.547631 0.755764 0.524193
0.558648 0.753262 0.530480
0.571038 0.750546 0.537957
0.584253 0.747555 0.546288
0.597986 0.744228 0.555444
0.611597 0.740505 0.564935
0.624964 0.736324 0.574884
0.637842 0.731716 0.584985
0.654017 0.730495 0.588220
0.670314 0.729580 0.591058
0.686702 0.728939 0.594232
0.703059 0.728573 0.597955
0.719265 0.728450 0.601923
0.735225 0.728695 0.606531
0.750851 0.729183 0.611231
0.766018 0.729946 0.616266
0.783963 0.734005 0.624567
0.807431 0.745754 0.643671
0.834745 0.762692 0.655634
0.859770 0.778042 0.668421
0.882658 0.792325 0.682277
0.903655 0.805966 0.697322
0.922881 0.819150 0.713497
0.940520 0.832090 0.730953
0.956695 0.844907 0.749508
0.538170 0.779751 0.527092
0.540276 0.780087 0.528466
0.542809 0.780362 0.530114
0.546471 0.780056 0.532158
0.551385 0.779171 0.534783
0.557214 0.777676 0.537774
0.564141 0.775753 0.541375
0.572412 0.773556 0.545861
0.582300 0.771145 0.551568
0.593256 0.768582 0.558190
0.605249 0.765896 0.565789
0.617762 0.762936 0.574151
0.630335 0.759548 0.582910
0.642817 0.755856 0.592004
0.655055 0.751949 0.601373
0.667903 0.748775 0.609369
0.683162 0.748196 0.612177
0.698512 0.747799 0.615442
0.713954 0.747677 0.619104
0.729366 0.747799 0.623072
0.744717 0.748287 0.627527
0.759762 0.749081 0.632380
0.774502 0.750118 0.637446
0.788754 0.751339 0.642725
0.800595 0.750820 0.645045
0.823301 0.762631 0.664240
0.849058 0.779049 0.677180
0.873228 0.794583 0.690639
0.895323 0.809171 0.705348
0.915648 0.823148 0.721370
0.934325 0.836820 0.738857
0.951293 0.850065 0.757290
0.575769 0.800229 0.558068
0.577905 0.800687 0.559594
0.579919 0.800809 0.560937
0.582788 0.800320 0.562524
0.586511 0.799313 0.564416
0.591089 0.797757 0.566705
0.596735 0.795804 0.569543
0.603418 0.793484 0.573083
0.611261 0.790829 0.577356
0.620172 0.788113 0.582696
0.629847 0.785183 0.588586
0.640345 0.782132 0.595453
0.651209 0.778836 0.602808
0.661921 0.775235 0.610407
0.672389 0.771206 0.618219
0.682612 0.766964 0.626276
0.694606 0.764614 0.630854
0.708248 0.763882 0.633234
0.722530 0.763668 0.636408
0.737179 0.764004 0.640406
0.751888 0.764706 0.644862
0.766415 0.765621 0.649592
0.780362 0.766537 0.654292
0.793668 0.767391 0.658747
0.806332 0.768124 0.663111
0.819333 0.769741 0.668208
0.841855 0.782132 0.686976
0.865019 0.797116 0.701167
0.887999 0.812589 0.715267
0.909117 0.827237 0.730800
0.928557 0.841428 0.747799
0.946319 0.855161 0.765927
0.602930 0.815213 0.581018
0.604974 0.815610 0.582574
0.606836 0.815763 0.583764
0.609430 0.815366 0.585260
0.612696 0.814481 0.586938
0.616785 0.813138 0.589014
0.621912 0.811490 0.591699
0.628077 0.809537 0.595087
0.635248 0.807431 0.599268
0.643519 0.805173 0.604181
0.652522 0.802792 0.609888
0.662348 0.800259 0.616297
0.672419 0.797604 0.623224
0.682521 0.794583 0.630488
0.692531 0.791318 0.637842
0.702266 0.787808 0.645502
0.712001 0.784207 0.653529
0.724422 0.783505 0.656397
0.737545 0.783383 0.659327
0.751064 0.783688 0.663020
0.764645 0.784360 0.667079
0.778225 0.785214 0.671504
0.791379 0.786130 0.675868
0.804044 0.787045 0.680262
0.816251 0.787961 0.684565
0.827909 0.788846 0.688716
0.839292 0.789914 0.693141
0.861448 0.802914 0.712032
0.882689 0.817136 0.728267
0.904570 0.832792 0.743648
0.924590 0.847562 0.760159
0.942962 0.861784 0.778073
0.632441 0.831205 0.606348
0.633997 0.831449 0.607507
0.635126 0.831388 0.608179
0.637018 0.830869 0.609155
0.639612 0.829892 0.610468
0.642878 0.828641 0.612085
0.647028 0.827024 0.614221
0.652308 0.825254 0.617029
0.658625 0.823331 0.620630
0.666011 0.821378 0.625177
0.674189 0.819303 0.630335
0.683131 0.817258 0.636316
0.692531 0.815000 0.642817
0.701930 0.812467 0.649500
0.711116 0.809628 0.656306
0.720241 0.806577 0.663386
0.729244 0.803372 0.670680
0.738949 0.800961 0.677058
0.750973 0.800900 0.679774
0.763455 0.801205 0.683101
0.776150 0.801846 0.686885
0.788815 0.802701 0.691035
0.801236 0.803616 0.695277
0.813321 0.804593 0.699580
0.824979 0.805539 0.703792
0.836210 0.806516 0.707942
0.847166 0.807645 0.712367
0.857786 0.808896 0.716854
0.878782 0.821592 0.735103
0.898192 0.835050 0.753079
0.918975 0.850675 0.769253
0.938109 0.865537 0.786770
0.658381 0.845609 0.628992
0.659449 0.845701 0.629816
0.660609 0.845670 0.630579
0.662287 0.845274 0.631495
0.664912 0.844602 0.632959
0.668544 0.843839 0.635065
0.673518 0.843076 0.638148
0.679622 0.842252 0.642023
0.686885 0.841459 0.646876
0.695064 0.840665 0.652430
0.703944 0.839780 0.658625
0.713191 0.838773 0.665278
0.722621 0.837552 0.672175
0.731899 0.835966 0.679042
0.740902 0.834043 0.685939
0.749355 0.831662 0.692592
0.757809 0.829129 0.699489
0.766171 0.826596 0.706752
0.776150 0.825681 0.711543
0.787350 0.825986 0.714717
0.798703 0.826566 0.718227
0.810117 0.827390 0.722103
0.821317 0.828214 0.726009
0.832273 0.829129 0.730007
0.842924 0.830076 0.734096
0.853300 0.831052 0.738186
0.863401 0.832212 0.742397
0.873320 0.833524 0.746853
0.882963 0.834989 0.751431
0.901915 0.846860 0.768612
0.919066 0.859342 0.787808
0.938170 0.874479 0.804593
0.694301 0.864652 0.661250
0.695094 0.864683 0.661799
0.695766 0.864530 0.662165
0.696986 0.864042 0.662745
0.698909 0.863310 0.663752
0.701564 0.862455 0.665248
0.705226 0.861479 0.667353
0.709773 0.860472 0.670130
0.715267 0.859373 0.673671
0.721645 0.858274 0.677852
0.728481 0.857023 0.682490
0.735988 0.855741 0.687770
0.743771 0.854276 0.693385
