data/fiter_cube/44540723/1023230/file.cube
# Created by Adobe Lightroom plugin Export LUT (1.17.0)
# www.johnrellis.com/lightroom/exportlut.htm
# Preset: 奶油色调低饱和（弱光环境）_01 云集
# Color profile: C:\Program Files (x86)\Common Files\Adobe\Color\Profiles\Recommended\AdobeRGB1998.icc
LUT_3D_SIZE 5
DOMAIN_MIN 0.000000 0.000000 0.000000
DOMAIN_MAX 0.903226 0.903226 0.903226
0.074922 0.071351 0.069123
0.206241 0.113985 0.112795
0.505364 0.196414 0.212406
0.748074 0.376410 0.361547
0.896208 0.570977 0.540795
0.108827 0.247837 0.130648
0.202976 0.236881 0.172366
0.560662 0.346563 0.245823
0.767391 0.460945 0.388556
0.905699 0.617731 0.565484
0.250706 0.570245 0.303746
0.332586 0.550896 0.344182
0.543603 0.552392 0.417212
0.801602 0.652094 0.493629
0.918120 0.718929 0.613489
0.508751 0.762600 0.503197
0.547631 0.755764 0.524193
0.637842 0.731716 0.584985
0.750851 0.729183 0.611231
0.903655 0.805966 0.697322
0.718990 0.878447 0.683894
0.733455 0.875120 0.692714
0.768948 0.861173 0.715389
0.831632 0.856901 0.758724
0.897673 0.865690 0.788235
0.000000 0.097993 0.264103
0.251530 0.076417 0.284886
0.508385 0.235569 0.321080
0.706294 0.379187 0.415625
0.874571 0.554955 0.554192
0.042908 0.292058 0.260685
0.270603 0.299168 0.304265
0.530541 0.359319 0.359442
0.732876 0.455604 0.442695
0.882719 0.596551 0.572351
0.248722 0.585931 0.337682
0.398871 0.575311 0.415442
0.555016 0.555535 0.469215
0.796780 0.651972 0.535302
0.907652 0.713039 0.633875
0.525444 0.766323 0.528954
0.579706 0.760128 0.561089
0.660365 0.737758 0.611353
0.757412 0.732876 0.636500
0.905303 0.808713 0.712520
0.726925 0.879820 0.696254
0.740749 0.876585 0.704158
0.784482 0.868467 0.734249
0.839261 0.861082 0.773007
0.901610 0.869169 0.799313
0.000000 0.164797 0.581537
0.000000 0.138186 0.597742
0.622217 0.067567 0.596796
0.779141 0.423316 0.585199
0.876066 0.556359 0.629999
0.077943 0.407141 0.567834
0.198856 0.341344 0.587732
0.627558 0.327916 0.600580
0.765438 0.484810 0.586481
0.868589 0.579919 0.630365
0.187533 0.625879 0.547539
0.362921 0.621393 0.561700
0.635859 0.611902 0.606531
0.757748 0.626764 0.618219
0.882536 0.686519 0.672389
0.464057 0.782040 0.543877
0.542412 0.773068 0.576898
0.704280 0.757626 0.668635
0.780819 0.748928 0.699519
0.915038 0.817197 0.753140
0.694118 0.885222 0.689937
0.725185 0.883055 0.709377
0.795285 0.875975 0.756710
0.845640 0.863767 0.795315
0.903838 0.870176 0.816556
0.000000 0.274266 0.770230
0.000000 0.242130 0.775296
0.561883 0.130922 0.789914
0.818875 0.314092 0.773037
0.922606 0.608240 0.777890
0.123934 0.467262 0.758114
0.171939 0.405188 0.765377
0.564874 0.338750 0.780758
0.813199 0.419562 0.768276
0.918151 0.636774 0.777432
0.388159 0.669093 0.731411
0.473243 0.663478 0.731868
0.596246 0.614099 0.755734
0.802426 0.608484 0.759548
0.904509 0.692805 0.768917
0.455512 0.794766 0.719600
0.519249 0.789120 0.723293
0.667079 0.778531 0.740322
0.812284 0.772244 0.770626
0.894652 0.777554 0.772885
0.630823 0.901701 0.701869
0.666529 0.898680 0.716091
0.758999 0.891752 0.759640
0.860533 0.882017 0.824155
0.913878 0.878447 0.851316
0.000000 0.412299 0.898405
0.000000 0.366827 0.900694
0.508354 0.312718 0.905272
0.793027 0.168215 0.913848
0.933196 0.466529 0.894682
0.238315 0.531701 0.888975
0.252537 0.484871 0.892363
0.517388 0.416876 0.899077
0.785733 0.323949 0.907805
0.929686 0.511864 0.891691
0.515953 0.720577 0.868040
0.548577 0.710597 0.870603
0.564050 0.626917 0.882444
0.767819 0.561547 0.894713
0.925414 0.629358 0.889891
0.568383 0.831052 0.862425
0.597436 0.825498 0.861448
0.682826 0.809384 0.861692
0.764675 0.758724 0.882658
0.928588 0.770138 0.898009
0.628473 0.912902 0.853574
0.650629 0.910643 0.854948
0.723140 0.905547 0.863188
0.822110 0.897948 0.877958
0.932311 0.894530 0.906462
