data/fiter_cube/44540723/1023230/file.cube
# Created by Adobe Lightroom plugin Export LUT (1.17.0)
# www.johnrellis.com/lightroom/exportlut.htm
# Preset: 奶油色调低饱和（弱光环境）_01 云集
# Color profile: C:\Program Files (x86)\Common Files\Adobe\Color\Profiles\Recommended\AdobeRGB1998.icc
LUT_3D_SIZE 8
DOMAIN_MIN 0.000000 0.000000 0.000000
DOMAIN_MAX 0.903226 0.903226 0.903226
0.074922 0.071351 0.069123
0.124697 0.090639 0.088167
0.241428 0.122652 0.123232
0.417762 0.163729 0.177737
0.580957 0.237156 0.248814
0.718135 0.345769 0.336492
0.818112 0.458473 0.433631
0.896208 0.570977 0.540795
0.093294 0.131350 0.092622
0.121736 0.129397 0.105776
0.258244 0.172457 0.128023
0.428748 0.209873 0.184268
0.585138 0.272465 0.253635
0.713924 0.364141 0.335637
0.811673 0.464118 0.427680
0.892119 0.572778 0.535363
0.115785 0.294102 0.148867
0.148135 0.283055 0.169528
0.239597 0.279881 0.200961
0.478523 0.366491 0.232914
0.641230 0.411963 0.294591
0.748501 0.467292 0.374060
0.836851 0.543206 0.468727
0.905699 0.626825 0.567712
0.185336 0.489143 0.247318
0.216312 0.479988 0.261112
0.298741 0.455116 0.310002
0.452430 0.477089 0.348669
0.657801 0.556512 0.399145
0.800015 0.613062 0.448920
0.858915 0.637598 0.515984
0.913909 0.686427 0.596826
0.327214 0.640589 0.363165
0.348547 0.635248 0.372381
0.414466 0.620478 0.406683
0.507988 0.608545 0.451698
0.610163 0.608484 0.471992
0.740780 0.654841 0.513359
0.854826 0.711482 0.566949
0.924376 0.754665 0.635401
0.468269 0.738705 0.470954
0.490181 0.740993 0.484321
0.530205 0.731380 0.505516
0.586786 0.716152 0.541894
0.654170 0.707118 0.565087
0.726040 0.707576 0.583948
0.819059 0.744686 0.631708
0.910643 0.800290 0.687007
0.602930 0.815213 0.581018
0.612696 0.814481 0.586938
0.635248 0.807431 0.599268
0.672419 0.797604 0.623224
0.712001 0.784207 0.653529
0.764645 0.784360 0.667079
0.816251 0.787961 0.684565
0.882689 0.817136 0.728267
0.718990 0.878447 0.683894
0.723110 0.877348 0.686305
0.738613 0.874357 0.696193
0.765713 0.870695 0.715816
0.785092 0.858183 0.728634
0.821103 0.855650 0.754452
0.861906 0.860777 0.771786
0.897673 0.865690 0.788235
0.064790 0.081666 0.138277
0.136110 0.077974 0.145663
0.243931 0.136049 0.171481
0.401312 0.195377 0.230625
0.560815 0.256382 0.286473
0.692134 0.343145 0.353826
0.796689 0.443671 0.434394
0.881987 0.554162 0.533501
0.080781 0.148440 0.135470
0.141848 0.153262 0.156466
0.256168 0.190127 0.192508
0.420050 0.233433 0.239719
0.571954 0.289311 0.293828
0.695644 0.365698 0.357702
0.793668 0.453223 0.432380
0.877745 0.555901 0.528038
0.114443 0.304997 0.168887
0.176791 0.306462 0.215183
0.262272 0.299077 0.248203
0.487800 0.377478 0.278904
0.622858 0.409094 0.328832
0.727443 0.457649 0.389410
0.814054 0.522362 0.462989
0.890623 0.606989 0.555810
0.197055 0.488960 0.267338
0.243717 0.485267 0.292607
0.324102 0.465156 0.336675
0.446357 0.468482 0.364172
0.634607 0.538018 0.402075
0.772244 0.588373 0.446052
0.837675 0.615503 0.505699
0.900816 0.669276 0.585382
0.347356 0.641535 0.384802
0.366125 0.635309 0.391882
0.425238 0.618647 0.420386
0.504936 0.599817 0.458961
0.598840 0.597375 0.474098
0.731533 0.646784 0.514061
0.847623 0.704372 0.566979
0.916869 0.746029 0.632166
0.472175 0.734279 0.478126
0.485298 0.731838 0.484352
0.525139 0.722896 0.504631
0.583062 0.709682 0.541222
0.651240 0.702296 0.568139
0.724788 0.705623 0.589441
0.816892 0.742824 0.634333
0.907317 0.796414 0.685573
0.595575 0.808652 0.577234
0.601038 0.805875 0.579339
0.625940 0.799924 0.593072
0.666926 0.792142 0.619867
0.709499 0.780789 0.652308
0.760525 0.779995 0.665888
0.810086 0.782010 0.680537
0.876921 0.810971 0.722042
0.713924 0.875212 0.680720
0.719326 0.874693 0.684199
0.735531 0.872038 0.694514
0.763363 0.868711 0.714473
0.793423 0.862699 0.738033
0.824643 0.857603 0.760037
0.861234 0.859922 0.772610
0.895445 0.863340 0.786496
0.000000 0.105104 0.317998
0.000000 0.093996 0.333013
0.307988 0.067109 0.338598
0.477058 0.192752 0.340978
0.583825 0.279210 0.370184
0.677607 0.366003 0.420905
0.785550 0.456916 0.485695
0.875914 0.562188 0.569451
0.005676 0.204868 0.314794
0.080110 0.177066 0.330327
0.312352 0.165957 0.341436
0.467659 0.248508 0.346136
0.575036 0.311894 0.375830
0.680110 0.386297 0.425544
0.785214 0.468116 0.486275
0.874876 0.568597 0.569024
0.000000 0.347143 0.305943
0.142092 0.350713 0.319066
0.329137 0.352514 0.355444
0.476814 0.380743 0.380835
0.610254 0.422431 0.417792
0.714931 0.469306 0.458320
0.802579 0.528618 0.511101
0.882292 0.608820 0.586084
0.151949 0.520500 0.296025
0.227787 0.520226 0.326909
0.399908 0.514488 0.415137
0.500786 0.505943 0.449622
0.672389 0.571038 0.484047
0.763821 0.592950 0.514549
0.831205 0.622400 0.556756
0.896330 0.674067 0.619074
0.323369 0.654841 0.397314
0.371405 0.652583 0.421027
0.482185 0.643153 0.480873
0.551934 0.623102 0.521355
0.632776 0.621729 0.534691
0.750454 0.666865 0.566857
0.854917 0.716793 0.611200
0.912444 0.746822 0.659632
0.471687 0.741787 0.493874
0.500237 0.739803 0.510521
0.561334 0.731472 0.545586
0.611810 0.717739 0.574182
0.668025 0.707057 0.601434
0.732692 0.710018 0.617975
0.822324 0.749264 0.657404
0.911467 0.802426 0.706935
0.606867 0.814542 0.595789
0.621698 0.812192 0.605219
0.649592 0.805478 0.620935
0.683986 0.796414 0.641047
0.722255 0.785000 0.668269
0.769100 0.783658 0.685237
0.818662 0.788754 0.701808
0.886168 0.821164 0.743038
0.720150 0.877623 0.691859
0.726619 0.876127 0.696101
0.740749 0.872892 0.704128
0.770230 0.870909 0.725002
0.798947 0.864775 0.746487
0.829404 0.859464 0.770809
0.865446 0.862516 0.783444
0.899535 0.866941 0.797787
0.000000 0.140352 0.503136
0.000000 0.129335 0.513298
0.250431 0.076417 0.535546
0.533318 0.000000 0.523522
0.668147 0.286107 0.515221
0.734981 0.385046 0.518975
0.794522 0.458930 0.542718
0.861936 0.540398 0.591760
0.000000 0.245884 0.505547
0.000000 0.212192 0.513481
0.261967 0.174502 0.533745
0.536858 0.167575 0.525841
0.668025 0.335790 0.520745
0.728664 0.406500 0.519341
0.788327 0.468879 0.541314
0.857572 0.544701 0.589563
0.042908 0.411780 0.487434
0.173709 0.412085 0.490394
0.296971 0.369940 0.518639
0.541558 0.360754 0.528344
0.655604 0.442054 0.526940
0.719966 0.477913 0.532525
0.784451 0.520195 0.556268
0.867124 0.596948 0.615412
0.090822 0.550683 0.478431
0.192508 0.550652 0.485023
0.374060 0.548821 0.506493
0.557733 0.544823 0.540490
0.651637 0.555474 0.549371
0.731533 0.574456 0.565393
0.806912 0.608118 0.595239
0.882689 0.662654 0.645838
0.271000 0.681666 0.437446
0.323522 0.677729 0.453254
0.460670 0.668025 0.505180
0.608362 0.657435 0.583825
0.670771 0.648463 0.605859
0.775906 0.691493 0.632593
0.848356 0.715358 0.656672
0.904112 0.740932 0.688930
0.449134 0.758846 0.513817
0.485359 0.759915 0.532006
0.566094 0.750576 0.572473
0.658991 0.739467 0.628260
0.703761 0.724910 0.656397
0.754635 0.726101 0.665919
0.837613 0.764736 0.695918
0.918669 0.810300 0.736416
0.587030 0.822812 0.599664
0.605097 0.821592 0.610071
0.656733 0.816953 0.641413
0.713497 0.810178 0.677821
0.749203 0.799863 0.700374
0.786923 0.794156 0.718593
0.829435 0.797055 0.729793
0.894835 0.830259 0.765347
0.711299 0.884886 0.695644
0.720485 0.884184 0.701747
0.747555 0.880980 0.719875
0.780117 0.876463 0.741848
0.808164 0.870207 0.760952
0.837156 0.863890 0.785306
0.870939 0.866056 0.798917
0.904448 0.871183 0.812894
0.000000 0.192599 0.647150
0.000000 0.174838 0.651759
0.138796 0.156039 0.661677
0.513970 0.000000 0.678767
0.697932 0.153231 0.661677
0.782986 0.386145 0.641474
0.839048 0.497871 0.647791
0.890684 0.573663 0.671778
0.000000 0.283238 0.644434
0.000000 0.256382 0.650385
0.177707 0.223545 0.660639
0.513481 0.126711 0.675959
0.697200 0.233005 0.661067
0.781857 0.418616 0.643336
0.836423 0.512657 0.648371
0.888487 0.580682 0.671351
0.166812 0.468910 0.628473
0.230777 0.465736 0.633783
0.271153 0.396551 0.647761
0.513085 0.355535 0.667170
0.693111 0.389746 0.657343
0.774258 0.501701 0.645747
0.824430 0.550896 0.646235
0.878386 0.598077 0.665827
0.221073 0.591669 0.622889
0.279576 0.589319 0.623896
0.420752 0.582757 0.628809
0.533288 0.549584 0.652522
0.694636 0.546105 0.658686
0.763394 0.593988 0.651575
0.807797 0.602350 0.645289
0.865385 0.627222 0.659998
0.276524 0.686336 0.606104
0.323796 0.685176 0.609644
0.443458 0.679835 0.620264
0.580468 0.672877 0.638788
0.697627 0.666346 0.661097
0.753231 0.666499 0.659968
0.814237 0.677821 0.668971
0.882811 0.708583 0.696864
0.381231 0.768704 0.538048
0.414893 0.766384 0.547784
0.506828 0.757534 0.577722
0.621790 0.746517 0.626825
0.719753 0.736233 0.682216
0.767910 0.734524 0.702876
0.852995 0.776303 0.731716
0.916289 0.803189 0.757321
0.547478 0.831937 0.607141
0.565057 0.829740 0.614527
0.620020 0.823850 0.639918
0.693416 0.816983 0.679408
0.761257 0.809659 0.722164
0.797086 0.799435 0.746181
0.836515 0.801694 0.754726
0.902556 0.836515 0.784909
0.679469 0.888640 0.690028
0.688594 0.887449 0.694789
0.717952 0.884031 0.711116
0.768093 0.882414 0.743709
0.812314 0.876646 0.773739
0.842893 0.869505 0.796078
0.873838 0.867887 0.813657
0.906615 0.872526 0.825650
0.000000 0.260563 0.753231
0.000000 0.235355 0.755337
0.000000 0.222873 0.758358
0.449683 0.162478 0.767483
0.686915 0.000000 0.777401
0.800626 0.290471 0.755398
0.865263 0.481697 0.741054
0.919615 0.611749 0.761807
0.000000 0.331762 0.745602
0.000000 0.307897 0.747616
0.096986 0.273716 0.752804
0.451728 0.230808 0.762234
0.683558 0.140566 0.773251
0.797024 0.328985 0.752193
0.862730 0.499245 0.739925
0.917388 0.617578 0.760311
0.240543 0.509941 0.735897
0.247227 0.494881 0.738003
0.272740 0.433021 0.746456
0.474495 0.395392 0.756558
0.681239 0.354833 0.768521
0.794858 0.440864 0.750851
0.860044 0.561852 0.743069
0.913054 0.641871 0.759518
0.365332 0.626917 0.718257
0.391882 0.624048 0.719844
0.474647 0.616419 0.728542
0.529778 0.569390 0.747127
0.681209 0.543572 0.762570
0.797116 0.572229 0.753994
0.859953 0.643702 0.752346
0.907012 0.676478 0.757992
0.377142 0.713069 0.719112
0.407752 0.711055 0.719753
0.495003 0.704372 0.721767
0.604822 0.695216 0.725673
0.680690 0.669245 0.742977
0.790433 0.666682 0.748257
0.846738 0.698024 0.746242
0.889250 0.700191 0.740993
0.419501 0.773281 0.696254
0.446967 0.773098 0.699428
0.520745 0.768765 0.706020
0.616083 0.762142 0.716793
0.705653 0.755489 0.730251
0.792782 0.753658 0.750973
0.837278 0.752468 0.748287
0.894133 0.766415 0.760372
0.513115 0.842557 0.654108
0.532555 0.842466 0.658442
0.586328 0.840024 0.669032
0.663569 0.834043 0.695064
0.743069 0.826017 0.731563
0.816678 0.817990 0.776394
0.851865 0.814084 0.791104
0.919524 0.850278 0.818479
0.643793 0.899016 0.698848
0.653712 0.897795 0.702785
0.686305 0.894224 0.716670
0.736751 0.890379 0.741482
0.793942 0.885252 0.773861
0.848936 0.879454 0.811673
0.880217 0.873167 0.835691
0.912596 0.877409 0.846067
0.000000 0.331975 0.831144
0.000000 0.312322 0.833707
0.000000 0.291234 0.836118
0.415625 0.256992 0.840574
0.633417 0.184024 0.846281
0.791775 0.186801 0.846708
0.873411 0.388159 0.828305
0.927581 0.561852 0.822354
0.000000 0.384833 0.823758
0.000000 0.366552 0.826291
0.070832 0.328038 0.829923
0.415991 0.297612 0.834012
0.627314 0.239750 0.839902
0.785458 0.231235 0.840848
0.867155 0.401099 0.821988
0.922393 0.561822 0.816220
0.257115 0.532677 0.816983
0.262242 0.519524 0.818326
0.279728 0.465339 0.822934
0.444892 0.424567 0.828519
0.629725 0.388525 0.834348
0.784848 0.368414 0.839170
0.867094 0.482429 0.822995
0.923705 0.609888 0.821469
0.440864 0.658015 0.804746
0.457527 0.654292 0.805142
0.496773 0.636927 0.809018
0.509636 0.576684 0.819272
0.638636 0.543511 0.827573
0.785794 0.515862 0.838956
0.867613 0.583978 0.825223
0.923674 0.667994 0.825925
0.473854 0.729152 0.790341
0.490578 0.726650 0.789487
0.545922 0.720485 0.788571
0.615320 0.710414 0.796963
0.652827 0.664942 0.812222
0.769162 0.640467 0.825772
0.861265 0.663447 0.820005
0.920226 0.725063 0.826780
0.485847 0.799893 0.794156
0.503166 0.798215 0.794339
0.557061 0.792569 0.795193
0.630732 0.784085 0.797513
0.708156 0.772549 0.800443
0.770840 0.749630 0.818021
0.864836 0.750607 0.825345
0.915831 0.780026 0.828000
0.532311 0.846067 0.776211
0.547967 0.845670 0.778103
0.592065 0.842557 0.781979
0.654047 0.838437 0.788937
0.721859 0.832456 0.797208
0.793912 0.827268 0.809598
0.867094 0.826139 0.828977
0.906035 0.823728 0.824704
0.605585 0.899260 0.743282
0.615503 0.898924 0.744961
0.652369 0.899931 0.753658
0.700679 0.899718 0.763272
0.760922 0.897551 0.781033
0.828367 0.891905 0.815122
0.890440 0.886351 0.857237
0.921294 0.884916 0.873045
0.000000 0.412299 0.898405
0.000000 0.394812 0.899931
0.127199 0.362249 0.900908
0.408026 0.334264 0.903532
0.598993 0.284092 0.907073
0.757504 0.198734 0.912078
0.870695 0.287266 0.909300
0.933196 0.466529 0.894682
0.000000 0.451331 0.894102
0.000000 0.435859 0.895659
0.159152 0.391211 0.897887
0.411109 0.364324 0.900145
0.597314 0.319097 0.903960
0.754177 0.247288 0.909148
0.867674 0.310887 0.906493
0.930663 0.475471 0.891966
0.293736 0.560510 0.885618
0.297673 0.549462 0.886778
0.303532 0.501305 0.889372
0.434791 0.460456 0.895476
0.600946 0.425025 0.899229
0.748959 0.373449 0.904204
0.864256 0.395819 0.903838
0.928161 0.523705 0.890257
0.485145 0.681086 0.874815
0.487312 0.675074 0.876219
0.487770 0.647578 0.879088
0.495583 0.589197 0.886442
0.608301 0.549523 0.892607
0.744198 0.513848 0.899016
0.861662 0.504753 0.902861
0.926818 0.593988 0.890501
0.541222 0.755123 0.860807
0.551934 0.753872 0.862242
0.580011 0.745571 0.864927
0.624537 0.728298 0.871611
0.627741 0.665766 0.881407
0.733791 0.631434 0.889860
0.855497 0.605066 0.900481
0.925261 0.668208 0.890837
0.559472 0.813840 0.858793
0.568231 0.811856 0.858213
0.598688 0.805905 0.857176
0.647639 0.796719 0.857115
0.702449 0.782773 0.863767
0.738338 0.739681 0.881559
0.846616 0.722347 0.898161
0.928557 0.751797 0.897398
0.578820 0.875608 0.867094
0.586969 0.874144 0.866850
0.614588 0.869444 0.866514
0.661036 0.862455 0.867552
0.719661 0.852720 0.869596
0.786557 0.841093 0.873259
0.844419 0.820310 0.891844
0.928038 0.822812 0.899016
0.628473 0.912902 0.853574
0.634943 0.912139 0.853819
0.658228 0.910063 0.855680
0.698512 0.907286 0.860136
0.749599 0.903471 0.866575
0.806943 0.899016 0.875273
0.868772 0.895079 0.887663
0.932311 0.894530 0.906462
