data/fiter_cube/52608991/1023022/file.cube
# Created by Adobe Lightroom plugin Export LUT (1.17.0)
# www.johnrellis.com/lightroom/exportlut.htm
# Preset: 大神蓝橙街拍_02 云集
# Color profile: C:\Program Files (x86)\Common Files\Adobe\Color\Profiles\Recommended\AdobeRGB1998.icc
LUT_3D_SIZE 32
DOMAIN_MIN 0.0 0.0 0.0
DOMAIN_MAX 1.0 1.0 1.0
0.092500 0.108278 0.121828
0.092500 0.108278 0.121828
0.093172 0.108186 0.121828
0.122896 0.103182 0.121492
0.161105 0.093935 0.120882
0.197391 0.095979 0.120394
0.233982 0.101472 0.119295
0.271122 0.108339 0.117983
0.309178 0.116518 0.116213
0.348455 0.125704 0.113832
0.389715 0.135927 0.110872
0.432868 0.147097 0.107149
0.477577 0.158999 0.102480
0.523552 0.171817 0.096376
0.570367 0.184817 0.089082
0.617090 0.197452 0.079286
0.661891 0.209628 0.067170
0.714717 0.224277 0.038117
0.769986 0.240116 0.000000
0.816373 0.254093 0.000000
0.856168 0.266606 0.000000
0.890257 0.277409 0.000000
0.918944 0.286564 0.000000
0.943755 0.294499 0.000000
0.965606 0.301091 0.000000
0.985565 0.307225 0.000000
1.000000 0.313146 0.000000
1.000000 0.318975 0.000000
1.000000 0.324926 0.059205
1.000000 0.331090 0.088075
1.000000 0.337591 0.115297
1.000000 0.344610 0.143221
0.092500 0.108278 0.121828
0.092500 0.108278 0.121828
0.093172 0.108186 0.121828
0.123140 0.103120 0.121492
0.159457 0.101228 0.121065
0.194827 0.104555 0.120333
0.231052 0.108949 0.119326
0.267460 0.115358 0.118105
0.304997 0.122683 0.116426
0.343816 0.131319 0.114168
0.384344 0.140780 0.111208
0.426673 0.151217 0.107729
0.470527 0.162631 0.103151
0.515709 0.174838 0.097414
0.561822 0.187167 0.090364
0.608148 0.199557 0.081147
0.652827 0.211460 0.069429
0.705409 0.225467 0.046174
0.759152 0.240543 0.000000
0.805234 0.254063 0.000000
0.845365 0.266026 0.000000
0.880186 0.276524 0.000000
0.909758 0.285649 0.000000
0.935485 0.293400 0.000000
0.958251 0.300175 0.000000
0.979095 0.306340 0.000000
0.998993 0.312230 0.000000
1.000000 0.318242 0.000000
1.000000 0.324193 0.047578
1.000000 0.330480 0.082704
1.000000 0.336950 0.110597
1.000000 0.343847 0.138491
0.092500 0.108278 0.121828
0.092500 0.108278 0.121828
0.094453 0.108003 0.121828
0.122377 0.108675 0.121706
0.157229 0.111360 0.121401
0.192142 0.114412 0.120516
0.227665 0.118379 0.119570
0.263737 0.123751 0.118257
0.301061 0.130312 0.116487
0.339391 0.138338 0.114321
0.379675 0.147158 0.111666
0.421729 0.157259 0.107851
0.465278 0.168246 0.103639
0.510124 0.179843 0.098146
0.555810 0.191897 0.091371
0.602258 0.203403 0.082216
0.646998 0.215030 0.070924
0.699702 0.228824 0.049073
0.752621 0.243229 0.003418
0.798550 0.256260 0.000000
0.839109 0.267948 0.000000
0.874510 0.278202 0.000000
0.904662 0.287205 0.000000
0.930907 0.294713 0.000000
0.954101 0.301427 0.000000
0.975433 0.307408 0.000000
0.995789 0.313298 0.000000
1.000000 0.319249 0.000000
1.000000 0.325109 0.039887
1.000000 0.331395 0.080262
1.000000 0.337774 0.108095
1.000000 0.344579 0.136324
0.094820 0.115450 0.124697
0.095277 0.116915 0.125490
0.098970 0.115877 0.128420
0.121614 0.123964 0.121492
0.154269 0.129091 0.122011
0.188602 0.131991 0.120943
0.223636 0.135317 0.120058
0.259617 0.140047 0.118593
0.296452 0.145480 0.116945
0.334508 0.152468 0.114473
0.374121 0.160525 0.111971
0.415564 0.169589 0.108583
0.458350 0.179904 0.104341
0.502617 0.190646 0.099123
0.548028 0.201328 0.092287
0.594202 0.212497 0.083131
0.639033 0.223392 0.072267
0.692378 0.236851 0.052033
0.743191 0.249973 0.010559
0.787991 0.261906 0.000000
0.828244 0.272679 0.000000
0.864073 0.282444 0.000000
0.895689 0.291142 0.000000
0.923827 0.298833 0.000000
0.949157 0.305638 0.000000
0.972320 0.311955 0.000000
0.993957 0.317937 0.000000
1.000000 0.323919 0.000000
1.000000 0.329686 0.043153
1.000000 0.335546 0.080720
1.000000 0.341527 0.108125
1.000000 0.347784 0.135470
0.099611 0.130465 0.130861
0.099825 0.131563 0.131472
0.107668 0.128695 0.135988
0.118135 0.131716 0.134005
0.151217 0.144228 0.120668
0.183413 0.150423 0.121309
0.216739 0.154574 0.120607
0.251926 0.158724 0.119081
0.288304 0.163821 0.117494
0.325689 0.170016 0.115206
0.364721 0.177249 0.112673
0.405493 0.185611 0.109499
0.447883 0.194797 0.105318
0.491920 0.204837 0.100160
0.537469 0.214939 0.093507
0.584405 0.225498 0.084565
0.630793 0.235843 0.073610
0.686549 0.249454 0.053681
0.736873 0.261814 0.012970
0.781430 0.272801 0.000000
0.821439 0.282628 0.000000
0.857389 0.291691 0.000000
0.889464 0.299657 0.000000
0.918395 0.306859 0.000000
0.944549 0.313298 0.000000
0.968505 0.319341 0.000000
0.990723 0.325017 0.000000
1.000000 0.330388 0.000000
1.000000 0.335912 0.040345
1.000000 0.341344 0.079866
1.000000 0.346960 0.107485
1.000000 0.352941 0.134951
0.104982 0.145724 0.138003
0.108797 0.145052 0.139620
0.116182 0.141238 0.143954
0.118593 0.136934 0.150942
0.143404 0.150729 0.134615
0.180941 0.165866 0.119265
0.214817 0.172976 0.119509
0.245945 0.178866 0.119905
0.281651 0.183993 0.118166
0.318730 0.189883 0.115938
0.357336 0.196963 0.113436
0.397894 0.204685 0.109926
0.439796 0.213199 0.106142
0.483711 0.222263 0.100954
0.529290 0.231815 0.094209
0.576471 0.241855 0.085389
0.626001 0.252659 0.074006
0.681941 0.265721 0.054475
0.732174 0.277379 0.013306
0.777371 0.287724 0.000000
0.818235 0.297124 0.000000
0.855283 0.305547 0.000000
0.939879 0.334020 0.000000
0.963531 0.339483 0.000000
0.984253 0.343969 0.000000
1.000000 0.347845 0.000000
1.000000 0.351598 0.023285
1.000000 0.355230 0.067140
1.000000 0.358953 0.091218
1.000000 0.362921 0.114717
1.000000 0.367193 0.138125
1.000000 0.371649 0.162600
0.117281 0.162539 0.148135
0.123323 0.159792 0.150942
0.128511 0.156558 0.155337
0.130282 0.150332 0.164126
0.146273 0.160159 0.155367
0.175479 0.175051 0.134859
0.219272 0.194156 0.116335
0.255650 0.202457 0.116457
0.288426 0.208865 0.116701
0.323033 0.216464 0.116396
0.363195 0.223545 0.113497
0.404944 0.231418 0.109743
0.447852 0.239506 0.105074
0.492226 0.248020 0.099184
0.537530 0.256626 0.092103
0.583764 0.265537 0.083040
0.638941 0.277897 0.068513
0.695277 0.290745 0.041657
0.746059 0.301884 0.000000
0.792905 0.312230 0.000000
0.836881 0.322271 0.000000
0.877653 0.331609 0.000000
0.914061 0.340154 0.000000
0.945617 0.347417 0.000000
0.972442 0.353491 0.000000
0.994690 0.358068 0.000000
1.000000 0.361852 0.015595
1.000000 0.365209 0.064088
1.000000 0.368444 0.089143
1.000000 0.371862 0.112490
1.000000 0.375525 0.135927
1.000000 0.379492 0.160433
0.130587 0.175265 0.159457
0.134981 0.172641 0.161807
0.138918 0.169100 0.165286
0.141115 0.162814 0.172335
0.146914 0.165194 0.172671
0.172457 0.180514 0.156100
0.203494 0.195987 0.132753
0.249882 0.217044 0.113588
0.286839 0.226200 0.113375
0.320531 0.233127 0.113161
0.355657 0.241276 0.112947
0.393591 0.249760 0.110994
0.436072 0.257786 0.106508
0.479957 0.266026 0.100649
0.524834 0.274510 0.093629
0.571832 0.283604 0.084627
0.630488 0.297215 0.070558
0.684047 0.308843 0.047456
0.733913 0.319249 0.005493
0.780758 0.328923 0.000000
0.825162 0.338231 0.000000
0.866545 0.346960 0.000000
0.903777 0.354833 0.000000
0.936248 0.361486 0.000000
0.964050 0.366796 0.000000
0.987304 0.371008 0.000000
1.000000 0.374121 0.009430
1.000000 0.376898 0.061677
1.000000 0.379797 0.087282
1.000000 0.382666 0.111177
1.000000 0.385931 0.134768
1.000000 0.389380 0.159396
0.143160 0.192447 0.172335
0.147127 0.189853 0.174624
0.150973 0.186679 0.177401
0.154665 0.180270 0.183383
0.149447 0.172091 0.192111
0.172793 0.186679 0.176516
0.200748 0.202121 0.156191
0.233249 0.218296 0.130098
0.282200 0.241215 0.109682
0.320409 0.251194 0.108980
0.355261 0.258824 0.108736
0.391516 0.267063 0.107485
0.428626 0.276036 0.105959
0.469673 0.284764 0.101839
0.514153 0.293278 0.095003
0.567681 0.305455 0.085145
0.623224 0.317845 0.071412
0.675166 0.328679 0.051331
0.724422 0.338537 0.010925
0.771511 0.347784 0.000000
0.816190 0.356573 0.000000
0.858061 0.364752 0.000000
0.895811 0.372015 0.000000
0.928893 0.378058 0.000000
0.957397 0.382849 0.000000
0.981445 0.386145 0.000000
1.000000 0.388830 0.011749
1.000000 0.391058 0.062531
1.000000 0.393286 0.087861
1.000000 0.395605 0.111360
1.000000 0.398260 0.135073
1.000000 0.401099 0.159640
0.156100 0.210025 0.186007
0.159579 0.207828 0.187747
0.163333 0.204746 0.190097
0.168002 0.198611 0.195163
0.166964 0.190158 0.203098
0.174289 0.193668 0.200046
0.199954 0.208957 0.182315
0.229923 0.224887 0.158755
0.264012 0.241245 0.126528
0.314977 0.265476 0.105013
0.354131 0.275975 0.103975
0.389899 0.283787 0.102876
0.426856 0.292393 0.101045
0.465003 0.301457 0.098878
0.508385 0.313176 0.095552
0.562768 0.326970 0.086152
0.617975 0.339574 0.072358
0.670130 0.350561 0.052491
0.719722 0.360388 0.012573
0.766415 0.369146 0.000000
0.810056 0.377020 0.000000
0.850340 0.383978 0.000000
0.886870 0.389868 0.000000
0.919280 0.394751 0.000000
0.947875 0.398596 0.000000
0.972808 0.401495 0.000000
0.995056 0.403754 0.009827
1.000000 0.405829 0.062135
1.000000 0.407935 0.088441
1.000000 0.410071 0.112673
1.000000 0.412512 0.137209
1.000000 0.415137 0.162600
0.168521 0.227176 0.198642
0.171847 0.225071 0.200351
0.175479 0.222232 0.202426
0.180545 0.216617 0.207034
0.182406 0.208652 0.214023
0.175937 0.200412 0.222141
0.200443 0.215976 0.207431
0.228580 0.232181 0.188235
0.260624 0.248844 0.162020
0.299199 0.267887 0.125704
0.349767 0.290867 0.099092
0.390143 0.301732 0.097047
0.426612 0.309728 0.095125
0.467475 0.320195 0.091890
0.513512 0.333196 0.087312
0.560235 0.346258 0.082033
0.607630 0.358740 0.075166
0.658900 0.369665 0.058778
0.708339 0.379431 0.019257
0.755489 0.388312 0.000000
0.799832 0.396124 0.000000
0.841154 0.403021 0.000000
0.878691 0.408881 0.000000
0.912078 0.413519 0.000000
0.941405 0.416968 0.000000
0.966949 0.419318 0.000000
0.989685 0.421027 0.015564
1.000000 0.422492 0.064546
1.000000 0.423926 0.089815
1.000000 0.425513 0.114107
1.000000 0.427466 0.138796
1.000000 0.429694 0.164218
0.182071 0.244968 0.212314
0.185000 0.243137 0.213809
0.188388 0.240635 0.215824
0.193729 0.235386 0.219699
0.197299 0.227756 0.225956
0.194095 0.218540 0.234012
0.201907 0.222934 0.231022
0.228702 0.239475 0.215000
0.259190 0.256504 0.193668
0.293095 0.273838 0.165194
0.336522 0.295842 0.124849
0.387610 0.317998 0.094514
0.463996 0.351873 0.076905
0.516197 0.367742 0.068116
0.568444 0.382910 0.058686
0.618677 0.396307 0.037110
0.665248 0.407721 0.016571
0.708461 0.417578 0.001495
0.750301 0.425727 0.000000
0.793362 0.432197 0.000000
0.833036 0.437385 0.000000
0.869139 0.441596 0.000000
0.901457 0.444465 0.000000
0.930480 0.446601 0.000000
0.956359 0.447822 0.000000
0.979339 0.448432 0.022766
0.999908 0.448554 0.065278
1.000000 0.448432 0.087800
1.000000 0.448432 0.109529
1.000000 0.448707 0.131411
1.000000 0.449378 0.154330
1.000000 0.450355 0.178805
0.200504 0.269200 0.230716
0.203189 0.267399 0.231907
0.206332 0.264622 0.233341
0.211307 0.259068 0.236790
0.215549 0.250858 0.241855
0.214542 0.241093 0.248569
0.206607 0.232334 0.255589
0.232151 0.248722 0.241917
0.261662 0.266423 0.224186
0.295079 0.284794 0.200839
0.332921 0.304173 0.169650
0.388891 0.334630 0.123323
0.454566 0.365087 0.085573
0.513390 0.385534 0.059297
0.565667 0.400885 0.025177
0.615229 0.414160 0.000000
0.660731 0.424964 0.000000
0.702754 0.433875 0.000000
0.741695 0.441779 0.000000
0.778561 0.449012 0.000000
0.817746 0.454963 0.000000
0.855222 0.459388 0.000000
0.888701 0.462379 0.000000
0.918914 0.464454 0.000000
0.945892 0.465553 0.000000
0.969970 0.465888 0.022950
0.991608 0.465736 0.065003
1.000000 0.465461 0.087800
1.000000 0.465126 0.109560
1.000000 0.465217 0.131716
1.000000 0.465644 0.155123
1.000000 0.466407 0.180148
0.213687 0.286107 0.243534
0.216159 0.284215 0.244755
0.218967 0.281712 0.246006
0.223911 0.276616 0.248905
0.228489 0.268925 0.253452
0.229648 0.259525 0.259342
0.224033 0.249210 0.266758
0.232364 0.253941 0.263554
0.260044 0.271489 0.249027
0.291661 0.290013 0.230198
0.330785 0.312291 0.206821
0.376959 0.337011 0.173556
0.442420 0.373297 0.119478
0.507225 0.401343 0.075410
0.563836 0.419684 0.018982
0.611872 0.431922 0.000000
0.655695 0.441749 0.000000
0.696559 0.450080 0.000000
0.735225 0.457404 0.000000
0.771969 0.464240 0.000000
0.807248 0.470924 0.000000
0.841550 0.476997 0.000000
0.876646 0.480568 0.000000
0.908385 0.482948 0.000000
0.936675 0.484169 0.000000
0.961944 0.484565 0.028809
0.984680 0.484291 0.067445
1.000000 0.483772 0.090150
1.000000 0.483406 0.111940
1.000000 0.483223 0.134524
1.000000 0.483406 0.158297
1.000000 0.483925 0.183871
0.227512 0.303166 0.256748
0.229770 0.301671 0.257877
0.232303 0.299290 0.258976
0.237095 0.294316 0.261509
0.242008 0.287053 0.265476
0.244327 0.277989 0.270695
0.241642 0.267857 0.277317
0.233402 0.259251 0.283574
0.260563 0.277470 0.272465
0.293034 0.298283 0.258762
0.330602 0.320623 0.240269
0.373877 0.344823 0.214420
0.422705 0.370428 0.176516
0.494270 0.409918 0.111971
0.557092 0.435401 0.059602
0.609277 0.450324 0.000000
0.652705 0.459785 0.000000
0.692592 0.467323 0.000000
0.730495 0.474159 0.000000
0.766781 0.480476 0.000000
0.801663 0.486488 0.000000
0.834806 0.492226 0.000000
0.865629 0.497444 0.000000
0.897093 0.500908 0.000000
0.926970 0.502586 0.000000
0.953918 0.503380 0.036347
0.978515 0.503655 0.071962
1.000000 0.503716 0.095460
1.000000 0.503777 0.118563
1.000000 0.503960 0.142336
1.000000 0.504326 0.167819
1.000000 0.504906 0.194766
0.241642 0.320592 0.270054
0.243839 0.319249 0.271031
0.246250 0.317235 0.272129
0.251011 0.312688 0.274571
0.256138 0.306004 0.278386
0.260166 0.297978 0.283726
0.261143 0.289555 0.290990
0.255283 0.280369 0.299351
0.266056 0.287388 0.297978
0.297032 0.307866 0.286625
0.332586 0.329778 0.271153
0.372808 0.353094 0.250095
0.417639 0.377111 0.220554
0.467018 0.402045 0.177127
0.541894 0.443153 0.100801
0.599115 0.463966 0.019257
0.646571 0.475898 0.000000
0.687892 0.484169 0.000000
0.726589 0.491279 0.000000
0.763882 0.498024 0.000000
0.799649 0.504295 0.000000
0.833494 0.510063 0.000000
0.864836 0.515099 0.000000
0.893980 0.519707 0.000000
0.921508 0.523644 0.009949
0.949737 0.524804 0.055543
0.975341 0.525261 0.080873
0.998627 0.525353 0.103822
1.000000 0.525231 0.126589
1.000000 0.525017 0.150301
1.000000 0.524834 0.175326
1.000000 0.524773 0.202121
0.257847 0.340307 0.284794
0.259739 0.339025 0.285588
0.262303 0.337224 0.286809
0.267155 0.333318 0.289311
0.272953 0.327428 0.293187
0.277836 0.319890 0.298253
0.279606 0.311070 0.304479
0.276036 0.301152 0.311681
0.268223 0.293339 0.318273
0.297429 0.313176 0.308690
0.330877 0.334691 0.296208
0.368841 0.357610 0.279332
0.411261 0.381628 0.256168
0.458015 0.406256 0.223728
0.508659 0.431220 0.175479
0.586969 0.474403 0.085786
0.638422 0.490700 0.000000
0.682673 0.500694 0.000000
0.722164 0.507988 0.000000
0.758846 0.514244 0.000000
0.794308 0.520256 0.000000
0.828092 0.525658 0.000000
0.859678 0.530480 0.000000
0.889281 0.534936 0.000000
0.916838 0.538933 0.000000
0.942535 0.542840 0.051728
0.968627 0.544701 0.085206
0.993317 0.545220 0.108583
1.000000 0.545373 0.131868
1.000000 0.545373 0.156191
1.000000 0.545251 0.182223
1.000000 0.545159 0.209873
0.276219 0.362554 0.300938
0.278477 0.361517 0.302037
0.293767 0.374853 0.314122
0.298589 0.370672 0.316350
0.304295 0.364233 0.319799
0.309178 0.355932 0.324163
0.311559 0.345953 0.329564
0.309239 0.334874 0.335698
0.300023 0.323095 0.342840
0.311833 0.330877 0.340856
0.345403 0.353033 0.330175
0.383368 0.376745 0.315801
0.425360 0.401190 0.296361
0.471626 0.426581 0.269688
0.521538 0.452247 0.232120
0.574517 0.477821 0.175998
0.654749 0.521843 0.053925
0.700099 0.533043 0.000000
0.738888 0.539208 0.000000
0.773861 0.543603 0.000000
0.806394 0.547356 0.000000
0.838041 0.551232 0.000000
0.867918 0.554559 0.000000
0.895628 0.557397 0.000000
0.920928 0.559625 0.000000
0.944579 0.561700 0.008515
0.966857 0.563928 0.082033
0.988983 0.565881 0.114778
1.000000 0.565728 0.137423
1.000000 0.565637 0.162020
1.000000 0.565515 0.188235
1.000000 0.565270 0.216495
0.297673 0.388220 0.319158
0.301396 0.389258 0.321477
0.305730 0.389624 0.324010
0.311894 0.387732 0.327489
0.318761 0.383001 0.331609
0.324437 0.375494 0.336034
0.327703 0.365728 0.340887
0.326726 0.354528 0.346441
0.320378 0.342565 0.352758
0.310857 0.333684 0.358190
0.342626 0.355200 0.349248
0.378332 0.378210 0.337407
0.417884 0.402197 0.321477
0.461250 0.427039 0.299992
0.508263 0.452277 0.270756
0.558556 0.477668 0.229953
0.610193 0.502098 0.168856
0.689387 0.545708 0.000000
0.730007 0.553613 0.000000
0.766598 0.558831 0.000000
0.800351 0.562921 0.000000
0.832639 0.567010 0.000000
0.863188 0.570642 0.000000
0.891630 0.573541 0.000000
0.917693 0.575769 0.000000
0.941985 0.577752 0.000000
0.964843 0.579828 0.061769
0.986664 0.582391 0.105837
1.000000 0.585718 0.141817
1.000000 0.586206 0.168124
1.000000 0.586145 0.195102
1.000000 0.585901 0.224094
0.313695 0.407446 0.332036
0.317327 0.408576 0.334386
0.321569 0.409094 0.336828
0.327398 0.407263 0.340032
0.334173 0.402625 0.343847
0.339940 0.395148 0.347814
0.343633 0.385473 0.352239
0.343999 0.374334 0.357244
0.339757 0.362280 0.362951
0.328771 0.349767 0.369329
0.341192 0.357885 0.367285
0.375341 0.380529 0.357458
0.412940 0.404242 0.344152
0.454444 0.428809 0.326574
0.499306 0.453986 0.302922
0.547478 0.479500 0.271122
0.597162 0.504082 0.226902
0.650599 0.529870 0.160128
0.725399 0.570886 0.000000
0.762051 0.575952 0.000000
0.796323 0.580102 0.000000
0.828946 0.583948 0.000000
0.859922 0.587701 0.000000
0.888701 0.590570 0.000000
0.915068 0.592584 0.000000
0.939574 0.594232 0.000000
0.962554 0.595850 0.003998
0.984497 0.597925 0.090089
1.000000 0.600732 0.131228
1.000000 0.604303 0.168429
1.000000 0.606195 0.200443
1.000000 0.606012 0.230503
0.329900 0.427008 0.344640
0.333532 0.428199 0.346960
0.337682 0.428870 0.349401
0.343542 0.427192 0.352453
0.350103 0.422644 0.355993
0.355901 0.415320 0.359686
0.359930 0.405737 0.363684
0.361212 0.394629 0.368200
0.358526 0.382422 0.373449
0.350134 0.369665 0.379278
0.340215 0.360601 0.384070
0.372778 0.382757 0.375769
0.408850 0.406043 0.364538
0.448737 0.430579 0.349950
0.492348 0.456031 0.330694
0.539788 0.482490 0.305211
0.589990 0.509087 0.271397
0.641108 0.534691 0.224399
0.699367 0.564019 0.150393
0.769314 0.601740 0.000000
0.805417 0.606775 0.000000
0.838865 0.610803 0.000000
0.869780 0.613977 0.000000
0.899077 0.617090 0.000000
0.925811 0.619104 0.000000
0.950225 0.620417 0.000000
0.972869 0.621546 0.000000
0.994171 0.622980 0.093080
1.000000 0.624933 0.137301
1.000000 0.627466 0.176547
1.000000 0.630640 0.215579
1.000000 0.633539 0.254704
0.356329 0.458412 0.364630
0.358892 0.458350 0.366003
0.361669 0.457679 0.367376
0.366247 0.454505 0.369390
0.371832 0.448920 0.372045
0.377234 0.441016 0.375097
0.381567 0.431342 0.378759
0.383856 0.420264 0.383215
0.382818 0.408209 0.388434
0.377111 0.395483 0.394385
0.364874 0.382452 0.400824
0.378851 0.391760 0.398932
0.414984 0.415839 0.389715
0.454505 0.440986 0.377356
0.497810 0.467140 0.360937
0.544854 0.494362 0.339452
0.593774 0.521294 0.311589
0.643580 0.547265 0.274571
0.693385 0.571740 0.223148
0.749783 0.600031 0.139590
0.810300 0.630976 0.000000
0.841825 0.633173 0.000000
0.870603 0.634302 0.000000
0.897002 0.635035 0.000000
0.923339 0.636500 0.000000
0.947875 0.637537 0.000000
0.970886 0.638483 0.000000
0.992523 0.639643 0.072908
1.000000 0.641169 0.125673
1.000000 0.643122 0.168185
1.000000 0.645624 0.209049
1.000000 0.648737 0.251347
0.375006 0.480781 0.377996
0.377661 0.480995 0.379339
0.380621 0.480537 0.380835
0.385199 0.477607 0.382879
0.390692 0.472114 0.385412
0.395941 0.464179 0.388159
0.400336 0.454261 0.391547
0.402991 0.443000 0.395453
0.402991 0.430701 0.400305
0.398962 0.417792 0.405829
0.389319 0.404425 0.411963
0.379309 0.395575 0.416754
0.414435 0.419471 0.409064
0.453376 0.444923 0.398718
0.495888 0.471504 0.385107
0.542290 0.499397 0.367102
0.590814 0.527214 0.344091
0.640162 0.554253 0.314336
0.689784 0.580041 0.274937
0.737270 0.602960 0.219333
0.792355 0.630732 0.125307
0.846250 0.657038 0.000000
0.875395 0.658015 0.000000
0.901854 0.658167 0.000000
0.917967 0.651728 0.000000
0.942718 0.652583 0.000000
0.966247 0.653468 0.000000
0.988312 0.654444 0.009613
1.000000 0.655695 0.107362
1.000000 0.657343 0.155001
1.000000 0.659571 0.198825
1.000000 0.662226 0.242832
0.405219 0.516716 0.398993
0.408240 0.517296 0.400671
0.411139 0.516625 0.401984
0.415198 0.513085 0.403601
0.420081 0.506767 0.405554
0.424964 0.498024 0.407843
0.429053 0.487312 0.410620
0.431464 0.474800 0.413825
0.431281 0.461128 0.417762
0.427558 0.446815 0.422400
0.418769 0.431922 0.427497
0.403937 0.416999 0.433082
0.418463 0.426612 0.430518
0.455726 0.451362 0.420996
0.496010 0.476936 0.408362
0.539635 0.503532 0.392126
0.585138 0.530144 0.371771
0.632044 0.556481 0.346502
0.680323 0.582574 0.314458
0.727749 0.606867 0.272404
0.772824 0.628229 0.212558
0.826169 0.655329 0.103914
0.873564 0.676905 0.000000
0.899413 0.675929 0.000000
0.922057 0.674098 0.000000
0.942535 0.671534 0.000000
0.965484 0.671656 0.000000
0.987030 0.671778 0.000000
1.000000 0.672267 0.090028
1.000000 0.673274 0.143862
1.000000 0.674891 0.190249
1.000000 0.676814 0.236057
0.426368 0.541985 0.413001
0.429450 0.542748 0.414679
0.432410 0.542199 0.415991
0.436530 0.538933 0.417609
0.441413 0.532860 0.419532
0.446632 0.524468 0.421851
0.451301 0.514031 0.424750
0.454688 0.501946 0.428138
0.455970 0.488685 0.432349
0.454231 0.474708 0.437354
0.448096 0.460121 0.442847
0.436316 0.445350 0.449012
0.425757 0.436103 0.453620
0.463508 0.461860 0.445808
0.504509 0.488685 0.435187
0.548577 0.516411 0.421302
0.593927 0.543877 0.403815
0.640467 0.571130 0.382208
0.687861 0.597650 0.355413
0.733883 0.622187 0.321355
0.777523 0.643793 0.276219
0.818143 0.661921 0.210208
0.867094 0.686244 0.079744
0.907378 0.702388 0.000000
0.929900 0.699763 0.000000
0.949920 0.696437 0.000000
0.968048 0.692653 0.000000
0.989471 0.692378 0.000000
1.000000 0.692409 0.079164
1.000000 0.692805 0.140017
1.000000 0.693568 0.189181
1.000000 0.694575 0.237217
0.454108 0.574029 0.431495
0.456886 0.574243 0.432898
0.459266 0.573175 0.433845
0.462806 0.569512 0.435065
0.467262 0.563134 0.436530
0.472175 0.554589 0.438453
0.476936 0.544121 0.440955
0.480781 0.532128 0.444160
0.483070 0.518944 0.448310
0.482765 0.505089 0.453376
0.478706 0.490425 0.459174
0.469886 0.475746 0.465797
0.454322 0.460731 0.472847
0.472267 0.472816 0.470802
0.513298 0.500389 0.461463
0.556817 0.528435 0.449317
0.601282 0.556085 0.433875
0.646815 0.583490 0.414984
0.692805 0.610071 0.391913
0.737301 0.634638 0.363470
0.779690 0.656550 0.327062
0.819211 0.675135 0.278080
0.855467 0.690028 0.204776
0.900420 0.711788 0.003632
0.934783 0.723690 0.000000
0.954650 0.719722 0.000000
0.972595 0.715297 0.000000
0.988800 0.710567 0.000000
1.000000 0.709773 0.041901
1.000000 0.709651 0.127596
1.000000 0.709651 0.180514
1.000000 0.709895 0.230289
0.480995 0.603967 0.449348
0.483284 0.603876 0.450446
0.485634 0.602869 0.451453
0.489448 0.599603 0.452766
0.494759 0.594293 0.454749
0.501335 0.587549 0.457649
0.509087 0.580072 0.461891
0.516930 0.571618 0.467323
0.524315 0.562371 0.474098
0.529839 0.552422 0.482094
0.532128 0.541650 0.491157
0.529595 0.529900 0.500908
0.520317 0.517144 0.511131
0.512352 0.510277 0.518944
0.557122 0.541314 0.511894
0.601587 0.570916 0.501244
0.646265 0.599664 0.487373
0.690181 0.626856 0.470283
0.732753 0.652216 0.449744
0.773495 0.675166 0.424720
0.811978 0.695308 0.393622
0.847776 0.712154 0.353338
0.880461 0.725154 0.298680
0.910369 0.734646 0.216678
0.948425 0.751583 0.047913
0.975433 0.757626 0.000000
0.991791 0.751339 0.000000
1.000000 0.744930 0.000000
1.000000 0.738613 0.075319
1.000000 0.736080 0.142702
1.000000 0.734340 0.195804
1.000000 0.732540 0.246769
0.534783 0.658961 0.486915
0.536858 0.658595 0.487892
0.538689 0.657191 0.488502
0.542016 0.653620 0.489509
0.546899 0.648005 0.491035
0.552880 0.640864 0.493385
0.559869 0.632593 0.496834
0.567102 0.623163 0.501427
0.573846 0.612757 0.507286
0.579065 0.601556 0.514336
0.581231 0.589349 0.522210
0.579461 0.576471 0.530968
0.571893 0.562737 0.540246
0.556725 0.548211 0.549767
