data/fiter_cube/52608991/1023022/file.cube
# Created by Adobe Lightroom plugin Export LUT (1.17.0)
# www.johnrellis.com/lightroom/exportlut.htm
# Preset: 大神蓝橙街拍_02 云集
# Color profile: C:\Program Files (x86)\Common Files\Adobe\Color\Profiles\Recommended\AdobeRGB1998.icc
LUT_3D_SIZE 5
DOMAIN_MIN 0.000000 0.000000 0.000000
DOMAIN_MAX 0.903226 0.903226 0.903226
0.092500 0.108278 0.121828
0.271122 0.108339 0.117983
0.570367 0.184817 0.089082
0.890257 0.277409 0.000000
1.000000 0.324926 0.059205
0.130587 0.175265 0.159457
0.249882 0.217044 0.113588
0.524834 0.274510 0.093629
0.866545 0.346960 0.000000
1.000000 0.379797 0.087282
0.227512 0.303166 0.256748
0.233402 0.259251 0.283574
0.557092 0.435401 0.059602
0.834806 0.492226 0.000000
1.000000 0.503777 0.118563
0.356329 0.458412 0.364630
0.383856 0.420264 0.383215
0.497810 0.467140 0.360937
0.841825 0.633173 0.000000
1.000000 0.641169 0.125673
0.572595 0.694392 0.514733
0.607904 0.664302 0.531060
0.571862 0.561120 0.563287
0.854520 0.741787 0.455482
1.000000 0.782712 0.065766
0.041779 0.159152 0.273777
0.222873 0.147341 0.277165
0.534203 0.208133 0.223453
0.838071 0.302953 0.139651
1.000000 0.343786 0.021363
0.058778 0.207004 0.288518
0.224430 0.250797 0.276738
0.513054 0.289860 0.238468
0.825376 0.356023 0.151553
1.000000 0.388190 0.058839
0.126253 0.374914 0.339971
0.289006 0.347570 0.327001
0.512749 0.424475 0.249149
0.796231 0.480873 0.185245
1.000000 0.508812 0.110201
0.304448 0.527611 0.387945
0.403021 0.491157 0.409400
0.486336 0.470100 0.412909
0.830289 0.636164 0.205386
1.000000 0.642237 0.116213
0.536004 0.735103 0.523095
0.595544 0.703365 0.537713
0.633417 0.614679 0.594293
0.855467 0.754208 0.511131
1.000000 0.787839 0.076905
0.000000 0.307103 0.515740
0.185641 0.296178 0.518242
0.477455 0.246464 0.508812
0.846098 0.325689 0.486397
1.000000 0.395422 0.413092
0.126833 0.347112 0.521843
0.247929 0.365576 0.515770
0.479225 0.316991 0.507988
0.839384 0.398932 0.492622
1.000000 0.426307 0.407446
0.065888 0.404822 0.541314
0.234897 0.423102 0.533471
0.484199 0.487343 0.503746
0.802152 0.524773 0.480354
1.000000 0.524620 0.396124
0.000000 0.580255 0.645624
0.123079 0.629816 0.626886
0.539147 0.578485 0.528527
0.806241 0.666804 0.468391
0.992004 0.659846 0.398047
0.289464 0.825437 0.660883
0.418280 0.813809 0.630823
0.672084 0.738491 0.611963
0.805997 0.741817 0.615015
1.000000 0.800778 0.379156
0.212161 0.476936 0.746670
0.292851 0.476967 0.750179
0.465827 0.443244 0.748714
0.743832 0.360510 0.723110
0.975433 0.557305 0.702022
0.268376 0.507958 0.746029
0.342901 0.517388 0.744991
0.484901 0.489937 0.742061
0.737270 0.406287 0.715816
0.971344 0.586877 0.704494
0.254795 0.535088 0.747585
0.346288 0.552453 0.743862
0.557977 0.611994 0.732601
0.727382 0.531365 0.702052
0.970886 0.697688 0.735286
0.219486 0.596399 0.767208
0.313848 0.607324 0.760891
0.532494 0.656611 0.749172
0.752285 0.722805 0.714321
0.969940 0.744015 0.689845
0.000000 0.721462 0.843595
0.000000 0.735470 0.845792
0.414038 0.803220 0.850156
0.787015 0.800778 0.728389
0.975616 0.851255 0.663813
0.492195 0.642969 0.891020
0.529168 0.649104 0.891051
0.636713 0.669734 0.893004
0.715908 0.618647 0.894072
0.912139 0.574121 0.888701
0.506126 0.657771 0.887022
0.540734 0.663600 0.887144
0.641657 0.682002 0.889281
0.718959 0.637507 0.889128
0.910582 0.593835 0.886259
0.465339 0.657313 0.890013
0.510796 0.670710 0.887968
0.656550 0.721889 0.883452
0.743832 0.707759 0.884428
0.915007 0.670527 0.889250
0.436713 0.681697 0.900725
0.479591 0.691402 0.897917
0.614405 0.732509 0.893553
0.798032 0.810971 0.892027
0.921386 0.779019 0.893492
0.388006 0.726253 0.920378
0.440131 0.736812 0.919646
0.597345 0.778653 0.918883
0.775753 0.840818 0.912688
0.924681 0.902983 0.893309
