data/fiter_cube/52608991/1023022/file.cube
# Created by Adobe Lightroom plugin Export LUT (1.17.0)
# www.johnrellis.com/lightroom/exportlut.htm
# Preset: 大神蓝橙街拍_02 云集
# Color profile: C:\Program Files (x86)\Common Files\Adobe\Color\Profiles\Recommended\AdobeRGB1998.icc
LUT_3D_SIZE 8
DOMAIN_MIN 0.000000 0.000000 0.000000
DOMAIN_MAX 0.903226 0.903226 0.903226
0.092500 0.108278 0.121828
0.161105 0.093935 0.120882
0.309178 0.116518 0.116213
0.477577 0.158999 0.102480
0.661891 0.209628 0.067170
0.856168 0.266606 0.000000
0.965606 0.301091 0.000000
1.000000 0.324926 0.059205
0.099611 0.130465 0.130861
0.151217 0.144228 0.120668
0.288304 0.163821 0.117494
0.447883 0.194797 0.105318
0.630793 0.235843 0.073610
0.821439 0.282628 0.000000
0.944549 0.313298 0.000000
1.000000 0.335912 0.040345
0.143160 0.192447 0.172335
0.149447 0.172091 0.192111
0.282200 0.241215 0.109682
0.428626 0.276036 0.105959
0.623224 0.317845 0.071412
0.816190 0.356573 0.000000
0.957397 0.382849 0.000000
1.000000 0.393286 0.087861
0.200504 0.269200 0.230716
0.215549 0.250858 0.241855
0.261662 0.266423 0.224186
0.454566 0.365087 0.085573
0.660731 0.424964 0.000000
0.817746 0.454963 0.000000
0.945892 0.465553 0.000000
1.000000 0.465126 0.109560
0.257847 0.340307 0.284794
0.272953 0.327428 0.293187
0.268223 0.293339 0.318273
0.411261 0.381628 0.256168
0.638422 0.490700 0.000000
0.794308 0.520256 0.000000
0.916838 0.538933 0.000000
1.000000 0.545373 0.131868
0.329900 0.427008 0.344640
0.350103 0.422644 0.355993
0.358526 0.382422 0.373449
0.408850 0.406043 0.364538
0.589990 0.509087 0.271397
0.805417 0.606775 0.000000
0.925811 0.619104 0.000000
1.000000 0.624933 0.137301
0.426368 0.541985 0.413001
0.441413 0.532860 0.419532
0.455970 0.488685 0.432349
0.425757 0.436103 0.453620
0.593927 0.543877 0.403815
0.777523 0.643793 0.276219
0.929900 0.699763 0.000000
1.000000 0.692409 0.079164
0.572595 0.694392 0.514733
0.584802 0.684840 0.519127
0.616419 0.655787 0.537591
0.629511 0.615229 0.575463
0.659907 0.622126 0.547509
0.819944 0.723201 0.483040
0.941283 0.776059 0.317235
1.000000 0.782712 0.065766
0.083192 0.117678 0.179629
0.137972 0.110811 0.179141
0.282109 0.139651 0.149294
0.437720 0.190433 0.126284
0.617212 0.238407 0.076936
0.803952 0.281407 0.000000
0.933654 0.308568 0.000000
1.000000 0.326696 0.007568
0.072877 0.136294 0.182559
0.138186 0.159701 0.178836
0.273198 0.179507 0.161593
0.427100 0.213962 0.130800
0.605585 0.258457 0.078523
0.786160 0.296788 0.000000
0.916808 0.319921 0.000000
1.000000 0.336187 0.000000
0.094240 0.225834 0.215732
0.174624 0.216739 0.214145
0.274205 0.247807 0.170535
0.412909 0.276280 0.146151
0.588464 0.316381 0.093080
0.774807 0.355352 0.000000
0.918761 0.377111 0.000000
1.000000 0.388342 0.054658
0.171511 0.293431 0.239658
0.218997 0.280278 0.255100
0.258488 0.271977 0.258183
0.426978 0.352575 0.158083
0.595331 0.392340 0.114107
0.754452 0.429358 0.000000
0.903777 0.449866 0.000000
1.000000 0.456306 0.079927
0.249699 0.367102 0.297276
0.274479 0.351537 0.304021
0.284886 0.309026 0.326543
0.393439 0.372930 0.277592
0.599023 0.467994 0.131655
0.760891 0.502312 0.000000
0.894560 0.528283 0.000000
1.000000 0.538445 0.113649
0.317449 0.439643 0.347265
0.335729 0.427222 0.352758
0.357061 0.387030 0.369329
0.391211 0.394446 0.369757
0.569818 0.497871 0.291173
0.793027 0.601038 0.066926
0.915770 0.613733 0.000000
1.000000 0.618982 0.120912
0.402045 0.538781 0.405066
0.414343 0.523217 0.407355
0.439704 0.482704 0.421118
0.417426 0.429023 0.446601
0.573632 0.530541 0.408240
0.758785 0.631800 0.292119
0.913176 0.688319 0.000000
0.996826 0.682399 0.000000
0.545159 0.689479 0.502007
0.562463 0.682338 0.508568
0.601282 0.653742 0.527611
0.622797 0.612604 0.565393
0.676173 0.638972 0.572625
0.823056 0.729488 0.501640
0.936706 0.773434 0.324590
1.000000 0.778958 0.003540
0.000000 0.180179 0.311772
0.095613 0.176608 0.315892
0.255924 0.161990 0.312200
0.448859 0.182742 0.285618
0.651423 0.236332 0.255436
0.819944 0.297307 0.222690
0.941985 0.336461 0.144259
1.000000 0.353826 0.051667
0.073243 0.201846 0.311559
0.135653 0.213870 0.309514
0.253391 0.198123 0.308965
0.438605 0.219089 0.285222
0.631037 0.262791 0.258000
0.802945 0.311254 0.220401
0.929992 0.346685 0.142367
1.000000 0.364141 0.045777
0.051698 0.232425 0.323919
0.132906 0.244663 0.321324
0.256077 0.282200 0.309361
0.418738 0.300633 0.293309
0.620783 0.336339 0.270268
0.793759 0.368963 0.228244
0.923339 0.394049 0.155886
1.000000 0.406256 0.066651
0.000000 0.318273 0.379980
0.084016 0.348974 0.375982
0.290684 0.335729 0.334630
0.431922 0.383490 0.298253
0.606989 0.416876 0.277989
0.776455 0.446021 0.240970
0.914946 0.465278 0.179232
1.000000 0.472145 0.093721
0.143526 0.433539 0.385657
0.206302 0.429267 0.371527
0.336797 0.398779 0.368170
0.400641 0.398291 0.365240
0.613214 0.495674 0.278813
0.767239 0.518303 0.245335
0.896727 0.538323 0.197635
1.000000 0.547997 0.120058
0.252110 0.504234 0.392706
0.287236 0.499367 0.386664
0.384375 0.462104 0.399786
0.382483 0.398138 0.418372
0.559960 0.504906 0.363073
0.779446 0.604181 0.249210
0.906432 0.616754 0.209201
1.000000 0.624292 0.136141
0.346410 0.608789 0.428931
0.370916 0.599908 0.424872
0.456367 0.553277 0.444831
0.471839 0.481117 0.464515
0.558221 0.528405 0.449317
0.753079 0.639002 0.363317
0.915373 0.700435 0.202945
1.000000 0.693843 0.137606
0.492348 0.736294 0.508232
0.522881 0.725277 0.516838
0.585565 0.691707 0.531426
0.645777 0.652033 0.571771
0.651728 0.625574 0.597192
0.813474 0.731197 0.542351
0.933532 0.781857 0.395483
1.000000 0.784604 0.097810
0.000000 0.259281 0.443854
0.086244 0.260014 0.448676
0.220218 0.244511 0.449134
0.391638 0.217655 0.438605
0.618402 0.233402 0.429297
0.820554 0.289647 0.404425
0.932036 0.341527 0.364569
1.000000 0.358587 0.290745
0.089906 0.286503 0.450599
0.141756 0.290562 0.450752
0.233433 0.273869 0.450080
0.393591 0.244388 0.439521
0.619898 0.262669 0.430121
0.810727 0.311894 0.402899
0.925322 0.354040 0.362158
1.000000 0.367742 0.286656
0.094362 0.305699 0.452796
0.155337 0.314763 0.450568
0.268101 0.340795 0.442664
0.397284 0.316777 0.440345
0.633997 0.350011 0.437720
0.809415 0.392035 0.417243
0.936004 0.420630 0.382544
1.000000 0.416297 0.298497
0.051087 0.342565 0.466072
0.134951 0.350591 0.465156
0.263706 0.377417 0.459693
0.407843 0.421485 0.444404
0.602441 0.444282 0.433539
0.778286 0.465675 0.410956
0.914183 0.479469 0.373053
1.000000 0.478828 0.303655
0.000000 0.421942 0.509483
0.000000 0.430335 0.510948
0.220157 0.471229 0.517205
0.444038 0.476509 0.464210
0.611322 0.531518 0.430854
0.766049 0.547601 0.409644
0.900938 0.560174 0.376104
1.000000 0.556756 0.315343
0.000000 0.603754 0.581201
0.000000 0.620203 0.581140
0.298192 0.594263 0.519280
0.482124 0.534661 0.483467
0.565545 0.535790 0.473884
0.780575 0.632807 0.404852
0.903044 0.637354 0.377203
1.000000 0.638697 0.329839
0.205814 0.693172 0.566003
0.258640 0.689570 0.554559
0.385199 0.670588 0.517418
0.538384 0.610285 0.514427
0.545953 0.535943 0.527398
0.752804 0.661921 0.471260
0.911437 0.719020 0.366217
1.000000 0.707912 0.324773
0.406348 0.804257 0.593896
0.437049 0.800351 0.587854
0.520928 0.780484 0.568902
0.650721 0.729976 0.590478
0.676417 0.654475 0.623835
0.792020 0.729580 0.603906
0.923400 0.794614 0.498024
1.000000 0.797696 0.310796
0.022461 0.355718 0.586999
0.116548 0.355138 0.589471
0.224949 0.340154 0.589044
0.371771 0.310277 0.588617
0.564752 0.273381 0.577264
0.759823 0.297276 0.550469
0.922911 0.426032 0.557885
1.000000 0.478157 0.536950
0.129091 0.378271 0.588434
0.165286 0.378759 0.592432
0.247837 0.364813 0.591669
0.376684 0.332250 0.589258
0.563043 0.293950 0.575372
0.761471 0.321324 0.551934
0.922942 0.448341 0.563653
1.000000 0.482948 0.534264
0.154788 0.399023 0.592462
0.200900 0.407019 0.592218
0.298344 0.424170 0.590204
0.389899 0.394934 0.585626
0.556603 0.353826 0.568292
0.756985 0.387457 0.550561
0.915953 0.493660 0.567254
1.000000 0.490272 0.516564
0.137392 0.426184 0.602228
0.186282 0.431586 0.599969
0.301396 0.453773 0.595300
0.438422 0.490608 0.585534
0.563439 0.448524 0.569543
0.773709 0.505791 0.572076
0.907469 0.540246 0.557855
1.000000 0.517479 0.492561
0.096925 0.465583 0.613062
0.159701 0.471046 0.612055
0.282170 0.487831 0.605005
0.423774 0.519493 0.592401
0.566064 0.557214 0.565362
0.748409 0.578241 0.555962
0.890745 0.589227 0.532403
0.995483 0.575921 0.477180
0.000000 0.511070 0.616754
0.066987 0.518029 0.618585
0.220737 0.539178 0.621393
0.356085 0.581659 0.630213
0.568994 0.584955 0.558434
0.746975 0.650874 0.540002
0.883055 0.664271 0.525658
0.990112 0.661189 0.483253
0.000000 0.655695 0.724605
0.000000 0.669978 0.719966
0.130282 0.717464 0.706172
0.411109 0.729030 0.641871
0.614313 0.652399 0.581689
0.710780 0.659144 0.571862
0.890105 0.736812 0.507530
0.985901 0.724331 0.467262
0.000000 0.857511 0.764431
0.102571 0.853300 0.751125
0.333074 0.838468 0.706905
0.537987 0.819028 0.653803
0.699489 0.751736 0.638941
0.733089 0.698146 0.660792
0.896941 0.799802 0.598688
1.000000 0.812558 0.460945
0.187137 0.460395 0.727108
0.219760 0.461860 0.729946
0.299779 0.457191 0.731136
0.403845 0.437263 0.730343
0.534051 0.384039 0.719722
0.717983 0.343084 0.700801
0.871275 0.399084 0.662165
0.984314 0.574456 0.688899
0.214725 0.471107 0.720424
0.238407 0.470192 0.720912
0.307500 0.464881 0.721675
0.402441 0.444678 0.720241
0.528252 0.394629 0.711421
0.711330 0.355230 0.694667
0.868254 0.412177 0.660365
0.982635 0.582055 0.689235
0.260441 0.501488 0.731044
0.288334 0.506096 0.728847
0.364416 0.516655 0.725551
0.446052 0.504570 0.723690
0.542473 0.454688 0.712825
0.713741 0.412268 0.694881
0.871672 0.474434 0.667994
0.981353 0.623835 0.701747
0.256138 0.520409 0.735622
0.286137 0.524590 0.732692
0.381445 0.546563 0.729091
0.515282 0.588678 0.730465
0.589532 0.560021 0.724422
0.729854 0.511345 0.705196
0.884154 0.579339 0.691615
0.981750 0.692866 0.728115
0.225223 0.537682 0.732357
0.259648 0.543053 0.731685
0.357122 0.562036 0.728817
0.491066 0.598718 0.723720
0.623713 0.641535 0.712062
0.718166 0.591424 0.690883
0.885405 0.667292 0.704341
0.978973 0.691005 0.692164
0.183139 0.567651 0.733852
0.225711 0.574456 0.735653
0.326909 0.590112 0.732448
0.457771 0.618219 0.725154
0.591363 0.653559 0.710689
0.721096 0.693782 0.687434
0.874418 0.721584 0.688624
0.978393 0.720058 0.659358
0.097261 0.628229 0.760800
0.163027 0.633692 0.761685
0.280949 0.646204 0.757015
0.411505 0.677882 0.759762
0.544060 0.723629 0.764492
0.727687 0.724422 0.683894
0.871183 0.777371 0.666804
0.971832 0.775509 0.640833
0.000000 0.732204 0.841947
0.000000 0.735378 0.841642
0.000000 0.748440 0.842069
0.312108 0.812009 0.836088
0.571527 0.860472 0.775326
0.763302 0.785336 0.703944
0.859251 0.801022 0.702266
0.982483 0.843839 0.626734
0.331701 0.549157 0.820340
0.354314 0.553002 0.822782
0.411383 0.556634 0.823239
0.496773 0.561608 0.824430
0.563104 0.529747 0.820920
0.663813 0.465766 0.813077
0.825895 0.441047 0.798337
0.948913 0.525689 0.765164
0.335424 0.551995 0.812680
0.355657 0.555047 0.814847
0.409674 0.558038 0.815732
0.488655 0.559655 0.815579
0.555291 0.529259 0.811643
0.653285 0.464637 0.802548
0.813993 0.435584 0.786679
0.940795 0.513542 0.754269
0.372747 0.578637 0.819059
0.396063 0.584924 0.818326
0.451148 0.593805 0.816495
0.520378 0.596002 0.815976
0.580804 0.572534 0.811154
0.664240 0.513237 0.803189
0.820127 0.485908 0.791196
0.945769 0.562371 0.764096
0.379187 0.596124 0.826444
0.398505 0.600000 0.824155
0.467231 0.618799 0.820096
0.567315 0.649714 0.818143
0.632441 0.644495 0.815274
0.692073 0.595514 0.809445
0.829892 0.562737 0.798337
0.950072 0.628840 0.775784
0.348180 0.602838 0.823331
0.367773 0.606043 0.821134
0.436194 0.621881 0.817075
0.541436 0.654383 0.814115
0.656947 0.695399 0.809506
0.708705 0.666865 0.802884
0.823453 0.624140 0.789242
0.951171 0.700862 0.786374
0.318853 0.621973 0.826474
0.342626 0.626398 0.825986
0.417273 0.642603 0.824247
0.525292 0.672633 0.822446
0.645197 0.713466 0.818509
0.762814 0.761929 0.814206
0.835233 0.719722 0.797055
0.956909 0.793149 0.813840
0.291600 0.655879 0.837766
0.319615 0.661036 0.838437
0.396826 0.675471 0.836942
0.505119 0.701320 0.834653
0.623285 0.734493 0.827634
0.738796 0.773373 0.817319
0.837156 0.806394 0.794614
0.953368 0.826963 0.792416
0.184237 0.701717 0.861723
0.217929 0.704829 0.861234
0.325170 0.722286 0.864958
0.444160 0.745235 0.862791
0.570489 0.780056 0.861387
0.690852 0.829129 0.868193
0.843168 0.836606 0.791440
0.956573 0.878325 0.775418
0.492195 0.642969 0.891020
0.506157 0.646418 0.891936
0.540612 0.650935 0.890959
0.602197 0.663325 0.892271
0.655207 0.661677 0.893217
0.699794 0.629328 0.893675
0.778225 0.572168 0.894743
0.912139 0.574121 0.888701
0.491463 0.644404 0.887633
0.504997 0.647639 0.888609
0.540246 0.652888 0.888273
0.598749 0.663203 0.888914
0.654139 0.663478 0.889982
0.697688 0.631281 0.890379
0.774350 0.572900 0.890654
0.909239 0.573999 0.885283
0.499092 0.655543 0.885801
0.516716 0.661921 0.885588
0.548516 0.666072 0.884001
0.612268 0.681392 0.888060
0.671778 0.687282 0.888487
0.706508 0.654475 0.887663
0.777462 0.600458 0.888365
0.909483 0.598505 0.884825
0.476448 0.655695 0.889189
0.496162 0.662501 0.889372
0.551659 0.681331 0.886625
0.627039 0.706813 0.886259
0.689357 0.717403 0.888090
0.730190 0.699855 0.888701
0.789578 0.652949 0.889952
0.913451 0.644770 0.888182
0.455055 0.660822 0.891173
0.472389 0.666316 0.891661
0.518486 0.679744 0.889677
0.593500 0.705440 0.887877
0.694881 0.744259 0.884886
0.753231 0.747311 0.886717
0.801602 0.711177 0.889494
0.917449 0.700587 0.891264
0.431434 0.672358 0.895598
0.443427 0.674708 0.894377
0.487343 0.685084 0.891508
0.562646 0.707332 0.888945
0.660029 0.742916 0.887419
0.775967 0.795712 0.889647
0.833249 0.792416 0.897917
0.921843 0.764920 0.894530
0.411078 0.694575 0.905730
0.424445 0.697139 0.904875
0.470649 0.707210 0.902770
0.551385 0.729488 0.901274
0.651820 0.762936 0.899809
0.761135 0.808103 0.899840
0.864866 0.860441 0.901457
0.921752 0.827939 0.892210
0.388006 0.726253 0.920378
0.402899 0.728939 0.919921
0.458076 0.741024 0.919738
0.548302 0.764553 0.919829
0.648005 0.794461 0.917418
0.750607 0.830900 0.913725
0.847562 0.871275 0.908782
0.924681 0.902983 0.893309
