data/fiter_cube/63078869/1022681/file.cube
# Created by Adobe Lightroom plugin Export LUT (1.17.0)
# www.johnrellis.com/lightroom/exportlut.htm
# Preset: 暗调胶片街拍_10 云集
# Color profile: C:\Program Files (x86)\Common Files\Adobe\Color\Profiles\Recommended\AdobeRGB1998.icc
LUT_3D_SIZE 5
DOMAIN_MIN 0.000000 0.000000 0.000000
DOMAIN_MAX 0.903226 0.903226 0.903226
0.026795 0.043244 0.044465
0.120943 0.067414 0.060945
0.263706 0.118257 0.062470
0.453834 0.192599 0.066865
0.654108 0.268803 0.098390
0.063661 0.089204 0.084260
0.124880 0.107424 0.067201
0.271946 0.149172 0.071687
0.451423 0.213107 0.073396
0.663050 0.291691 0.114687
0.093782 0.135378 0.126772
0.098695 0.148867 0.121614
0.286839 0.231968 0.099306
0.483375 0.289647 0.096590
0.663905 0.347509 0.143740
0.123629 0.189029 0.173770
0.121004 0.182315 0.168673
0.207675 0.264225 0.172244
0.480385 0.388373 0.145846
0.679408 0.438117 0.207187
0.161044 0.260960 0.236393
0.153933 0.245121 0.224369
0.166873 0.286503 0.219852
0.408331 0.460090 0.266026
0.687343 0.558923 0.282322
0.053834 0.086519 0.095369
0.107424 0.093599 0.109682
0.249638 0.129061 0.110018
0.412634 0.188724 0.119936
0.635767 0.268956 0.143496
0.078187 0.108644 0.101625
0.121370 0.121645 0.112245
0.256779 0.154940 0.115785
0.418799 0.209171 0.123903
0.640040 0.288121 0.151400
0.110201 0.156252 0.147768
0.111299 0.161501 0.144961
0.268650 0.225711 0.135622
0.450080 0.279271 0.141817
0.654627 0.350195 0.182620
0.138918 0.208499 0.193790
0.135134 0.197024 0.187106
0.209476 0.271336 0.194217
0.473335 0.389868 0.186160
0.674128 0.442634 0.240024
0.173770 0.279149 0.254490
0.166201 0.262455 0.241733
0.170657 0.291722 0.233616
0.410742 0.471504 0.285008
0.688685 0.567071 0.314855
0.084596 0.155703 0.180850
0.110231 0.150210 0.188724
0.229892 0.166140 0.219547
0.395727 0.210483 0.214725
0.625605 0.289799 0.253544
0.106935 0.178592 0.191196
0.135683 0.182559 0.202884
0.244144 0.181582 0.214298
0.400580 0.231662 0.220554
0.631037 0.306798 0.258030
0.142214 0.214817 0.193271
0.162325 0.222263 0.215457
0.267704 0.255344 0.229099
0.432593 0.299413 0.242893
0.644099 0.363745 0.275792
0.183780 0.273045 0.255436
0.187747 0.266361 0.258915
0.207309 0.286595 0.251804
0.466926 0.407904 0.280156
0.661891 0.456123 0.321447
0.224521 0.350500 0.327703
0.216068 0.333684 0.314183
0.180148 0.268345 0.256992
0.369696 0.460945 0.320867
0.674311 0.576349 0.382940
0.138399 0.277562 0.332738
0.169253 0.278630 0.339330
0.219059 0.242344 0.325414
0.363470 0.271733 0.369116
0.615045 0.288701 0.380285
0.157412 0.291966 0.335393
0.184360 0.294316 0.342931
0.224521 0.258091 0.328222
0.369726 0.278721 0.364324
0.610163 0.318822 0.384436
0.174807 0.321416 0.335668
0.196963 0.322545 0.341436
0.242283 0.310765 0.348394
0.390478 0.312169 0.346532
0.617121 0.393774 0.406836
0.225162 0.358648 0.329229
0.238315 0.362219 0.337652
0.266087 0.362646 0.372656
0.457313 0.441718 0.405829
0.643488 0.481331 0.441962
0.277897 0.469642 0.417212
0.283146 0.465400 0.423896
0.292821 0.441291 0.432349
0.276188 0.414832 0.365850
0.654017 0.613764 0.522179
0.198795 0.488716 0.608392
0.239231 0.492622 0.618158
0.282048 0.444648 0.604395
0.386450 0.391333 0.569665
0.560418 0.466102 0.626398
0.203250 0.495705 0.604089
0.240635 0.499245 0.613611
0.297734 0.467140 0.609003
0.386999 0.402197 0.571557
0.562158 0.472450 0.626062
0.201968 0.526757 0.602258
0.229465 0.527214 0.608881
0.335088 0.538140 0.638911
0.393469 0.447364 0.593347
0.570886 0.503532 0.633112
0.245060 0.585931 0.610651
0.264408 0.588952 0.618616
0.336492 0.600610 0.649256
0.420966 0.572717 0.658991
0.586999 0.570153 0.654902
0.340703 0.618708 0.575799
0.353460 0.620447 0.583215
0.401892 0.631159 0.617182
0.453101 0.633997 0.659998
0.611109 0.694911 0.730739
