data/fiter_cube/63078869/1022681/file.cube
# Created by Adobe Lightroom plugin Export LUT (1.17.0)
# www.johnrellis.com/lightroom/exportlut.htm
# Preset: 暗调胶片街拍_10 云集
# Color profile: C:\Program Files (x86)\Common Files\Adobe\Color\Profiles\Recommended\AdobeRGB1998.icc
LUT_3D_SIZE 32
DOMAIN_MIN 0.0 0.0 0.0
DOMAIN_MAX 1.0 1.0 1.0
0.026795 0.043244 0.044465
0.026795 0.043244 0.044465
0.026795 0.043244 0.044465
0.059602 0.047242 0.048127
0.079957 0.051240 0.052338
0.093141 0.056428 0.056641
0.106508 0.062409 0.059144
0.120943 0.067414 0.060945
0.137057 0.072755 0.062013
0.155062 0.078737 0.062684
0.174716 0.084657 0.062501
0.195682 0.091554 0.062196
0.216983 0.099397 0.061769
0.238407 0.107759 0.061738
0.263706 0.118257 0.062470
0.291569 0.129549 0.065034
0.317021 0.139559 0.066102
0.341527 0.149203 0.067262
0.366308 0.159121 0.067750
0.393133 0.169406 0.067933
0.422431 0.180850 0.067353
0.453834 0.192599 0.066865
0.486427 0.204685 0.065827
0.519860 0.216831 0.064668
0.551415 0.228336 0.065278
0.580072 0.238834 0.068238
0.606348 0.248722 0.075319
0.630640 0.258610 0.085054
0.654108 0.268803 0.098390
0.677394 0.279881 0.114473
0.701808 0.292241 0.133242
0.730953 0.307225 0.155337
0.026795 0.043244 0.044465
0.026795 0.043244 0.044465
0.026795 0.043244 0.044465
0.060609 0.047791 0.048035
0.079896 0.052155 0.052247
0.092927 0.059388 0.057160
0.106355 0.063844 0.059449
0.120394 0.068452 0.060883
0.136355 0.073762 0.062409
0.154116 0.079438 0.062684
0.173404 0.085481 0.062959
0.194034 0.092226 0.062287
0.215183 0.099886 0.061921
0.236393 0.107881 0.061555
0.261265 0.118441 0.062806
0.287877 0.129030 0.064881
0.312200 0.138491 0.066346
0.335912 0.147921 0.066987
0.359899 0.157443 0.067842
0.386053 0.167544 0.067964
0.414557 0.178439 0.067872
0.445350 0.190097 0.067018
0.477607 0.202152 0.065919
0.511070 0.214115 0.065095
0.543603 0.225925 0.064302
0.573358 0.236637 0.067475
0.600793 0.246952 0.072816
0.625940 0.257084 0.082673
0.650050 0.267308 0.095308
0.673732 0.278355 0.111025
0.698146 0.290654 0.130098
0.726650 0.305211 0.151644
0.026795 0.043244 0.044465
0.026795 0.043244 0.044465
0.026795 0.043244 0.044465
0.061707 0.047456 0.048005
0.080385 0.055421 0.053590
0.093050 0.061707 0.056794
0.106142 0.066102 0.059693
0.119936 0.070649 0.061158
0.135836 0.075471 0.062257
0.153475 0.080690 0.063020
0.172732 0.086671 0.062867
0.193149 0.093446 0.062196
0.214176 0.100832 0.061891
0.235386 0.109041 0.061494
0.260258 0.119081 0.063722
0.286015 0.129244 0.065126
0.309606 0.138735 0.066712
0.332769 0.147829 0.067567
0.356512 0.157107 0.067781
0.382238 0.166964 0.068116
0.410651 0.177829 0.067750
0.441199 0.189303 0.067109
0.473304 0.201297 0.066590
0.506554 0.213260 0.065522
0.539544 0.225162 0.064729
0.569848 0.236149 0.066865
0.597833 0.246616 0.072145
0.623529 0.256718 0.081361
0.647944 0.266941 0.094148
0.671809 0.278019 0.109834
0.696284 0.290257 0.128389
0.724361 0.304570 0.150210
0.029023 0.049042 0.047852
0.029603 0.050690 0.049348
0.031617 0.053071 0.049928
0.064729 0.059663 0.049226
0.081483 0.063691 0.054108
0.093996 0.067231 0.058259
0.106752 0.070527 0.060578
0.120516 0.074708 0.061585
0.136141 0.078920 0.062745
0.153597 0.083986 0.063081
0.172671 0.089754 0.062928
0.192935 0.096620 0.062654
0.213626 0.103609 0.062409
0.234440 0.111513 0.062074
0.259709 0.121614 0.064210
0.284154 0.131136 0.066224
0.306981 0.140017 0.067262
0.329442 0.148592 0.067994
0.352178 0.157473 0.068544
0.377020 0.166995 0.068818
0.404334 0.177340 0.068513
0.434211 0.188510 0.067872
0.466316 0.200351 0.067170
0.500511 0.212985 0.065827
0.535393 0.225315 0.065217
0.567651 0.237003 0.066926
0.596857 0.247868 0.072358
0.623133 0.258091 0.081941
0.647730 0.268498 0.094789
0.671534 0.279332 0.109987
0.695583 0.291234 0.128695
0.723049 0.305211 0.149569
0.037201 0.063508 0.060670
0.039368 0.064302 0.061006
0.040681 0.065064 0.063081
0.060365 0.070375 0.058869
0.081361 0.072847 0.055787
0.094728 0.074647 0.058991
0.107485 0.076753 0.060761
0.120974 0.079957 0.061860
0.136324 0.083955 0.063020
0.153414 0.088746 0.062928
0.172152 0.094575 0.062776
0.192081 0.100923 0.062989
0.212619 0.107942 0.062287
0.233524 0.115267 0.062867
0.258854 0.125399 0.065309
0.282597 0.134218 0.067048
0.305303 0.142794 0.068147
0.327764 0.151247 0.068879
0.350622 0.159915 0.069429
0.375158 0.169192 0.069825
0.401953 0.179416 0.069276
0.431281 0.190311 0.068849
0.463081 0.201938 0.067933
0.497292 0.214328 0.066712
0.532494 0.226932 0.065949
0.565301 0.238834 0.067811
0.594965 0.249638 0.072694
0.621515 0.259861 0.081849
0.646174 0.270115 0.094759
0.669978 0.280888 0.110170
0.694026 0.292638 0.128145
0.721187 0.306340 0.149081
0.047852 0.074159 0.068635
0.049409 0.074006 0.069795
0.050996 0.074250 0.070527
0.054566 0.078462 0.067781
0.075868 0.081514 0.064179
0.094453 0.083406 0.060212
0.109255 0.084535 0.061524
0.122713 0.087312 0.063050
0.137881 0.090913 0.063783
0.154940 0.095247 0.063691
0.173465 0.100923 0.063478
0.193210 0.106813 0.063722
0.213352 0.113710 0.063874
0.235782 0.121462 0.065309
0.259861 0.130678 0.067353
0.282902 0.139162 0.068391
0.305455 0.147433 0.069123
0.327825 0.155612 0.069856
0.350774 0.164126 0.070741
0.375677 0.173373 0.070954
0.402960 0.183597 0.070283
0.432898 0.194888 0.069886
0.518608 0.227939 0.070222
0.550652 0.239384 0.071534
0.578973 0.249485 0.075349
0.604120 0.258854 0.081697
0.626856 0.267521 0.090455
0.648280 0.276555 0.102083
0.669306 0.285924 0.115602
0.690700 0.296208 0.131563
0.714199 0.307958 0.149660
0.743679 0.322271 0.169986
0.058808 0.083314 0.077943
0.059266 0.083253 0.078279
0.060090 0.083131 0.079255
0.059541 0.086183 0.076692
0.070375 0.090547 0.073243
0.089265 0.092683 0.069551
0.110506 0.096132 0.064302
0.128664 0.098268 0.064271
0.144442 0.101320 0.064912
0.162264 0.106203 0.064942
0.181277 0.111727 0.065339
0.201205 0.117494 0.066163
0.221225 0.123842 0.066957
0.247257 0.133303 0.068849
0.271397 0.141848 0.069886
0.293858 0.149722 0.070802
0.315923 0.157504 0.071382
0.338354 0.165621 0.071778
0.362249 0.174197 0.072145
0.389105 0.184115 0.072206
0.420172 0.195712 0.072114
0.455665 0.208896 0.071839
0.494728 0.223362 0.071321
0.534417 0.237644 0.071504
0.569238 0.250340 0.074525
0.598047 0.260929 0.080903
0.622522 0.270146 0.089998
0.644739 0.279088 0.101289
0.666133 0.288396 0.114656
0.687434 0.298283 0.130343
0.710536 0.309697 0.148135
0.738979 0.323430 0.168032
0.063661 0.089204 0.084260
0.064118 0.089143 0.084565
0.064485 0.089082 0.085145
0.064424 0.090608 0.084108
0.068177 0.094911 0.080568
0.083345 0.099153 0.077119
0.102235 0.102174 0.073396
0.124880 0.107424 0.067201
0.145266 0.111116 0.067750
0.164004 0.115023 0.067781
0.182650 0.120089 0.068574
0.202274 0.125673 0.068971
0.225406 0.133364 0.070253
0.249454 0.141543 0.070863
0.271946 0.149172 0.071687
0.293339 0.156222 0.072419
0.314702 0.163455 0.072786
0.336645 0.170901 0.073365
0.359960 0.179202 0.073854
0.386328 0.188846 0.073671
0.416724 0.200015 0.073823
0.451423 0.213107 0.073396
0.489601 0.227085 0.072877
0.529076 0.241337 0.072816
0.564202 0.253849 0.076173
0.593622 0.264439 0.081910
0.618677 0.273686 0.090211
0.641321 0.282444 0.101442
0.663050 0.291691 0.114687
0.684443 0.301366 0.130037
0.707424 0.312566 0.147646
0.735195 0.325994 0.167636
0.068025 0.094911 0.090242
0.068421 0.094850 0.090517
0.068910 0.094820 0.090517
0.068727 0.095674 0.090455
0.069520 0.099763 0.087526
0.078767 0.104189 0.085451
0.095338 0.107485 0.083467
0.116365 0.113649 0.078828
0.141573 0.120424 0.073274
0.164187 0.125673 0.072816
0.185367 0.129641 0.072389
0.207126 0.136599 0.072541
0.230472 0.144076 0.072816
0.253086 0.151217 0.073243
0.274388 0.157961 0.073884
0.294957 0.164340 0.074403
0.315740 0.171023 0.074861
0.337316 0.178195 0.075105
0.360327 0.186221 0.075624
0.386450 0.195621 0.075776
0.416388 0.206424 0.075624
0.450446 0.219120 0.075685
0.488014 0.232883 0.074983
0.526879 0.246921 0.075410
0.561975 0.259464 0.077821
0.591455 0.269810 0.083803
0.616663 0.278904 0.092378
0.639368 0.287572 0.102846
0.661097 0.296452 0.115572
0.682429 0.305852 0.131014
0.705074 0.316655 0.148287
0.732204 0.329534 0.167453
0.072786 0.100710 0.096010
0.072786 0.100710 0.096010
0.073091 0.100649 0.096529
0.073426 0.100862 0.096773
0.072541 0.104616 0.093599
0.078126 0.108919 0.092287
0.090730 0.113771 0.089845
0.108583 0.116884 0.088411
0.132692 0.125978 0.083406
0.159457 0.134096 0.077943
0.186191 0.141787 0.076844
0.212253 0.147829 0.075319
0.234257 0.154391 0.075410
0.255802 0.161013 0.075868
0.277043 0.167391 0.076112
0.297826 0.173892 0.076722
0.319097 0.180575 0.076967
0.341009 0.187625 0.077363
0.364233 0.195590 0.077974
0.389960 0.204532 0.078126
0.418952 0.215030 0.078065
0.451240 0.226841 0.077882
0.486641 0.239597 0.077211
0.523400 0.252689 0.077668
0.557641 0.264775 0.079469
0.587243 0.274968 0.085023
0.613123 0.284092 0.093263
0.636561 0.292790 0.103883
0.658961 0.301732 0.116915
0.680812 0.311223 0.132540
0.703883 0.322087 0.150088
0.731319 0.335119 0.170077
0.076600 0.106905 0.101595
0.076661 0.106661 0.101595
0.076631 0.106386 0.101869
0.077028 0.106081 0.102113
0.076356 0.109346 0.100404
0.078767 0.113802 0.097963
0.087922 0.118990 0.096498
0.104341 0.124483 0.094179
0.124727 0.129274 0.092409
0.152346 0.140688 0.086885
0.183108 0.151675 0.081819
0.211643 0.160311 0.079988
0.237797 0.165560 0.078157
0.259129 0.171664 0.078248
0.279606 0.177584 0.078889
0.300206 0.183627 0.078859
0.321141 0.189975 0.079438
0.342748 0.196780 0.079805
0.365698 0.204379 0.080110
0.391150 0.212924 0.080293
0.419776 0.223239 0.080476
0.451911 0.234897 0.080568
0.487068 0.247745 0.080079
0.523613 0.260746 0.080751
0.557336 0.272526 0.083131
0.586511 0.282414 0.088197
0.612055 0.291203 0.096010
0.635218 0.299565 0.106630
0.657343 0.308049 0.119417
0.679103 0.317205 0.134432
0.701991 0.327672 0.151766
0.728969 0.340337 0.171756
0.080415 0.112886 0.107240
0.080415 0.112886 0.107240
0.080812 0.112612 0.107485
0.080842 0.112367 0.107485
0.080659 0.114229 0.106661
0.080659 0.118929 0.103944
0.087465 0.123873 0.102602
0.100282 0.129976 0.100954
0.120089 0.136934 0.099306
0.144991 0.145541 0.097047
0.175998 0.158816 0.090944
0.207706 0.170169 0.085176
0.257664 0.193790 0.085725
0.286229 0.199832 0.084352
0.309728 0.205539 0.084077
0.330968 0.211368 0.084718
0.352514 0.217258 0.084993
0.374731 0.223850 0.085298
0.398291 0.231052 0.085481
0.424475 0.239597 0.085969
0.453590 0.249485 0.085634
0.485206 0.260410 0.086213
0.518303 0.271702 0.086824
0.550072 0.282353 0.088930
0.578424 0.291661 0.093202
0.603418 0.299718 0.100374
0.625635 0.306950 0.108827
0.646418 0.314183 0.119631
0.666621 0.321752 0.132021
0.687098 0.330236 0.146944
0.709438 0.340185 0.163729
0.737270 0.352789 0.182986
0.085176 0.120882 0.114199
0.085481 0.120821 0.114412
0.085267 0.120424 0.114229
0.085725 0.119966 0.114260
0.085328 0.120668 0.113802
0.084718 0.124941 0.111086
0.088624 0.130648 0.109590
0.099275 0.137850 0.108827
0.117647 0.146426 0.107362
0.141268 0.153872 0.106355
0.171542 0.167025 0.102815
0.207004 0.183078 0.096284
0.242405 0.196872 0.090425
0.275212 0.207614 0.089235
0.304936 0.214969 0.087953
0.330999 0.221439 0.087434
0.352758 0.227481 0.087831
0.374823 0.233768 0.087861
0.398138 0.240696 0.088655
0.423835 0.248814 0.088655
0.452216 0.258427 0.088991
0.483284 0.269169 0.089326
0.515831 0.280186 0.089723
0.547173 0.290593 0.092103
0.575402 0.299504 0.096040
0.600366 0.307378 0.102541
0.622644 0.314366 0.111055
0.643580 0.321386 0.121614
0.663874 0.328618 0.133791
0.684474 0.336828 0.148379
0.706722 0.346563 0.165408
0.734218 0.358953 0.184726
0.088869 0.127016 0.119631
0.088869 0.127016 0.119631
0.089204 0.126772 0.119844
0.089540 0.126528 0.120058
0.089570 0.126345 0.120089
0.088930 0.130739 0.118715
0.090486 0.136782 0.116121
0.098573 0.143526 0.115236
0.113222 0.151858 0.114382
0.135073 0.161746 0.112764
0.160830 0.168154 0.112703
0.194034 0.185122 0.107393
0.230198 0.201389 0.100282
0.264927 0.214450 0.094606
0.296757 0.224765 0.093385
0.325994 0.231876 0.091859
0.353613 0.238315 0.090791
0.375372 0.244236 0.091127
0.398383 0.250980 0.091859
0.423926 0.259007 0.092073
0.452155 0.268498 0.092348
0.482979 0.278904 0.092683
0.515221 0.289952 0.093233
0.546410 0.300175 0.095460
0.574365 0.308995 0.099977
0.599237 0.316564 0.106447
0.621515 0.323278 0.114656
0.642359 0.329992 0.124880
0.662654 0.337011 0.137423
0.683253 0.344945 0.151888
0.705562 0.354467 0.168887
0.732998 0.366674 0.188327
0.093782 0.135378 0.126772
0.093812 0.135195 0.126772
0.093904 0.134829 0.126802
0.093751 0.134279 0.126680
0.093721 0.133181 0.126589
0.093233 0.136385 0.125582
0.092958 0.142184 0.122591
0.098695 0.148867 0.121614
0.110414 0.157015 0.120882
0.128847 0.166751 0.119661
0.154635 0.178103 0.117952
0.182467 0.186099 0.117922
0.216709 0.203586 0.112276
0.252842 0.219577 0.105013
0.286839 0.231968 0.099306
0.318029 0.241855 0.098054
0.347631 0.249180 0.096407
0.377569 0.256138 0.094545
0.400366 0.262638 0.095216
0.425391 0.270268 0.095735
0.453132 0.279393 0.096284
0.483375 0.289647 0.096590
0.515129 0.300389 0.097414
0.545830 0.310369 0.099580
0.573754 0.318975 0.104097
0.598779 0.326574 0.110811
0.621485 0.333318 0.119478
0.643000 0.340185 0.130617
0.663905 0.347509 0.143740
0.685084 0.355810 0.159548
0.708370 0.365789 0.177218
0.737545 0.378546 0.197116
0.097810 0.142885 0.133639
0.097810 0.142885 0.133639
0.097932 0.142550 0.133516
0.098146 0.141848 0.133394
0.098146 0.140810 0.133150
0.097688 0.142275 0.132509
0.097414 0.148074 0.130556
0.100191 0.154910 0.128420
0.109621 0.163333 0.128054
0.124971 0.172732 0.127352
0.147372 0.184054 0.126040
0.174472 0.194247 0.125032
0.204562 0.204898 0.123873
0.238651 0.221744 0.117739
0.273960 0.236362 0.109407
0.306798 0.248051 0.103761
0.337865 0.257908 0.102663
0.368597 0.266270 0.101259
0.401251 0.274754 0.099550
0.428931 0.283177 0.100008
0.457343 0.292729 0.100587
0.488075 0.303258 0.101472
0.519860 0.313970 0.102724
0.550103 0.323674 0.105409
0.577447 0.331914 0.110750
0.602045 0.339117 0.117891
0.624384 0.345708 0.126894
0.645563 0.352239 0.138216
0.666133 0.359167 0.151522
0.686976 0.367071 0.167025
0.709926 0.376593 0.184482
0.738918 0.389075 0.204044
0.102113 0.149935 0.139651
0.102174 0.149599 0.139681
0.101747 0.149325 0.139376
0.101991 0.148501 0.139284
0.101839 0.147372 0.138735
0.101747 0.147066 0.138247
0.101289 0.152499 0.137301
0.101289 0.159548 0.133883
0.108736 0.167453 0.133974
0.121309 0.176913 0.133486
0.140200 0.187778 0.133089
0.165713 0.199985 0.131777
0.193790 0.208774 0.131930
0.225254 0.222354 0.129335
0.259220 0.238590 0.123018
0.294194 0.252873 0.114321
0.327092 0.264622 0.108980
0.359045 0.275059 0.107729
0.391760 0.284733 0.106081
0.427100 0.294957 0.104952
0.459358 0.304967 0.104921
0.489754 0.315312 0.105440
0.521080 0.325841 0.107301
0.550958 0.335363 0.110506
0.578058 0.343511 0.115724
0.602502 0.350500 0.123262
0.624811 0.356878 0.132876
0.646082 0.363317 0.144381
0.666682 0.370184 0.157992
0.687678 0.377966 0.173495
0.710933 0.387549 0.191501
0.740719 0.400275 0.211276
0.106111 0.157198 0.146059
0.106142 0.157046 0.146059
0.109163 0.162264 0.150851
0.109041 0.161288 0.150332
0.108797 0.159670 0.149752
0.108278 0.157656 0.148592
0.107820 0.162356 0.148013
0.107942 0.169589 0.145785
0.112337 0.177920 0.143923
0.123079 0.187839 0.144350
0.139864 0.198886 0.144259
0.162814 0.211429 0.143771
0.192233 0.224918 0.142519
0.220645 0.231296 0.144106
0.253727 0.247715 0.139834
0.288487 0.263828 0.132601
0.324865 0.278660 0.123079
0.359716 0.291295 0.117159
0.393683 0.302708 0.116152
0.429755 0.314092 0.114717
0.468055 0.325475 0.113619
0.504875 0.336461 0.113222
0.534234 0.345586 0.115663
0.561242 0.353429 0.119448
0.585412 0.359625 0.125063
0.607355 0.365057 0.132143
0.627741 0.370153 0.140902
0.647639 0.375525 0.151644
0.667475 0.381720 0.165011
0.688258 0.389136 0.180453
0.711604 0.398535 0.198062
0.741543 0.411139 0.217929
0.110872 0.165927 0.153719
0.111360 0.166445 0.154238
0.111696 0.166690 0.154665
0.111940 0.166506 0.154971
0.111818 0.165377 0.154482
0.111421 0.163577 0.153780
0.111086 0.165652 0.153170
0.111055 0.172427 0.151949
0.112520 0.180911 0.148867
0.120943 0.190249 0.149508
0.134859 0.201114 0.149935
0.154482 0.213321 0.149905
0.180056 0.226474 0.149538
0.210025 0.239139 0.148501
0.238834 0.245701 0.150515
0.272313 0.263340 0.144991
0.307256 0.279362 0.137728
0.344640 0.294835 0.127840
0.380865 0.308476 0.122377
0.416938 0.321355 0.121492
0.455573 0.334417 0.120638
0.497047 0.347601 0.119997
0.536217 0.358862 0.121096
0.563012 0.366369 0.125429
0.587030 0.372503 0.131228
0.608789 0.377691 0.138949
0.629053 0.382574 0.148013
0.648798 0.387762 0.158999
0.668513 0.393683 0.172457
0.689174 0.401007 0.187961
0.712703 0.410224 0.205600
0.743099 0.422889 0.225437
0.114504 0.172549 0.159335
0.115023 0.172885 0.159823
0.115114 0.173129 0.160220
0.115389 0.172824 0.160403
0.115297 0.171756 0.159945
0.114748 0.169894 0.158999
0.114351 0.168704 0.157992
0.114321 0.175326 0.157534
0.114839 0.183597 0.155306
0.120089 0.192996 0.154513
0.131258 0.203616 0.155428
0.148196 0.215549 0.156069
0.170504 0.228458 0.156161
0.198184 0.242435 0.155825
0.228000 0.253391 0.155978
0.258152 0.262516 0.157137
0.292088 0.280156 0.151492
0.328374 0.296971 0.143679
0.367651 0.313787 0.133577
0.406012 0.328985 0.128176
0.444495 0.343236 0.127657
0.485908 0.357763 0.127443
0.528161 0.371252 0.128328
0.565301 0.380346 0.132113
0.589197 0.386084 0.138430
0.610437 0.390875 0.145968
0.630274 0.395331 0.155245
0.649622 0.400061 0.166445
0.669093 0.405676 0.179538
0.689570 0.412634 0.194949
0.713069 0.421668 0.212650
0.743709 0.434272 0.232425
0.118288 0.179202 0.165194
0.118532 0.179568 0.165682
0.118868 0.179782 0.166049
0.118929 0.179507 0.166079
0.118654 0.178225 0.165530
0.118196 0.176333 0.164645
0.117586 0.173739 0.162997
0.117494 0.178317 0.162875
0.117739 0.186160 0.161715
0.119722 0.195621 0.159365
0.129122 0.206027 0.160555
0.143099 0.217594 0.161532
0.162325 0.230320 0.162417
0.187137 0.244205 0.162753
0.217044 0.258793 0.162570
0.246555 0.268040 0.164401
0.278813 0.280949 0.164431
0.315129 0.300267 0.159152
0.354864 0.319829 0.151888
0.399176 0.340093 0.141604
0.442817 0.358587 0.137179
0.486122 0.375586 0.137911
0.529076 0.390509 0.139956
0.567285 0.401099 0.145205
0.599207 0.407141 0.153140
0.621302 0.411292 0.162631
0.640497 0.415290 0.172946
0.659205 0.419745 0.184665
0.678309 0.425055 0.198367
0.699062 0.432074 0.213993
0.724147 0.441718 0.231998
0.758175 0.455604 0.252018
0.123629 0.189029 0.173770
0.123842 0.189029 0.173892
0.123720 0.188663 0.173800
0.123598 0.187839 0.173373
0.123018 0.186404 0.172641
0.122408 0.184146 0.171206
0.121492 0.181338 0.169528
0.121004 0.182315 0.168673
0.121584 0.190127 0.168734
0.122591 0.199680 0.166873
0.128817 0.210483 0.167056
0.141115 0.222324 0.168765
0.158145 0.235233 0.170352
0.180179 0.249271 0.171511
0.207675 0.264225 0.172244
0.240055 0.279911 0.172427
0.269566 0.287541 0.176211
0.304509 0.304601 0.174929
0.343786 0.325780 0.169406
0.387152 0.347509 0.161654
0.434913 0.369421 0.150515
0.480385 0.388373 0.145846
0.522271 0.403601 0.147890
0.558984 0.413947 0.152255
0.591882 0.421241 0.159762
0.619867 0.425422 0.169894
0.641932 0.428809 0.181399
0.660487 0.432959 0.193210
0.679408 0.438117 0.207187
0.700160 0.444923 0.222904
0.725460 0.454566 0.240452
0.759915 0.468818 0.260441
0.127626 0.196139 0.180056
0.127626 0.196139 0.180056
0.127657 0.196017 0.180056
0.127291 0.195224 0.179660
0.126894 0.193515 0.178744
0.126131 0.191257 0.177249
0.125002 0.188113 0.175326
0.124025 0.184665 0.173007
0.124575 0.192355 0.173953
0.125429 0.201633 0.173434
0.128115 0.212558 0.171511
0.138399 0.224155 0.173709
0.152987 0.237125 0.175662
0.172702 0.251255 0.177554
0.197177 0.266209 0.179232
0.226993 0.282231 0.180453
0.259892 0.297429 0.181460
0.291356 0.305303 0.187259
0.329931 0.327581 0.184360
0.372900 0.351415 0.179080
0.420752 0.375982 0.171023
0.472694 0.400092 0.159335
0.519127 0.418860 0.156191
0.556664 0.430518 0.161440
0.581964 0.432532 0.164157
0.611322 0.437995 0.174075
0.637507 0.441657 0.186343
0.659937 0.444923 0.199802
0.678706 0.449744 0.213504
0.699397 0.456428 0.229313
0.724880 0.466285 0.247227
0.759640 0.480995 0.267918
0.132876 0.206394 0.188937
0.132906 0.206271 0.188968
0.132998 0.206058 0.188876
0.132631 0.204990 0.188174
0.131777 0.203098 0.186984
0.130892 0.200412 0.185153
0.129610 0.197024 0.182925
0.128145 0.192996 0.180209
0.127810 0.195773 0.179721
0.128847 0.204837 0.180056
0.130343 0.215335 0.178531
0.136782 0.227054 0.178988
0.149447 0.239750 0.181399
0.166598 0.253483 0.183658
0.188510 0.268162 0.185733
0.214939 0.283726 0.187320
0.246433 0.300237 0.188540
0.279423 0.314000 0.190890
0.313359 0.324681 0.196078
0.355322 0.350317 0.192996
0.402258 0.376776 0.187503
0.453864 0.403418 0.179110
0.507134 0.427436 0.167239
0.548486 0.441871 0.166354
0.579950 0.449165 0.172824
0.606012 0.452552 0.181094
0.632532 0.456733 0.193149
0.656794 0.459815 0.207126
0.679835 0.463264 0.222843
0.700343 0.469673 0.238376
0.725978 0.479561 0.256229
0.761227 0.494728 0.277073
0.136660 0.213931 0.195315
0.136843 0.213901 0.195407
0.136721 0.213718 0.195346
0.136446 0.212497 0.194583
0.135622 0.210666 0.193423
0.134707 0.207767 0.191379
0.133333 0.204440 0.189120
0.131746 0.200626 0.186404
0.130465 0.197604 0.183902
0.131563 0.206729 0.185275
0.133150 0.217288 0.185397
0.136172 0.229526 0.183841
0.146883 0.242496 0.186984
0.162356 0.256565 0.190066
0.182101 0.271733 0.192905
0.206607 0.287846 0.195621
0.235996 0.305058 0.197940
0.270451 0.323674 0.200076
0.305272 0.337652 0.204746
0.344030 0.353948 0.209293
0.391211 0.383185 0.206149
0.443488 0.412726 0.200107
0.498299 0.440192 0.191379
0.546593 0.459174 0.181155
0.581079 0.468025 0.183047
0.607263 0.471839 0.192172
0.629816 0.473182 0.202457
0.654566 0.476967 0.216861
0.678584 0.480934 0.233433
0.704311 0.486671 0.252079
0.732204 0.497078 0.270787
0.769345 0.513359 0.292485
0.141451 0.223026 0.203220
0.141512 0.222812 0.203159
0.141482 0.222416 0.202976
0.140841 0.221286 0.202152
0.140139 0.219059 0.200565
0.138888 0.216251 0.198611
0.137423 0.212680 0.195956
0.135714 0.208499 0.192966
0.133852 0.203586 0.189517
0.133974 0.208347 0.189883
0.135531 0.218967 0.191226
0.137789 0.231235 0.190616
0.145144 0.244602 0.191989
0.158602 0.259068 0.195712
0.176333 0.274449 0.199222
0.198672 0.290837 0.202792
0.225864 0.308415 0.206058
0.258122 0.327489 0.208927
0.295995 0.348333 0.211612
0.332921 0.362737 0.218723
0.377417 0.385290 0.222049
0.429877 0.417639 0.218387
0.485939 0.448646 0.212131
0.537163 0.471870 0.204379
0.578088 0.484443 0.196536
0.606897 0.489296 0.200809
0.629938 0.491218 0.211704
0.650172 0.491615 0.222995
0.674006 0.495644 0.239292
0.699947 0.501793 0.258427
0.731624 0.511803 0.279667
0.771725 0.528069 0.303166
0.146029 0.232181 0.211063
0.146120 0.231876 0.210971
0.145907 0.231632 0.210697
0.145388 0.230259 0.209842
0.144656 0.228214 0.208438
0.143404 0.225620 0.206577
0.142245 0.222416 0.204318
0.140566 0.218570 0.201572
0.138918 0.214145 0.198398
0.137819 0.212284 0.196201
0.139803 0.224002 0.199374
0.142794 0.237400 0.201205
0.146700 0.252476 0.201053
0.159335 0.268284 0.206332
0.176272 0.285191 0.211490
0.197665 0.303197 0.216495
0.224063 0.322515 0.221286
0.255497 0.343389 0.225711
0.293309 0.366583 0.229953
0.337011 0.391272 0.233982
0.380804 0.409125 0.243870
0.435218 0.440375 0.245853
0.494270 0.475563 0.242161
0.545434 0.499947 0.237919
0.585473 0.512749 0.233524
0.617700 0.518090 0.228397
0.641840 0.519615 0.235111
0.661769 0.520012 0.247868
0.680812 0.520226 0.260838
0.707057 0.526604 0.279545
0.742092 0.538750 0.301884
0.787839 0.557000 0.327855
0.154299 0.247837 0.224857
0.154208 0.247593 0.224796
0.154055 0.246891 0.224216
0.153353 0.245487 0.223148
0.152224 0.243107 0.221317
0.151034 0.240085 0.219089
0.149386 0.236332 0.216373
0.147524 0.231968 0.213016
0.145296 0.226963 0.209232
0.142794 0.221012 0.204929
0.143679 0.227787 0.206363
0.146395 0.241001 0.209323
0.149935 0.255955 0.210452
0.157778 0.272251 0.212741
