data/fiter_cube/63078869/1022681/file.cube
# Created by Adobe Lightroom plugin Export LUT (1.17.0)
# www.johnrellis.com/lightroom/exportlut.htm
# Preset: 暗调胶片街拍_10 云集
# Color profile: C:\Program Files (x86)\Common Files\Adobe\Color\Profiles\Recommended\AdobeRGB1998.icc
LUT_3D_SIZE 8
DOMAIN_MIN 0.000000 0.000000 0.000000
DOMAIN_MAX 0.903226 0.903226 0.903226
0.026795 0.043244 0.044465
0.079957 0.051240 0.052338
0.137057 0.072755 0.062013
0.216983 0.099397 0.061769
0.317021 0.139559 0.066102
0.422431 0.180850 0.067353
0.551415 0.228336 0.065278
0.654108 0.268803 0.098390
0.037201 0.063508 0.060670
0.081361 0.072847 0.055787
0.136324 0.083955 0.063020
0.212619 0.107942 0.062287
0.305303 0.142794 0.068147
0.401953 0.179416 0.069276
0.532494 0.226932 0.065949
0.646174 0.270115 0.094759
0.068025 0.094911 0.090242
0.069520 0.099763 0.087526
0.141573 0.120424 0.073274
0.230472 0.144076 0.072816
0.315740 0.171023 0.074861
0.416388 0.206424 0.075624
0.561975 0.259464 0.077821
0.661097 0.296452 0.115572
0.085176 0.120882 0.114199
0.085328 0.120668 0.113802
0.117647 0.146426 0.107362
0.242405 0.196872 0.090425
0.352758 0.227481 0.087831
0.452216 0.258427 0.088991
0.575402 0.299504 0.096040
0.663874 0.328618 0.133791
0.102113 0.149935 0.139651
0.101839 0.147372 0.138735
0.108736 0.167453 0.133974
0.193790 0.208774 0.131930
0.327092 0.264622 0.108980
0.459358 0.304967 0.104921
0.578058 0.343511 0.115724
0.666682 0.370184 0.157992
0.118288 0.179202 0.165194
0.118654 0.178225 0.165530
0.117739 0.186160 0.161715
0.162325 0.230320 0.162417
0.278813 0.280949 0.164431
0.442817 0.358587 0.137179
0.599207 0.407141 0.153140
0.678309 0.425055 0.198367
0.136660 0.213931 0.195315
0.135622 0.210666 0.193423
0.130465 0.197604 0.183902
0.146883 0.242496 0.186984
0.235996 0.305058 0.197940
0.391211 0.383185 0.206149
0.581079 0.468025 0.183047
0.678584 0.480934 0.233433
0.161044 0.260960 0.236393
0.158785 0.256229 0.232670
0.151797 0.240055 0.220676
0.154604 0.261479 0.221225
0.206424 0.325566 0.232822
0.355993 0.431464 0.257816
0.572564 0.542351 0.279820
0.687343 0.558923 0.282322
0.031617 0.059419 0.066896
0.072541 0.063935 0.075532
0.128450 0.085359 0.079744
0.204685 0.107942 0.083650
0.296239 0.138521 0.086061
0.388464 0.172610 0.087831
0.517906 0.219059 0.086885
0.637049 0.263554 0.107088
0.043030 0.073762 0.066407
0.078157 0.083375 0.078828
0.130404 0.096010 0.083925
0.205447 0.115297 0.084871
0.293187 0.143893 0.086763
0.382208 0.175540 0.088258
0.504631 0.219364 0.086824
0.628443 0.264286 0.103120
0.075074 0.101686 0.097902
0.077668 0.105898 0.098482
0.138216 0.123995 0.091402
0.220005 0.143496 0.089479
0.299199 0.166842 0.090578
0.391699 0.198581 0.092744
0.523278 0.245426 0.093355
0.640986 0.288182 0.118502
0.089906 0.125521 0.119570
0.091066 0.124941 0.120546
0.119234 0.149142 0.115572
0.225742 0.186679 0.101778
0.319371 0.209628 0.099336
0.409430 0.237766 0.101411
0.536645 0.282200 0.104402
0.644739 0.319432 0.133333
0.106722 0.155276 0.145602
0.106111 0.152407 0.144320
0.111025 0.168917 0.139132
0.188632 0.204929 0.136782
0.310643 0.253513 0.117922
0.434241 0.291173 0.116243
0.559014 0.334386 0.124636
0.655116 0.364538 0.160372
0.121218 0.182284 0.168795
0.120516 0.179294 0.167269
0.119387 0.184298 0.163638
0.160159 0.226871 0.164645
0.273014 0.276951 0.168765
0.434424 0.353918 0.148531
0.591791 0.403815 0.162783
0.670405 0.421241 0.201114
0.138033 0.214389 0.196445
0.136294 0.209842 0.193271
0.131197 0.196689 0.184329
0.145724 0.238834 0.187411
0.231907 0.301122 0.199863
0.381292 0.375189 0.208560
0.568048 0.459022 0.185641
0.668330 0.473487 0.229618
0.161929 0.261265 0.237034
0.160372 0.257298 0.234226
0.153597 0.241855 0.222538
0.154360 0.257389 0.221256
0.209781 0.332250 0.240909
0.357702 0.436133 0.264652
0.568688 0.540368 0.283146
0.681697 0.555566 0.283513
0.061463 0.095613 0.105287
0.072023 0.095125 0.109865
0.122316 0.101717 0.121798
0.205234 0.117678 0.117464
0.297307 0.148928 0.124666
0.392004 0.185672 0.133486
0.526543 0.231998 0.141329
0.642084 0.275456 0.163088
0.071931 0.104677 0.108949
0.082490 0.106996 0.113710
0.128969 0.107485 0.118685
0.205631 0.126223 0.119112
0.292149 0.153994 0.124697
0.385748 0.188418 0.132509
0.517784 0.233646 0.139590
0.638209 0.278019 0.161044
0.085725 0.120058 0.111513
0.095186 0.124819 0.122225
0.140139 0.136385 0.123903
0.218997 0.155123 0.126497
0.302586 0.180026 0.131685
0.395758 0.211246 0.137758
0.526268 0.255497 0.144991
0.640711 0.296574 0.167788
0.106905 0.149844 0.141665
0.110933 0.151003 0.146517
0.128450 0.166690 0.145205
0.230076 0.199405 0.140291
0.320806 0.221408 0.142550
0.414710 0.250828 0.148470
0.544488 0.294926 0.157137
0.648035 0.330205 0.183200
0.123476 0.177676 0.167361
0.123445 0.175143 0.167056
0.124605 0.183139 0.163516
0.197360 0.222538 0.167269
0.316930 0.267491 0.160098
0.435767 0.301915 0.162783
0.559503 0.343175 0.173037
0.655024 0.373114 0.203769
0.136995 0.203159 0.189731
0.136477 0.200198 0.188418
0.133791 0.193637 0.183139
0.165377 0.235630 0.185397
0.272679 0.283757 0.194125
0.427039 0.355596 0.185916
0.585412 0.406989 0.202792
0.669337 0.429450 0.239872
0.153994 0.235935 0.218173
0.152102 0.231540 0.215122
0.145602 0.216342 0.204074
0.151156 0.243168 0.201724
0.230716 0.304997 0.217533
0.380529 0.381262 0.232853
0.571710 0.468635 0.225467
0.674342 0.486213 0.272923
0.175998 0.281376 0.257084
0.173404 0.275914 0.252628
0.165438 0.258854 0.239445
0.159640 0.253147 0.229282
0.205570 0.329229 0.249973
0.350988 0.437293 0.279881
0.567346 0.545769 0.306554
0.683009 0.563836 0.316136
0.076326 0.131197 0.149630
0.087892 0.133303 0.154788
0.116121 0.127291 0.159823
0.193454 0.140658 0.183200
0.285313 0.149142 0.170199
0.374365 0.191989 0.181064
0.503471 0.235508 0.195254
0.629358 0.280827 0.217533
0.087922 0.141878 0.156039
0.098238 0.143435 0.160281
0.121706 0.136660 0.164034
0.200656 0.146914 0.183413
0.284215 0.166567 0.174563
0.373449 0.197726 0.182010
0.500694 0.239597 0.195071
0.628443 0.284184 0.216648
0.097200 0.157443 0.159915
0.107607 0.160037 0.164584
0.135470 0.163149 0.175937
0.209567 0.172793 0.177859
0.292638 0.194461 0.183230
0.389899 0.226871 0.194980
0.530327 0.272587 0.211002
0.640620 0.309239 0.230289
0.122438 0.181796 0.164218
0.130434 0.185458 0.170932
0.146700 0.189670 0.192386
0.228519 0.215030 0.190860
0.306767 0.233616 0.196262
0.401038 0.261784 0.204898
0.534600 0.303716 0.216403
0.644678 0.340459 0.240543
0.146609 0.215061 0.198367
0.151308 0.215640 0.204044
0.153933 0.208194 0.206455
0.205722 0.247562 0.212680
0.319341 0.286381 0.217990
0.432959 0.318181 0.224552
0.558953 0.357275 0.235904
0.653590 0.385168 0.260716
0.168795 0.246494 0.232761
0.171298 0.247105 0.235996
0.164157 0.230838 0.224796
0.177066 0.254337 0.223850
0.279667 0.306035 0.241459
0.433845 0.375036 0.244877
0.582971 0.420111 0.262852
0.666682 0.441352 0.293034
0.183841 0.276127 0.259464
0.182132 0.272221 0.256779
0.174777 0.256626 0.245212
0.167514 0.249943 0.232029
0.231022 0.317754 0.251164
0.384955 0.398962 0.275395
0.573022 0.481209 0.279881
0.675044 0.498909 0.326604
0.207034 0.325689 0.302159
0.204593 0.320958 0.298405
0.194614 0.301854 0.282383
0.176333 0.267491 0.253178
0.197665 0.321630 0.263066
0.333959 0.435340 0.302342
0.560967 0.552453 0.341833
0.681758 0.575647 0.364569
0.094942 0.183932 0.216800
0.108003 0.185855 0.221012
0.128420 0.177279 0.226688
0.178225 0.175998 0.230991
0.264958 0.194614 0.257847
0.368811 0.185367 0.238163
0.489204 0.250889 0.260777
0.621210 0.300999 0.291722
0.106661 0.193057 0.221561
0.118807 0.196719 0.228092
0.137362 0.188357 0.233219
0.181521 0.183413 0.233585
0.267948 0.198520 0.256779
0.369177 0.197604 0.239841
0.492195 0.257298 0.262791
0.622065 0.305455 0.292424
0.123415 0.212955 0.230106
0.134157 0.215427 0.234318
0.157687 0.214847 0.240635
0.191196 0.206363 0.241978
0.278294 0.210544 0.249485
0.363836 0.238315 0.248508
0.495613 0.275303 0.265904
0.622004 0.317266 0.290837
0.136172 0.228611 0.228641
0.143740 0.230045 0.231815
0.168551 0.237339 0.244999
0.214206 0.239933 0.254307
0.289921 0.252964 0.254826
0.382635 0.275700 0.262882
0.515618 0.310765 0.276616
0.632471 0.343908 0.295689
0.164858 0.251560 0.227634
0.171450 0.254795 0.232761
0.188022 0.259403 0.252873
0.203098 0.266331 0.262943
0.309758 0.299077 0.271275
0.406683 0.322087 0.277256
0.537743 0.357458 0.288212
0.642573 0.387304 0.310277
0.185855 0.280064 0.256504
0.189364 0.280247 0.260990
0.199069 0.279088 0.273289
0.191165 0.258396 0.260044
0.264652 0.313939 0.278202
0.421057 0.382147 0.297765
0.569970 0.427588 0.319249
0.658198 0.449714 0.346380
0.210666 0.320867 0.298772
0.212375 0.319524 0.300694
0.217502 0.314519 0.305852
0.200565 0.282933 0.279332
0.216495 0.313359 0.278477
0.366522 0.401740 0.315923
0.563836 0.489113 0.334295
0.665827 0.508354 0.377935
0.237919 0.377539 0.349828
0.238529 0.374853 0.349859
0.235874 0.361181 0.343359
0.218326 0.328649 0.315557
0.193851 0.293065 0.276005
0.294926 0.415839 0.321538
0.539269 0.552056 0.378363
0.671260 0.584680 0.415778
0.133425 0.266545 0.318975
0.146151 0.268559 0.322881
0.170260 0.261265 0.320745
0.193851 0.237308 0.312749
0.249180 0.239658 0.317357
0.343389 0.257542 0.346532
0.492805 0.245212 0.347265
0.617914 0.304234 0.368627
0.138582 0.265019 0.311620
0.148928 0.265660 0.313878
0.172122 0.261418 0.315435
0.193484 0.238682 0.308415
0.248081 0.242191 0.314794
0.342962 0.258244 0.342779
0.490394 0.248234 0.342168
0.615839 0.312383 0.369146
0.157778 0.284886 0.320928
0.165316 0.284306 0.321599
0.189334 0.284092 0.326879
0.205570 0.261265 0.318639
0.256504 0.263157 0.324071
0.355291 0.270054 0.342565
0.497230 0.265080 0.333837
0.615442 0.347631 0.379919
0.167880 0.303105 0.322637
0.175143 0.302403 0.323217
0.199588 0.304448 0.330419
0.225437 0.299290 0.338872
0.273899 0.300969 0.345647
0.381628 0.295720 0.341131
0.509300 0.336461 0.357855
0.625147 0.381598 0.393988
0.182773 0.308446 0.307530
0.188846 0.309911 0.310613
0.207889 0.314458 0.320378
0.236149 0.322911 0.337438
0.290471 0.326543 0.343450
0.388861 0.343023 0.347448
0.522484 0.373877 0.364233
0.631464 0.407538 0.392309
0.210788 0.330571 0.302953
0.216587 0.334264 0.308202
0.232151 0.340673 0.321202
0.247196 0.340459 0.343206
0.262699 0.346593 0.344671
0.423133 0.409094 0.374395
0.553796 0.440070 0.390845
0.647639 0.463722 0.417273
0.241184 0.382971 0.345373
0.244388 0.384039 0.350103
0.251652 0.381353 0.359930
0.261204 0.374365 0.371740
0.238071 0.326055 0.332952
0.345403 0.421668 0.372412
0.560296 0.514366 0.420020
0.658412 0.537407 0.466407
0.269169 0.449165 0.402899
0.270237 0.446784 0.403876
0.273686 0.439033 0.407050
0.278508 0.425849 0.410773
0.250431 0.367224 0.362493
0.247715 0.379461 0.337438
0.504173 0.552422 0.431098
0.659174 0.607111 0.498543
0.166781 0.351354 0.427131
0.177981 0.354620 0.432837
0.204013 0.351751 0.435431
0.219028 0.323461 0.427253
0.260838 0.294835 0.403449
0.330816 0.309636 0.422950
0.448859 0.326696 0.463264
0.598993 0.342962 0.486732
0.170138 0.349432 0.420081
0.180148 0.352209 0.424994
0.205722 0.351110 0.429664
0.220432 0.323857 0.420050
0.258061 0.294194 0.397131
0.325872 0.308171 0.415564
0.442145 0.323125 0.453681
0.596765 0.339696 0.479713
0.183261 0.367712 0.429541
0.191379 0.368292 0.431708
0.217685 0.369635 0.439002
0.237766 0.348821 0.430579
0.264073 0.311345 0.404883
0.332189 0.324254 0.423438
0.457008 0.335607 0.459419
0.603296 0.357122 0.481331
0.194034 0.390906 0.437293
0.200809 0.389593 0.437232
0.224125 0.389624 0.442786
0.259556 0.388434 0.452369
0.275792 0.344549 0.424414
0.345342 0.354314 0.441291
0.481361 0.357427 0.465583
0.609522 0.385046 0.480781
0.200534 0.406439 0.430152
0.206424 0.405310 0.430304
0.226474 0.404761 0.434638
0.258946 0.407050 0.446754
0.285710 0.386603 0.445258
0.349828 0.383795 0.450019
0.497688 0.379675 0.451148
0.609186 0.442878 0.495521
0.225620 0.410315 0.408087
0.230289 0.411353 0.410437
0.245853 0.415198 0.419104
0.271000 0.422766 0.435462
0.304356 0.432349 0.458198
0.378637 0.432441 0.467292
0.518669 0.462501 0.482979
0.618708 0.504356 0.526909
0.261906 0.446632 0.407904
0.266575 0.449531 0.411933
0.280522 0.455818 0.422461
0.303777 0.466529 0.440528
0.320531 0.459327 0.463661
0.325475 0.446509 0.453620
0.542992 0.552819 0.539269
0.633448 0.570489 0.566461
0.306371 0.535332 0.461128
0.308751 0.535058 0.464515
0.318822 0.538354 0.479713
0.330694 0.534844 0.496712
0.340185 0.518120 0.507897
0.305058 0.437751 0.446937
0.428687 0.554955 0.487495
0.637568 0.647333 0.616144
0.198795 0.488716 0.608392
0.212253 0.491432 0.613184
0.248325 0.491188 0.618433
0.283482 0.474128 0.612543
0.301976 0.422705 0.590692
0.363531 0.386603 0.562646
0.470130 0.421851 0.605005
0.560418 0.466102 0.626398
0.199435 0.487617 0.603021
0.212131 0.490150 0.607752
0.250095 0.493050 0.616541
0.283452 0.475044 0.609339
0.301396 0.424414 0.588067
0.362066 0.388067 0.560266
0.468482 0.423011 0.602930
0.559869 0.464942 0.623926
0.202640 0.496468 0.600946
0.214176 0.498116 0.604517
0.249638 0.499214 0.611383
0.294774 0.496132 0.619684
0.307897 0.444129 0.598077
0.364050 0.401068 0.565270
0.469703 0.435370 0.605707
0.562371 0.473671 0.625269
0.198642 0.514916 0.602289
0.210605 0.517144 0.606531
0.247471 0.519341 0.614771
0.308812 0.528130 0.633814
0.327916 0.487800 0.620203
0.370153 0.428656 0.581445
0.473518 0.459907 0.614771
0.567987 0.492775 0.630976
0.208103 0.541466 0.603571
0.217136 0.543389 0.607416
0.243931 0.543999 0.614160
0.288457 0.546532 0.628656
0.364385 0.552972 0.648585
0.380224 0.484138 0.615381
0.474006 0.490578 0.623804
0.574701 0.518822 0.637781
0.227298 0.577752 0.610071
0.233066 0.578058 0.611749
0.255955 0.579156 0.618189
0.297795 0.581903 0.631281
0.360418 0.588190 0.653315
0.416236 0.575525 0.661067
0.476997 0.541711 0.644404
0.585504 0.560784 0.653437
0.286503 0.594659 0.592157
0.290959 0.594903 0.593835
0.306767 0.596399 0.600702
0.335668 0.600855 0.615076
0.376959 0.606958 0.636316
0.425116 0.614588 0.662623
0.472908 0.595300 0.662531
0.586389 0.619165 0.675868
0.340703 0.618708 0.575799
0.344121 0.618921 0.577630
0.358190 0.621424 0.586389
0.385107 0.627497 0.605158
0.419623 0.634852 0.629938
0.449409 0.637110 0.655421
0.434485 0.591180 0.634424
0.611109 0.694911 0.730739
