data/fiter_cube/49007420/1023422/file.cube
# Created by Adobe Lightroom plugin Export LUT (1.17.0)
# www.johnrellis.com/lightroom/exportlut.htm
# Preset: 06 - 日系情绪-夏 [云集]
# Color profile: C:\Program Files (x86)\Common Files\Adobe\Color\Profiles\Recommended\AdobeRGB1998.icc
LUT_3D_SIZE 32
DOMAIN_MIN 0.0 0.0 0.0
DOMAIN_MAX 1.0 1.0 1.0
0.128542 0.110811 0.085176
0.130922 0.110780 0.085054
0.134279 0.110567 0.085512
0.141329 0.110445 0.085786
0.149905 0.110536 0.086793
0.159884 0.110170 0.087465
0.171969 0.109682 0.088289
0.186465 0.108400 0.088960
0.204013 0.106355 0.089357
0.225223 0.103059 0.089509
0.251011 0.097322 0.089235
0.281651 0.088380 0.088991
0.317205 0.073823 0.087709
0.357275 0.036255 0.086183
0.400580 0.000000 0.083619
0.446540 0.000000 0.080201
0.494240 0.000000 0.075685
0.542809 0.000000 0.070069
0.591150 0.000000 0.062257
0.640620 0.000000 0.047822
0.695399 0.000000 0.019318
0.746212 0.000000 0.000000
0.790951 0.000000 0.000000
0.830503 0.000000 0.000000
0.865599 0.000000 0.000000
0.897032 0.000000 0.000000
0.925383 0.000000 0.000000
0.950958 0.000000 0.000000
0.974121 0.000000 0.000000
0.995178 0.111208 0.068116
1.000000 0.187625 0.108858
1.000000 0.251804 0.151186
0.128664 0.112612 0.085817
0.130922 0.112398 0.085176
0.134279 0.112184 0.085634
0.141146 0.112093 0.085908
0.149783 0.111971 0.086641
0.159731 0.111574 0.087617
0.171572 0.110964 0.088167
0.185794 0.109834 0.088838
0.203159 0.107851 0.089265
0.224247 0.104707 0.089418
0.249516 0.099428 0.089448
0.279728 0.091096 0.088960
0.314855 0.077821 0.087739
0.354376 0.050629 0.086244
0.397284 0.000000 0.083772
0.442817 0.000000 0.080446
0.490150 0.000000 0.075990
0.538354 0.000000 0.070222
0.586755 0.000000 0.062501
0.636255 0.000000 0.048585
0.690700 0.000000 0.019928
0.740963 0.000000 0.000000
0.785611 0.000000 0.000000
0.825406 0.000000 0.000000
0.860960 0.000000 0.000000
0.892912 0.000000 0.000000
0.921874 0.000000 0.000000
0.948028 0.000000 0.000000
0.971710 0.000000 0.000000
0.993164 0.108888 0.064271
1.000000 0.185824 0.105074
1.000000 0.249577 0.147555
0.129091 0.115206 0.086671
0.130922 0.114870 0.086061
0.134218 0.114687 0.085359
0.141024 0.114382 0.086213
0.149538 0.113832 0.087037
0.159365 0.113527 0.087709
0.171054 0.112947 0.088258
0.185214 0.111635 0.088960
0.202487 0.109773 0.089387
0.223301 0.106813 0.089540
0.248295 0.102113 0.089326
0.278416 0.094240 0.088838
0.313207 0.082307 0.087892
0.352422 0.061219 0.086152
0.395178 0.000000 0.083680
0.440406 0.000000 0.080385
0.487587 0.000000 0.075959
0.535729 0.000000 0.070222
0.584131 0.000000 0.062440
0.633692 0.000000 0.048402
0.688167 0.000000 0.019654
0.738186 0.000000 0.000000
0.782803 0.000000 0.000000
0.822751 0.000000 0.000000
0.858366 0.000000 0.000000
0.890593 0.000000 0.000000
0.919890 0.000000 0.000000
0.946319 0.000000 0.000000
0.970336 0.000000 0.000000
0.991974 0.115267 0.061463
1.000000 0.188479 0.102968
1.000000 0.250797 0.145266
0.129824 0.120638 0.088869
0.132326 0.120211 0.088228
0.134340 0.119417 0.087953
0.140658 0.119295 0.085969
0.149813 0.118196 0.086793
0.158938 0.117372 0.087861
0.170718 0.116396 0.088472
0.184756 0.115389 0.088869
0.201816 0.113680 0.089296
0.222354 0.110994 0.089479
0.247135 0.106905 0.089235
0.276829 0.100343 0.088716
0.311192 0.090455 0.087770
0.350072 0.073762 0.086000
0.392401 0.029236 0.083528
0.437537 0.000000 0.080201
0.484474 0.000000 0.075715
0.532403 0.000000 0.069947
0.580499 0.000000 0.062165
0.630579 0.000000 0.047486
0.683986 0.000000 0.018097
0.733150 0.000000 0.000000
0.777981 0.000000 0.000000
0.818540 0.000000 0.000000
0.855406 0.000000 0.000000
0.888701 0.000000 0.000000
0.918761 0.000000 0.000000
0.945647 0.000000 0.000000
0.969726 0.000000 0.000000
0.991394 0.137179 0.058473
1.000000 0.200961 0.101015
1.000000 0.258732 0.143740
0.130861 0.127321 0.091585
0.133700 0.126833 0.091524
0.135195 0.126406 0.090150
0.139712 0.124971 0.089601
0.148257 0.125002 0.086610
0.160189 0.123842 0.087007
0.169986 0.121920 0.088716
0.183566 0.120668 0.089174
0.200473 0.119387 0.089326
0.220645 0.117464 0.089448
0.245121 0.114107 0.089204
0.274205 0.109194 0.088655
0.308202 0.101350 0.087404
0.346807 0.089326 0.085847
0.388922 0.069276 0.083314
0.434180 0.007935 0.079500
0.481453 0.000000 0.075257
0.529717 0.000000 0.069093
0.578088 0.000000 0.060914
0.629603 0.000000 0.042481
0.681971 0.000000 0.012848
0.730312 0.000000 0.000000
0.774838 0.000000 0.000000
0.815640 0.000000 0.000000
0.852689 0.000000 0.000000
0.886381 0.000000 0.000000
0.916747 0.000000 0.000000
0.943816 0.000000 0.000000
0.968139 0.095399 0.000000
0.989929 0.162600 0.049195
1.000000 0.217624 0.097993
1.000000 0.270970 0.141634
0.131960 0.135592 0.094759
0.134157 0.135256 0.094453
0.136995 0.134615 0.094148
0.139712 0.133089 0.091859
0.146548 0.131868 0.090883
0.157656 0.131838 0.087556
0.172885 0.131411 0.086732
0.184695 0.128695 0.088380
0.199588 0.126619 0.089357
0.219730 0.125307 0.089174
0.243931 0.123140 0.089113
0.272679 0.119783 0.088197
0.306523 0.113924 0.087129
0.344823 0.105287 0.085206
0.386847 0.092042 0.082460
0.432044 0.071107 0.078737
0.479377 0.008576 0.073762
0.527794 0.000000 0.067140
0.576349 0.000000 0.058717
0.629786 0.000000 0.033814
0.681666 0.000000 0.003906
0.730159 0.000000 0.000000
0.806638 0.000000 0.000000
0.844877 0.000000 0.000000
0.878569 0.000000 0.000000
0.908537 0.000000 0.000000
0.935027 0.088502 0.000000
0.958740 0.141085 0.000000
0.980102 0.184909 0.000000
0.999542 0.227451 0.073213
1.000000 0.270054 0.116487
1.000000 0.314794 0.160555
0.132662 0.147066 0.099062
0.134493 0.146639 0.098573
0.137118 0.146090 0.098024
0.139925 0.144869 0.094789
0.146822 0.141878 0.094118
0.156161 0.141299 0.091890
0.170504 0.141695 0.088045
0.190738 0.142458 0.085786
0.205722 0.139040 0.087251
0.223453 0.136202 0.088563
0.247227 0.134249 0.088533
0.276921 0.132021 0.087648
0.311345 0.128450 0.086244
0.350164 0.122469 0.083925
0.392432 0.113741 0.080751
0.437201 0.101167 0.076539
0.484169 0.083375 0.070924
0.532341 0.053285 0.063294
0.583703 0.000000 0.048432
0.639185 0.000000 0.016785
0.693080 0.000000 0.000000
0.744137 0.000000 0.000000
0.791135 0.000000 0.000000
0.833616 0.000000 0.000000
0.870970 0.062989 0.000000
0.903044 0.110353 0.000000
0.930846 0.147494 0.000000
0.955230 0.182162 0.000000
0.977142 0.216587 0.000000
0.996826 0.252323 0.064393
1.000000 0.289647 0.111208
1.000000 0.330388 0.156283
0.132815 0.160189 0.103548
0.134432 0.159670 0.103090
0.136904 0.159213 0.102327
0.141756 0.157931 0.100435
0.145418 0.155489 0.095888
0.154940 0.151431 0.096315
0.167391 0.152499 0.092683
0.184848 0.153109 0.088258
0.210636 0.155917 0.083925
0.228702 0.152438 0.085145
0.250065 0.149172 0.086366
0.274723 0.145663 0.087068
0.308812 0.144137 0.085481
0.347173 0.141268 0.082887
0.388983 0.136538 0.079438
0.433448 0.129732 0.074830
0.480110 0.121065 0.068574
0.528985 0.110292 0.060212
0.581994 0.099367 0.037598
0.635950 0.089784 0.004486
0.688685 0.086458 0.000000
0.738979 0.091127 0.000000
0.785763 0.103639 0.000000
0.828092 0.122591 0.000000
0.865660 0.145632 0.000000
0.898222 0.169711 0.000000
0.926574 0.194736 0.000000
0.951537 0.220981 0.000000
0.973938 0.249332 0.000000
0.994018 0.279515 0.050080
1.000000 0.312779 0.105684
1.000000 0.349554 0.152499
0.132387 0.176761 0.109102
0.134005 0.176425 0.108644
0.136324 0.175906 0.107546
0.141451 0.174624 0.105745
0.144808 0.172549 0.099580
0.154116 0.168338 0.098360
0.165682 0.165408 0.097505
0.181643 0.166995 0.093080
0.202884 0.168185 0.087922
0.235782 0.174258 0.081697
0.257633 0.170901 0.081147
0.282902 0.167514 0.082124
0.311284 0.163943 0.082399
0.345312 0.160922 0.081361
0.386633 0.159518 0.077424
0.430976 0.157137 0.072114
0.477943 0.153841 0.064851
0.529198 0.151064 0.050141
0.580682 0.148806 0.022034
0.633722 0.149142 0.000000
0.685634 0.152621 0.000000
0.735348 0.159426 0.000000
0.781765 0.170504 0.000000
0.823941 0.184604 0.000000
0.861540 0.201389 0.000000
0.894438 0.219272 0.000000
0.923125 0.238895 0.000000
0.948425 0.260136 0.000000
0.971099 0.283513 0.000000
0.991424 0.309545 0.025727
1.000000 0.338628 0.100160
1.000000 0.371618 0.149142
0.130739 0.198001 0.116091
0.132509 0.197635 0.115053
0.134737 0.196933 0.114076
0.139834 0.195743 0.111788
0.146181 0.193545 0.107332
0.151400 0.189639 0.100099
0.164889 0.184085 0.100679
0.179385 0.183047 0.098177
0.199313 0.185550 0.092958
0.224979 0.187930 0.086427
0.265995 0.198520 0.076539
0.291905 0.195468 0.074067
0.320836 0.192447 0.074189
0.352422 0.188907 0.074189
0.386358 0.184573 0.073335
0.430213 0.184848 0.067903
0.479896 0.186862 0.058564
0.530358 0.188876 0.032898
0.581292 0.191958 0.000366
0.633173 0.196872 0.000000
0.684047 0.203250 0.000000
0.732235 0.211643 0.000000
0.777157 0.221897 0.000000
0.818387 0.233799 0.000000
0.855741 0.247257 0.000000
0.888884 0.262242 0.000000
0.918334 0.278813 0.000000
0.944457 0.297124 0.000000
0.967864 0.317571 0.000000
0.988830 0.340581 0.000000
1.000000 0.366918 0.095277
1.000000 0.397101 0.147799
0.127169 0.224125 0.123720
0.128725 0.223819 0.122957
0.131106 0.223239 0.121675
0.136751 0.221866 0.119020
0.145144 0.219791 0.115267
0.149081 0.216434 0.105135
0.161868 0.210788 0.102419
0.177920 0.203738 0.103243
0.196536 0.206180 0.098360
0.221256 0.210178 0.091188
0.251926 0.214328 0.082643
0.302678 0.231601 0.066072
0.332128 0.228550 0.061921
0.364233 0.226230 0.059205
0.400397 0.224155 0.056001
0.438209 0.221530 0.051606
0.478920 0.219364 0.043091
0.528344 0.224887 0.011963
0.578363 0.231083 0.000000
0.629786 0.238743 0.000000
0.680079 0.247654 0.000000
0.728084 0.257176 0.000000
0.773098 0.267857 0.000000
0.814450 0.279362 0.000000
0.851804 0.291814 0.000000
0.885161 0.304692 0.000000
0.914763 0.318578 0.000000
0.941070 0.334112 0.000000
0.964691 0.351629 0.000000
0.985870 0.371649 0.000000
1.000000 0.395026 0.089296
1.000000 0.422339 0.145205
0.119631 0.258000 0.133150
0.121584 0.257816 0.132113
0.124483 0.257053 0.130770
0.130465 0.255741 0.127626
0.139803 0.253605 0.123140
0.148165 0.250065 0.114473
0.155123 0.244785 0.103059
0.175204 0.237064 0.104097
0.194095 0.230900 0.104219
0.217990 0.236667 0.096590
0.248264 0.242741 0.087221
0.285252 0.250065 0.074250
0.363012 0.293828 0.003479
0.401495 0.294072 0.000000
0.439826 0.293126 0.000000
0.479194 0.290867 0.000000
0.518700 0.287755 0.000000
0.558068 0.284367 0.000000
0.603510 0.288334 0.000000
0.653498 0.298283 0.000000
0.701167 0.307927 0.000000
0.746151 0.317510 0.000000
0.787747 0.327031 0.000000
0.826261 0.336858 0.000000
0.861173 0.346777 0.000000
0.892515 0.357458 0.000000
0.920348 0.368719 0.000000
0.945159 0.381201 0.000000
0.967498 0.395697 0.000000
0.987732 0.412451 0.000000
1.000000 0.432654 0.096925
1.000000 0.456825 0.153597
0.102724 0.307378 0.145296
0.105257 0.306950 0.144259
0.109041 0.305882 0.142519
0.116915 0.303807 0.138888
0.128481 0.300999 0.133364
0.143557 0.296788 0.126406
0.148653 0.290562 0.108736
0.167636 0.282139 0.103639
0.191684 0.272618 0.105165
0.215976 0.271885 0.102052
0.247837 0.283024 0.090852
0.287449 0.295842 0.074922
0.334783 0.309880 0.040558
0.410071 0.348821 0.000000
0.453773 0.351690 0.000000
0.492927 0.350561 0.000000
0.531670 0.347021 0.000000
0.569512 0.342687 0.000000
0.607538 0.338811 0.000000
0.646693 0.336248 0.000000
0.694057 0.346685 0.000000
0.738949 0.356481 0.000000
0.780758 0.365698 0.000000
0.819455 0.374853 0.000000
0.854734 0.383795 0.000000
0.886534 0.393133 0.000000
0.914977 0.403174 0.000000
0.940337 0.414252 0.000000
0.963195 0.426825 0.000000
0.983948 0.442176 0.000000
1.000000 0.460273 0.089723
1.000000 0.482338 0.151431
0.073182 0.356756 0.157107
0.077394 0.356085 0.155795
0.083314 0.355138 0.153933
0.094270 0.353155 0.149935
0.109957 0.350256 0.143923
0.128511 0.346960 0.136202
0.141146 0.341863 0.120241
0.151644 0.335058 0.100618
0.183261 0.325750 0.102724
0.211490 0.315831 0.104952
0.242069 0.322271 0.096407
0.280705 0.336492 0.078981
0.326787 0.351629 0.044587
0.379492 0.367163 0.000000
0.457099 0.405951 0.000000
0.506432 0.412573 0.000000
0.544060 0.408240 0.000000
0.580713 0.403021 0.000000
0.617731 0.398169 0.000000
0.654780 0.393988 0.000000
0.691646 0.390173 0.000000
0.732174 0.393835 0.000000
0.774350 0.403052 0.000000
0.813474 0.411841 0.000000
0.849180 0.420264 0.000000
0.881498 0.428748 0.000000
0.910460 0.437659 0.000000
0.936278 0.447578 0.000000
0.959564 0.458961 0.000000
0.980682 0.472663 0.000000
0.999725 0.489113 0.084932
1.000000 0.509453 0.151339
0.000000 0.417884 0.171969
0.000000 0.417762 0.170932
0.000000 0.416632 0.168826
0.010224 0.414740 0.164248
0.069368 0.411292 0.157290
0.100740 0.407050 0.148043
0.126894 0.401709 0.134951
0.136049 0.394110 0.107118
0.165316 0.385199 0.097200
0.202213 0.374609 0.100038
0.234379 0.363989 0.102693
0.272221 0.378912 0.084688
0.317266 0.394903 0.052155
0.368811 0.411017 0.000000
0.425422 0.426246 0.000000
0.503014 0.460792 0.000000
0.557549 0.471015 0.000000
0.593286 0.464424 0.000000
0.628901 0.458259 0.000000
0.664302 0.452155 0.000000
0.699458 0.446815 0.000000
0.734188 0.442329 0.000000
0.767788 0.438453 0.000000
0.807309 0.446815 0.000000
0.843626 0.454871 0.000000
0.876677 0.463050 0.000000
0.906462 0.471626 0.000000
0.933165 0.481361 0.000000
0.957214 0.492226 0.000000
0.978851 0.505333 0.000000
0.998322 0.520989 0.088899
1.000000 0.540154 0.158206
0.000000 0.480690 0.189151
0.000000 0.480507 0.187778
0.000000 0.479713 0.185519
0.000000 0.477943 0.180880
0.000000 0.474952 0.173312
0.008850 0.471107 0.163210
0.094057 0.466743 0.151095
0.116030 0.460273 0.123873
0.133150 0.452247 0.088136
0.183993 0.441535 0.091768
0.225681 0.429389 0.095796
0.262913 0.424781 0.092439
0.306889 0.439185 0.063783
0.356573 0.453895 0.000000
0.411353 0.467750 0.000000
0.469703 0.480781 0.000000
0.545800 0.509575 0.000000
0.605737 0.523888 0.000000
0.640436 0.516197 0.000000
0.675319 0.509667 0.000000
0.709682 0.503319 0.000000
0.743465 0.497627 0.000000
0.775937 0.492592 0.000000
0.807309 0.488197 0.000000
0.840696 0.490639 0.000000
0.874113 0.498482 0.000000
0.904234 0.506523 0.000000
0.931121 0.515496 0.000000
0.955261 0.525475 0.000000
0.976867 0.537133 0.000000
0.996246 0.551110 0.092592
1.000000 0.568322 0.162997
0.000000 0.538231 0.208225
0.000000 0.537713 0.206363
0.000000 0.536858 0.204257
0.000000 0.535241 0.199313
0.000000 0.532494 0.191531
0.000000 0.528985 0.180850
0.000000 0.524834 0.167849
0.087160 0.519280 0.146395
0.106752 0.511803 0.104097
0.154208 0.502617 0.082582
0.208438 0.491279 0.087098
0.251957 0.478798 0.092134
0.294438 0.481514 0.077211
0.343786 0.495308 0.001648
0.397406 0.508537 0.000000
0.454627 0.520348 0.000000
0.514244 0.531456 0.000000
0.588342 0.555413 0.000000
0.652033 0.572259 0.000000
0.685267 0.563653 0.000000
0.718349 0.556481 0.000000
0.750668 0.549248 0.000000
0.782010 0.542779 0.000000
0.812345 0.537285 0.000000
0.841367 0.532677 0.000000
0.869444 0.530236 0.000000
0.900145 0.538170 0.000000
0.927611 0.546654 0.000000
0.952178 0.556115 0.000000
0.974182 0.566979 0.000000
0.993896 0.580011 0.096101
1.000000 0.596124 0.169284
0.000000 0.593256 0.230381
0.000000 0.593347 0.228611
0.000000 0.615961 0.236851
0.000000 0.614221 0.231540
0.000000 0.611688 0.223270
0.000000 0.607965 0.212070
0.000000 0.603265 0.197513
0.000000 0.597681 0.180758
0.067567 0.590387 0.138613
0.101595 0.582177 0.075990
0.186007 0.570855 0.080903
0.243534 0.558129 0.086183
0.290196 0.543633 0.091646
0.339727 0.552026 0.051972
0.394171 0.563165 0.000000
0.451820 0.573510 0.000000
0.511101 0.582727 0.000000
0.571374 0.591119 0.000000
0.641291 0.608240 0.000000
0.706203 0.625177 0.000000
0.736416 0.614893 0.000000
0.766506 0.606104 0.000000
0.795590 0.597467 0.000000
0.823606 0.589929 0.000000
0.850126 0.583185 0.000000
0.875395 0.577630 0.000000
0.899290 0.573602 0.000000
0.924743 0.577539 0.000000
0.949187 0.585870 0.000000
0.971374 0.595850 0.000000
0.991302 0.607843 0.101106
1.000000 0.622736 0.175875
0.000000 0.648768 0.257145
0.000000 0.651209 0.256840
0.000000 0.653559 0.256382
0.000000 0.654719 0.252720
0.000000 0.654383 0.245762
0.000000 0.652461 0.235691
0.000000 0.648920 0.222080
0.000000 0.644404 0.206210
0.000000 0.638636 0.175174
0.073793 0.632013 0.120974
0.149172 0.623102 0.082643
0.222599 0.611994 0.087221
0.278416 0.599054 0.091310
0.325505 0.588525 0.089113
0.378851 0.598505 0.006256
0.435065 0.607721 0.000000
0.493355 0.615961 0.000000
0.552270 0.623438 0.000000
0.611810 0.630488 0.000000
0.678157 0.643946 0.000000
0.744747 0.662623 0.000000
0.773892 0.652827 0.000000
0.802182 0.643915 0.000000
0.829282 0.635431 0.000000
0.855009 0.627802 0.000000
0.879423 0.621302 0.000000
0.902556 0.616297 0.000000
0.924498 0.613245 0.000000
0.946288 0.614679 0.000000
0.968658 0.623896 0.000000
0.988769 0.635065 0.109224
1.000000 0.649012 0.184848
0.000000 0.690852 0.281010
0.000000 0.692927 0.281041
0.000000 0.694820 0.280430
0.000000 0.695796 0.277012
0.000000 0.695674 0.270512
0.000000 0.694026 0.261082
0.000000 0.691096 0.248936
0.000000 0.687221 0.234318
0.000000 0.682612 0.215122
0.051789 0.677180 0.167605
0.093690 0.670985 0.097169
0.197024 0.661311 0.097688
0.263401 0.650019 0.100587
0.316320 0.637354 0.102815
0.365667 0.633539 0.087495
0.420722 0.641596 0.000000
0.477729 0.648951 0.000000
0.535515 0.655695 0.000000
0.594232 0.661891 0.000000
0.652644 0.667964 0.000000
0.714961 0.678218 0.000000
0.782345 0.698299 0.000000
0.809659 0.688594 0.000000
0.835782 0.679500 0.000000
0.860380 0.670863 0.000000
0.883696 0.663355 0.000000
0.905791 0.657099 0.000000
0.926848 0.652674 0.000000
0.946990 0.650599 0.000000
0.966003 0.651331 0.000000
0.985962 0.660883 0.117403
1.000000 0.673884 0.193668
0.000000 0.729580 0.306065
0.000000 0.731319 0.306279
0.000000 0.732906 0.305577
0.000000 0.733883 0.302739
0.000000 0.733669 0.296727
0.000000 0.732326 0.288518
0.000000 0.729763 0.277379
0.000000 0.726345 0.264073
0.000000 0.722438 0.249393
0.051301 0.717617 0.214511
0.095583 0.712490 0.158755
0.165286 0.705318 0.117891
0.245487 0.695430 0.118837
0.306004 0.684443 0.119722
0.356390 0.672297 0.120638
0.408637 0.674434 0.092439
0.464912 0.681788 0.000000
0.522606 0.688685 0.000000
0.581262 0.695338 0.000000
0.640070 0.701625 0.000000
0.698085 0.707637 0.000000
0.757168 0.715938 0.000000
0.823758 0.736294 0.000000
0.848936 0.726894 0.000000
0.872435 0.717891 0.000000
0.894408 0.709499 0.000000
0.915129 0.702266 0.000000
0.934874 0.696742 0.000000
0.953674 0.693294 0.000000
0.971496 0.692470 0.000000
0.988128 0.694972 0.136873
1.000000 0.704433 0.220890
0.000000 0.772396 0.338018
0.000000 0.773007 0.337438
0.000000 0.773312 0.336065
0.000000 0.773129 0.332921
0.000000 0.772244 0.327184
0.000000 0.770565 0.319432
0.000000 0.768307 0.309483
0.000000 0.765560 0.298131
0.000000 0.762295 0.285527
0.085664 0.758541 0.265232
0.117372 0.754635 0.217899
0.140719 0.749966 0.154940
0.231327 0.741726 0.149386
0.299474 0.732204 0.149020
0.355230 0.721462 0.148562
0.403204 0.710292 0.147860
0.457954 0.716396 0.111238
0.513909 0.722164 0.027649
0.570672 0.727565 0.000000
0.627588 0.732570 0.000000
0.684016 0.737209 0.000000
0.738705 0.741451 0.000000
0.792081 0.746609 0.000000
0.855161 0.765774 0.000000
0.877836 0.756466 0.000000
0.898711 0.747250 0.000000
0.918578 0.739162 0.000000
0.937560 0.732631 0.000000
0.955688 0.727993 0.000000
0.972869 0.725795 0.000000
0.989014 0.726589 0.117098
1.000000 0.731655 0.221225
0.000000 0.804074 0.364355
0.000000 0.804654 0.363989
0.000000 0.805051 0.363134
0.000000 0.804868 0.360204
0.000000 0.804074 0.355352
0.000000 0.802518 0.348363
0.000000 0.800443 0.339879
0.000000 0.797787 0.329534
0.000000 0.794736 0.318853
0.105287 0.791135 0.307774
0.144808 0.787747 0.270756
0.164401 0.783902 0.219089
0.213748 0.778286 0.180484
0.289586 0.769894 0.179294
0.349859 0.760800 0.178439
0.401678 0.750790 0.177584
0.449897 0.745174 0.168185
0.504173 0.750454 0.134493
0.559319 0.755489 0.081300
0.614832 0.760037 0.000000
0.670222 0.764279 0.000000
0.724392 0.768124 0.000000
0.776364 0.771786 0.000000
0.825254 0.775265 0.000000
0.880034 0.789853 0.000000
0.901823 0.781704 0.000000
0.920989 0.772946 0.000000
0.939269 0.765652 0.000000
0.956817 0.760006 0.000000
0.973571 0.756619 0.000000
0.989471 0.756100 0.086854
1.000000 0.759274 0.209659
0.000000 0.837919 0.396094
0.000000 0.838499 0.395941
0.000000 0.838712 0.395148
0.000000 0.838254 0.392401
0.000000 0.837217 0.387915
0.000000 0.835538 0.381903
0.000000 0.833371 0.374456
0.000000 0.830594 0.365850
0.000000 0.827237 0.356420
0.114961 0.823423 0.346960
0.183444 0.819425 0.324956
0.198276 0.815915 0.280522
0.211734 0.811917 0.224857
0.282841 0.804501 0.215305
0.345830 0.795895 0.212894
0.399725 0.786435 0.210422
0.446876 0.776364 0.207919
0.495033 0.774807 0.191012
0.547662 0.779110 0.158663
0.601251 0.783291 0.113832
0.655024 0.787259 0.000000
0.708003 0.790768 0.000000
0.759091 0.793790 0.000000
0.807431 0.796292 0.000000
0.851926 0.798550 0.000000
0.904509 0.813779 0.000000
0.925200 0.806607 0.000000
0.942443 0.798215 0.000000
0.959106 0.791592 0.000000
0.975189 0.786984 0.000000
0.990631 0.785214 0.031495
1.000000 0.786099 0.198428
0.000000 0.862943 0.421485
0.000000 0.863462 0.421485
0.000000 0.863645 0.420996
0.000000 0.863249 0.418769
0.000000 0.862333 0.415137
0.000000 0.860868 0.410315
0.000000 0.858976 0.404242
0.000000 0.856626 0.397284
0.000000 0.853819 0.390143
0.132479 0.850492 0.382910
0.225681 0.846586 0.376074
0.237949 0.843900 0.338201
0.249790 0.840940 0.292699
0.283238 0.836332 0.256504
0.348455 0.828916 0.254124
0.403845 0.820951 0.251591
0.453040 0.812314 0.249546
0.497078 0.803464 0.247501
0.545769 0.805661 0.225132
0.596643 0.809293 0.195712
0.647852 0.812589 0.157076
0.698787 0.815518 0.099428
0.748257 0.817929 0.000000
0.795468 0.819944 0.000000
0.839750 0.821653 0.000000
0.880156 0.823362 0.000000
0.927672 0.836759 0.000000
0.947234 0.830594 0.000000
0.963104 0.823209 0.000000
0.978515 0.817807 0.000000
0.993133 0.814603 0.000000
1.000000 0.813748 0.195041
0.000000 0.887144 0.448585
0.000000 0.887419 0.448615
0.000000 0.887358 0.448005
0.000000 0.886778 0.445930
0.000000 0.885740 0.442847
0.000000 0.884306 0.438605
0.000000 0.882444 0.433753
0.000000 0.880186 0.428443
0.000000 0.877562 0.423011
0.158968 0.874510 0.417914
0.246311 0.870848 0.413947
0.281865 0.868040 0.392889
0.291447 0.865751 0.354498
0.300847 0.863188 0.308415
0.354864 0.857328 0.297398
0.410407 0.850340 0.294957
0.459937 0.842710 0.292363
0.504540 0.834928 0.290257
0.546777 0.828916 0.285344
0.594141 0.831937 0.261540
0.642298 0.834775 0.233494
0.690547 0.837217 0.198672
0.737942 0.839200 0.152132
0.783627 0.840848 0.070405
0.826963 0.842222 0.000000
0.867155 0.843503 0.000000
0.904051 0.844938 0.000000
0.946410 0.856077 0.000000
0.965850 0.851774 0.000000
0.980713 0.845609 0.000000
0.994293 0.840757 0.000000
1.000000 0.838499 0.183047
0.000000 0.907927 0.473884
0.000000 0.908019 0.473762
0.000000 0.907927 0.473274
0.000000 0.907439 0.471839
0.000000 0.906676 0.469612
0.000000 0.905669 0.467201
0.000000 0.904509 0.464424
0.000000 0.903075 0.461860
0.089662 0.901305 0.459724
0.207950 0.899168 0.458534
0.287755 0.896361 0.458869
0.346563 0.893400 0.455360
0.355688 0.892302 0.425849
0.364294 0.890806 0.390265
0.386908 0.887907 0.360449
0.439246 0.881987 0.358434
0.486793 0.875608 0.356298
0.530144 0.868956 0.354253
0.570489 0.862303 0.353246
0.610559 0.859648 0.343694
0.653864 0.861814 0.321111
0.697658 0.863645 0.294865
0.741054 0.865141 0.263462
0.783474 0.866300 0.223850
0.824186 0.867247 0.170871
0.862516 0.868132 0.077913
0.898344 0.869078 0.000000
0.931456 0.870176 0.000000
0.968200 0.879118 0.000000
0.986419 0.875883 0.000000
0.998871 0.870024 0.000000
1.000000 0.866453 0.198978
0.000000 0.931304 0.506523
0.000000 0.931304 0.506493
0.000000 0.931060 0.506065
0.000000 0.930480 0.504936
0.000000 0.929534 0.503410
0.000000 0.928313 0.501610
0.000000 0.926787 0.499550
0.000000 0.924987 0.497993
0.175357 0.922759 0.496986
0.258579 0.920073 0.497139
0.328222 0.916808 0.498482
0.392401 0.912902 0.501701
0.411139 0.911009 0.482826
0.417426 0.909697 0.453712
