data/fiter_cube/49007420/1023422/file.cube
# Created by Adobe Lightroom plugin Export LUT (1.17.0)
# www.johnrellis.com/lightroom/exportlut.htm
# Preset: 06 - 日系情绪-夏 [云集]
# Color profile: C:\Program Files (x86)\Common Files\Adobe\Color\Profiles\Recommended\AdobeRGB1998.icc
LUT_3D_SIZE 5
DOMAIN_MIN 0.000000 0.000000 0.000000
DOMAIN_MAX 0.903226 0.903226 0.903226
0.128542 0.110811 0.085176
0.186465 0.108400 0.088960
0.400580 0.000000 0.083619
0.746212 0.000000 0.000000
0.974121 0.000000 0.000000
0.132815 0.160189 0.103548
0.184848 0.153109 0.088258
0.388983 0.136538 0.079438
0.738979 0.091127 0.000000
0.973938 0.249332 0.000000
0.000000 0.417884 0.171969
0.136049 0.394110 0.107118
0.425422 0.426246 0.000000
0.734188 0.442329 0.000000
0.957214 0.492226 0.000000
0.000000 0.772396 0.338018
0.000000 0.765560 0.298131
0.355230 0.721462 0.148562
0.738705 0.741451 0.000000
0.955688 0.727993 0.000000
0.000000 0.948486 0.532616
0.150729 0.942321 0.529320
0.461311 0.921202 0.470710
0.705379 0.897459 0.433204
0.937926 0.903502 0.124819
0.137850 0.116030 0.136202
0.188540 0.113771 0.124910
0.402075 0.005371 0.104799
0.725154 0.000000 0.000000
0.965911 0.055543 0.000000
0.133486 0.161929 0.156222
0.195773 0.156161 0.143191
0.400610 0.141787 0.115694
0.720974 0.161410 0.000000
0.963226 0.251377 0.000000
0.000000 0.437232 0.254704
0.149630 0.415991 0.213382
0.418463 0.410498 0.110964
0.719173 0.428199 0.000000
0.954620 0.492531 0.000000
0.000000 0.778042 0.409644
0.000000 0.771267 0.379126
0.366827 0.730404 0.246799
0.740200 0.740200 0.000000
0.955657 0.726894 0.000000
0.000000 0.950561 0.566247
0.046448 0.944549 0.561547
0.533410 0.921904 0.556207
0.718776 0.897490 0.498085
0.938415 0.904875 0.274388
0.114778 0.121859 0.351904
0.233951 0.104768 0.358740
0.445289 0.000000 0.319066
0.768063 0.000000 0.249607
0.972961 0.000000 0.147463
0.075319 0.180240 0.354528
0.189639 0.163119 0.368872
0.452613 0.139834 0.340276
0.761318 0.000000 0.252659
0.971283 0.229984 0.147616
0.000000 0.420905 0.446113
0.000000 0.416968 0.433936
0.436347 0.412482 0.386908
0.740047 0.438941 0.327214
0.961303 0.477516 0.179904
0.000000 0.802029 0.600580
0.000000 0.791867 0.577111
0.418372 0.755154 0.509209
0.745541 0.738613 0.409125
0.948028 0.712734 0.304540
0.000000 0.956146 0.672786
0.000000 0.952483 0.665156
0.500145 0.930968 0.651118
0.735775 0.897551 0.612665
0.931609 0.902739 0.501518
0.000000 0.129824 0.658076
0.244511 0.102083 0.665278
0.596399 0.000000 0.685756
0.789731 0.000000 0.614710
0.968597 0.277379 0.564324
0.000000 0.189273 0.653956
0.165682 0.183627 0.660609
0.570397 0.187015 0.682063
0.783749 0.247440 0.620539
0.963500 0.356847 0.568383
0.000000 0.425452 0.646479
0.000000 0.412604 0.639399
0.428443 0.415900 0.660182
0.757351 0.506432 0.633143
0.952300 0.525017 0.580011
0.000000 0.726589 0.717739
0.000000 0.724819 0.712825
0.336400 0.724422 0.700557
0.735988 0.720241 0.669581
0.935180 0.722194 0.615717
0.000000 0.960967 0.814755
0.000000 0.960204 0.811673
0.392370 0.950530 0.798276
0.762234 0.913207 0.763302
0.925750 0.902708 0.710048
0.199191 0.196323 0.844877
0.336950 0.193393 0.845670
0.614740 0.228458 0.850401
0.865232 0.423102 0.853971
0.942046 0.447974 0.785061
0.000000 0.251957 0.839200
0.277897 0.255406 0.840299
0.588006 0.299138 0.845426
0.853696 0.469154 0.848966
0.936919 0.492409 0.785367
0.000000 0.442451 0.822049
0.000000 0.422583 0.824979
0.454780 0.439063 0.833433
0.812924 0.572259 0.840635
0.928923 0.625849 0.799039
0.000000 0.692836 0.840299
0.000000 0.684291 0.836271
0.067964 0.657465 0.826719
0.695552 0.683040 0.835264
0.928130 0.791257 0.838773
0.000000 0.896635 0.882994
0.000000 0.895598 0.881468
0.286717 0.894591 0.879911
0.670436 0.888640 0.873075
0.909453 0.887388 0.856016
