data/fiter_cube/49007420/1023422/file.cube
# Created by Adobe Lightroom plugin Export LUT (1.17.0)
# www.johnrellis.com/lightroom/exportlut.htm
# Preset: 06 - 日系情绪-夏 [云集]
# Color profile: C:\Program Files (x86)\Common Files\Adobe\Color\Profiles\Recommended\AdobeRGB1998.icc
LUT_3D_SIZE 8
DOMAIN_MIN 0.000000 0.000000 0.000000
DOMAIN_MAX 0.903226 0.903226 0.903226
0.128542 0.110811 0.085176
0.149905 0.110536 0.086793
0.204013 0.106355 0.089357
0.317205 0.073823 0.087709
0.494240 0.000000 0.075685
0.695399 0.000000 0.019318
0.865599 0.000000 0.000000
0.974121 0.000000 0.000000
0.130861 0.127321 0.091585
0.148257 0.125002 0.086610
0.200473 0.119387 0.089326
0.308202 0.101350 0.087404
0.481453 0.000000 0.075257
0.681971 0.000000 0.012848
0.852689 0.000000 0.000000
0.968139 0.095399 0.000000
0.132387 0.176761 0.109102
0.144808 0.172549 0.099580
0.202884 0.168185 0.087922
0.311284 0.163943 0.082399
0.477943 0.153841 0.064851
0.685634 0.152621 0.000000
0.861540 0.201389 0.000000
0.971099 0.283513 0.000000
0.102724 0.307378 0.145296
0.128481 0.300999 0.133364
0.191684 0.272618 0.105165
0.334783 0.309880 0.040558
0.531670 0.347021 0.000000
0.694057 0.346685 0.000000
0.854734 0.383795 0.000000
0.963195 0.426825 0.000000
0.000000 0.538231 0.208225
0.000000 0.532494 0.191531
0.106752 0.511803 0.104097
0.294438 0.481514 0.077211
0.514244 0.531456 0.000000
0.718349 0.556481 0.000000
0.841367 0.532677 0.000000
0.952178 0.556115 0.000000
0.000000 0.729580 0.306065
0.000000 0.733669 0.296727
0.000000 0.722438 0.249393
0.245487 0.695430 0.118837
0.464912 0.681788 0.000000
0.698085 0.707637 0.000000
0.872435 0.717891 0.000000
0.953674 0.693294 0.000000
0.000000 0.862943 0.421485
0.000000 0.862333 0.415137
0.000000 0.853819 0.390143
0.249790 0.840940 0.292699
0.453040 0.812314 0.249546
0.647852 0.812589 0.157076
0.839750 0.821653 0.000000
0.963104 0.823209 0.000000
0.000000 0.948486 0.532616
0.000000 0.946715 0.530816
0.236240 0.940124 0.530205
0.472877 0.927428 0.538842
0.520409 0.914641 0.446204
0.669703 0.895506 0.449226
0.811337 0.901335 0.360143
0.937926 0.903502 0.124819
0.132937 0.113100 0.103059
0.149325 0.112673 0.098360
0.202609 0.111208 0.094881
0.306645 0.098116 0.087617
0.478676 0.000000 0.075685
0.675715 0.000000 0.019226
0.847501 0.000000 0.000000
0.964996 0.000000 0.000000
0.131930 0.127504 0.108095
0.152316 0.125917 0.104341
0.202640 0.123873 0.099123
0.304967 0.114290 0.088441
0.473548 0.035096 0.074128
0.668696 0.000000 0.011109
0.837797 0.000000 0.000000
0.958679 0.086366 0.000000
0.132082 0.179049 0.126406
0.152621 0.175113 0.120974
0.206638 0.169650 0.104738
0.309697 0.164767 0.093019
0.469337 0.163790 0.064912
0.666773 0.164981 0.000000
0.839597 0.197238 0.000000
0.960235 0.271458 0.000000
0.102327 0.305364 0.165866
0.130068 0.300786 0.155703
0.194125 0.278508 0.121431
0.326390 0.296880 0.083192
0.502190 0.319799 0.000000
0.661463 0.327428 0.000000
0.831571 0.368048 0.000000
0.952728 0.414191 0.000000
0.000000 0.537621 0.234104
0.000000 0.530541 0.218112
0.135286 0.508721 0.155642
0.289616 0.465675 0.114137
0.498482 0.512352 0.000000
0.702235 0.540337 0.000000
0.830686 0.524987 0.000000
0.946075 0.548577 0.000000
0.000000 0.723262 0.324407
0.000000 0.721004 0.311742
0.000000 0.710506 0.267521
0.239261 0.687037 0.147250
0.458289 0.673060 0.096986
0.694362 0.703548 0.000000
0.868376 0.713802 0.000000
0.950011 0.688563 0.000000
0.000000 0.855863 0.429847
0.000000 0.852964 0.420813
0.000000 0.845884 0.396521
0.263340 0.834440 0.321019
0.449805 0.808896 0.266056
0.641932 0.807370 0.187198
0.833127 0.816098 0.000000
0.958434 0.817838 0.000000
0.000000 0.946105 0.537316
0.000000 0.944884 0.536278
0.211826 0.938781 0.534752
0.479133 0.925231 0.551537
0.537102 0.917357 0.472908
0.676295 0.896635 0.468940
0.810452 0.900206 0.379522
0.935851 0.901793 0.166781
0.138888 0.116945 0.154604
0.160861 0.115419 0.152529
0.209445 0.112703 0.139590
0.330999 0.058656 0.127565
0.500999 0.000000 0.106935
0.690730 0.000000 0.048463
0.856321 0.000000 0.000000
0.970397 0.100862 0.000000
0.138003 0.131930 0.158389
0.157443 0.128786 0.158114
0.211826 0.126375 0.145266
0.329473 0.085786 0.128908
0.495521 0.000000 0.111208
0.683986 0.000000 0.051118
0.849210 0.009674 0.000000
0.966766 0.159579 0.000000
0.129610 0.180179 0.181857
0.148531 0.178805 0.178012
0.217227 0.172732 0.163638
0.330327 0.168826 0.149538
0.500511 0.161013 0.121828
0.684962 0.183108 0.048035
0.845640 0.238468 0.000000
0.962890 0.289769 0.000000
0.000000 0.338415 0.251072
0.084352 0.334539 0.240696
0.205417 0.314183 0.203281
0.343603 0.310582 0.158724
0.513542 0.314763 0.129519
0.683925 0.339574 0.047333
0.841215 0.390265 0.000000
0.957824 0.426337 0.000000
0.000000 0.559716 0.321965
0.000000 0.555474 0.309880
0.132113 0.537743 0.267094
0.304845 0.495430 0.199893
0.518029 0.527886 0.117525
0.709834 0.536522 0.000000
0.836088 0.528099 0.000000
0.949432 0.553643 0.000000
0.000000 0.734951 0.401404
0.000000 0.732784 0.391913
0.000000 0.721767 0.356481
0.260288 0.699153 0.261662
0.462074 0.670466 0.223209
0.695552 0.701534 0.066102
0.866331 0.707057 0.000000
0.952575 0.690333 0.000000
0.000000 0.863218 0.489174
0.000000 0.860838 0.482094
0.000000 0.852567 0.459754
0.342443 0.836057 0.435187
0.462593 0.813626 0.342809
0.646448 0.806699 0.295018
0.838407 0.819181 0.141817
0.962432 0.820798 0.000000
0.000000 0.949004 0.573480
0.000000 0.947173 0.569787
0.147585 0.940826 0.565301
0.462013 0.928374 0.578576
0.553582 0.918090 0.521172
0.688411 0.898100 0.516503
0.814267 0.899901 0.453101
0.936278 0.903227 0.298039
0.132998 0.120241 0.267247
0.163149 0.117556 0.269993
0.257542 0.102296 0.270939
0.345983 0.071809 0.240482
0.531487 0.000000 0.226658
0.713161 0.000000 0.163027
0.859953 0.000000 0.124910
0.969726 0.101228 0.000000
0.119966 0.134585 0.276432
0.153536 0.132509 0.277623
0.254124 0.121065 0.278172
0.349737 0.098543 0.247654
0.532830 0.000000 0.229496
0.708217 0.000000 0.175631
0.856138 0.000000 0.127657
0.967895 0.157595 0.000000
0.106111 0.190890 0.285924
0.128878 0.187961 0.283024
0.216953 0.175753 0.287663
0.354498 0.175753 0.267338
0.534386 0.114107 0.238773
0.710964 0.135073 0.207126
0.864256 0.211612 0.145022
0.969574 0.292760 0.000000
0.000000 0.319677 0.348333
0.000000 0.317998 0.344091
0.178561 0.314672 0.329992
0.352972 0.309789 0.300511
0.522789 0.321202 0.274907
0.699702 0.341558 0.232609
0.851987 0.375982 0.161440
0.962768 0.424475 0.000000
0.000000 0.581598 0.456672
0.000000 0.581750 0.451484
0.000000 0.580194 0.427832
0.332860 0.543450 0.365393
0.533898 0.535943 0.302068
0.708003 0.526909 0.266148
0.845243 0.530022 0.207950
0.955413 0.553460 0.070344
0.000000 0.760769 0.524590
0.000000 0.762844 0.521050
0.000000 0.750454 0.491432
0.309667 0.726711 0.445411
0.489387 0.685695 0.377783
0.707668 0.707454 0.310277
0.864744 0.701350 0.243656
0.952148 0.684901 0.181704
0.000000 0.873075 0.577050
0.000000 0.872068 0.572534
0.000000 0.866300 0.555932
0.323674 0.851804 0.530999
0.497993 0.829160 0.466682
0.661433 0.808438 0.437964
0.842283 0.821592 0.349310
0.959838 0.818540 0.251255
0.000000 0.955474 0.638636
0.000000 0.954376 0.636286
0.000000 0.949096 0.627405
0.411078 0.936278 0.623133
0.628534 0.915618 0.629389
0.705440 0.901518 0.583551
0.818753 0.898802 0.546502
0.934783 0.904356 0.442725
0.074067 0.123232 0.443488
0.137209 0.118502 0.447486
0.273136 0.089509 0.455848
0.454566 0.000000 0.467659
0.556512 0.000000 0.411566
0.740261 0.000000 0.394263
0.878508 0.000000 0.316381
0.975189 0.000000 0.272465
0.000000 0.139681 0.447150
0.114351 0.136416 0.452186
0.263066 0.116396 0.460548
0.451484 0.000000 0.471748
0.557122 0.000000 0.416388
0.739467 0.000000 0.397498
0.877623 0.000000 0.318303
0.972961 0.136019 0.283330
0.000000 0.205844 0.439277
0.000000 0.200320 0.445808
0.204776 0.183474 0.461372
0.425544 0.181704 0.476814
0.554711 0.177615 0.429786
0.729549 0.152163 0.403540
0.870176 0.000000 0.320653
0.968200 0.262150 0.282048
0.000000 0.325475 0.475319
0.000000 0.321874 0.472023
0.125551 0.311376 0.462165
0.346258 0.312383 0.473487
0.550072 0.357946 0.455665
0.719539 0.348547 0.418036
0.856046 0.378698 0.372595
0.965637 0.391363 0.276829
0.000000 0.525353 0.538750
0.000000 0.525200 0.536553
0.000000 0.523217 0.527184
0.290349 0.522271 0.509697
0.525444 0.516564 0.475959
0.697475 0.524651 0.446509
0.845304 0.531701 0.396582
0.956512 0.538750 0.308721
0.000000 0.740536 0.618280
0.000000 0.741512 0.616449
0.000000 0.742550 0.607507
0.217655 0.743160 0.589197
0.509056 0.702754 0.530419
0.702327 0.697841 0.484840
0.847227 0.687190 0.452888
0.945769 0.678981 0.390326
0.000000 0.884001 0.682063
0.000000 0.882109 0.677516
0.000000 0.875822 0.662379
0.244022 0.863066 0.636591
0.529107 0.838163 0.605127
0.671473 0.804166 0.559228
0.839017 0.818601 0.510796
0.949096 0.810697 0.447181
0.000000 0.959350 0.713771
0.000000 0.958068 0.710994
0.000000 0.953246 0.701656
0.330297 0.945006 0.691493
0.582727 0.925872 0.681544
0.716274 0.906584 0.653254
0.818997 0.895079 0.632197
0.930175 0.903044 0.566033
0.000000 0.127687 0.625849
0.098939 0.121065 0.628260
0.287480 0.083894 0.633661
0.489418 0.000000 0.647303
0.670619 0.000000 0.647913
0.753964 0.000000 0.582208
0.883482 0.183261 0.565667
0.973754 0.202853 0.510460
0.000000 0.147219 0.620722
0.002869 0.142611 0.622797
0.270237 0.119356 0.630121
0.476692 0.007111 0.642756
0.665492 0.000000 0.646143
0.750057 0.000000 0.582177
0.880735 0.226444 0.566552
0.971984 0.236698 0.511101
0.000000 0.218753 0.618585
0.000000 0.208957 0.621881
0.199496 0.199832 0.630396
0.444892 0.201114 0.643946
0.664759 0.252995 0.655268
0.748440 0.261845 0.593347
0.876463 0.347478 0.577142
0.968292 0.338384 0.519036
0.000000 0.348913 0.608667
0.000000 0.343511 0.605554
0.000000 0.330510 0.612207
0.358465 0.337987 0.639948
0.638178 0.423774 0.660883
0.747768 0.447578 0.615991
0.871000 0.484565 0.596826
0.963348 0.455451 0.530877
0.000000 0.516869 0.643610
0.000000 0.515312 0.642237
0.000000 0.509148 0.636683
0.239292 0.499580 0.625849
0.523888 0.519036 0.635737
0.726650 0.579553 0.626062
0.854093 0.577935 0.596674
0.948058 0.584192 0.551629
0.000000 0.689357 0.683986
0.000000 0.690791 0.684230
0.000000 0.691127 0.680293
0.207034 0.691127 0.672297
0.473701 0.689418 0.658320
0.699428 0.687404 0.636225
0.836912 0.693141 0.615290
0.941253 0.692103 0.568658
0.000000 0.863981 0.754910
0.000000 0.866728 0.756527
0.000000 0.867460 0.753201
0.173861 0.866361 0.745724
0.495308 0.861509 0.733791
0.705776 0.825986 0.689998
0.839536 0.818204 0.654932
0.935363 0.808103 0.623743
0.000000 0.964446 0.799100
0.000000 0.964050 0.797757
0.000000 0.962676 0.793423
0.230808 0.954284 0.780972
0.530144 0.937926 0.763119
0.728237 0.915007 0.745327
0.823972 0.892332 0.718105
0.926787 0.903075 0.683742
0.000000 0.146151 0.755886
0.150240 0.142153 0.759823
0.322881 0.120729 0.763363
0.511864 0.085756 0.770352
0.703151 0.155276 0.777981
0.826993 0.207095 0.768978
0.878538 0.273106 0.704616
0.954376 0.446967 0.694240
0.000000 0.164309 0.745602
0.098787 0.161776 0.749264
0.298894 0.147250 0.753841
0.492287 0.127108 0.760403
0.685878 0.177493 0.767880
0.813809 0.220798 0.758419
0.866819 0.270878 0.693599
0.947631 0.432166 0.683070
0.000000 0.228244 0.749447
0.000000 0.228336 0.750484
0.235203 0.228885 0.753048
0.460853 0.240208 0.759731
0.667231 0.296361 0.766232
0.810910 0.359655 0.762387
0.867887 0.392981 0.705959
0.948241 0.513695 0.700069
0.000000 0.372168 0.738613
0.000000 0.365393 0.739132
0.000000 0.347173 0.744656
0.379889 0.362493 0.756588
0.631006 0.429419 0.765774
0.810788 0.524224 0.773465
0.868254 0.535210 0.726101
0.946075 0.597528 0.716579
0.000000 0.517357 0.737453
0.000000 0.511833 0.734127
0.000000 0.497108 0.726680
0.163668 0.478370 0.724331
0.514580 0.509087 0.746212
0.773648 0.608942 0.764279
0.852628 0.626062 0.729763
0.938720 0.662226 0.722347
0.000000 0.668482 0.761410
0.000000 0.667475 0.760586
0.000000 0.663600 0.757412
0.073030 0.657527 0.752529
0.392584 0.645472 0.741573
0.687007 0.676905 0.752926
0.849546 0.733974 0.753658
0.933043 0.732570 0.731258
0.000000 0.808835 0.794614
0.000000 0.810086 0.795254
0.000000 0.810513 0.793790
0.125948 0.811154 0.791379
0.437354 0.808225 0.783993
0.654841 0.804501 0.773434
0.827420 0.803555 0.758724
0.922881 0.808164 0.742275
0.000000 0.932189 0.841398
0.000000 0.933318 0.842039
0.000000 0.939696 0.847807
0.181796 0.945281 0.852781
0.488533 0.937957 0.845396
0.697841 0.929168 0.837064
0.839109 0.905669 0.808652
0.923430 0.901976 0.784237
0.199191 0.196323 0.844877
0.250156 0.196811 0.846311
0.372290 0.192752 0.845823
0.531395 0.205875 0.848814
0.695674 0.265843 0.851469
0.837675 0.388739 0.853544
0.911620 0.401495 0.844541
0.942046 0.447974 0.785061
0.163943 0.211460 0.840421
0.223209 0.212558 0.841947
0.355444 0.211002 0.842374
0.517693 0.223148 0.844633
0.685908 0.279423 0.847715
0.831327 0.396429 0.850095
0.906950 0.408392 0.840604
0.938506 0.449897 0.781521
0.000000 0.265385 0.836332
0.089143 0.267216 0.837095
0.292790 0.268986 0.836301
0.487037 0.297215 0.842832
0.666255 0.350408 0.845029
0.818448 0.448554 0.846555
0.900694 0.474098 0.839139
0.934691 0.502098 0.784390
0.000000 0.371374 0.829770
0.000000 0.369238 0.831724
0.104128 0.360327 0.833921
0.405982 0.384314 0.838132
0.624933 0.440009 0.842039
0.799374 0.528130 0.845548
0.894865 0.573510 0.842588
0.931762 0.585809 0.794522
0.000000 0.515190 0.815976
0.000000 0.512688 0.816403
0.000000 0.495216 0.818387
0.161410 0.470497 0.826780
0.517723 0.507164 0.833280
0.752407 0.585809 0.839078
0.884825 0.663478 0.844846
0.927428 0.672389 0.807248
0.000000 0.653559 0.831174
0.000000 0.649897 0.829374
0.000000 0.638849 0.824887
0.000000 0.620264 0.819211
0.265599 0.593988 0.813718
0.657923 0.647639 0.833738
0.873625 0.751247 0.854368
0.928527 0.771511 0.833249
0.000000 0.787350 0.856352
0.000000 0.786099 0.855467
0.000000 0.782254 0.853056
0.000000 0.777615 0.850645
0.315129 0.770535 0.846281
0.551904 0.761135 0.838376
0.809995 0.789548 0.847288
0.922850 0.836790 0.848783
0.000000 0.896635 0.882994
0.000000 0.896086 0.882322
0.000000 0.895506 0.881254
0.007324 0.895232 0.880644
0.417151 0.893248 0.878569
0.624933 0.889525 0.874418
0.790249 0.886809 0.867735
0.909453 0.887388 0.856016
