data/fiter_cube/87192323/1023453/file.cube
# Created by Adobe Lightroom plugin Export LUT (1.17.0)
# www.johnrellis.com/lightroom/exportlut.htm
# Preset: 日系清新自然_04 云集
# Color profile: C:\Program Files (x86)\Common Files\Adobe\Color\Profiles\Recommended\AdobeRGB1998.icc
LUT_3D_SIZE 8
DOMAIN_MIN 0.000000 0.000000 0.000000
DOMAIN_MAX 0.903226 0.903226 0.903226
0.000000 0.000000 0.000000
0.149813 0.007080 0.000000
0.313512 0.042145 0.000000
0.476753 0.076387 0.000000
0.641016 0.100435 0.000000
0.787472 0.114931 0.000000
0.910124 0.120638 0.000000
1.000000 0.110506 0.000000
0.003723 0.140139 0.059937
0.145357 0.156985 0.000000
0.307134 0.152743 0.000000
0.468818 0.163943 0.000000
0.633356 0.175296 0.000000
0.778958 0.180545 0.000000
0.902464 0.178561 0.000000
1.000000 0.167483 0.000000
0.000000 0.293217 0.110506
0.109743 0.290440 0.084962
0.302190 0.325994 0.000000
0.468574 0.312749 0.000000
0.634058 0.313024 0.000000
0.780880 0.310430 0.000000
0.908629 0.301152 0.000000
1.000000 0.283757 0.000000
0.000000 0.444892 0.175265
0.048615 0.443580 0.134737
0.254398 0.434516 0.152255
0.476143 0.510765 0.000000
0.656184 0.495003 0.000000
0.786404 0.454810 0.000000
0.906523 0.434638 0.000000
1.000000 0.409613 0.000000
0.000000 0.603021 0.243137
0.000000 0.602625 0.212833
0.242313 0.598016 0.199252
0.407843 0.615015 0.172396
0.630945 0.669215 0.000000
0.786984 0.630640 0.000000
0.900664 0.580102 0.000000
1.000000 0.536950 0.000000
0.000000 0.738979 0.308019
0.080323 0.743008 0.289616
0.221378 0.740536 0.254307
0.390875 0.732753 0.271031
0.548241 0.759426 0.186130
0.758755 0.793820 0.000000
0.907500 0.749630 0.000000
1.000000 0.689662 0.000000
0.155398 0.858488 0.380865
0.170626 0.859373 0.367956
0.223178 0.858213 0.321080
0.385473 0.851987 0.335576
0.526726 0.842954 0.355718
0.672206 0.874937 0.203830
0.866209 0.893095 0.000000
1.000000 0.842405 0.000000
0.275364 0.958282 0.466651
0.282567 0.958251 0.457649
0.307439 0.958862 0.425177
0.417426 0.956512 0.427985
0.538262 0.946105 0.441047
0.653376 0.949981 0.422766
0.782437 0.970672 0.214267
0.958129 0.973938 0.000000
0.000000 0.000732 0.155673
0.143801 0.000000 0.153597
0.302464 0.000000 0.133944
0.462928 0.002991 0.119112
0.628504 0.058686 0.095430
0.773556 0.088319 0.060304
0.898253 0.101198 0.000000
1.000000 0.091371 0.000000
0.000000 0.141634 0.148013
0.137270 0.150423 0.147829
0.298497 0.145418 0.132479
0.460365 0.149752 0.115023
0.625177 0.158297 0.090394
0.769558 0.166018 0.047181
0.892760 0.166537 0.000000
1.000000 0.155673 0.000000
0.000000 0.293736 0.186465
0.135103 0.294682 0.177462
0.294987 0.319097 0.123445
0.458473 0.300053 0.102296
0.624231 0.303655 0.072694
0.768826 0.301061 0.000000
0.894530 0.292546 0.000000
1.000000 0.276799 0.000000
0.072450 0.441169 0.237064
0.131563 0.441199 0.219944
0.258762 0.436439 0.204227
0.460945 0.495247 0.069368
0.633936 0.475563 0.000000
0.767391 0.442969 0.000000
0.891691 0.426001 0.000000
1.000000 0.404028 0.000000
0.105592 0.600855 0.297612
0.126833 0.599664 0.274083
0.242985 0.595422 0.237736
0.401831 0.603143 0.224949
0.618524 0.656825 0.000000
0.775906 0.620691 0.000000
0.892454 0.573144 0.000000
0.999573 0.533379 0.000000
0.126345 0.733883 0.347509
0.143496 0.734096 0.330083
0.220432 0.733333 0.280461
0.388861 0.727047 0.295964
0.543999 0.752743 0.234623
0.754879 0.790158 0.000000
0.903441 0.745937 0.000000
1.000000 0.686030 0.000000
0.191073 0.851987 0.408453
0.200626 0.851225 0.395178
0.234379 0.851530 0.346624
0.384955 0.847471 0.353826
0.526635 0.840024 0.374243
0.669245 0.870573 0.247196
0.861448 0.888792 0.000000
0.999115 0.838315 0.000000
0.295415 0.954589 0.487526
0.302922 0.955047 0.479744
0.326482 0.955932 0.449866
0.420752 0.954620 0.443366
0.546807 0.948852 0.463630
0.658839 0.949828 0.449683
0.782284 0.969421 0.258366
0.956542 0.972503 0.000000
0.000000 0.000000 0.317082
0.128084 0.000000 0.315953
0.292546 0.000000 0.310399
0.447761 0.000000 0.301244
0.618769 0.000000 0.271733
0.769863 0.000000 0.259586
0.897581 0.088106 0.247166
1.000000 0.088960 0.222507
0.000000 0.160098 0.312963
0.107424 0.143771 0.311833
0.288396 0.137545 0.306737
0.445167 0.120668 0.293614
0.617517 0.000000 0.258885
0.765530 0.145754 0.259281
0.893584 0.159030 0.243870
1.000000 0.153689 0.219394
0.000000 0.290318 0.302037
0.122164 0.293492 0.301305
0.275578 0.301579 0.295293
0.443977 0.293156 0.278965
0.618372 0.294713 0.268498
0.765316 0.294804 0.256352
0.892302 0.290013 0.240024
1.000000 0.276036 0.214145
0.000000 0.449470 0.344610
0.130831 0.449683 0.340764
0.276677 0.450233 0.322972
0.449775 0.485054 0.279271
0.623377 0.460334 0.260594
0.764706 0.442664 0.250980
0.891508 0.427558 0.234226
1.000000 0.405524 0.205264
0.061616 0.603906 0.385840
0.156558 0.603937 0.382910
0.278141 0.603143 0.360693
0.407843 0.596612 0.348241
0.614160 0.653254 0.257877
0.770932 0.613001 0.225834
0.888487 0.567193 0.221530
0.998505 0.535149 0.190005
0.148806 0.735622 0.428748
0.204013 0.735470 0.427985
0.289158 0.734493 0.404181
0.396918 0.730159 0.377874
0.542901 0.744015 0.355840
0.748379 0.784176 0.235599
0.897673 0.740322 0.191257
1.000000 0.683040 0.162478
0.243809 0.853696 0.485481
0.279118 0.852628 0.486183
0.324865 0.851347 0.460487
0.400305 0.849332 0.425605
0.536797 0.841337 0.441932
0.671504 0.867033 0.366888
0.861936 0.889158 0.196750
1.000000 0.838682 0.101137
0.356390 0.953002 0.557641
0.376837 0.952056 0.558190
0.394049 0.952453 0.532830
0.441016 0.954803 0.500267
0.559960 0.948852 0.516716
0.673060 0.946014 0.523308
0.786343 0.967864 0.377142
0.957214 0.972808 0.000000
0.000000 0.000000 0.469703
0.078828 0.000000 0.469673
0.279973 0.000000 0.465614
0.436347 0.000000 0.459297
0.589746 0.000000 0.453010
0.746181 0.000000 0.431281
0.882719 0.000000 0.394446
1.000000 0.000000 0.357702
0.000000 0.142428 0.469642
0.000000 0.140139 0.468788
0.273991 0.129824 0.464485
0.435004 0.113161 0.458228
0.588952 0.093263 0.450935
0.744930 0.000000 0.427008
0.881285 0.000000 0.390112
0.997192 0.116152 0.372717
0.000000 0.313512 0.460273
0.000000 0.312871 0.459388
0.248020 0.289281 0.456764
0.428107 0.283116 0.452003
0.592004 0.276951 0.443030
0.750271 0.260868 0.417121
0.886137 0.291386 0.405219
0.997986 0.302983 0.391577
0.000000 0.437354 0.453132
0.082002 0.439155 0.452583
0.260472 0.444770 0.449989
0.415534 0.451911 0.441047
0.592767 0.446784 0.429450
0.745602 0.444312 0.420447
0.879973 0.438178 0.408240
0.995575 0.421546 0.386328
0.000000 0.613367 0.511925
0.074128 0.611994 0.507683
0.271427 0.609247 0.494667
0.424689 0.605280 0.473884
0.596460 0.636591 0.437201
0.752224 0.600092 0.418738
0.879973 0.573968 0.407233
0.993835 0.547143 0.380957
0.090974 0.742885 0.533135
0.172732 0.745235 0.533776
0.310552 0.741756 0.527153
0.439673 0.737942 0.512169
0.555474 0.732540 0.503166
0.742367 0.778653 0.429480
0.889464 0.734890 0.392950
0.994232 0.681697 0.373632
0.221073 0.856138 0.566308
0.261448 0.856046 0.566888
0.367590 0.854551 0.569574
0.466438 0.853056 0.557733
0.559319 0.848600 0.541192
0.681697 0.862119 0.514916
0.860624 0.887572 0.409674
0.995605 0.836667 0.353948
0.347570 0.956146 0.619715
0.373053 0.955749 0.621637
0.446693 0.953582 0.627253
0.511376 0.952636 0.613306
0.578882 0.950500 0.591669
0.690822 0.943542 0.608148
0.794583 0.964050 0.520623
0.957305 0.972229 0.348638
0.000000 0.000000 0.619165
0.000000 0.000000 0.618860
0.256046 0.000000 0.615381
0.426337 0.000000 0.610651
0.583093 0.000000 0.607660
0.722347 0.000000 0.589380
0.859037 0.000000 0.565148
0.985870 0.000000 0.530724
0.000000 0.139498 0.618036
0.000000 0.137118 0.618402
0.247929 0.126131 0.615106
0.422553 0.101198 0.609400
0.581720 0.049683 0.606500
0.721401 0.012451 0.587945
0.859251 0.000000 0.563897
0.985809 0.000000 0.529442
0.000000 0.316533 0.611780
0.000000 0.309789 0.611444
0.214511 0.281437 0.609216
0.410407 0.274174 0.606531
0.575677 0.263584 0.600732
0.714504 0.263462 0.580804
0.857786 0.250431 0.558343
0.984131 0.231540 0.524834
0.000000 0.456153 0.605768
0.000000 0.456092 0.604974
0.211093 0.456123 0.602411
0.388159 0.437049 0.599268
0.567315 0.431403 0.593317
0.713497 0.431067 0.575982
0.859922 0.423468 0.554986
0.985412 0.411322 0.525353
0.000000 0.580285 0.599969
0.000000 0.581476 0.599603
0.244419 0.584619 0.596918
0.405188 0.589929 0.591272
0.550805 0.592370 0.577966
0.715724 0.590478 0.571771
0.858854 0.586603 0.564263
0.980560 0.571099 0.545922
0.000000 0.742428 0.654200
0.000000 0.741878 0.651606
0.263035 0.738430 0.641657
0.425635 0.733272 0.627100
0.561669 0.726436 0.607385
0.720424 0.758053 0.583001
0.866728 0.726345 0.567559
0.981262 0.692592 0.546990
0.169070 0.857633 0.667750
0.218845 0.856748 0.666438
0.337194 0.854368 0.663172
0.471077 0.851377 0.660060
0.585870 0.848539 0.648249
0.688502 0.845426 0.640833
0.853361 0.880461 0.577661
0.984009 0.832547 0.531060
0.315862 0.955383 0.695766
0.342321 0.954681 0.695888
0.419928 0.952605 0.696742
0.528344 0.951904 0.702327
0.616419 0.949676 0.691157
0.699397 0.945403 0.680018
0.802365 0.956359 0.649592
0.954894 0.968994 0.541131
0.000000 0.004730 0.749722
0.000000 0.000000 0.749172
0.218296 0.000000 0.745968
0.399268 0.000000 0.743984
0.561639 0.000000 0.740749
0.712459 0.000000 0.735317
0.844541 0.000000 0.712520
0.968963 0.000000 0.685878
0.000000 0.139040 0.745693
0.000000 0.136629 0.745052
0.208164 0.127108 0.742855
0.394263 0.107851 0.741115
0.558007 0.059602 0.737667
0.709865 0.000000 0.732662
0.842649 0.000000 0.710597
0.968017 0.000000 0.684474
0.000000 0.292393 0.744289
0.000000 0.281315 0.744137
0.174868 0.277867 0.742641
0.382330 0.271366 0.740230
0.552209 0.259709 0.735744
0.707393 0.246616 0.730495
0.840635 0.245365 0.708370
0.968017 0.231296 0.682521
0.000000 0.465736 0.739101
0.000000 0.462287 0.738216
0.184176 0.452461 0.737179
0.364538 0.429755 0.738033
0.544762 0.425086 0.734829
0.706020 0.418585 0.729335
0.838651 0.419715 0.707637
0.969329 0.408209 0.682826
0.000000 0.584710 0.731868
0.000000 0.585351 0.731502
0.194308 0.587610 0.729854
0.370733 0.591974 0.726558
0.527276 0.578912 0.722683
0.693416 0.572473 0.717372
0.832029 0.571405 0.701411
0.967193 0.563714 0.681147
0.000000 0.701991 0.725643
0.000000 0.703822 0.726253
0.247929 0.707057 0.725216
0.405158 0.712367 0.722286
0.545983 0.717372 0.716182
0.679744 0.719631 0.704402
0.838529 0.724453 0.707027
0.966461 0.717769 0.698939
0.000000 0.862577 0.783719
0.143343 0.862852 0.783719
0.297948 0.861479 0.781765
0.443610 0.858488 0.773190
0.580255 0.853635 0.758663
0.702754 0.847196 0.741573
0.843503 0.870817 0.720729
0.968933 0.835233 0.699611
0.273472 0.958709 0.793912
0.303471 0.958007 0.792966
0.388312 0.956023 0.790127
0.499306 0.953948 0.786618
0.617029 0.950683 0.782467
0.722560 0.947662 0.773495
0.814542 0.945251 0.767453
0.953033 0.965789 0.705867
0.000000 0.027832 0.860655
0.000000 0.014771 0.860807
0.164309 0.000000 0.859770
0.363684 0.000000 0.858183
0.526299 0.000000 0.855131
0.680018 0.000000 0.851255
0.828702 0.000000 0.847013
0.957183 0.000000 0.822995
0.000000 0.138369 0.858793
0.000000 0.136385 0.858854
0.152163 0.128573 0.857908
0.359014 0.111086 0.855894
0.522972 0.072389 0.852934
0.677485 0.000000 0.849058
0.826261 0.000000 0.844633
0.954864 0.000000 0.820737
0.000000 0.274846 0.858122
0.000000 0.273869 0.857816
0.107149 0.270542 0.856504
0.346471 0.264530 0.854490
0.516167 0.253849 0.851347
0.674647 0.237613 0.847807
0.825742 0.218296 0.844144
0.955108 0.202304 0.820493
0.000000 0.452430 0.853941
0.000000 0.449805 0.853361
0.098695 0.429541 0.853086
0.328466 0.413458 0.852018
0.506737 0.408118 0.849241
0.671046 0.400153 0.846159
0.824369 0.392035 0.842741
0.953613 0.384100 0.819120
0.000000 0.583917 0.847349
0.000000 0.584131 0.846769
0.112856 0.585168 0.845426
0.343023 0.580346 0.844572
0.495552 0.559503 0.843809
0.662074 0.553643 0.840665
0.818540 0.547234 0.837064
0.948730 0.543694 0.816526
0.000000 0.698604 0.843198
0.000000 0.699397 0.843015
0.191501 0.702388 0.842252
0.362921 0.707942 0.840970
0.509575 0.713588 0.838193
0.655940 0.704494 0.835782
0.813687 0.698939 0.832090
0.945525 0.695857 0.816678
0.000000 0.811917 0.840635
0.126375 0.812985 0.840726
0.274662 0.816037 0.840360
0.412848 0.821286 0.839597
0.549248 0.827634 0.837583
0.681178 0.833890 0.833402
0.803250 0.834195 0.821622
0.949035 0.840024 0.827329
0.179721 0.960082 0.892149
0.224277 0.959808 0.891722
0.333227 0.959503 0.890929
0.458717 0.958068 0.888670
0.588617 0.955444 0.882597
0.715511 0.951537 0.870420
0.829984 0.947204 0.858610
0.949706 0.961334 0.840299
0.000000 0.041138 0.964385
0.000000 0.028565 0.964355
0.045869 0.000000 0.963409
0.322698 0.000000 0.962371
0.489113 0.000000 0.960784
0.644282 0.000000 0.958740
0.793912 0.000000 0.956603
0.942657 0.000000 0.953765
0.000000 0.135927 0.963470
0.000000 0.133913 0.963439
0.000000 0.126345 0.962646
0.318425 0.109560 0.961486
0.486671 0.071717 0.959930
0.642603 0.000000 0.957885
0.792660 0.000000 0.955596
0.941680 0.000000 0.952789
0.000000 0.265782 0.962097
0.000000 0.265141 0.961944
0.000000 0.261540 0.960967
0.305699 0.256046 0.960540
0.479713 0.245457 0.958862
0.638148 0.227726 0.956603
0.790555 0.201541 0.954376
0.940673 0.160006 0.951781
0.000000 0.435523 0.959075
0.000000 0.423987 0.959503
0.000000 0.401556 0.959564
0.286625 0.398352 0.958679
0.469978 0.392767 0.957275
0.632166 0.383734 0.955291
0.788327 0.370764 0.953094
0.939818 0.354345 0.950683
0.000000 0.575860 0.954528
0.000000 0.574914 0.954681
0.006287 0.571313 0.954528
0.323552 0.566766 0.954498
0.460914 0.539940 0.954253
0.625696 0.534051 0.952300
0.785580 0.526390 0.950286
0.937774 0.518975 0.948302
0.000000 0.692592 0.950408
0.000000 0.692958 0.950195
0.042267 0.694728 0.949615
0.304936 0.698268 0.949035
0.478279 0.699001 0.948638
0.625086 0.684138 0.949126
0.784085 0.680323 0.947906
0.936461 0.675349 0.946197
0.000000 0.803342 0.947234
0.000000 0.804044 0.947051
0.204349 0.806607 0.946624
0.361181 0.811582 0.946197
0.505608 0.818967 0.945495
0.643336 0.826963 0.944457
0.782712 0.821256 0.944060
0.932250 0.815213 0.941283
0.166201 0.909819 0.944915
0.207004 0.910399 0.944793
0.306981 0.912688 0.944549
0.429511 0.917082 0.944305
0.557885 0.923186 0.943877
0.686458 0.930480 0.943145
0.812070 0.938109 0.941833
0.926574 0.940581 0.934691
