data/fiter_cube/87192323/1023453/file.cube
# Created by Adobe Lightroom plugin Export LUT (1.17.0)
# www.johnrellis.com/lightroom/exportlut.htm
# Preset: 日系清新自然_04 云集
# Color profile: C:\Program Files (x86)\Common Files\Adobe\Color\Profiles\Recommended\AdobeRGB1998.icc
LUT_3D_SIZE 5
DOMAIN_MIN 0.000000 0.000000 0.000000
DOMAIN_MAX 0.903226 0.903226 0.903226
0.000000 0.000000 0.000000
0.273869 0.030488 0.000000
0.561364 0.090486 0.000000
0.821347 0.118013 0.000000
1.000000 0.110506 0.000000
0.000000 0.256352 0.096315
0.264134 0.285283 0.000000
0.552392 0.274327 0.000000
0.816800 0.275517 0.000000
1.000000 0.253544 0.000000
0.000000 0.523461 0.209354
0.208530 0.519005 0.171084
0.560998 0.598444 0.000000
0.815610 0.530907 0.000000
1.000000 0.472969 0.000000
0.070192 0.773251 0.326909
0.164370 0.774166 0.267216
0.463233 0.761257 0.297276
0.787930 0.821195 0.000000
1.000000 0.728237 0.000000
0.275364 0.958282 0.466651
0.299351 0.958556 0.435767
0.473976 0.949004 0.429114
0.680201 0.956054 0.386389
0.958129 0.973938 0.000000
0.000000 0.000000 0.276493
0.256016 0.000000 0.272221
0.538598 0.000000 0.237400
0.801755 0.051392 0.213504
1.000000 0.078096 0.171725
0.000000 0.254276 0.264714
0.242039 0.265080 0.259739
0.534264 0.255253 0.231846
0.799741 0.258305 0.208896
1.000000 0.242924 0.165957
0.045106 0.525048 0.335760
0.240055 0.524193 0.312963
0.537407 0.575311 0.219638
0.797330 0.512566 0.191470
1.000000 0.470283 0.142306
0.183230 0.772213 0.426947
0.266331 0.772702 0.401862
0.471839 0.763394 0.379187
0.783078 0.816800 0.173404
1.000000 0.723903 0.009735
0.355901 0.955413 0.545922
0.373754 0.955657 0.520989
0.497078 0.952819 0.492988
0.693385 0.954376 0.474220
0.958801 0.974243 0.000000
0.000000 0.000000 0.547906
0.225040 0.000000 0.544366
0.510002 0.000000 0.534356
0.768093 0.000000 0.507836
0.993774 0.000000 0.445167
0.000000 0.279362 0.541588
0.187442 0.247684 0.539208
0.507469 0.231327 0.532311
0.767300 0.214725 0.499855
0.994629 0.187320 0.441932
0.000000 0.511864 0.529656
0.207706 0.515343 0.526757
0.484535 0.524315 0.511406
0.767514 0.519310 0.497383
0.988708 0.497749 0.468635
0.072480 0.774289 0.597253
0.267552 0.770840 0.589868
0.510399 0.765103 0.572900
0.767910 0.802670 0.511681
0.987274 0.719478 0.457557
0.331060 0.954711 0.654017
0.412085 0.953552 0.658289
0.563867 0.950805 0.651575
0.721675 0.941802 0.646326
0.955352 0.970031 0.446906
0.000000 0.010590 0.775998
0.144869 0.000000 0.774502
0.472602 0.000000 0.771450
0.741054 0.000000 0.762997
0.963592 0.000000 0.720241
0.000000 0.243412 0.772702
0.082246 0.239597 0.771695
0.462287 0.224216 0.767575
0.736599 0.193088 0.758724
0.960204 0.169284 0.716732
0.000000 0.523186 0.761471
0.056611 0.523400 0.759701
0.435065 0.496010 0.756771
0.725582 0.484688 0.748348
0.960235 0.476478 0.713222
0.000000 0.732387 0.757198
0.210880 0.734249 0.755123
0.476265 0.743435 0.750698
0.710506 0.748867 0.733974
0.960937 0.748135 0.730648
0.256840 0.959411 0.820737
0.352911 0.957946 0.817746
0.552239 0.954162 0.809323
0.751003 0.948211 0.796017
0.952056 0.964569 0.741604
0.000000 0.041138 0.964385
0.000000 0.000000 0.963684
0.408484 0.000000 0.961700
0.682856 0.000000 0.958221
0.942657 0.000000 0.953765
0.000000 0.232700 0.962737
0.000000 0.229160 0.962097
0.399268 0.215091 0.960235
0.678492 0.177829 0.956573
0.941314 0.079438 0.952422
0.000000 0.508721 0.956817
0.000000 0.504631 0.956634
0.375921 0.468025 0.956237
0.667811 0.455482 0.952728
0.938689 0.437415 0.949432
0.000000 0.721065 0.950134
0.000000 0.723049 0.949584
0.399115 0.730648 0.948486
0.664942 0.719265 0.947784
0.935546 0.711635 0.945190
0.166201 0.909819 0.944915
0.278691 0.911894 0.944610
0.493385 0.919951 0.944152
0.718288 0.932433 0.942931
0.926574 0.940581 0.934691
