data/fiter_cube/87192323/1023453/file.cube
# Created by Adobe Lightroom plugin Export LUT (1.17.0)
# www.johnrellis.com/lightroom/exportlut.htm
# Preset: 日系清新自然_04 云集
# Color profile: C:\Program Files (x86)\Common Files\Adobe\Color\Profiles\Recommended\AdobeRGB1998.icc
LUT_3D_SIZE 32
DOMAIN_MIN 0.0 0.0 0.0
DOMAIN_MAX 1.0 1.0 1.0
0.000000 0.000000 0.000000
0.044770 0.000824 0.000000
0.072694 0.001068 0.000000
0.107454 0.003296 0.000000
0.149813 0.007080 0.000000
0.192508 0.013214 0.000000
0.233829 0.020294 0.000000
0.273869 0.030488 0.000000
0.313512 0.042145 0.000000
0.353277 0.054597 0.000000
0.393957 0.062867 0.000000
0.435096 0.069642 0.000000
0.476753 0.076387 0.000000
0.519005 0.083955 0.000000
0.561364 0.090486 0.000000
0.602197 0.095796 0.000000
0.641016 0.100435 0.000000
0.677913 0.103944 0.000000
0.712551 0.108766 0.000000
0.750973 0.112490 0.000000
0.787472 0.114931 0.000000
0.821347 0.118013 0.000000
0.852811 0.119692 0.000000
0.882261 0.120455 0.000000
0.910124 0.120638 0.000000
0.936858 0.119173 0.000000
0.962890 0.118166 0.000000
0.988495 0.114595 0.000000
1.000000 0.110506 0.000000
1.000000 0.104005 0.000000
1.000000 0.095338 0.000000
1.000000 0.082399 0.000000
0.001556 0.040497 0.007477
0.040650 0.048096 0.000000
0.071656 0.041505 0.000000
0.106844 0.042542 0.000000
0.149325 0.050080 0.000000
0.191531 0.057160 0.000000
0.232883 0.060883 0.000000
0.272648 0.065248 0.000000
0.312108 0.068971 0.000000
0.351934 0.074189 0.000000
0.392309 0.079286 0.000000
0.433295 0.084993 0.000000
0.474800 0.090761 0.000000
0.516838 0.096712 0.000000
0.559106 0.101900 0.000000
0.599908 0.106538 0.000000
0.638605 0.110536 0.000000
0.675563 0.114504 0.000000
0.710262 0.117647 0.000000
0.748501 0.121309 0.000000
0.784482 0.123690 0.000000
0.818265 0.125551 0.000000
0.849729 0.127138 0.000000
0.879271 0.127504 0.000000
0.907317 0.127321 0.000000
0.934203 0.126650 0.000000
0.960510 0.124331 0.000000
0.986328 0.121981 0.000000
1.000000 0.117464 0.000000
1.000000 0.111482 0.000000
1.000000 0.103029 0.000000
1.000000 0.091554 0.000000
0.002014 0.070588 0.017151
0.032013 0.070130 0.013214
0.069703 0.075624 0.000000
0.106081 0.073518 0.000000
0.148257 0.075746 0.000000
0.190463 0.079469 0.000000
0.231632 0.082551 0.000000
0.271397 0.085481 0.000000
0.310887 0.088685 0.000000
0.350561 0.092256 0.000000
0.390967 0.096651 0.000000
0.431891 0.101106 0.000000
0.473243 0.105898 0.000000
0.515373 0.110750 0.000000
0.557519 0.115908 0.000000
0.598352 0.119570 0.000000
0.637171 0.123079 0.000000
0.674098 0.126772 0.000000
0.708980 0.129000 0.000000
0.747158 0.131930 0.000000
0.782986 0.134401 0.000000
0.816617 0.135653 0.000000
0.848081 0.136629 0.000000
0.877684 0.136812 0.000000
0.905791 0.136873 0.000000
0.932769 0.135592 0.000000
0.959167 0.133608 0.000000
0.985107 0.130922 0.000000
1.000000 0.126528 0.000000
1.000000 0.120760 0.000000
1.000000 0.112703 0.000000
1.000000 0.101869 0.000000
0.005921 0.102724 0.037476
0.030213 0.102663 0.028199
0.064057 0.102541 0.030304
0.105562 0.113832 0.000000
0.147646 0.112734 0.000000
0.189212 0.111910 0.000000
0.230411 0.114534 0.000000
0.270207 0.116609 0.000000
0.309453 0.119020 0.000000
0.349157 0.121645 0.000000
0.389471 0.124605 0.000000
0.430365 0.128664 0.000000
0.471626 0.132509 0.000000
0.513390 0.136660 0.000000
0.555657 0.140047 0.000000
0.596429 0.143374 0.000000
0.635187 0.146090 0.000000
0.672175 0.148989 0.000000
0.707912 0.150546 0.000000
0.745113 0.152865 0.000000
0.780331 0.154208 0.000000
0.813718 0.155123 0.000000
0.845335 0.155642 0.000000
0.875303 0.155276 0.000000
0.904021 0.154879 0.000000
0.931670 0.153109 0.000000
0.958495 0.150942 0.000000
0.984680 0.148409 0.000000
1.000000 0.143862 0.000000
1.000000 0.138674 0.000000
1.000000 0.131472 0.000000
1.000000 0.122103 0.000000
0.003723 0.140139 0.059937
0.018952 0.140078 0.042725
0.062196 0.139254 0.047913
0.094789 0.142947 0.034760
0.145357 0.156985 0.000000
0.187747 0.154238 0.000000
0.228336 0.152499 0.000000
0.267765 0.151186 0.000000
0.307134 0.152743 0.000000
0.346593 0.155245 0.000000
0.386816 0.157656 0.000000
0.427527 0.160678 0.000000
0.468818 0.163943 0.000000
0.510735 0.167422 0.000000
0.553094 0.170779 0.000000
0.594079 0.173373 0.000000
0.633356 0.175296 0.000000
0.670558 0.177157 0.000000
0.707668 0.178408 0.000000
0.744289 0.179629 0.000000
0.778958 0.180545 0.000000
0.812100 0.180941 0.000000
0.843565 0.180697 0.000000
0.873655 0.180117 0.000000
0.902464 0.178561 0.000000
0.930266 0.176822 0.000000
0.957244 0.174228 0.000000
0.983551 0.171145 0.000000
1.000000 0.167483 0.000000
1.000000 0.162234 0.000000
1.000000 0.155459 0.000000
1.000000 0.147494 0.000000
0.000000 0.178561 0.072236
0.000000 0.178653 0.059266
0.044984 0.177951 0.054444
0.089876 0.175784 0.059297
0.130312 0.185336 0.022614
0.185153 0.199985 0.000000
0.227756 0.196231 0.000000
0.266819 0.193362 0.000000
0.305486 0.189425 0.000000
0.344915 0.189883 0.000000
0.384955 0.192294 0.000000
0.425757 0.195102 0.000000
0.466926 0.197726 0.000000
0.508965 0.200534 0.000000
0.551385 0.203403 0.000000
0.592615 0.205600 0.000000
0.631952 0.207492 0.000000
0.669337 0.208530 0.000000
0.707729 0.209567 0.000000
0.744076 0.210361 0.000000
0.778775 0.210452 0.000000
0.811948 0.209995 0.000000
0.861692 0.213199 0.000000
0.890898 0.211795 0.000000
0.918486 0.209476 0.000000
0.944884 0.207004 0.000000
0.970367 0.203799 0.000000
0.995239 0.200137 0.000000
1.000000 0.195956 0.000000
1.000000 0.190311 0.000000
1.000000 0.183902 0.000000
1.000000 0.176120 0.000000
0.000000 0.219425 0.083467
0.000000 0.219303 0.072267
0.004028 0.219089 0.060945
0.082338 0.217411 0.064149
0.123171 0.214939 0.068696
0.170077 0.230961 0.001068
0.226902 0.244724 0.000000
0.270146 0.240208 0.000000
0.309300 0.236698 0.000000
0.348577 0.233433 0.000000
0.388128 0.230167 0.000000
0.429267 0.232486 0.000000
0.470771 0.234745 0.000000
0.512749 0.237278 0.000000
0.555047 0.239536 0.000000
0.595605 0.241123 0.000000
0.634546 0.242252 0.000000
0.674159 0.243137 0.000000
0.712581 0.244053 0.000000
0.749325 0.244388 0.000000
0.784970 0.244205 0.000000
0.819638 0.243473 0.000000
0.852811 0.242496 0.000000
0.884245 0.241001 0.000000
0.913817 0.238895 0.000000
0.941405 0.236179 0.000000
0.967620 0.232578 0.000000
0.992828 0.228641 0.000000
1.000000 0.223972 0.000000
1.000000 0.218753 0.000000
1.000000 0.212314 0.000000
1.000000 0.205020 0.000000
0.000000 0.256352 0.096315
0.000000 0.256321 0.088228
0.000000 0.256260 0.073304
0.068452 0.255070 0.070985
0.117006 0.252720 0.075105
0.157321 0.255436 0.068513
0.207095 0.271855 0.000000
0.264134 0.285283 0.000000
0.308385 0.280705 0.000000
0.348028 0.277470 0.000000
0.387732 0.274235 0.000000
0.427527 0.270726 0.000000
0.468238 0.269718 0.000000
0.510185 0.272038 0.000000
0.552392 0.274327 0.000000
0.593103 0.275639 0.000000
0.633234 0.276707 0.000000
0.673610 0.277836 0.000000
0.711116 0.277867 0.000000
0.747250 0.277348 0.000000
0.782467 0.276707 0.000000
0.816800 0.275517 0.000000
0.849821 0.274296 0.000000
0.881224 0.272099 0.000000
0.910796 0.269291 0.000000
0.938567 0.266423 0.000000
0.964965 0.262516 0.000000
0.990417 0.258213 0.000000
1.000000 0.253544 0.000000
1.000000 0.248081 0.000000
1.000000 0.241794 0.000000
1.000000 0.234562 0.000000
0.000000 0.293217 0.110506
0.000000 0.293126 0.102571
0.000000 0.293217 0.092714
0.044007 0.292332 0.081483
0.109743 0.290440 0.084962
0.152041 0.287694 0.090059
0.192996 0.296635 0.069581
0.244755 0.313024 0.000000
0.302190 0.325994 0.000000
0.347265 0.322423 0.000000
0.388495 0.319524 0.000000
0.428473 0.316136 0.000000
0.468574 0.312749 0.000000
0.508873 0.308843 0.000000
0.550561 0.309789 0.000000
0.592248 0.311376 0.000000
0.634058 0.313024 0.000000
0.673457 0.313359 0.000000
0.710170 0.312657 0.000000
0.745937 0.311620 0.000000
0.780880 0.310430 0.000000
0.814969 0.308659 0.000000
0.847745 0.306828 0.000000
0.879026 0.304417 0.000000
0.908629 0.301152 0.000000
0.936461 0.297429 0.000000
0.962951 0.293431 0.000000
0.988495 0.288823 0.000000
1.000000 0.283757 0.000000
1.000000 0.278080 0.000000
1.000000 0.271733 0.000000
1.000000 0.264591 0.000000
0.000000 0.329992 0.125826
0.000000 0.330083 0.119875
0.000000 0.329900 0.110811
0.000000 0.329534 0.092805
0.100160 0.327794 0.096040
0.146944 0.325292 0.100282
0.186435 0.322484 0.106111
0.229465 0.337743 0.068879
0.283024 0.354498 0.000000
0.340642 0.367193 0.000000
0.386175 0.363958 0.000000
0.428931 0.361334 0.000000
0.469429 0.358129 0.000000
0.510033 0.354742 0.000000
0.552300 0.351934 0.000000
0.593988 0.348852 0.000000
0.635248 0.349950 0.000000
0.674098 0.349767 0.000000
0.710536 0.348577 0.000000
0.745785 0.346838 0.000000
0.780117 0.344976 0.000000
0.813413 0.342473 0.000000
0.845518 0.339849 0.000000
0.876158 0.336675 0.000000
0.905425 0.333074 0.000000
0.933349 0.329015 0.000000
0.960113 0.324559 0.000000
0.986114 0.319707 0.000000
1.000000 0.314366 0.000000
1.000000 0.308568 0.000000
1.000000 0.302129 0.000000
1.000000 0.294957 0.000000
0.000000 0.366125 0.141451
0.000000 0.366094 0.135836
0.000000 0.366186 0.128603
0.000000 0.366094 0.110201
0.088472 0.364660 0.108186
0.140902 0.362799 0.111940
0.182956 0.360327 0.117281
0.220951 0.363287 0.112520
0.266850 0.379431 0.068208
0.322087 0.396826 0.000000
0.380102 0.409400 0.000000
0.426032 0.406409 0.000000
0.471656 0.404822 0.000000
0.514641 0.402899 0.000000
0.557000 0.400488 0.000000
0.597375 0.395972 0.000000
0.635767 0.389868 0.000000
0.672938 0.385718 0.000000
0.709041 0.383886 0.000000
0.744076 0.381659 0.000000
0.778286 0.379156 0.000000
0.811490 0.376379 0.000000
0.843595 0.373297 0.000000
0.874327 0.369696 0.000000
0.903593 0.365728 0.000000
0.931456 0.361089 0.000000
0.958251 0.356268 0.000000
0.984192 0.350927 0.000000
1.000000 0.345312 0.000000
1.000000 0.339300 0.000000
1.000000 0.332708 0.000000
1.000000 0.325566 0.000000
0.000000 0.403082 0.157198
0.000000 0.403235 0.153384
0.000000 0.403204 0.146609
0.000000 0.403113 0.131411
0.073640 0.402411 0.121126
0.133486 0.400641 0.124453
0.178470 0.398596 0.128908
0.218173 0.396246 0.134218
0.257359 0.405493 0.116365
0.305547 0.422431 0.064240
0.362341 0.440375 0.000000
0.423072 0.455024 0.000000
0.484199 0.465736 0.000000
0.535302 0.465705 0.000000
0.577600 0.461524 0.000000
0.617395 0.455390 0.000000
0.654994 0.447913 0.000000
0.690150 0.438972 0.000000
0.723079 0.429236 0.000000
0.756741 0.424323 0.000000
0.789731 0.420417 0.000000
0.821592 0.416327 0.000000
0.852201 0.411810 0.000000
0.881621 0.407141 0.000000
0.909819 0.402014 0.000000
0.936858 0.396551 0.000000
0.962860 0.390784 0.000000
0.988128 0.384771 0.000000
1.000000 0.378363 0.000000
1.000000 0.371771 0.000000
1.000000 0.364691 0.000000
1.000000 0.356970 0.000000
0.000000 0.444892 0.175265
0.000000 0.444862 0.171725
0.000000 0.444617 0.165621
0.000000 0.444282 0.152377
0.048615 0.443580 0.134737
0.125490 0.441566 0.137789
0.174044 0.439307 0.141726
0.215854 0.436988 0.146670
0.254398 0.434516 0.152255
0.297398 0.452735 0.120577
0.350378 0.473182 0.058564
0.412238 0.494850 0.000000
0.476143 0.510765 0.000000
0.527672 0.510918 0.000000
0.579004 0.509697 0.000000
0.618891 0.503227 0.000000
0.656184 0.495003 0.000000
0.690608 0.485267 0.000000
0.723201 0.475013 0.000000
0.755032 0.464424 0.000000
0.786404 0.454810 0.000000
0.818265 0.450294 0.000000
0.848783 0.445350 0.000000
0.878233 0.440192 0.000000
0.906523 0.434638 0.000000
0.933623 0.428656 0.000000
0.959838 0.422553 0.000000
0.985229 0.416266 0.000000
1.000000 0.409613 0.000000
1.000000 0.402747 0.000000
1.000000 0.395392 0.000000
1.000000 0.387579 0.000000
0.000000 0.482094 0.192081
0.000000 0.482094 0.187778
0.000000 0.481849 0.183047
0.000000 0.481483 0.171176
0.006561 0.481086 0.150332
0.114443 0.479896 0.150210
0.167910 0.478920 0.154086
0.212558 0.477699 0.158846
0.253574 0.476478 0.164523
0.292607 0.481209 0.160250
0.338720 0.500542 0.123201
0.393835 0.521386 0.036957
0.457313 0.542779 0.000000
0.520256 0.556634 0.000000
0.573327 0.557580 0.000000
0.620111 0.550958 0.000000
0.656977 0.541833 0.000000
0.691005 0.531395 0.000000
0.723323 0.520165 0.000000
0.754757 0.509270 0.000000
0.785763 0.498299 0.000000
0.815976 0.487343 0.000000
0.845945 0.478981 0.000000
0.875486 0.473396 0.000000
0.903838 0.467414 0.000000
0.931121 0.461189 0.000000
0.957488 0.454627 0.000000
0.983062 0.447883 0.000000
1.000000 0.441047 0.000000
1.000000 0.433875 0.000000
1.000000 0.426307 0.000000
1.000000 0.418311 0.000000
0.000000 0.523461 0.209354
0.000000 0.523613 0.206149
0.000000 0.523430 0.201511
0.000000 0.523308 0.190158
0.003662 0.523217 0.172763
0.100496 0.522301 0.163272
0.160708 0.520623 0.166629
0.208530 0.519005 0.171084
0.250828 0.517571 0.176120
0.290959 0.516350 0.181765
0.331456 0.527855 0.164920
0.379980 0.547539 0.123445
0.436408 0.567529 0.001740
0.499397 0.587030 0.000000
0.560998 0.598444 0.000000
0.615381 0.600366 0.000000
0.658228 0.589258 0.000000
0.691890 0.577630 0.000000
0.723964 0.565698 0.000000
0.755123 0.553918 0.000000
0.785641 0.542382 0.000000
0.815610 0.530907 0.000000
0.844602 0.519280 0.000000
0.872892 0.507530 0.000000
0.901244 0.500206 0.000000
0.928832 0.493751 0.000000
0.955566 0.487007 0.000000
0.981659 0.480110 0.000000
1.000000 0.472969 0.000000
1.000000 0.465675 0.000000
1.000000 0.457862 0.000000
1.000000 0.449592 0.000000
0.000000 0.565270 0.226383
0.000000 0.565393 0.223850
0.000000 0.565332 0.219516
0.000000 0.565301 0.209720
0.000000 0.565118 0.193149
0.081483 0.564752 0.176333
0.151614 0.563409 0.179568
0.203037 0.561913 0.183474
0.248051 0.560388 0.188266
0.289525 0.558892 0.193210
0.328649 0.557336 0.199161
0.371008 0.574151 0.169284
0.420264 0.591974 0.123415
0.476356 0.609644 0.000000
0.537957 0.626490 0.000000
0.597406 0.635401 0.000000
0.651606 0.637293 0.000000
0.691402 0.623651 0.000000
0.724727 0.611170 0.000000
0.756161 0.598962 0.000000
0.786831 0.586816 0.000000
0.816709 0.574945 0.000000
0.845670 0.562860 0.000000
0.873777 0.550744 0.000000
0.901122 0.538506 0.000000
0.928008 0.527092 0.000000
0.954894 0.519890 0.000000
0.981079 0.512688 0.000000
1.000000 0.505150 0.000000
1.000000 0.497383 0.000000
1.000000 0.489235 0.000000
1.000000 0.480568 0.000000
0.000000 0.603021 0.243137
0.000000 0.603082 0.239963
0.000000 0.602960 0.236271
0.000000 0.602808 0.226993
0.000000 0.602625 0.212833
0.060060 0.602564 0.191348
0.140139 0.601251 0.191897
0.195346 0.599634 0.195193
0.242313 0.598016 0.199252
0.285008 0.596368 0.204166
0.325414 0.594751 0.209689
0.364233 0.598352 0.205661
0.407843 0.615015 0.172396
0.457740 0.631556 0.122560
0.513390 0.647547 0.000000
0.573480 0.662287 0.000000
0.630945 0.669215 0.000000
0.684138 0.670405 0.000000
0.722621 0.656153 0.000000
0.756497 0.643488 0.000000
0.786984 0.630640 0.000000
0.816587 0.617975 0.000000
0.845365 0.605371 0.000000
0.873381 0.592798 0.000000
0.900664 0.580102 0.000000
0.927276 0.567529 0.000000
0.953399 0.554803 0.000000
0.979461 0.544701 0.000000
1.000000 0.536950 0.000000
1.000000 0.528923 0.000000
1.000000 0.520470 0.000000
1.000000 0.511467 0.000000
0.000000 0.639185 0.259190
0.000000 0.639429 0.256748
0.000000 0.650629 0.258427
0.000000 0.650446 0.250217
0.017731 0.650111 0.237064
0.069734 0.649744 0.217380
0.132143 0.648432 0.209476
0.191501 0.646418 0.212345
0.241093 0.644373 0.216068
0.285222 0.642329 0.220554
0.326726 0.640314 0.225528
0.366247 0.638025 0.230961
0.405127 0.646235 0.215488
0.449561 0.661189 0.178744
0.499428 0.675593 0.124849
0.553948 0.689143 0.000000
0.612848 0.701778 0.000000
0.668940 0.706874 0.000000
0.721401 0.707149 0.000000
0.758572 0.692012 0.000000
0.792233 0.678340 0.000000
0.821195 0.664240 0.000000
0.849393 0.650446 0.000000
0.876616 0.636866 0.000000
0.902953 0.623102 0.000000
0.928710 0.609613 0.000000
0.953979 0.596094 0.000000
0.979034 0.582757 0.000000
1.000000 0.569329 0.000000
1.000000 0.560266 0.000000
1.000000 0.551507 0.000000
1.000000 0.542199 0.000000
0.000000 0.676539 0.276646
0.000000 0.678004 0.275120
0.000000 0.679408 0.272374
0.000000 0.680659 0.265904
0.038514 0.681422 0.254551
0.076326 0.681575 0.237583
0.119051 0.681056 0.221836
0.182864 0.679286 0.224674
0.233829 0.677424 0.228061
0.279149 0.675471 0.231937
0.321324 0.673487 0.236637
0.361334 0.671351 0.241611
0.399481 0.668849 0.247349
0.438636 0.681758 0.219516
0.482979 0.695155 0.180758
0.532158 0.707973 0.122805
0.585779 0.720119 0.000000
0.643366 0.731319 0.000000
0.698146 0.735500 0.000000
0.750057 0.735744 0.000000
0.786801 0.721004 0.000000
0.821073 0.707149 0.000000
0.849241 0.692714 0.000000
0.876555 0.678553 0.000000
0.902861 0.664393 0.000000
0.928618 0.650324 0.000000
0.953796 0.636469 0.000000
0.978759 0.622736 0.000000
1.000000 0.609186 0.000000
1.000000 0.595514 0.000000
1.000000 0.582544 0.000000
1.000000 0.572992 0.000000
0.000000 0.708278 0.292241
0.000000 0.709529 0.290654
0.000000 0.710842 0.288457
0.019043 0.711940 0.282597
0.062593 0.712642 0.271885
0.086488 0.712856 0.257053
0.107362 0.712795 0.235538
0.174533 0.711238 0.237583
0.227054 0.709560 0.240909
0.273411 0.707729 0.244633
0.316136 0.705898 0.248875
0.356725 0.703914 0.253574
0.395209 0.701503 0.258701
0.432136 0.703182 0.255283
0.471473 0.715663 0.224186
0.515770 0.727718 0.183322
0.564385 0.739284 0.121736
0.617151 0.750210 0.000000
0.673701 0.760372 0.000000
0.727321 0.763790 0.000000
0.778683 0.763790 0.000000
0.815091 0.749569 0.000000
0.849607 0.735195 0.000000
0.876768 0.720302 0.000000
0.903014 0.705531 0.000000
0.928588 0.690822 0.000000
0.953552 0.676448 0.000000
0.978302 0.662348 0.000000
1.000000 0.648371 0.000000
1.000000 0.634394 0.000000
1.000000 0.620203 0.000000
1.000000 0.605524 0.000000
0.000000 0.738979 0.308019
0.015137 0.740169 0.306767
0.032532 0.741329 0.304479
0.062440 0.742367 0.299382
0.080323 0.743008 0.289616
0.099306 0.743252 0.275914
0.117800 0.743191 0.257328
0.167605 0.742153 0.251194
0.221378 0.740536 0.254307
0.268101 0.738766 0.257755
0.311376 0.736995 0.261875
0.351965 0.735012 0.266331
0.390875 0.732753 0.271031
0.428199 0.730312 0.276432
0.464240 0.736416 0.261967
0.503868 0.748043 0.229252
0.548241 0.759426 0.186130
0.596704 0.770413 0.121401
0.649287 0.780850 0.000000
0.705440 0.790616 0.000000
0.758755 0.793820 0.000000
0.810300 0.794095 0.000000
0.846708 0.780270 0.000000
0.881224 0.765133 0.000000
0.907500 0.749630 0.000000
0.932921 0.734249 0.000000
0.957702 0.719112 0.000000
0.982147 0.704341 0.000000
1.000000 0.689662 0.000000
1.000000 0.675044 0.000000
1.000000 0.660273 0.000000
1.000000 0.645136 0.000000
0.070192 0.773251 0.326909
0.074434 0.773831 0.325383
0.080568 0.774197 0.323430
0.089693 0.774533 0.318090
0.102632 0.774685 0.309514
0.116732 0.774685 0.296849
0.132448 0.774624 0.280217
0.164370 0.774166 0.267216
0.218540 0.772854 0.270298
0.265751 0.771420 0.273747
0.309209 0.769955 0.277714
0.350347 0.768215 0.282170
0.389319 0.766171 0.286870
0.426886 0.763821 0.291875
0.463233 0.761257 0.297276
0.498451 0.771206 0.271275
0.537896 0.781704 0.236881
0.581872 0.791989 0.191409
0.629633 0.801785 0.122347
0.681147 0.810910 0.000000
0.736049 0.819272 0.000000
0.787930 0.821195 0.000000
0.838193 0.820706 0.000000
0.873808 0.806729 0.000000
0.907591 0.790555 0.000000
0.932830 0.774502 0.000000
0.957488 0.758816 0.000000
0.981811 0.743374 0.000000
1.000000 0.728237 0.000000
1.000000 0.713252 0.000000
1.000000 0.698054 0.000000
1.000000 0.682551 0.000000
0.099062 0.801816 0.343786
0.102510 0.802304 0.342565
0.105715 0.802792 0.340307
0.113497 0.803067 0.335790
0.123049 0.803220 0.327825
0.134585 0.803189 0.316686
0.147250 0.803067 0.301305
0.162631 0.802976 0.282628
0.216526 0.801633 0.285618
0.263432 0.800198 0.288945
0.306676 0.798734 0.292638
0.347265 0.797177 0.296849
0.386175 0.795285 0.301457
0.423896 0.793149 0.306401
0.460212 0.790860 0.311620
0.494911 0.791836 0.308537
0.530022 0.801846 0.279057
0.569390 0.811643 0.242802
0.612909 0.821103 0.195804
0.660151 0.830045 0.122072
0.710811 0.838285 0.000000
0.764736 0.845731 0.000000
0.815640 0.847044 0.000000
0.865446 0.846250 0.000000
0.898405 0.830716 0.000000
0.931334 0.813809 0.000000
0.956329 0.797421 0.000000
0.980438 0.781491 0.000000
1.000000 0.765896 0.000000
1.000000 0.750454 0.000000
1.000000 0.734920 0.000000
1.000000 0.719295 0.000000
0.130709 0.832792 0.363714
0.133211 0.833310 0.362402
0.135988 0.833616 0.360693
0.141146 0.833738 0.356237
0.148379 0.833646 0.348852
0.157534 0.833433 0.338689
0.168124 0.833127 0.325139
0.180087 0.832761 0.307866
0.219272 0.831510 0.303716
0.264622 0.829801 0.306401
0.306615 0.827970 0.309667
0.346563 0.826169 0.313512
0.384924 0.824094 0.317632
0.422034 0.821805 0.322179
0.457893 0.819242 0.326879
0.492836 0.816526 0.332036
0.525322 0.820829 0.317815
0.559899 0.829740 0.286442
0.598840 0.838651 0.248020
0.641779 0.847288 0.197940
0.688319 0.855436 0.119173
0.737972 0.862852 0.000000
0.790616 0.869291 0.000000
0.840299 0.869596 0.000000
0.888701 0.868070 0.000000
0.923796 0.854887 0.000000
0.955169 0.837186 0.000000
0.980133 0.820127 0.000000
1.000000 0.803799 0.000000
1.000000 0.787716 0.000000
1.000000 0.771756 0.000000
1.000000 0.755734 0.000000
0.155398 0.858488 0.380865
0.157626 0.859007 0.379919
0.159945 0.859312 0.378424
0.164248 0.859434 0.374548
0.170626 0.859373 0.367956
0.178225 0.859220 0.358679
0.187442 0.859007 0.346532
0.197848 0.858854 0.331365
0.223178 0.858213 0.321080
0.267277 0.856779 0.324010
0.308080 0.855283 0.327398
0.347631 0.853696 0.331090
0.385473 0.851987 0.335576
0.422156 0.850004 0.340002
0.457771 0.847807 0.344732
0.492653 0.845457 0.350042
0.526726 0.842954 0.355718
0.557305 0.850645 0.329992
0.591669 0.859037 0.296941
0.630121 0.867185 0.256413
0.672206 0.874937 0.203830
0.717739 0.882078 0.118929
0.766354 0.888334 0.000000
0.817655 0.893614 0.000000
0.866209 0.893095 0.000000
0.913848 0.891112 0.000000
0.949584 0.878935 0.000000
0.979187 0.860166 0.000000
1.000000 0.842405 0.000000
1.000000 0.825681 0.000000
1.000000 0.809171 0.000000
1.000000 0.792569 0.000000
0.182650 0.884489 0.400061
0.184512 0.884825 0.399145
0.186465 0.884947 0.397742
0.189731 0.884916 0.393957
0.194339 0.884733 0.387854
0.200778 0.884520 0.379400
0.208499 0.884215 0.368475
0.217807 0.884031 0.354894
0.230808 0.883848 0.339696
0.272129 0.882567 0.342473
0.311925 0.881163 0.345739
0.350256 0.879789 0.349645
0.387243 0.878233 0.353765
0.423377 0.876493 0.358587
0.458534 0.874479 0.363256
0.492897 0.872282 0.368444
0.526574 0.869963 0.373907
0.558190 0.870329 0.371405
0.588037 0.878202 0.341680
0.621790 0.885893 0.306920
0.659388 0.893278 0.263951
0.700649 0.900114 0.206943
0.745052 0.906188 0.113405
0.792447 0.911437 0.000000
0.842496 0.915679 0.000000
0.889921 0.914427 0.000000
0.936889 0.912078 0.000000
0.974456 0.901732 0.000000
1.000000 0.881163 0.000000
1.000000 0.862577 0.000000
1.000000 0.845487 0.000000
1.000000 0.828397 0.000000
0.209201 0.908598 0.419104
0.210483 0.908782 0.418250
0.212161 0.908904 0.417029
0.215030 0.908934 0.413672
0.219394 0.908934 0.408118
0.225620 0.909026 0.401251
0.233036 0.909300 0.391913
0.242222 0.909758 0.380713
0.252537 0.910399 0.366918
0.285252 0.910185 0.366125
0.323522 0.909575 0.370275
0.360632 0.908904 0.374823
0.396887 0.907958 0.379828
0.432380 0.906767 0.384985
0.467048 0.905180 0.390387
0.500755 0.903319 0.395697
0.534081 0.901213 0.401495
0.566796 0.899107 0.407568
0.595178 0.902586 0.393713
0.623865 0.909728 0.361944
0.656489 0.916564 0.324620
0.692836 0.922911 0.278599
0.732692 0.928557 0.217746
0.775753 0.933471 0.116548
0.821805 0.937438 0.000000
0.870542 0.940429 0.000000
0.917113 0.938384 0.000000
0.963348 0.935424 0.000000
1.000000 0.926757 0.000000
1.000000 0.904143 0.000000
1.000000 0.884031 0.000000
1.000000 0.865965 0.000000
0.245274 0.935882 0.444495
0.246403 0.936004 0.443732
0.247440 0.936034 0.442420
0.249912 0.935943 0.439551
0.253330 0.935821 0.434485
0.258061 0.935729 0.427863
0.264347 0.935729 0.419623
0.271580 0.935851 0.409155
0.280491 0.936095 0.396979
0.301396 0.935882 0.390570
0.336400 0.934905 0.394049
0.371069 0.933837 0.398169
0.405219 0.932647 0.402564
0.439002 0.931243 0.407538
