data/fiter_cube/67355442/1023283/file.cube
# Created by Adobe Lightroom plugin Export LUT (1.17.0)
# www.johnrellis.com/lightroom/exportlut.htm
# Preset: 滨田英明日系 [云集]
# Color profile: C:\Program Files (x86)\Common Files\Adobe\Color\Profiles\Recommended\AdobeRGB1998.icc
LUT_3D_SIZE 8
DOMAIN_MIN 0.000000 0.000000 0.000000
DOMAIN_MAX 0.903226 0.903226 0.903226
0.000000 0.000000 0.000000
0.226139 0.088869 0.067048
0.432380 0.162173 0.115450
0.629725 0.225376 0.148196
0.788296 0.289799 0.195651
0.893492 0.343114 0.248447
0.981079 0.399695 0.315587
1.000000 0.469001 0.398688
0.000000 0.192020 0.111971
0.218845 0.207980 0.090486
0.441138 0.240055 0.105928
0.643061 0.282963 0.143954
0.797177 0.328649 0.196536
0.901030 0.369574 0.251347
0.985626 0.418799 0.320165
1.000000 0.481636 0.402014
0.000000 0.328801 0.210666
0.160403 0.336126 0.199130
0.405005 0.375250 0.182284
0.629755 0.405005 0.169436
0.792844 0.423011 0.182071
0.896849 0.435554 0.243107
0.979187 0.461372 0.311925
1.000000 0.509514 0.397070
0.000000 0.468208 0.300633
0.116823 0.474311 0.295689
0.339147 0.482002 0.275303
0.584771 0.527733 0.269291
0.768276 0.535119 0.263371
0.885161 0.529015 0.263523
0.976837 0.533989 0.306737
1.000000 0.563256 0.397650
0.000000 0.596887 0.375830
0.036744 0.600244 0.371405
0.310704 0.607202 0.360082
0.519493 0.624323 0.348455
0.743130 0.660365 0.359716
0.875822 0.647761 0.362341
0.974670 0.633051 0.351202
1.000000 0.633356 0.399481
0.000000 0.713771 0.436561
0.000000 0.711543 0.431617
0.294591 0.714321 0.428229
0.479805 0.714626 0.416968
0.681270 0.743130 0.424231
0.856199 0.757259 0.441291
0.960052 0.737209 0.437293
1.000000 0.714107 0.409247
0.000000 0.813687 0.485817
0.000000 0.813077 0.485451
0.307286 0.814054 0.489326
0.490944 0.813565 0.496986
0.641688 0.816648 0.484962
0.826658 0.848234 0.511437
0.954437 0.844297 0.528344
1.000000 0.816770 0.512200
0.000000 0.917937 0.537133
0.141512 0.917723 0.539757
0.346624 0.916136 0.549432
0.541680 0.910857 0.580407
0.671931 0.915129 0.582238
0.809506 0.924681 0.586725
0.951232 0.938750 0.601678
1.000000 0.911833 0.597986
0.000000 0.115938 0.276463
0.188815 0.132082 0.264317
0.413245 0.199069 0.256260
0.621851 0.271305 0.265354
0.790036 0.329137 0.260227
0.901640 0.371069 0.254917
0.986999 0.418036 0.321630
1.000000 0.479744 0.404334
0.000000 0.223758 0.289769
0.175082 0.229709 0.282719
0.403418 0.261509 0.280156
0.623102 0.310735 0.276463
0.791775 0.358556 0.272343
0.903471 0.393622 0.268315
0.990051 0.434546 0.324559
1.000000 0.491890 0.407507
0.000000 0.343694 0.304479
0.149630 0.351324 0.313603
0.380072 0.378882 0.306096
0.611841 0.414740 0.308415
0.786038 0.442695 0.308354
0.898039 0.458961 0.304784
0.986786 0.477089 0.319860
1.000000 0.519982 0.404242
0.000000 0.483101 0.366735
0.105928 0.487343 0.367987
0.333776 0.495857 0.352605
0.581506 0.539757 0.356786
0.770199 0.555535 0.361822
0.888334 0.555200 0.361517
0.982788 0.554070 0.348058
1.000000 0.572168 0.404791
0.000000 0.603510 0.420386
0.000000 0.607324 0.417639
0.309483 0.615320 0.410895
0.515709 0.629328 0.401740
0.742031 0.669947 0.419654
0.875120 0.662074 0.424140
0.973510 0.650874 0.414374
1.000000 0.638972 0.404273
0.000000 0.719936 0.470161
0.000000 0.720851 0.467964
0.296941 0.722896 0.465003
0.483589 0.722835 0.455726
0.678523 0.745815 0.461707
0.852811 0.762753 0.483009
0.957610 0.747585 0.481697
1.000000 0.727504 0.455756
0.000000 0.820249 0.512139
0.000000 0.821103 0.513115
0.309361 0.821164 0.515770
0.503838 0.818662 0.529686
0.642267 0.817594 0.512230
0.826108 0.851133 0.544244
0.954162 0.851530 0.563806
1.000000 0.827359 0.550347
0.000000 0.922148 0.554864
0.118379 0.921386 0.556817
0.341039 0.919432 0.565515
0.539879 0.913725 0.594141
0.670283 0.912749 0.596521
0.806699 0.923156 0.601556
0.949371 0.939757 0.621546
1.000000 0.915648 0.620630
0.000000 0.207645 0.464942
0.000000 0.210452 0.461158
0.336980 0.233555 0.446357
0.538170 0.274540 0.423865
0.741726 0.379431 0.450233
0.865873 0.456947 0.467811
0.967224 0.491676 0.457740
1.000000 0.497566 0.421241
0.000000 0.281590 0.467292
0.000000 0.280919 0.465705
0.331548 0.285039 0.454902
0.537621 0.317784 0.436774
0.742947 0.412360 0.464759
0.867704 0.475441 0.475349
0.968811 0.506767 0.465126
1.000000 0.510216 0.428168
0.000000 0.389349 0.478706
0.000000 0.389258 0.476234
0.315587 0.393225 0.469520
0.526238 0.416480 0.460670
0.734188 0.479805 0.483345
0.863310 0.522545 0.489235
0.965972 0.547265 0.480964
1.000000 0.547173 0.446113
0.000000 0.497078 0.486427
0.000000 0.498665 0.487160
0.295109 0.506645 0.488045
0.516686 0.526543 0.485084
0.723079 0.568444 0.503593
0.855619 0.595850 0.513725
0.960113 0.611292 0.508049
1.000000 0.606561 0.476600
0.000000 0.612299 0.514366
0.000000 0.615167 0.515984
0.279271 0.622065 0.518975
0.483162 0.629389 0.508629
0.703914 0.668147 0.530846
0.847654 0.686152 0.550896
0.953918 0.693202 0.549676
1.000000 0.683772 0.522210
0.000000 0.724819 0.548974
0.000000 0.725643 0.549767
0.273960 0.727901 0.551080
0.476265 0.729854 0.547204
0.655482 0.739651 0.550958
0.834287 0.773678 0.586694
0.943877 0.774960 0.592309
1.000000 0.764431 0.572473
0.000000 0.822141 0.575830
0.000000 0.822568 0.576806
0.279759 0.823514 0.578607
0.488594 0.822416 0.586481
0.647913 0.821561 0.592340
0.812009 0.849210 0.614527
0.942046 0.860166 0.638025
1.000000 0.844877 0.628382
0.000000 0.925139 0.602991
0.000000 0.925261 0.603571
0.296117 0.923827 0.609613
0.516625 0.917021 0.629450
0.676020 0.914672 0.649805
0.798825 0.920806 0.646204
0.940215 0.940185 0.672328
1.000000 0.923003 0.675654
0.000000 0.292241 0.628046
0.000000 0.301366 0.623041
0.218723 0.305760 0.615595
0.481971 0.325109 0.599145
0.666102 0.362432 0.568994
0.821256 0.470192 0.576654
0.938567 0.603326 0.627405
1.000000 0.629450 0.616938
0.000000 0.346105 0.622370
0.000000 0.343755 0.620874
0.224857 0.343511 0.616358
0.478920 0.358160 0.601282
0.663935 0.388281 0.574060
0.820188 0.492134 0.584771
0.938659 0.616999 0.634699
1.000000 0.635309 0.618341
0.000000 0.428687 0.629633
0.000000 0.429725 0.628382
0.236301 0.434943 0.624414
0.474800 0.444739 0.612604
0.655665 0.458686 0.587854
0.810452 0.551232 0.604578
0.931853 0.637690 0.638453
1.000000 0.652613 0.620874
0.000000 0.529137 0.637140
0.000000 0.529870 0.636591
0.219486 0.534417 0.632868
0.463203 0.543603 0.624628
0.644800 0.553338 0.608087
0.807462 0.634913 0.637812
0.931701 0.683345 0.654841
1.000000 0.693660 0.637659
0.000000 0.627649 0.641260
0.000000 0.629114 0.641901
0.206943 0.633387 0.641138
0.447181 0.638544 0.636500
0.631006 0.647395 0.625330
0.802090 0.703151 0.658503
0.927459 0.736599 0.671778
1.000000 0.745418 0.659205
0.000000 0.728573 0.655848
0.000000 0.727474 0.654170
0.179843 0.731991 0.655818
0.435248 0.734279 0.651423
0.626276 0.735225 0.646418
0.797360 0.772793 0.675196
0.923644 0.798947 0.693874
1.000000 0.803983 0.684932
0.000000 0.828000 0.671962
0.000000 0.827665 0.671199
0.182650 0.826963 0.668605
0.439338 0.825406 0.664332
0.634485 0.824063 0.672023
0.780301 0.838407 0.680690
0.925780 0.869718 0.719203
1.000000 0.867491 0.717220
0.000000 0.928374 0.686946
0.000000 0.927825 0.685542
0.148653 0.926818 0.680842
0.449256 0.922942 0.683101
0.655360 0.918791 0.704585
0.785550 0.919799 0.706935
0.925383 0.940398 0.735256
1.000000 0.933501 0.746487
0.000000 0.359106 0.743282
0.000000 0.368048 0.740627
0.000000 0.379644 0.737270
0.394873 0.403723 0.727382
0.599023 0.423072 0.714015
0.763546 0.454261 0.687587
0.895811 0.563195 0.686854
1.000000 0.685481 0.727565
0.000000 0.393866 0.741299
0.000000 0.396887 0.738460
0.000000 0.404883 0.735531
0.399542 0.427985 0.728176
0.598230 0.443824 0.715663
0.761959 0.471992 0.690333
0.894987 0.576257 0.690669
1.000000 0.693751 0.731075
0.000000 0.460395 0.741543
0.000000 0.462318 0.740352
0.116091 0.472389 0.738399
0.412665 0.494331 0.732357
0.597498 0.506523 0.721096
0.758938 0.530694 0.701289
0.894560 0.619074 0.704829
1.000000 0.722560 0.744015
0.000000 0.538262 0.746456
0.000000 0.540063 0.746059
0.138888 0.551110 0.742641
0.421698 0.571801 0.736416
0.600031 0.591791 0.726375
0.750820 0.605524 0.712245
0.894774 0.677089 0.722499
1.000000 0.757595 0.754940
0.000000 0.627100 0.752285
0.000000 0.628077 0.751400
0.120455 0.635370 0.748440
0.415900 0.648493 0.742763
0.607141 0.672816 0.735134
0.746578 0.680720 0.722744
0.900511 0.749386 0.749203
1.000000 0.791501 0.762203
0.000000 0.720119 0.761776
0.000000 0.721309 0.761471
0.101167 0.726955 0.760891
0.408728 0.735866 0.757504
0.601434 0.748745 0.748562
0.742672 0.755764 0.736599
0.900206 0.812802 0.772702
1.000000 0.837552 0.778439
0.000000 0.823331 0.781582
0.000000 0.824674 0.781643
0.000000 0.828428 0.780148
0.369451 0.833707 0.773953
0.585779 0.835569 0.758663
0.749813 0.837980 0.753811
0.906279 0.877256 0.793149
0.998840 0.891905 0.803067
0.000000 0.938781 0.806455
0.000000 0.939574 0.804318
0.000000 0.938659 0.796872
0.330358 0.933501 0.778744
0.585138 0.928588 0.766842
0.771084 0.927092 0.780606
0.903990 0.939513 0.795682
1.000000 0.946380 0.821225
0.000000 0.413458 0.835599
0.000000 0.419135 0.834592
0.000000 0.437568 0.833433
0.333501 0.477058 0.827726
0.530205 0.496986 0.819669
0.698634 0.521721 0.808804
0.856016 0.561913 0.798795
0.972107 0.650202 0.788815
0.000000 0.438178 0.839506
0.000000 0.442878 0.838895
0.000000 0.459022 0.836576
0.347936 0.497475 0.830838
0.536309 0.515435 0.822171
0.700710 0.538567 0.810849
0.856260 0.574670 0.801266
0.972717 0.658961 0.791470
0.000000 0.489754 0.837705
0.000000 0.492622 0.837675
0.000000 0.507744 0.835874
0.364813 0.540948 0.830838
0.549859 0.565423 0.823209
0.702754 0.584222 0.812772
0.853880 0.609857 0.805264
0.973175 0.684779 0.797421
0.000000 0.552026 0.840482
0.000000 0.555291 0.840452
0.000000 0.570977 0.837919
0.371221 0.594965 0.831327
0.568505 0.630610 0.823148
0.703700 0.641688 0.813962
0.849546 0.656916 0.808255
0.974731 0.725063 0.805325
0.000000 0.627405 0.847074
0.000000 0.629908 0.846372
0.000000 0.641474 0.843687
0.371130 0.660853 0.838865
0.575097 0.692378 0.832242
0.713375 0.708186 0.823941
0.853056 0.715694 0.815305
0.982177 0.785672 0.822538
0.000000 0.708980 0.853880
0.000000 0.710384 0.852598
0.000000 0.718196 0.850278
0.364294 0.732174 0.846403
0.567895 0.754696 0.841184
0.719295 0.773831 0.833433
0.852903 0.780179 0.819242
0.985901 0.858885 0.853422
0.000000 0.797177 0.867491
0.000000 0.798306 0.866697
0.000000 0.804166 0.865507
0.321263 0.814511 0.862364
0.545129 0.829984 0.855650
0.710262 0.844144 0.844144
0.853147 0.855467 0.836271
0.985290 0.909758 0.875395
0.000000 0.907927 0.902373
0.000000 0.910124 0.902098
0.000000 0.916991 0.900175
0.167514 0.925566 0.893919
0.495094 0.936706 0.881987
0.704189 0.938079 0.856199
0.873472 0.936858 0.858000
0.988922 0.958404 0.892485
0.000000 0.476936 0.934081
0.000000 0.480842 0.934142
0.000000 0.498207 0.932158
0.310521 0.549920 0.926757
0.521050 0.590356 0.920439
0.667292 0.612512 0.912993
0.801236 0.633112 0.903929
0.950347 0.669978 0.909239
0.000000 0.488685 0.932158
0.000000 0.492042 0.932250
0.000000 0.509117 0.930358
0.313329 0.557610 0.925414
0.525017 0.599695 0.918578
0.666743 0.618982 0.910735
0.798886 0.637751 0.901579
0.948028 0.672724 0.907256
0.000000 0.525933 0.934051
0.000000 0.528283 0.933562
0.000000 0.544701 0.931182
0.324285 0.586389 0.926421
0.545464 0.636164 0.919005
0.675349 0.650538 0.911894
0.801755 0.665736 0.904051
0.949584 0.695552 0.910521
0.000000 0.575891 0.936156
0.000000 0.577783 0.935698
0.000000 0.591089 0.933257
0.322210 0.626093 0.929046
0.562127 0.680537 0.921843
0.688167 0.696498 0.915618
0.806638 0.706600 0.908507
0.951568 0.728878 0.913176
0.000000 0.635737 0.937041
0.000000 0.636927 0.936278
0.000000 0.646693 0.934020
0.281468 0.669093 0.930632
0.537194 0.711086 0.924529
0.695430 0.743038 0.917784
0.809445 0.750393 0.910796
0.953460 0.770474 0.913603
0.000000 0.704555 0.939971
0.000000 0.705867 0.939635
0.000000 0.713558 0.938201
0.264073 0.731258 0.935485
0.515648 0.760403 0.930846
0.691096 0.790829 0.925689
0.820462 0.808927 0.919097
0.956909 0.822843 0.913298
0.000000 0.779141 0.945861
0.000000 0.780606 0.945861
0.000000 0.786435 0.944762
0.240635 0.800351 0.942473
0.506188 0.822904 0.938018
0.681025 0.846098 0.933318
0.833890 0.873350 0.928893
0.959045 0.884672 0.913787
0.000000 0.865660 0.966247
0.000000 0.867063 0.966125
0.000000 0.873045 0.966613
0.000000 0.884245 0.965240
0.449104 0.903136 0.961364
0.654505 0.923003 0.954131
0.826749 0.941466 0.939727
0.966949 0.959411 0.943877
0.000000 0.540734 1.000000
0.000000 0.542901 1.000000
0.000000 0.549279 1.000000
0.286778 0.599481 1.000000
0.554894 0.677058 0.995117
0.666346 0.693141 0.991394
0.779629 0.710780 0.987579
0.897612 0.730617 0.983825
0.000000 0.546929 1.000000
0.000000 0.548943 1.000000
0.000000 0.555016 1.000000
0.283726 0.603326 1.000000
0.558526 0.683009 0.994446
0.667720 0.698024 0.990814
0.779751 0.714717 0.986969
0.897612 0.734463 0.983612
0.000000 0.567132 1.000000
0.000000 0.568750 1.000000
0.000000 0.573846 1.000000
0.270451 0.617395 1.000000
0.555535 0.694362 0.994842
0.675044 0.717128 0.990631
0.783474 0.731777 0.987152
0.899748 0.750576 0.984436
0.000000 0.596918 1.000000
0.000000 0.598413 1.000000
0.000000 0.602960 1.000000
0.198276 0.633570 1.000000
0.535546 0.707057 0.996551
0.686702 0.747860 0.991669
0.790372 0.760189 0.988647
0.903166 0.775570 0.985473
0.000000 0.644251 1.000000
0.000000 0.644709 1.000000
0.000000 0.644862 1.000000
0.000000 0.644434 1.000000
0.472572 0.714748 0.999329
0.689204 0.778805 0.993072
0.798276 0.795743 0.990478
0.908263 0.808927 0.986725
0.000000 0.701259 1.000000
0.000000 0.701442 1.000000
0.000000 0.701961 1.000000
0.000000 0.702235 1.000000
0.366278 0.734035 1.000000
0.644007 0.793454 0.997711
0.813962 0.843656 0.994232
0.916991 0.852293 0.989075
0.000000 0.764858 1.000000
0.000000 0.765286 1.000000
0.000000 0.766629 1.000000
0.000000 0.769284 1.000000
0.335454 0.792905 1.000000
0.607416 0.833127 1.000000
0.803830 0.878630 0.997009
0.928405 0.902739 0.991089
0.000000 0.831296 1.000000
0.000000 0.831968 1.000000
0.000000 0.834653 1.000000
0.000000 0.839841 1.000000
0.280369 0.856626 1.000000
0.587884 0.889342 1.000000
0.789761 0.924346 0.999817
0.949950 0.963592 0.994568
