data/fiter_cube/67355442/1023283/file.cube
# Created by Adobe Lightroom plugin Export LUT (1.17.0)
# www.johnrellis.com/lightroom/exportlut.htm
# Preset: 滨田英明日系 [云集]
# Color profile: C:\Program Files (x86)\Common Files\Adobe\Color\Profiles\Recommended\AdobeRGB1998.icc
LUT_3D_SIZE 5
DOMAIN_MIN 0.000000 0.000000 0.000000
DOMAIN_MAX 0.903226 0.903226 0.903226
0.000000 0.000000 0.000000
0.379004 0.145632 0.106905
0.718349 0.258427 0.168765
0.916777 0.355810 0.262699
1.000000 0.469001 0.398688
0.000000 0.295842 0.185824
0.354040 0.330541 0.157015
0.722988 0.384771 0.152834
0.918425 0.420661 0.259312
1.000000 0.498390 0.396124
0.000000 0.534356 0.340459
0.270207 0.546136 0.323400
0.672969 0.600458 0.311894
0.908415 0.585504 0.311131
1.000000 0.597009 0.398962
0.000000 0.737484 0.448005
0.240482 0.738705 0.443610
0.562127 0.740047 0.427802
0.882292 0.779782 0.461494
1.000000 0.740200 0.434485
0.000000 0.917937 0.537133
0.298039 0.916838 0.545861
0.614832 0.915190 0.589502
0.846586 0.928985 0.592248
1.000000 0.911833 0.597986
0.000000 0.188388 0.426062
0.301213 0.209201 0.405646
0.676600 0.330480 0.407538
0.905455 0.447242 0.423377
1.000000 0.487434 0.403784
0.000000 0.352239 0.436713
0.276432 0.352239 0.428351
0.668635 0.427100 0.437690
0.902556 0.497230 0.440803
1.000000 0.516381 0.403204
0.000000 0.550286 0.468177
0.240848 0.561364 0.473030
0.641138 0.610132 0.478035
0.890471 0.633173 0.495338
1.000000 0.624231 0.454444
0.000000 0.743404 0.530602
0.218906 0.744411 0.530541
0.559075 0.745480 0.525628
0.866331 0.792172 0.571710
1.000000 0.775051 0.556176
0.000000 0.921477 0.584894
0.249729 0.920348 0.590845
0.612757 0.913054 0.633814
0.838132 0.926238 0.639704
1.000000 0.919493 0.656855
0.000000 0.327794 0.690822
0.000000 0.341131 0.685420
0.546014 0.375860 0.662562
0.822080 0.479286 0.623682
1.000000 0.684474 0.694057
0.000000 0.425910 0.688777
0.000000 0.429450 0.686152
0.541375 0.452522 0.669154
0.817777 0.538933 0.641321
1.000000 0.696071 0.693843
0.000000 0.583734 0.700587
0.000000 0.588098 0.697841
0.541222 0.614221 0.685298
0.812436 0.672053 0.684169
1.000000 0.746578 0.704829
0.000000 0.749264 0.713222
0.000000 0.753750 0.714015
0.519097 0.761898 0.705104
0.813413 0.796689 0.721767
1.000000 0.837369 0.742000
0.000000 0.934783 0.743832
0.000000 0.932830 0.737392
0.521477 0.925505 0.725185
0.810727 0.924254 0.743099
1.000000 0.940490 0.785214
0.000000 0.431159 0.865263
0.000000 0.447272 0.862089
0.431800 0.508751 0.851164
0.726253 0.551965 0.834165
0.966278 0.649592 0.814664
0.000000 0.485786 0.865660
0.000000 0.499153 0.863523
0.459968 0.561212 0.853574
0.730159 0.595605 0.837613
0.967346 0.674006 0.819852
0.000000 0.594110 0.870878
0.000000 0.606836 0.868406
0.480842 0.656062 0.859159
0.735561 0.688899 0.843168
0.970642 0.742367 0.829343
0.000000 0.726619 0.876890
0.000000 0.734890 0.875822
0.461189 0.762264 0.869352
0.747677 0.799008 0.858213
0.982055 0.867582 0.869017
0.000000 0.897429 0.920958
0.000000 0.903777 0.919280
0.349676 0.921172 0.909331
0.731807 0.939483 0.878111
0.985534 0.961120 0.909361
0.000000 0.540734 1.000000
0.000000 0.547204 1.000000
0.450294 0.643183 0.998230
0.694240 0.697444 0.990509
0.897612 0.730617 0.983825
0.000000 0.561334 1.000000
0.000000 0.566766 1.000000
0.443122 0.654108 0.998138
0.699611 0.714992 0.989899
0.899290 0.745937 0.984344
0.000000 0.618891 1.000000
0.000000 0.619165 1.000000
0.360479 0.673671 1.000000
0.714107 0.766049 0.990814
0.905303 0.790890 0.985931
0.000000 0.717220 1.000000
0.000000 0.717983 1.000000
0.092958 0.728542 1.000000
0.683650 0.813901 0.997681
0.919219 0.863676 0.989441
0.000000 0.831296 1.000000
0.000000 0.833738 1.000000
0.000000 0.843626 1.000000
0.640864 0.897398 1.000000
0.949950 0.963592 0.994568
