data/fiter_cube/67355442/1023283/file.cube
# Created by Adobe Lightroom plugin Export LUT (1.17.0)
# www.johnrellis.com/lightroom/exportlut.htm
# Preset: 滨田英明日系 [云集]
# Color profile: C:\Program Files (x86)\Common Files\Adobe\Color\Profiles\Recommended\AdobeRGB1998.icc
LUT_3D_SIZE 32
DOMAIN_MIN 0.0 0.0 0.0
DOMAIN_MAX 1.0 1.0 1.0
0.000000 0.000000 0.000000
0.072084 0.015015 0.010254
0.113893 0.034577 0.019348
0.168948 0.066468 0.044648
0.226139 0.088869 0.067048
0.280247 0.108949 0.081544
0.328191 0.128511 0.096712
0.379004 0.145632 0.106905
0.432380 0.162173 0.115450
0.482734 0.178073 0.123751
0.531182 0.193729 0.131807
0.579828 0.209415 0.140200
0.629725 0.225376 0.148196
0.676783 0.241855 0.157504
0.718349 0.258427 0.168765
0.755459 0.274479 0.181888
0.788296 0.289799 0.195651
0.817746 0.304387 0.209262
0.844388 0.317784 0.222416
0.869444 0.330571 0.235050
0.893492 0.343114 0.248447
0.916777 0.355810 0.262699
0.939330 0.369451 0.278660
0.960754 0.384222 0.296574
0.981079 0.399695 0.315587
1.000000 0.416510 0.336065
1.000000 0.433936 0.357061
1.000000 0.451637 0.378210
1.000000 0.469001 0.398688
1.000000 0.486397 0.419104
1.000000 0.504051 0.439521
1.000000 0.522332 0.460639
0.000000 0.063874 0.022156
0.071290 0.068849 0.011841
0.114199 0.077790 0.014771
0.169223 0.091859 0.039796
0.226902 0.108125 0.065278
0.280949 0.124636 0.080110
0.329717 0.141054 0.095247
0.381292 0.156863 0.105653
0.434821 0.172030 0.114900
0.485634 0.186923 0.123354
0.534325 0.201785 0.131533
0.583642 0.216587 0.140139
0.633936 0.232700 0.148379
0.680690 0.248569 0.158083
0.722286 0.264469 0.169558
0.759091 0.280095 0.182498
0.791653 0.295140 0.197177
0.821012 0.309270 0.210391
0.847471 0.322240 0.223697
0.872435 0.334661 0.236515
0.896300 0.346929 0.250004
0.919341 0.359503 0.264652
0.941650 0.373053 0.280613
0.962890 0.387488 0.298405
0.983001 0.402930 0.317357
1.000000 0.419715 0.338109
1.000000 0.436744 0.358892
1.000000 0.454322 0.379950
1.000000 0.471382 0.400275
1.000000 0.488594 0.420447
1.000000 0.506188 0.441016
1.000000 0.524376 0.462043
0.000000 0.099092 0.057618
0.070985 0.103792 0.042329
0.112764 0.108400 0.028534
0.169345 0.117525 0.035309
0.227756 0.129519 0.062257
0.281956 0.143160 0.079377
0.330999 0.156405 0.093965
0.383032 0.170260 0.104738
0.437232 0.184329 0.113283
0.487648 0.198062 0.122072
0.536767 0.211673 0.130831
0.586114 0.226139 0.139559
0.636500 0.241062 0.147707
0.683101 0.256535 0.157992
0.724331 0.271733 0.169894
0.761135 0.286442 0.183444
0.793606 0.300999 0.197330
0.822782 0.314458 0.211276
0.849180 0.327031 0.224430
0.873960 0.339055 0.237247
0.897734 0.350927 0.250645
0.920684 0.362982 0.265354
0.942870 0.376318 0.281285
0.963958 0.390509 0.299016
0.983917 0.405951 0.318395
1.000000 0.422217 0.338781
1.000000 0.439338 0.359869
1.000000 0.456580 0.380774
1.000000 0.473640 0.401190
1.000000 0.490608 0.421302
1.000000 0.507897 0.441627
1.000000 0.526024 0.462745
0.000000 0.149996 0.086213
0.061463 0.152010 0.081392
0.107759 0.153231 0.075288
0.165896 0.157748 0.061524
0.226871 0.166812 0.055818
0.281437 0.175235 0.075196
0.330755 0.184634 0.090791
0.383673 0.195712 0.101930
0.438117 0.207645 0.110719
0.489082 0.219364 0.119692
0.538384 0.231571 0.128206
0.588403 0.244236 0.137270
0.639033 0.258122 0.146212
0.685481 0.272160 0.156649
0.726711 0.285557 0.169039
0.763302 0.299260 0.182712
0.795712 0.312352 0.196963
0.824887 0.324773 0.211307
0.851347 0.336370 0.224765
0.876219 0.347631 0.238193
0.900084 0.358862 0.251713
0.922942 0.370489 0.266239
0.944823 0.383154 0.282536
0.965423 0.396704 0.300359
0.984924 0.411200 0.319402
1.000000 0.426978 0.339635
1.000000 0.443153 0.360235
1.000000 0.459846 0.380774
1.000000 0.476417 0.401099
1.000000 0.493385 0.421637
1.000000 0.510643 0.442267
1.000000 0.528466 0.463172
0.000000 0.192020 0.111971
0.046815 0.193088 0.113069
0.099916 0.194339 0.111849
0.154238 0.197482 0.103365
0.218845 0.207980 0.090486
0.280369 0.216373 0.072877
0.332372 0.221408 0.084962
0.386206 0.230350 0.096498
0.441138 0.240055 0.105928
0.492134 0.249760 0.116182
0.541863 0.259648 0.125185
0.592432 0.271061 0.134279
0.643061 0.282963 0.143954
0.689021 0.294926 0.154452
0.729549 0.306310 0.167483
0.765408 0.317723 0.181460
0.797177 0.328649 0.196536
0.825925 0.339178 0.210422
0.852232 0.349493 0.224002
0.877165 0.359411 0.237217
0.901030 0.369574 0.251347
0.923949 0.380499 0.266514
0.945769 0.392279 0.282872
0.966308 0.405035 0.300999
0.985626 0.418799 0.320165
1.000000 0.433692 0.340246
1.000000 0.449409 0.360937
1.000000 0.465400 0.381567
1.000000 0.481636 0.402014
1.000000 0.497902 0.422187
1.000000 0.514855 0.442939
1.000000 0.532433 0.464088
0.000000 0.229648 0.137484
0.005310 0.230808 0.138674
0.086091 0.232700 0.136660
0.142794 0.234806 0.131136
0.202152 0.241032 0.123079
0.267826 0.252964 0.112367
0.327764 0.260746 0.102083
0.385351 0.268437 0.089906
0.440711 0.276524 0.098604
0.492226 0.284245 0.108827
0.542290 0.292241 0.119600
0.593347 0.301579 0.129213
0.643977 0.311864 0.139345
0.689967 0.321477 0.151003
0.730373 0.330694 0.164340
0.766018 0.339818 0.179355
0.797574 0.348577 0.194522
0.826139 0.357183 0.208682
0.852262 0.365515 0.222416
0.877043 0.373846 0.236210
0.900816 0.382727 0.250370
0.923613 0.392309 0.265293
0.931243 0.393225 0.271366
0.953277 0.404791 0.288731
0.974090 0.417670 0.308110
0.993774 0.431647 0.328344
1.000000 0.447120 0.350195
1.000000 0.462989 0.371679
1.000000 0.479316 0.393194
1.000000 0.495827 0.414496
1.000000 0.512749 0.435889
1.000000 0.530602 0.457862
0.000000 0.261387 0.160555
0.000000 0.262303 0.159701
0.066255 0.264134 0.158206
0.126802 0.266728 0.153201
0.184115 0.268589 0.147280
0.242496 0.275792 0.140414
0.305516 0.287388 0.132692
0.368444 0.298558 0.125216
0.426490 0.306859 0.118654
0.479805 0.314000 0.114107
0.529992 0.321233 0.111299
0.580194 0.328801 0.120363
0.631403 0.337804 0.131319
0.679103 0.346227 0.142947
0.721340 0.353979 0.157076
0.758663 0.361486 0.172702
0.791470 0.368688 0.189120
0.820798 0.375555 0.203891
0.847166 0.382177 0.218082
0.871763 0.388617 0.231968
0.894926 0.395483 0.245457
0.916869 0.402777 0.259617
0.937682 0.410986 0.275242
0.957702 0.420203 0.291814
0.976898 0.431189 0.310460
0.995636 0.443702 0.330388
1.000000 0.457862 0.351751
1.000000 0.472755 0.373205
1.000000 0.488075 0.394568
1.000000 0.503838 0.415869
1.000000 0.520287 0.437537
1.000000 0.537469 0.459449
0.000000 0.295842 0.185824
0.000000 0.296696 0.184573
0.034516 0.297978 0.183169
0.111971 0.300633 0.177554
0.171633 0.302220 0.171847
0.227726 0.306157 0.167758
0.286473 0.314488 0.162356
0.354040 0.330541 0.157015
0.420813 0.344091 0.151095
0.476112 0.350042 0.146120
0.528374 0.355901 0.142855
0.580133 0.362890 0.139773
0.632654 0.371496 0.137667
0.680964 0.378943 0.137362
0.722988 0.384771 0.152834
0.760220 0.390143 0.169375
0.792844 0.395117 0.185916
0.822049 0.399908 0.202090
0.848508 0.404547 0.216464
0.873198 0.409522 0.230472
0.896391 0.414679 0.244816
0.918425 0.420661 0.259312
0.939300 0.427619 0.275608
0.959258 0.435859 0.292576
0.978393 0.445594 0.311589
0.997009 0.457160 0.331975
1.000000 0.470100 0.353246
1.000000 0.483955 0.374762
1.000000 0.498390 0.396124
1.000000 0.513146 0.417395
1.000000 0.528740 0.438849
1.000000 0.545403 0.461128
0.000000 0.328801 0.210666
0.000000 0.329534 0.209293
0.000000 0.330755 0.208011
0.100252 0.333227 0.204074
0.160403 0.336126 0.199130
0.215763 0.337682 0.194614
0.272679 0.345403 0.190829
0.333257 0.356298 0.185794
0.405005 0.375250 0.182284
0.468849 0.386450 0.178195
0.522454 0.391455 0.175387
0.576623 0.397620 0.171542
0.629755 0.405005 0.169436
0.678553 0.411048 0.168673
0.721553 0.415991 0.170108
0.759792 0.420050 0.171267
0.792844 0.423011 0.182071
0.822202 0.426001 0.198459
0.848692 0.428656 0.213260
0.873472 0.431830 0.228367
0.896849 0.435554 0.243107
0.919005 0.440070 0.258549
0.940002 0.445777 0.274968
0.959991 0.452766 0.292638
0.979187 0.461372 0.311925
0.997772 0.471504 0.332433
1.000000 0.483467 0.354131
1.000000 0.496223 0.375769
1.000000 0.509514 0.397070
1.000000 0.523400 0.418372
1.000000 0.538354 0.440314
1.000000 0.554040 0.462470
0.000000 0.363897 0.234806
0.000000 0.364599 0.234257
0.000000 0.366064 0.232364
0.086885 0.368383 0.229374
0.150973 0.371771 0.226017
0.207858 0.374304 0.222385
0.261509 0.376989 0.217624
0.321294 0.388434 0.214878
0.384405 0.401160 0.211032
0.454322 0.418311 0.208835
0.515953 0.427985 0.206760
0.571130 0.433631 0.203769
0.626612 0.440314 0.201236
0.675959 0.445136 0.198611
0.718959 0.448188 0.198764
0.756893 0.450233 0.198856
0.790311 0.451637 0.199344
0.820401 0.452552 0.200259
0.847288 0.453712 0.209506
0.872404 0.455329 0.225040
0.896422 0.457649 0.240391
0.919158 0.461067 0.256687
0.940734 0.465644 0.274144
0.961120 0.471595 0.293004
0.980529 0.479042 0.312657
0.999054 0.488167 0.333715
1.000000 0.498604 0.355169
1.000000 0.510033 0.376928
1.000000 0.522087 0.398199
1.000000 0.534936 0.419745
1.000000 0.548669 0.441352
1.000000 0.563439 0.463630
0.000000 0.402533 0.259739
0.000000 0.403235 0.258915
0.000000 0.404334 0.257511
0.069032 0.406409 0.255344
0.140780 0.409339 0.252201
0.198550 0.412604 0.247349
0.254337 0.414160 0.243381
0.309667 0.419593 0.239506
0.370855 0.431525 0.237247
0.434760 0.444495 0.234470
0.501030 0.458198 0.233463
0.563928 0.468849 0.230900
0.620233 0.475166 0.228153
0.671504 0.479347 0.225437
0.716060 0.481300 0.224033
0.754177 0.481758 0.223880
0.787930 0.481605 0.223911
0.818265 0.481147 0.224949
0.846036 0.480964 0.225193
0.872343 0.480934 0.224216
0.896544 0.481697 0.238102
0.919371 0.483619 0.255314
0.941009 0.486763 0.273106
0.961395 0.491402 0.292454
0.980865 0.497383 0.312474
0.999451 0.505272 0.334112
1.000000 0.514549 0.356054
1.000000 0.524773 0.377752
1.000000 0.535790 0.399420
1.000000 0.547539 0.420874
1.000000 0.560327 0.442786
1.000000 0.574182 0.465156
0.000000 0.440284 0.283177
0.000000 0.440925 0.282719
0.000000 0.441749 0.281590
0.027527 0.443397 0.279698
0.129885 0.445838 0.276555
0.187808 0.448859 0.271183
0.244144 0.450660 0.265690
0.298589 0.451362 0.260899
0.356481 0.459449 0.258701
0.417914 0.470802 0.256474
0.482185 0.483925 0.255070
0.547356 0.496895 0.253849
0.591974 0.493507 0.243900
0.645441 0.499031 0.241917
0.692561 0.501854 0.240482
0.734401 0.503014 0.239597
0.770321 0.502708 0.239384
0.802213 0.502098 0.240299
0.831479 0.501366 0.240513
0.859220 0.500999 0.240452
0.885679 0.500908 0.239780
0.910460 0.501549 0.246281
0.933471 0.503746 0.265293
0.955169 0.507317 0.285191
0.975616 0.512444 0.306157
0.994995 0.519127 0.328405
1.000000 0.527367 0.351202
1.000000 0.536797 0.373907
1.000000 0.546899 0.396033
1.000000 0.557885 0.418158
1.000000 0.569940 0.440620
1.000000 0.583276 0.463813
0.000000 0.468208 0.300633
0.000000 0.468849 0.300267
0.000000 0.469917 0.299535
0.000000 0.471656 0.298253
0.116823 0.474311 0.295689
0.176455 0.477638 0.291234
0.230350 0.480659 0.284428
0.286168 0.481270 0.280308
0.339147 0.482002 0.275303
0.398016 0.492378 0.274479
0.458076 0.503075 0.272374
0.521965 0.516106 0.271122
0.584771 0.527733 0.269291
0.644038 0.536187 0.266453
0.690150 0.536950 0.264530
0.731411 0.536461 0.264042
0.768276 0.535119 0.263371
0.800931 0.533257 0.263462
0.830381 0.531304 0.264103
0.858457 0.529931 0.263828
0.885161 0.529015 0.263523
0.910613 0.528130 0.261845
0.934691 0.528038 0.264225
0.956359 0.530236 0.285283
0.976837 0.533989 0.306737
0.996185 0.539330 0.329229
1.000000 0.546380 0.352575
1.000000 0.554437 0.375341
1.000000 0.563256 0.397650
1.000000 0.573053 0.419898
1.000000 0.583917 0.442542
1.000000 0.596185 0.465949
0.000000 0.502556 0.321538
0.000000 0.502892 0.321050
0.000000 0.503685 0.320592
0.000000 0.505211 0.319432
0.105531 0.507408 0.316808
0.167788 0.510277 0.312963
0.222232 0.513054 0.307012
0.277531 0.514458 0.302098
0.330449 0.514458 0.297215
0.384222 0.518242 0.293584
0.443458 0.529168 0.292882
0.504326 0.540642 0.291264
0.570703 0.556176 0.291539
0.631769 0.566217 0.289616
0.684840 0.571038 0.288640
0.727352 0.570153 0.288334
0.764492 0.567895 0.288518
0.798032 0.565240 0.288640
0.828855 0.562493 0.288182
0.857115 0.560052 0.288548
0.884092 0.557977 0.287633
0.909697 0.556420 0.286473
0.934173 0.554894 0.284062
0.957122 0.553796 0.284581
0.977539 0.556176 0.306554
0.996796 0.560204 0.329747
1.000000 0.565881 0.353399
1.000000 0.572473 0.376349
1.000000 0.580163 0.398901
1.000000 0.588739 0.421393
1.000000 0.598444 0.444160
1.000000 0.609522 0.467567
0.000000 0.534356 0.340459
0.000000 0.534569 0.339971
0.000000 0.535271 0.339361
0.000000 0.536706 0.338476
0.092683 0.538750 0.336095
0.158572 0.541497 0.332403
0.214939 0.544091 0.327916
0.270207 0.546136 0.323400
0.322942 0.546197 0.318883
0.373419 0.545739 0.313268
0.429236 0.553796 0.311681
0.489204 0.565728 0.311376
0.551110 0.578424 0.310155
0.618494 0.594965 0.311925
0.672969 0.600458 0.311894
0.721035 0.602808 0.312200
0.759609 0.600366 0.313146
0.793637 0.596979 0.313817
0.825071 0.593622 0.313970
0.854948 0.590692 0.313420
0.882475 0.588037 0.312474
0.908415 0.585504 0.311131
0.933074 0.583246 0.309209
0.956359 0.581018 0.306188
0.978119 0.579248 0.306798
0.997253 0.581903 0.330297
1.000000 0.585870 0.353704
1.000000 0.591028 0.376501
1.000000 0.597009 0.398962
1.000000 0.604150 0.421302
1.000000 0.612604 0.444343
1.000000 0.622370 0.467842
0.000000 0.565240 0.358312
0.000000 0.565393 0.357794
0.000000 0.565850 0.357153
0.000000 0.566949 0.355871
0.073976 0.568688 0.353521
0.148775 0.570672 0.350103
0.206516 0.572747 0.346136
0.262028 0.574914 0.342779
0.315404 0.575494 0.338872
0.365270 0.575311 0.333776
0.414496 0.575799 0.328191
0.473915 0.588586 0.329259
0.534844 0.602014 0.329961
0.597436 0.615473 0.330236
0.661433 0.629725 0.334752
0.710475 0.632227 0.335668
0.753445 0.632136 0.337224
0.788907 0.628717 0.338354
0.820737 0.624628 0.338903
0.850736 0.621118 0.338933
0.879240 0.617670 0.337163
0.905913 0.614588 0.335485
0.930663 0.611475 0.333501
0.954009 0.608362 0.330327
0.976135 0.605249 0.326238
0.996704 0.603357 0.329015
1.000000 0.605951 0.353124
1.000000 0.609766 0.376318
1.000000 0.614527 0.398871
1.000000 0.620600 0.421698
1.000000 0.627985 0.445167
1.000000 0.636774 0.469154
0.000000 0.596887 0.375830
0.000000 0.597223 0.375311
0.000000 0.597742 0.375036
0.000000 0.598779 0.373541
0.036744 0.600244 0.371405
0.137575 0.602167 0.368658
0.199252 0.603998 0.365454
0.256229 0.605859 0.362310
0.310704 0.607202 0.360082
0.360540 0.606958 0.355230
0.408698 0.606592 0.349584
0.460456 0.611597 0.346685
0.519493 0.624323 0.348455
0.579553 0.636866 0.350134
0.640162 0.649165 0.351354
0.699092 0.660426 0.357946
0.743130 0.660365 0.359716
0.782467 0.658930 0.361578
0.816190 0.655360 0.362646
0.846830 0.651453 0.362890
0.875822 0.647761 0.362341
0.903166 0.644099 0.360418
0.928954 0.640589 0.358129
0.952453 0.636896 0.355169
0.974670 0.633051 0.351202
0.995789 0.629084 0.345861
1.000000 0.627466 0.353185
1.000000 0.629908 0.376837
1.000000 0.633356 0.399481
1.000000 0.638117 0.422583
1.000000 0.644221 0.446235
1.000000 0.651545 0.470161
0.000000 0.627436 0.392248
0.000000 0.627314 0.391638
0.000000 0.617243 0.385412
0.000000 0.618189 0.384009
0.000000 0.619715 0.382086
0.122255 0.621576 0.379644
0.186801 0.623713 0.377173
0.244053 0.625818 0.374853
0.299107 0.627741 0.373236
0.349493 0.628382 0.370001
0.396918 0.628351 0.365362
0.443488 0.628199 0.359777
0.498268 0.637842 0.360601
0.556390 0.650416 0.363348
0.615045 0.662715 0.365759
0.673823 0.674678 0.367956
0.728206 0.683467 0.375952
0.768917 0.682490 0.378302
0.805844 0.680629 0.380133
0.838560 0.677363 0.381109
0.868589 0.673823 0.381628
0.896757 0.670253 0.380774
0.923217 0.666651 0.379187
0.948058 0.662989 0.376410
0.971283 0.659174 0.372747
0.992981 0.655116 0.368292
1.000000 0.650690 0.361913
1.000000 0.650416 0.376806
1.000000 0.652796 0.400275
1.000000 0.656428 0.423835
1.000000 0.661372 0.447852
1.000000 0.667292 0.471931
0.000000 0.654902 0.406439
0.000000 0.653742 0.405371
0.000000 0.652735 0.404028
0.000000 0.652369 0.402197
0.000000 0.652613 0.399969
0.111299 0.653620 0.397620
0.181491 0.655085 0.395331
0.240574 0.656641 0.393683
0.296056 0.658045 0.392554
0.347112 0.659022 0.390631
0.394324 0.658778 0.386236
0.440223 0.658534 0.381384
0.486854 0.659693 0.377173
0.543328 0.671687 0.380499
0.600183 0.683467 0.384009
0.657191 0.695033 0.387030
0.713985 0.706050 0.389899
0.762783 0.711727 0.398871
0.800412 0.709438 0.400824
0.834501 0.706508 0.402533
0.865324 0.702785 0.403143
0.893706 0.698909 0.403113
0.920378 0.694881 0.401678
0.945281 0.690761 0.399603
0.968841 0.686519 0.396155
0.991180 0.681941 0.391028
1.000000 0.677058 0.384924
1.000000 0.671717 0.377356
1.000000 0.672908 0.401251
1.000000 0.675319 0.425299
1.000000 0.679164 0.449744
1.000000 0.683436 0.473304
0.000000 0.685023 0.421881
0.000000 0.684077 0.420966
0.000000 0.683192 0.419684
0.000000 0.682826 0.418250
0.000000 0.682887 0.416266
0.104311 0.683619 0.414252
0.178897 0.684596 0.412696
0.239048 0.685725 0.411536
0.294560 0.686702 0.410590
0.345586 0.687648 0.409400
0.392340 0.687617 0.406073
0.437690 0.687221 0.401617
0.482002 0.686854 0.396948
0.531334 0.692103 0.396185
0.586694 0.703456 0.400305
0.641840 0.714412 0.404303
0.696773 0.725002 0.407935
0.751125 0.734981 0.411566
0.795499 0.738247 0.420783
0.830198 0.734951 0.422400
0.861631 0.731075 0.423590
0.890257 0.726741 0.423987
0.917113 0.722408 0.423377
0.942229 0.717952 0.421607
0.965911 0.713527 0.419013
0.988434 0.708736 0.414649
1.000000 0.703548 0.408179
1.000000 0.697749 0.400031
1.000000 0.693660 0.402472
1.000000 0.694942 0.427008
1.000000 0.697444 0.451789
1.000000 0.700404 0.475502
0.000000 0.713771 0.436561
0.000000 0.712917 0.435615
0.000000 0.712062 0.434607
0.000000 0.711604 0.433204
0.000000 0.711543 0.431617
0.102358 0.712001 0.430304
0.178378 0.712795 0.429145
0.239689 0.713588 0.428626
0.294591 0.714321 0.428229
0.345037 0.715084 0.427405
0.391943 0.715511 0.425299
0.436316 0.715084 0.421332
0.479805 0.714626 0.416968
0.522728 0.714260 0.412299
0.574762 0.722957 0.415351
0.628199 0.733242 0.419959
0.681270 0.743130 0.424231
0.733730 0.752590 0.427893
0.784756 0.760952 0.432532
0.824735 0.761807 0.440528
0.856199 0.757259 0.441291
0.884703 0.752010 0.441352
0.910887 0.746761 0.441108
0.936187 0.742000 0.439857
0.960052 0.737209 0.437293
0.982727 0.732326 0.433478
1.000000 0.727108 0.428168
1.000000 0.721187 0.420325
1.000000 0.714107 0.409247
1.000000 0.712428 0.424781
1.000000 0.713558 0.449531
1.000000 0.715480 0.473976
0.000000 0.737484 0.448005
0.000000 0.737179 0.447547
0.000000 0.736934 0.446998
0.000000 0.736965 0.446021
0.000000 0.737270 0.445136
0.101656 0.737728 0.444495
0.179599 0.738277 0.443793
0.240482 0.738705 0.443610
0.294469 0.739071 0.443519
0.344152 0.739376 0.442969
0.391577 0.739742 0.442329
0.434668 0.739223 0.438819
0.476753 0.738735 0.434791
0.518364 0.738247 0.430518
0.562127 0.740047 0.427802
0.614496 0.749966 0.433021
0.666163 0.759640 0.438209
0.717494 0.769039 0.442817
0.768093 0.777951 0.447150
0.816342 0.785367 0.453346
0.853086 0.784970 0.460822
0.882292 0.779782 0.461494
0.908659 0.774075 0.461494
0.932799 0.768307 0.461372
0.957031 0.763485 0.459510
0.979858 0.758572 0.456611
1.000000 0.753201 0.451728
1.000000 0.747250 0.444709
1.000000 0.740200 0.434485
1.000000 0.733211 0.427649
1.000000 0.732601 0.451575
1.000000 0.733272 0.476417
0.000000 0.764157 0.461402
0.000000 0.763851 0.460975
0.000000 0.763546 0.460456
0.000000 0.763394 0.459937
0.000000 0.763577 0.459327
0.110140 0.763912 0.458930
0.185122 0.764340 0.458991
0.244755 0.764645 0.459327
0.297887 0.764950 0.459632
0.347051 0.765164 0.459754
0.394537 0.765225 0.460212
0.438178 0.764981 0.458900
0.478309 0.764492 0.455085
0.518608 0.763973 0.450965
0.558556 0.763516 0.446387
0.605035 0.768948 0.447700
0.655390 0.778164 0.453529
0.705348 0.787198 0.459052
0.754604 0.795865 0.464271
0.803037 0.804166 0.468879
0.847929 0.810025 0.476173
0.880827 0.807828 0.482521
0.907195 0.801663 0.482795
0.930877 0.794949 0.481849
0.954498 0.790158 0.483375
0.977508 0.785153 0.480934
0.999207 0.779812 0.476967
1.000000 0.773831 0.470436
1.000000 0.766842 0.461158
1.000000 0.758083 0.448005
1.000000 0.752773 0.455634
1.000000 0.751797 0.479469
0.000000 0.787228 0.472419
0.000000 0.786770 0.472053
0.000000 0.786526 0.471778
0.000000 0.786557 0.471412
0.000000 0.786831 0.471351
0.117098 0.787198 0.471595
0.189975 0.787655 0.472206
0.248600 0.788174 0.473060
0.300938 0.788602 0.473823
0.349920 0.788968 0.474861
0.397681 0.789303 0.476570
0.444373 0.789364 0.478920
0.482673 0.789181 0.475410
0.521202 0.789029 0.471748
0.559869 0.788998 0.467689
0.598627 0.788937 0.463386
0.648341 0.798093 0.470008
0.697322 0.807095 0.476814
0.745480 0.815671 0.483101
0.792508 0.823606 0.488563
0.838437 0.830991 0.493599
0.879332 0.835080 0.502098
0.908476 0.831266 0.507317
0.932341 0.824338 0.507042
0.953979 0.817227 0.505852
0.973999 0.810086 0.503929
0.995941 0.804959 0.500969
1.000000 0.799344 0.495796
1.000000 0.792691 0.487892
1.000000 0.783688 0.474678
1.000000 0.773190 0.460761
1.000000 0.770840 0.483955
0.000000 0.813687 0.485817
0.000000 0.813230 0.485512
0.000000 0.812985 0.485206
0.000000 0.812955 0.485176
0.000000 0.813077 0.485451
0.133333 0.813321 0.486061
0.200717 0.813565 0.487098
0.256413 0.813840 0.488197
0.307286 0.814054 0.489326
0.355871 0.814176 0.490852
0.403601 0.814145 0.493477
0.451911 0.813840 0.497902
0.490944 0.813565 0.496986
0.526879 0.813443 0.493355
0.563470 0.813413 0.489357
0.600275 0.813382 0.485023
0.641688 0.816648 0.484962
0.689540 0.825315 0.492348
0.736355 0.833524 0.499428
0.782071 0.841154 0.505760
0.826658 0.848234 0.511437
0.870207 0.854795 0.516564
0.906950 0.857023 0.525689
0.932769 0.851804 0.529381
0.954437 0.844297 0.528344
0.974243 0.836606 0.526207
0.992157 0.828733 0.523461
1.000000 0.823270 0.519219
1.000000 0.816770 0.512200
1.000000 0.807858 0.500008
1.000000 0.796475 0.481666
1.000000 0.789578 0.488289
0.000000 0.839322 0.498573
0.000000 0.839017 0.498451
0.000000 0.838895 0.498390
0.000000 0.838956 0.498695
0.048035 0.839139 0.499397
0.150057 0.839414 0.500359
0.211856 0.839719 0.501701
0.265568 0.839963 0.503227
0.315648 0.840085 0.504997
0.363867 0.840055 0.507225
0.412207 0.839811 0.510887
0.461067 0.839261 0.516777
0.504051 0.838743 0.520714
0.537499 0.838682 0.517144
0.571679 0.838743 0.513268
0.606439 0.838895 0.509209
0.641749 0.838956 0.504631
0.685939 0.845304 0.509972
0.731563 0.853086 0.517479
0.775814 0.860288 0.524590
0.818845 0.866941 0.530846
0.860746 0.873075 0.536217
0.901640 0.878721 0.540795
0.934112 0.878813 0.549889
0.957000 0.872343 0.551781
0.976623 0.864286 0.549737
0.994446 0.856016 0.546868
1.000000 0.847532 0.543359
1.000000 0.840513 0.536858
1.000000 0.832120 0.526238
1.000000 0.821256 0.509606
1.000000 0.809140 0.494148
0.000000 0.866606 0.512474
0.000000 0.866392 0.512444
0.000000 0.866270 0.512505
0.000000 0.866239 0.512932
0.093416 0.866209 0.513756
0.166842 0.866087 0.514855
0.223514 0.865782 0.515862
0.274510 0.865354 0.517205
0.323033 0.864683 0.518944
0.370550 0.863798 0.521294
0.418219 0.862699 0.525261
0.466835 0.861387 0.531701
0.514488 0.859953 0.540063
0.545037 0.859648 0.536217
0.576745 0.859495 0.532341
0.609461 0.859556 0.528130
0.642939 0.859709 0.523919
0.678828 0.861173 0.521508
0.723293 0.868437 0.529503
0.766354 0.875212 0.536553
0.808164 0.881468 0.542962
0.848875 0.887297 0.548760
0.888701 0.892699 0.553613
0.927581 0.897704 0.557641
0.956268 0.895872 0.566552
0.976837 0.888518 0.567071
0.994629 0.879820 0.564111
1.000000 0.870420 0.559350
1.000000 0.860563 0.553582
1.000000 0.852201 0.544762
1.000000 0.842374 0.530877
1.000000 0.829221 0.508171
0.000000 0.890013 0.522942
0.000000 0.889860 0.523033
0.000000 0.889860 0.523400
0.000000 0.889891 0.524041
0.112123 0.889952 0.525109
0.178012 0.890013 0.526574
0.232364 0.889952 0.528252
0.282780 0.889769 0.530175
0.331701 0.889342 0.532860
0.380438 0.888731 0.536767
0.429633 0.887846 0.542443
0.479438 0.886687 0.550530
0.527398 0.885527 0.560266
0.561517 0.885191 0.561181
