data/fiter_cube/29797953/1022864/file.cube
# Created by Adobe Lightroom plugin Export LUT (1.17.0)
# www.johnrellis.com/lightroom/exportlut.htm
# Preset: 电影灰蓝色_09 云集
# Color profile: C:\Program Files (x86)\Common Files\Adobe\Color\Profiles\Recommended\AdobeRGB1998.icc
LUT_3D_SIZE 32
DOMAIN_MIN 0.0 0.0 0.0
DOMAIN_MAX 1.0 1.0 1.0
0.069123 0.076112 0.088075
0.072114 0.076722 0.088258
0.075319 0.077638 0.088685
0.083803 0.079744 0.089448
0.101289 0.084047 0.090333
0.128756 0.088960 0.090913
0.165805 0.093935 0.090669
0.212314 0.098268 0.089265
0.269596 0.099916 0.086641
0.336492 0.096956 0.082094
0.405066 0.090608 0.075807
0.469856 0.086152 0.067964
0.527428 0.090974 0.058808
0.576532 0.108431 0.043702
0.617639 0.134646 0.029816
0.652461 0.164706 0.022553
0.681819 0.195773 0.022675
0.708095 0.228611 0.035554
0.729641 0.259464 0.058686
0.747921 0.288701 0.074311
0.764675 0.317327 0.090913
0.780819 0.345769 0.107515
0.796262 0.373724 0.125277
0.811124 0.401221 0.144411
0.825589 0.427649 0.164462
0.839689 0.453559 0.186435
0.853544 0.478920 0.210544
0.867155 0.503716 0.236881
0.880674 0.527764 0.264866
0.893980 0.551141 0.294285
0.906950 0.573877 0.325414
0.919341 0.595789 0.357794
0.069551 0.077424 0.089113
0.071687 0.078187 0.089021
0.075471 0.079408 0.088563
0.084627 0.081971 0.089296
0.102419 0.086366 0.090394
0.130190 0.091829 0.090883
0.167666 0.097261 0.090272
0.214237 0.101961 0.089052
0.271366 0.104128 0.086336
0.338201 0.102388 0.081605
0.406348 0.097108 0.075196
0.470680 0.094148 0.067201
0.527886 0.099092 0.057374
0.576715 0.115816 0.041535
0.617578 0.140658 0.027771
0.652247 0.169436 0.021759
0.681514 0.199710 0.021912
0.707576 0.231662 0.034241
0.728908 0.261723 0.057527
0.747158 0.290288 0.073610
0.763851 0.318181 0.089784
0.779965 0.346197 0.106477
0.795407 0.373938 0.124117
0.810330 0.401129 0.143191
0.824826 0.427466 0.163027
0.838987 0.453285 0.184970
0.852873 0.478553 0.209232
0.866545 0.503441 0.235721
0.880125 0.527428 0.263554
0.893462 0.550835 0.293065
0.906462 0.573541 0.324041
0.918975 0.595422 0.356359
0.070588 0.079347 0.090852
0.072236 0.080110 0.092409
0.075044 0.081453 0.090639
0.084932 0.084230 0.089662
0.104250 0.090303 0.090303
0.132570 0.096101 0.090700
0.170138 0.102052 0.089967
0.217014 0.107118 0.088624
0.274418 0.110140 0.085664
0.340978 0.109163 0.080751
0.408881 0.105776 0.073976
0.472755 0.103975 0.065766
0.529442 0.109590 0.054994
0.577813 0.125551 0.039277
0.618280 0.149294 0.026490
0.652796 0.176516 0.019440
0.681788 0.205844 0.019654
0.707759 0.236667 0.032197
0.728847 0.265721 0.056519
0.746944 0.293523 0.073365
0.763638 0.320897 0.089387
0.779660 0.348455 0.106264
0.795102 0.375799 0.123995
0.810025 0.402594 0.142672
0.824491 0.428748 0.162753
0.838651 0.454231 0.184695
0.852537 0.479438 0.208865
0.866270 0.504051 0.235355
0.879850 0.527977 0.263005
0.893248 0.551324 0.292576
0.906279 0.573877 0.323522
0.918761 0.595727 0.355840
0.072602 0.084291 0.094728
0.074556 0.085237 0.096437
0.076143 0.085573 0.098146
0.083436 0.089876 0.093843
0.104891 0.095064 0.090974
0.137972 0.107973 0.089906
0.176699 0.114321 0.088930
0.224369 0.120058 0.087160
0.282353 0.123934 0.083742
0.348882 0.124361 0.078523
0.415686 0.123018 0.071565
0.478340 0.123690 0.062989
0.533806 0.130556 0.049928
0.580957 0.145510 0.033387
0.620691 0.166751 0.020569
0.654536 0.192172 0.014282
0.683192 0.219425 0.016632
0.708553 0.248234 0.029908
0.729152 0.275212 0.054994
0.746883 0.301396 0.072755
0.763333 0.327489 0.089204
0.779263 0.353887 0.106081
0.794675 0.380499 0.123934
0.809689 0.406622 0.142885
0.824338 0.432410 0.162905
0.838590 0.457710 0.185153
0.852598 0.482551 0.209476
0.866331 0.506889 0.236088
0.879911 0.530510 0.263890
0.893278 0.553368 0.293095
0.906218 0.575586 0.323827
0.918639 0.597040 0.355871
0.075013 0.092287 0.100618
0.077180 0.093660 0.102144
0.080720 0.095308 0.105470
0.084077 0.095247 0.109651
0.101015 0.105989 0.097200
0.134554 0.111513 0.091035
0.180209 0.129030 0.088350
0.235416 0.143099 0.084230
0.294957 0.147189 0.080323
0.360540 0.149325 0.074189
0.425757 0.150057 0.066529
0.486549 0.152560 0.056947
0.540246 0.160006 0.039368
0.585931 0.173831 0.022461
0.624567 0.192782 0.010376
0.657588 0.215640 0.004944
0.686000 0.240452 0.009918
0.710384 0.266392 0.025544
0.730373 0.290929 0.054322
0.747707 0.314885 0.072938
0.763882 0.339178 0.089662
0.779629 0.363928 0.106996
0.794919 0.389044 0.124544
0.809812 0.414221 0.143832
0.824399 0.438849 0.164034
0.838651 0.463325 0.186313
0.852598 0.487434 0.210697
0.866300 0.511040 0.236973
0.879850 0.533989 0.264622
0.893156 0.556420 0.293706
0.906096 0.578180 0.324193
0.918486 0.599237 0.356085
0.078126 0.105959 0.109621
0.081147 0.107729 0.111360
0.084993 0.110262 0.114260
0.093538 0.113069 0.121859
0.098726 0.115358 0.125154
0.128908 0.131868 0.100832
0.173129 0.133333 0.090150
0.231144 0.154147 0.085237
0.307469 0.177951 0.075196
0.377356 0.185061 0.066407
0.440650 0.186557 0.056580
0.498817 0.189731 0.038941
0.549828 0.197055 0.018982
0.593378 0.209384 0.005371
0.630365 0.226078 0.000000
0.662135 0.245609 0.000000
0.689937 0.267918 0.001740
0.713130 0.290410 0.021607
0.732326 0.311986 0.053651
0.749203 0.333379 0.073579
0.765194 0.355596 0.090974
0.780789 0.378515 0.108949
0.801694 0.412665 0.135775
0.816129 0.435737 0.155459
0.830167 0.458503 0.176394
0.843809 0.480964 0.198917
0.857176 0.503166 0.223331
0.870359 0.524834 0.248936
0.883391 0.546197 0.275975
0.896239 0.567010 0.304387
0.908690 0.587396 0.334081
0.920623 0.607111 0.364843
0.082948 0.129824 0.123903
0.086427 0.131899 0.126101
0.091524 0.134798 0.129397
0.103609 0.140871 0.138766
0.116426 0.142031 0.149996
0.126680 0.152193 0.143282
0.169894 0.169650 0.105531
0.222263 0.160494 0.087770
0.296574 0.184970 0.079042
0.381781 0.210788 0.063569
0.463630 0.236820 0.019043
0.518303 0.238834 0.001160
0.565484 0.244877 0.000000
0.605829 0.254887 0.000000
0.640223 0.268101 0.000000
0.670100 0.284276 0.000000
0.696651 0.303166 0.000000
0.718349 0.321599 0.017273
0.736538 0.339910 0.055543
0.752956 0.358618 0.077302
0.768948 0.379065 0.096193
0.784756 0.400641 0.115114
0.800168 0.423041 0.134676
0.815152 0.445441 0.155306
0.829648 0.467689 0.177188
0.843534 0.489387 0.200137
0.856992 0.510704 0.224765
0.870176 0.531487 0.250309
0.883177 0.551843 0.277165
0.895933 0.571923 0.305272
0.908385 0.591485 0.334417
0.920287 0.610620 0.364965
0.090425 0.163333 0.144350
0.094789 0.165805 0.146548
0.100649 0.168887 0.150088
0.114504 0.175143 0.158816
0.137057 0.181369 0.175448
0.150820 0.180972 0.188937
0.167971 0.200870 0.163577
0.221164 0.215000 0.112612
0.276707 0.189975 0.084932
0.362371 0.216434 0.071168
0.446326 0.244541 0.043946
0.522057 0.276341 0.000000
0.577783 0.298589 0.000000
0.615442 0.304417 0.000000
0.647852 0.313512 0.000000
0.676997 0.326177 0.000000
0.701289 0.340124 0.000000
0.721462 0.354040 0.010163
0.738735 0.368261 0.054780
0.754574 0.383764 0.078706
0.770199 0.401099 0.098604
0.785641 0.419989 0.117861
0.800809 0.439734 0.137850
0.815549 0.459907 0.158389
0.829831 0.480140 0.180056
0.843595 0.500298 0.203067
0.856962 0.520073 0.227176
0.870054 0.539635 0.252445
0.883055 0.558984 0.278782
0.895750 0.577996 0.306523
0.908171 0.596796 0.335515
0.920043 0.615229 0.365789
0.103548 0.209018 0.172549
0.108766 0.211276 0.174990
0.115999 0.214450 0.178714
0.132021 0.220829 0.187259
0.158633 0.230076 0.203922
0.184695 0.232273 0.221958
0.200961 0.232364 0.240330
0.226108 0.261265 0.188235
0.287175 0.268772 0.121889
0.337560 0.221866 0.080446
0.425544 0.250278 0.060883
0.503258 0.281376 0.014588
0.569177 0.315953 0.000000
0.622583 0.352697 0.000000
0.657588 0.366094 0.000000
0.684352 0.373449 0.000000
0.706569 0.381598 0.000000
0.725307 0.390814 0.004517
0.741512 0.400671 0.057954
0.756893 0.412573 0.082002
0.772122 0.426703 0.102296
0.787228 0.442359 0.122072
0.802060 0.459388 0.142123
0.816495 0.477211 0.162905
0.830533 0.495369 0.184512
0.844053 0.513542 0.207523
0.857298 0.531731 0.231113
0.870298 0.549706 0.255863
0.883146 0.567651 0.281651
0.895781 0.585626 0.308934
0.908049 0.603326 0.337407
0.919890 0.620874 0.367163
0.124819 0.265965 0.208499
0.130800 0.268070 0.211185
0.139132 0.271061 0.214542
0.157229 0.277348 0.222995
0.185580 0.286381 0.237552
0.224949 0.294163 0.262028
0.251225 0.293523 0.280369
0.268803 0.294926 0.301244
0.300023 0.328954 0.215793
0.360082 0.326177 0.134951
0.402808 0.265263 0.076143
0.481422 0.285832 0.043458
0.550866 0.319036 0.000000
0.608362 0.355627 0.000000
0.655848 0.392859 0.000000
0.691890 0.423987 0.000000
0.712398 0.426673 0.000000
0.729824 0.430640 0.004425
0.745144 0.436347 0.063020
0.759976 0.444434 0.087587
0.774716 0.454994 0.108583
0.789212 0.467414 0.128328
0.803494 0.481178 0.148074
0.817472 0.496162 0.168368
0.831144 0.511894 0.189639
0.844450 0.528069 0.212222
0.857542 0.544427 0.235416
0.870481 0.560937 0.259800
0.883299 0.577661 0.285374
0.895903 0.594354 0.312047
0.908141 0.611139 0.340276
0.919921 0.627832 0.369757
0.156374 0.331090 0.250950
0.163027 0.333135 0.253605
0.172580 0.335760 0.257176
0.192599 0.340978 0.265324
0.223819 0.348547 0.279423
0.266331 0.357092 0.301915
0.305272 0.359319 0.325139
0.330968 0.359136 0.345281
0.343755 0.369116 0.342412
0.378424 0.394781 0.247990
0.430823 0.382971 0.153933
0.461952 0.313115 0.078340
0.531121 0.322911 0.025360
0.592767 0.358526 0.000000
0.642390 0.394537 0.000000
0.681880 0.428168 0.000000
0.712673 0.457130 0.000000
0.733913 0.471656 0.013397
0.748562 0.473182 0.070497
0.762966 0.477546 0.094881
0.777249 0.484718 0.116182
0.791379 0.494026 0.135897
0.805325 0.505180 0.155856
0.818967 0.517601 0.176150
0.832364 0.530968 0.197238
0.845365 0.544915 0.219211
0.858244 0.559167 0.241550
0.870970 0.573938 0.265171
0.883604 0.588952 0.289891
0.896056 0.604273 0.315953
0.908202 0.619806 0.343511
0.919890 0.635431 0.372473
0.204166 0.397559 0.299626
0.211643 0.399023 0.302190
0.221836 0.401068 0.305882
0.242618 0.404913 0.313664
0.273960 0.410773 0.326299
0.312505 0.417578 0.344305
0.359350 0.423133 0.370825
0.387793 0.422370 0.388495
0.409552 0.423041 0.408698
0.417334 0.437598 0.381781
0.451392 0.454475 0.284581
0.495918 0.437751 0.179843
0.526726 0.371862 0.089540
0.582116 0.368109 0.014374
0.634577 0.403265 0.000000
0.676020 0.436805 0.000000
0.708156 0.465461 0.020813
0.733486 0.489876 0.066194
0.755215 0.512535 0.091829
0.770504 0.518547 0.114473
0.783932 0.522057 0.134615
0.797269 0.528069 0.153597
0.810391 0.535729 0.172641
0.823331 0.545068 0.192142
0.836057 0.555596 0.212467
0.848569 0.566857 0.233097
0.860960 0.578790 0.254551
0.873289 0.591241 0.276768
0.885496 0.604242 0.300298
0.897581 0.617731 0.325231
0.909331 0.631586 0.351751
0.920745 0.645716 0.379522
0.269688 0.462501 0.353704
0.276616 0.463508 0.355901
0.285649 0.464637 0.358923
0.304356 0.467201 0.365545
0.332067 0.470954 0.376165
0.365881 0.475410 0.390753
0.405463 0.480354 0.411353
0.440345 0.481422 0.432319
0.463386 0.481239 0.449439
0.480262 0.482979 0.468605
0.487373 0.500572 0.423468
0.520287 0.512139 0.328649
0.555352 0.492042 0.217136
0.569696 0.419623 0.110231
0.613581 0.401251 0.027497
0.660365 0.434791 0.009094
0.695766 0.464454 0.047578
0.723415 0.489509 0.076936
0.746273 0.512047 0.101686
0.767514 0.534264 0.124697
0.786618 0.553735 0.147402
0.799527 0.556695 0.165835
0.812222 0.561761 0.184329
0.824796 0.568444 0.203281
0.837217 0.576471 0.222263
0.849454 0.585473 0.241855
0.861631 0.595361 0.262303
0.873747 0.606012 0.283818
0.885801 0.617334 0.306340
0.897704 0.629419 0.330541
0.909392 0.641932 0.356176
0.920684 0.654871 0.383429
0.332952 0.514488 0.402167
0.339025 0.515129 0.404120
0.346624 0.515862 0.406622
0.362768 0.517571 0.412238
0.386114 0.519951 0.421088
0.414954 0.523033 0.433173
0.446998 0.526787 0.448859
0.483436 0.529870 0.471565
0.506432 0.530602 0.487037
0.525231 0.532586 0.504356
0.538659 0.535851 0.522820
0.542290 0.550591 0.459785
0.570489 0.555993 0.367651
0.597498 0.533257 0.255283
0.605829 0.463539 0.138125
0.640040 0.431586 0.055756
0.681178 0.462013 0.055695
0.711849 0.487922 0.080476
0.736446 0.510826 0.105989
0.758602 0.532982 0.130190
0.779416 0.555108 0.153750
0.798886 0.576623 0.177798
0.814389 0.588922 0.198886
0.826658 0.593133 0.216587
0.838743 0.598749 0.234501
0.850706 0.605524 0.253025
0.862638 0.613367 0.272221
0.874510 0.622156 0.292576
0.886351 0.631830 0.314244
0.898100 0.642298 0.337438
0.909636 0.653468 0.362280
0.920806 0.665217 0.388739
0.393561 0.558099 0.447364
0.398230 0.558618 0.449104
0.404364 0.559014 0.451087
0.417639 0.560113 0.455879
0.436988 0.561761 0.463172
0.461280 0.564660 0.473854
0.488197 0.568170 0.487373
0.517144 0.571832 0.504875
0.542901 0.573541 0.522789
0.560266 0.574487 0.536919
0.574090 0.576440 0.552209
0.581537 0.580865 0.558740
0.585351 0.590845 0.491493
0.609827 0.592096 0.403449
0.631250 0.567864 0.293278
0.637476 0.503227 0.169375
0.662196 0.458381 0.075135
0.698421 0.485512 0.081514
0.725795 0.508965 0.104585
0.749081 0.531151 0.131075
0.770840 0.553368 0.155947
0.791165 0.575158 0.180819
0.810117 0.596033 0.205753
0.827817 0.615808 0.230594
0.840452 0.621820 0.248600
0.852201 0.626520 0.265782
0.863920 0.632471 0.283940
0.875639 0.639612 0.303655
0.887358 0.647730 0.324407
0.898955 0.656764 0.346838
0.910338 0.666621 0.371008
0.921355 0.677119 0.396948
0.449500 0.596735 0.490242
0.453681 0.597192 0.491859
0.458625 0.597620 0.493660
0.469368 0.598688 0.497871
0.484993 0.600244 0.504326
0.504326 0.602319 0.513115
0.525750 0.604761 0.523980
0.548333 0.607660 0.537285
0.574243 0.610163 0.556176
0.589715 0.610346 0.567864
0.602441 0.611139 0.580194
0.612116 0.612634 0.593042
0.614099 0.617182 0.583246
0.618524 0.622309 0.519127
0.639673 0.620569 0.435370
0.657130 0.595941 0.329168
0.663050 0.537102 0.204074
0.680323 0.481331 0.093507
0.713405 0.506584 0.103883
0.738857 0.528771 0.127169
0.761746 0.551232 0.154635
0.783108 0.573510 0.181613
0.803006 0.594965 0.208011
0.821592 0.615229 0.233524
0.838895 0.634119 0.258671
0.854215 0.648859 0.281773
0.865690 0.652857 0.298436
0.877134 0.658137 0.316747
0.888548 0.664546 0.336370
0.899870 0.671931 0.357488
0.910948 0.680201 0.380407
0.921691 0.689265 0.405097
0.496376 0.628107 0.527672
0.499306 0.628321 0.528801
0.503319 0.628626 0.530388
0.511681 0.629236 0.533837
0.524071 0.630243 0.539178
0.539361 0.631556 0.546349
0.556786 0.633204 0.555474
0.575402 0.635187 0.566491
0.595026 0.637201 0.580194
0.612329 0.638209 0.593866
0.623774 0.638514 0.603845
0.633082 0.639277 0.614252
0.639887 0.640589 0.624933
0.639063 0.644770 0.602991
0.644099 0.646967 0.543420
0.662867 0.643702 0.464515
0.677699 0.619501 0.363592
0.683864 0.566308 0.241398
0.696407 0.502281 0.112306
0.726894 0.526024 0.124727
0.751522 0.547814 0.147860
0.773983 0.570397 0.177035
0.794919 0.592401 0.205539
0.814389 0.613428 0.232914
0.832609 0.632990 0.259220
0.849546 0.651087 0.285069
0.865507 0.667811 0.310094
0.878386 0.676814 0.330663
0.889555 0.681575 0.348943
0.900633 0.687465 0.368933
0.911498 0.694270 0.390600
0.922026 0.702083 0.414435
0.535302 0.653101 0.560174
0.537865 0.653346 0.561303
0.547356 0.657465 0.568078
0.553918 0.657893 0.570947
0.563653 0.658473 0.575525
0.575616 0.659266 0.581445
0.589197 0.660395 0.588769
0.603601 0.661707 0.597375
0.618311 0.663355 0.607355
0.634760 0.664820 0.620813
0.644984 0.664942 0.629145
0.653315 0.665217 0.637354
0.659907 0.665797 0.645838
0.664607 0.666773 0.654597
0.662135 0.669917 0.623529
0.667292 0.670039 0.569329
0.684047 0.665736 0.495155
0.696712 0.642329 0.400275
0.703243 0.594232 0.281590
0.715084 0.531029 0.141329
0.741085 0.546319 0.147768
0.765316 0.568414 0.172061
0.787289 0.590753 0.201755
0.807645 0.612299 0.231357
0.826535 0.632349 0.259251
0.844144 0.650874 0.285985
0.860624 0.667964 0.312047
0.876097 0.683833 0.337469
0.890501 0.698573 0.362554
0.901457 0.703487 0.381476
0.912047 0.708919 0.401984
0.922301 0.715328 0.424598
0.569970 0.674586 0.590234
0.572564 0.675166 0.591730
0.575860 0.675807 0.593561
0.581781 0.676570 0.596643
0.589899 0.677424 0.600824
0.599725 0.678340 0.606043
0.610803 0.679408 0.612238
0.622583 0.680720 0.619379
0.634821 0.682399 0.627619
0.647578 0.684138 0.637476
0.659449 0.685237 0.647456
0.667384 0.685451 0.654475
0.674220 0.685878 0.661952
0.679683 0.686488 0.669886
0.683192 0.687434 0.676997
0.680110 0.689754 0.638148
0.685634 0.688563 0.588342
0.700862 0.683619 0.519432
0.711727 0.660761 0.430488
0.718227 0.616724 0.317021
0.730434 0.558556 0.176211
0.753323 0.564202 0.168582
0.777554 0.586633 0.193149
0.799313 0.608728 0.222934
0.819272 0.629847 0.253788
0.837827 0.649287 0.282780
0.855222 0.667201 0.310582
0.871427 0.683833 0.337743
0.886564 0.699214 0.364294
0.900511 0.713527 0.390723
0.912596 0.724086 0.414740
0.922606 0.729213 0.436072
0.596612 0.692927 0.615076
0.598718 0.693507 0.616388
0.601312 0.694148 0.617945
0.605951 0.694942 0.620508
0.612451 0.695827 0.624018
0.620386 0.696834 0.628382
0.629389 0.697993 0.633539
0.639155 0.699367 0.639490
0.649378 0.701106 0.646204
0.659876 0.703059 0.653803
0.672450 0.704860 0.664576
0.680964 0.705226 0.671778
0.687831 0.705470 0.678553
0.693751 0.705898 0.685786
0.698299 0.706538 0.693324
0.699123 0.707881 0.690303
0.697475 0.708888 0.652033
0.703273 0.706752 0.606226
0.717281 0.701350 0.542840
0.726589 0.679133 0.459541
0.732876 0.638544 0.351934
0.744594 0.584924 0.216159
0.765774 0.582177 0.189609
0.789944 0.604791 0.214633
0.811460 0.626429 0.244144
0.831052 0.646937 0.276158
0.849332 0.665766 0.306279
0.866392 0.683223 0.335485
0.882292 0.699367 0.363867
0.896971 0.714290 0.391791
0.910369 0.728176 0.419226
0.922362 0.741176 0.446784
0.618647 0.711025 0.637507
0.620325 0.711574 0.638575
0.622431 0.712215 0.639948
0.626215 0.712978 0.642115
0.631525 0.713924 0.645075
0.637995 0.714961 0.648707
0.645472 0.716152 0.652979
0.653681 0.717586 0.657954
0.662837 0.719234 0.663905
0.672541 0.721126 0.670863
0.683345 0.722988 0.679683
0.693874 0.724239 0.689082
0.700801 0.724300 0.695247
0.706874 0.724575 0.701778
0.711971 0.725063 0.708675
0.715908 0.725795 0.715908
0.714900 0.727352 0.703792
0.714534 0.727626 0.666499
0.720821 0.725093 0.623560
0.733944 0.719661 0.566491
0.742061 0.698390 0.489357
0.748409 0.661189 0.388281
0.759701 0.611688 0.257328
0.779660 0.601923 0.213474
0.803830 0.624537 0.238895
0.825132 0.645716 0.268833
0.844388 0.665736 0.302708
0.862333 0.684016 0.334691
0.878996 0.700954 0.365454
0.894347 0.716487 0.395270
0.908263 0.730892 0.424659
0.920684 0.744381 0.453773
0.638727 0.730312 0.659632
0.639918 0.730648 0.660334
0.641321 0.731014 0.661158
0.644190 0.731563 0.662776
0.648463 0.732326 0.665126
0.653986 0.733303 0.668177
0.660639 0.734432 0.672053
0.668269 0.735805 0.676783
0.676753 0.737484 0.682399
0.685878 0.739315 0.688930
0.695399 0.741390 0.696376
0.706661 0.743191 0.706600
0.714351 0.743618 0.713313
0.720455 0.743801 0.719203
0.725765 0.744076 0.725399
0.730159 0.744564 0.731868
0.733455 0.745327 0.738613
0.731014 0.746609 0.718166
0.731533 0.746151 0.681819
0.737942 0.743099 0.640070
0.750149 0.737484 0.588190
0.756954 0.716732 0.516838
0.762997 0.682185 0.421851
0.773617 0.636133 0.296208
0.792508 0.619806 0.234836
0.816587 0.642176 0.260319
0.837552 0.662867 0.291875
0.856687 0.682307 0.326329
0.874296 0.700221 0.360174
0.890501 0.716670 0.392584
0.905150 0.731868 0.424048
0.918273 0.746029 0.455177
0.654536 0.747250 0.678187
0.655573 0.747585 0.678828
0.656855 0.747921 0.679652
0.659541 0.748470 0.681178
0.663447 0.749172 0.683375
0.668513 0.750027 0.686244
0.674586 0.751125 0.689876
0.681575 0.752377 0.694240
0.689509 0.753933 0.699489
0.698024 0.755642 0.705592
0.706966 0.757626 0.712459
0.716823 0.759548 0.720912
0.726497 0.760861 0.729854
0.732540 0.760952 0.735164
0.737972 0.761135 0.740780
0.742672 0.761532 0.746639
0.746548 0.762051 0.752743
0.749447 0.762905 0.759060
0.745937 0.763973 0.731594
0.747250 0.763088 0.696376
0.753994 0.759945 0.655695
0.765774 0.754452 0.607782
0.771481 0.734554 0.543267
0.777523 0.702724 0.454322
0.786893 0.658900 0.333074
0.805234 0.637079 0.255406
0.829313 0.659266 0.281621
0.850095 0.679591 0.315160
0.869017 0.698451 0.350408
0.886198 0.715999 0.386145
0.901793 0.732143 0.420569
0.915648 0.747219 0.454292
0.670771 0.764462 0.697414
0.671717 0.764736 0.698085
0.672908 0.765042 0.698787
0.675227 0.765499 0.700191
0.678798 0.766079 0.702174
0.683345 0.766812 0.704799
0.688930 0.767727 0.708156
0.695369 0.768826 0.712154
0.702663 0.770138 0.716945
0.710506 0.771664 0.722469
0.718807 0.773373 0.728725
0.727382 0.775204 0.735683
0.737453 0.776883 0.744930
0.744411 0.777310 0.751003
0.749660 0.777249 0.755825
0.754330 0.777310 0.760861
0.758358 0.777554 0.766110
0.761624 0.778042 0.771664
0.762905 0.778958 0.772549
0.759884 0.779629 0.744076
0.761837 0.778531 0.710262
0.768948 0.775418 0.670741
0.780484 0.770108 0.625238
0.785214 0.750881 0.566613
0.791104 0.721401 0.483650
0.800656 0.681514 0.370672
0.818936 0.655299 0.278019
0.842802 0.676967 0.305608
0.863340 0.696773 0.340581
0.881895 0.715114 0.377050
0.898436 0.732296 0.414923
0.913146 0.748348 0.451728
0.684657 0.779080 0.714107
0.685542 0.779385 0.714717
0.686671 0.779660 0.715419
0.688869 0.780056 0.716701
0.692164 0.780606 0.718624
0.696468 0.781338 0.721157
0.701686 0.782193 0.724361
0.707759 0.783291 0.728206
0.714595 0.784573 0.732815
0.722103 0.786069 0.738094
0.730007 0.787778 0.743984
0.738277 0.789639 0.750546
0.747250 0.791501 0.758358
0.756191 0.792935 0.766567
0.761410 0.792844 0.770871
0.766140 0.792874 0.775387
0.770321 0.793027 0.780087
0.773953 0.793393 0.785031
0.776913 0.793973 0.790158
0.776486 0.794980 0.784451
0.774350 0.795315 0.757626
0.776822 0.794064 0.725338
0.784115 0.791043 0.687129
0.795377 0.785702 0.642847
0.799680 0.767636 0.590021
0.805509 0.740658 0.514092
0.814725 0.703700 0.408392
0.833494 0.674189 0.303227
0.857115 0.695460 0.333623
0.877501 0.714900 0.370001
0.895506 0.732876 0.408270
0.911070 0.749935 0.448829
0.698329 0.793088 0.730373
0.699123 0.793301 0.730922
0.700099 0.793515 0.731502
0.702083 0.793851 0.732692
0.705074 0.794308 0.734432
0.709071 0.794949 0.736812
0.713893 0.795743 0.739803
0.719631 0.796780 0.743435
0.726131 0.798001 0.747768
0.733181 0.799435 0.752712
0.740719 0.801083 0.758297
0.748653 0.802914 0.764431
0.756710 0.804898 0.771054
0.766110 0.806699 0.779507
0.772610 0.807279 0.785000
0.777279 0.807248 0.788998
0.781491 0.807279 0.793149
0.785245 0.807462 0.797482
0.788479 0.807858 0.802029
0.791073 0.808499 0.806790
0.789303 0.809476 0.795438
0.788022 0.809659 0.770199
0.790951 0.808377 0.739773
0.798459 0.805570 0.703182
0.809445 0.800320 0.660304
0.813870 0.783413 0.611261
0.819699 0.758755 0.542931
0.828885 0.724697 0.444556
0.848325 0.692866 0.329534
0.871550 0.713802 0.363165
0.891600 0.732906 0.401190
0.908629 0.750668 0.442420
0.710811 0.805783 0.745235
0.711543 0.805966 0.745693
0.712490 0.806149 0.746273
0.714321 0.806455 0.747402
0.717250 0.806973 0.749142
0.721096 0.807675 0.751522
0.725887 0.808591 0.754574
0.731472 0.809781 0.758328
0.737850 0.811185 0.762692
0.744808 0.812802 0.767666
0.752285 0.814603 0.773159
0.760098 0.816587 0.779110
0.768063 0.818662 0.785489
0.776638 0.820706 0.792813
0.785336 0.822446 0.800504
0.789853 0.822354 0.804013
0.794034 0.822324 0.807675
0.797787 0.822446 0.811490
0.801144 0.822690 0.815457
0.803952 0.823117 0.819577
0.806210 0.823697 0.823819
0.803494 0.824704 0.808072
0.802914 0.824735 0.784726
0.806241 0.823636 0.756466
0.813962 0.821164 0.722072
0.824735 0.816098 0.680842
0.829801 0.800381 0.633570
0.835782 0.778042 0.573358
0.845274 0.747372 0.484504
0.866758 0.719295 0.375341
0.888151 0.735164 0.402564
0.907225 0.753780 0.442481
0.724056 0.818814 0.760708
0.724697 0.818967 0.761135
0.725551 0.819089 0.761593
0.727260 0.819364 0.762661
0.729976 0.819791 0.764279
0.733547 0.820401 0.766445
0.737972 0.821225 0.769253
0.743160 0.822202 0.772641
0.749111 0.823453 0.776608
0.755673 0.824826 0.781155
0.762661 0.826413 0.786130
0.770077 0.828183 0.791623
0.777676 0.830076 0.797421
0.785336 0.832090 0.803616
