data/fiter_cube/29797953/1022864/file.cube
# Created by Adobe Lightroom plugin Export LUT (1.17.0)
# www.johnrellis.com/lightroom/exportlut.htm
# Preset: 电影灰蓝色_09 云集
# Color profile: C:\Program Files (x86)\Common Files\Adobe\Color\Profiles\Recommended\AdobeRGB1998.icc
LUT_3D_SIZE 8
DOMAIN_MIN 0.000000 0.000000 0.000000
DOMAIN_MAX 0.903226 0.903226 0.903226
0.069123 0.076112 0.088075
0.101289 0.084047 0.090333
0.269596 0.099916 0.086641
0.527428 0.090974 0.058808
0.681819 0.195773 0.022675
0.764675 0.317327 0.090913
0.825589 0.427649 0.164462
0.880674 0.527764 0.264866
0.075013 0.092287 0.100618
0.101015 0.105989 0.097200
0.294957 0.147189 0.080323
0.540246 0.160006 0.039368
0.686000 0.240452 0.009918
0.763882 0.339178 0.089662
0.824399 0.438849 0.164034
0.879850 0.533989 0.264622
0.103548 0.209018 0.172549
0.158633 0.230076 0.203922
0.287175 0.268772 0.121889
0.569177 0.315953 0.000000
0.706569 0.381598 0.000000
0.772122 0.426703 0.102296
0.830533 0.495369 0.184512
0.883146 0.567651 0.281651
0.269688 0.462501 0.353704
0.332067 0.470954 0.376165
0.463386 0.481239 0.449439
0.555352 0.492042 0.217136
0.695766 0.464454 0.047578
0.786618 0.553735 0.147402
0.837217 0.576471 0.222263
0.885801 0.617334 0.306340
0.496376 0.628107 0.527672
0.524071 0.630243 0.539178
0.595026 0.637201 0.580194
0.639887 0.640589 0.624933
0.677699 0.619501 0.363592
0.751522 0.547814 0.147860
0.832609 0.632990 0.259220
0.889555 0.681575 0.348943
0.618647 0.711025 0.637507
0.631525 0.713924 0.645075
0.662837 0.719234 0.663905
0.700801 0.724300 0.695247
0.714900 0.727352 0.703792
0.742061 0.698390 0.489357
0.803830 0.624537 0.238895
0.878996 0.700954 0.365454
0.684657 0.779080 0.714107
0.692164 0.780606 0.718624
0.714595 0.784573 0.732815
0.747250 0.791501 0.758358
0.770321 0.793027 0.780087
0.774350 0.795315 0.757626
0.799680 0.767636 0.590021
0.857115 0.695460 0.333623
0.735042 0.829618 0.773404
0.740658 0.830594 0.776822
0.759152 0.834104 0.788693
0.786923 0.840574 0.808652
0.812955 0.844907 0.829435
0.825803 0.845731 0.842374
0.827543 0.848600 0.807462
0.858274 0.828092 0.670527
0.074311 0.085420 0.107362
0.108003 0.080568 0.119326
0.255222 0.109499 0.128573
0.512413 0.133700 0.132540
0.672114 0.227573 0.137575
0.754757 0.335698 0.165927
0.817166 0.438392 0.219425
0.874357 0.533318 0.301457
0.078950 0.099001 0.114351
0.103914 0.121096 0.136782
0.279973 0.155825 0.137148
0.527794 0.185061 0.133028
0.677699 0.266361 0.138643
0.755795 0.357610 0.167758
0.816770 0.449775 0.220249
0.873594 0.539025 0.300786
0.101015 0.231449 0.201450
0.166781 0.256413 0.228946
0.298161 0.292515 0.185672
0.568353 0.344274 0.130922
0.696590 0.391241 0.145571
0.763485 0.436591 0.181918
0.821744 0.500420 0.237369
0.876646 0.570428 0.315129
0.277928 0.472847 0.374701
0.342229 0.481941 0.395483
0.472969 0.494697 0.459358
0.550408 0.497963 0.275273
0.688838 0.474617 0.153811
0.776059 0.553338 0.220432
0.828641 0.577081 0.269993
0.879728 0.618494 0.337499
0.502525 0.632136 0.538781
0.527611 0.633539 0.547906
0.592645 0.638911 0.581048
0.640040 0.641718 0.624414
0.672694 0.620478 0.394873
0.747707 0.555169 0.205814
0.828214 0.638697 0.305608
0.884855 0.682582 0.379217
0.618830 0.711543 0.640650
0.629755 0.712978 0.646052
0.660365 0.718013 0.663386
0.699397 0.724025 0.694423
0.716243 0.727687 0.710414
0.739803 0.699855 0.507591
0.801511 0.629694 0.277379
0.876158 0.704250 0.392676
0.683040 0.778317 0.714443
0.689845 0.779202 0.718044
0.712276 0.783352 0.731807
0.744594 0.790707 0.756222
0.770138 0.793362 0.780026
0.774563 0.795407 0.761837
0.797482 0.767208 0.597131
0.854337 0.696712 0.353521
0.733455 0.829343 0.773342
0.739254 0.830442 0.776852
0.757839 0.833982 0.788540
0.785763 0.840452 0.808194
0.814420 0.846708 0.831327
0.826993 0.847105 0.843534
0.827909 0.849058 0.810544
0.857267 0.828122 0.674464
0.081941 0.119448 0.188449
0.096345 0.107362 0.229831
0.327947 0.044160 0.260868
0.507134 0.145663 0.245640
0.647120 0.292973 0.288365
0.735622 0.397894 0.320378
0.801694 0.481147 0.354650
0.862974 0.559808 0.405646
0.138094 0.162844 0.178592
0.139040 0.179232 0.228489
0.321324 0.153902 0.277470
0.493996 0.238285 0.280095
0.651881 0.327214 0.299260
0.736690 0.414557 0.324254
0.801907 0.490547 0.356207
0.862943 0.565637 0.406439
0.148165 0.244083 0.256565
0.186160 0.269841 0.279210
0.315404 0.337621 0.339788
0.539788 0.379187 0.324743
0.672206 0.429450 0.330236
0.744533 0.476478 0.344488
0.806332 0.530632 0.371160
0.865019 0.590570 0.415869
0.264591 0.507195 0.440589
0.334691 0.513481 0.449958
0.475532 0.526452 0.480568
0.555047 0.530907 0.418128
0.685206 0.533898 0.353979
0.757870 0.572168 0.383886
0.814481 0.596796 0.401343
0.869169 0.634180 0.436194
0.498329 0.643641 0.564782
0.527276 0.645289 0.572656
0.593347 0.649500 0.595972
0.647181 0.653742 0.632105
0.669490 0.636591 0.490669
0.742794 0.591455 0.362097
0.820768 0.665888 0.436347
0.874815 0.691676 0.468818
0.618006 0.717617 0.653468
0.630030 0.719173 0.658656
0.660456 0.723659 0.672755
0.698207 0.729458 0.697047
0.723445 0.733730 0.726345
0.735164 0.707057 0.562249
0.796445 0.650019 0.386389
0.870878 0.720272 0.478737
0.682979 0.782742 0.723354
0.690150 0.783780 0.726802
0.711971 0.787198 0.738247
0.743130 0.793271 0.758511
0.772183 0.797665 0.783169
0.779843 0.799954 0.780331
0.796170 0.772396 0.627253
0.852262 0.710780 0.430823
0.730983 0.831510 0.777096
0.736080 0.832181 0.779629
0.754788 0.835355 0.790249
0.783536 0.841794 0.808988
0.814847 0.849393 0.833066
0.829587 0.850462 0.846128
0.830564 0.851835 0.822232
0.856382 0.831144 0.692500
0.120424 0.200565 0.332982
0.130007 0.193881 0.368383
0.334691 0.100069 0.472663
0.578149 0.147677 0.441413
0.666224 0.299535 0.407477
0.702663 0.434546 0.440558
0.773739 0.513024 0.471015
0.842771 0.583459 0.506859
0.212650 0.271672 0.332311
0.204288 0.266026 0.368139
0.325505 0.207950 0.466224
0.573388 0.233707 0.452796
0.659937 0.340307 0.419471
0.702235 0.453529 0.449683
0.774624 0.522423 0.474891
0.843565 0.588159 0.507317
0.292088 0.331395 0.344427
0.318975 0.348455 0.357641
0.384253 0.406134 0.431312
0.557549 0.401556 0.483589
0.637140 0.453895 0.463935
0.711879 0.510063 0.477821
0.781735 0.560204 0.494270
0.847868 0.611200 0.516991
0.357397 0.466926 0.458320
0.386816 0.479072 0.469062
0.464759 0.512535 0.499550
0.554376 0.552514 0.538231
0.658930 0.569512 0.517357
0.726986 0.586297 0.513970
0.790677 0.612757 0.517144
0.852750 0.648432 0.532830
0.495827 0.644160 0.598169
0.518944 0.649653 0.605402
0.581384 0.661738 0.622614
0.640253 0.662684 0.634455
0.664820 0.655329 0.589349
0.734371 0.642054 0.527642
0.805295 0.685237 0.555444
0.860410 0.700435 0.559716
0.613519 0.728023 0.677729
0.626093 0.730037 0.681727
0.656397 0.733028 0.689906
0.693935 0.737301 0.703914
0.727230 0.741512 0.729519
0.732326 0.719539 0.626612
0.790768 0.682612 0.516106
0.864622 0.744137 0.579034
0.679103 0.788815 0.737484
0.686488 0.789944 0.740322
0.708827 0.793332 0.749416
0.739895 0.798611 0.764462
0.773342 0.804471 0.787472
0.791714 0.808621 0.808408
0.794461 0.779843 0.666865
0.848081 0.730861 0.526390
0.728969 0.836240 0.786831
0.734127 0.836973 0.789029
0.750362 0.839231 0.796017
0.777371 0.843900 0.809934
0.809689 0.851194 0.830991
0.832670 0.855283 0.849485
0.835782 0.856413 0.840208
0.854826 0.835630 0.719234
0.248020 0.319127 0.472114
0.256565 0.313756 0.492195
0.346349 0.283665 0.552758
0.583368 0.190616 0.616602
0.691402 0.349737 0.569879
0.735958 0.451148 0.538659
0.769894 0.520226 0.542748
0.815732 0.610712 0.595087
0.324590 0.378088 0.469459
0.317571 0.368780 0.489174
0.368139 0.341924 0.547936
0.580316 0.263432 0.618769
0.687404 0.387518 0.574762
0.732174 0.470710 0.544518
0.766262 0.534234 0.550134
0.816953 0.615015 0.596490
0.415839 0.422858 0.419409
0.427131 0.441352 0.445899
0.450721 0.471351 0.525566
0.555901 0.432380 0.610712
0.675044 0.481880 0.589441
0.719051 0.523552 0.560815
0.753475 0.573968 0.571405
0.821225 0.628779 0.599847
0.476265 0.505638 0.504967
0.489174 0.512718 0.510674
0.526055 0.534234 0.528008
0.570672 0.573053 0.572198
0.659205 0.582086 0.611780
0.698543 0.592370 0.589715
0.758846 0.620264 0.595209
0.831418 0.653773 0.604578
0.534356 0.608026 0.594507
0.546319 0.612543 0.599084
0.580194 0.625971 0.612512
0.620325 0.644099 0.630640
0.658320 0.660517 0.648066
0.718135 0.667109 0.628809
0.779904 0.678370 0.621454
0.843259 0.697963 0.621607
0.608942 0.709163 0.681209
0.618006 0.712734 0.685420
0.643580 0.724544 0.698787
0.679408 0.741115 0.716732
0.714321 0.741207 0.721736
0.728817 0.730404 0.681117
0.787655 0.719631 0.628290
0.857847 0.758267 0.652430
0.671534 0.795895 0.759335
0.678340 0.796506 0.760616
0.699886 0.798795 0.765225
0.730343 0.802731 0.773404
0.763027 0.807370 0.785611
0.792721 0.812192 0.807767
0.791653 0.787839 0.710109
0.845304 0.754055 0.614374
0.723171 0.841001 0.800137
0.728115 0.841489 0.801511
0.744015 0.843351 0.806210
0.769039 0.847318 0.815213
0.799557 0.852445 0.828855
0.833097 0.860075 0.851560
0.844785 0.862669 0.861784
0.852293 0.840604 0.749538
0.401404 0.443488 0.578790
0.405097 0.439033 0.589807
0.443702 0.424903 0.624231
0.554192 0.380804 0.673396
0.692287 0.379614 0.695216
0.750210 0.490303 0.654932
0.794461 0.560998 0.642542
0.834684 0.608637 0.645411
0.440101 0.476753 0.573358
0.436347 0.469917 0.584466
0.459541 0.456336 0.619257
0.553033 0.419623 0.668452
0.688441 0.410529 0.694606
0.747372 0.507042 0.657008
0.792020 0.569574 0.644495
0.833066 0.612787 0.646265
0.507866 0.526879 0.547509
0.512810 0.533471 0.562280
0.517510 0.535943 0.604456
0.559258 0.517449 0.655421
0.679042 0.496437 0.696529
0.740230 0.558831 0.666407
0.785275 0.597192 0.652033
0.828458 0.627100 0.649805
0.554528 0.558648 0.551629
0.559442 0.561730 0.553735
0.575280 0.572290 0.560540
0.599939 0.608362 0.631220
0.662165 0.594659 0.694789
0.731746 0.620294 0.680995
0.775326 0.633112 0.661707
0.818265 0.658473 0.662989
0.596735 0.623682 0.619226
0.601953 0.626398 0.621546
0.617700 0.634577 0.628595
0.638056 0.645472 0.637568
0.657954 0.662593 0.658076
0.720821 0.671962 0.693446
0.757595 0.668849 0.668940
0.817533 0.693904 0.676265
0.631495 0.688014 0.678431
0.636408 0.690608 0.681117
0.650629 0.697932 0.688777
0.671504 0.709194 0.700465
0.695064 0.722164 0.713802
0.723964 0.734951 0.727779
0.778622 0.737881 0.706172
0.839536 0.746700 0.699275
0.671870 0.770535 0.752193
0.677089 0.773190 0.755184
0.693568 0.781399 0.764370
0.719326 0.795254 0.779507
0.751766 0.813016 0.798093
0.783169 0.814237 0.803281
0.790677 0.799710 0.761257
0.846586 0.786343 0.707973
0.719478 0.841245 0.814450
0.723507 0.842649 0.816190
0.737148 0.847715 0.822232
0.760586 0.852537 0.828733
0.790127 0.856535 0.835874
0.822751 0.862119 0.848325
0.850217 0.868406 0.868009
0.850462 0.848203 0.787045
0.532036 0.556512 0.662715
0.532433 0.553246 0.668299
0.545037 0.544732 0.687282
0.587366 0.523156 0.720180
0.681575 0.474983 0.763729
0.765072 0.511620 0.764584
0.804898 0.585168 0.729946
0.851804 0.637934 0.725765
0.550042 0.574151 0.659358
0.547692 0.569757 0.665034
0.554559 0.560662 0.684169
0.590478 0.541619 0.716945
0.678492 0.499794 0.760922
0.763058 0.526940 0.764858
0.803769 0.593500 0.731441
0.850919 0.642481 0.726864
0.589410 0.609369 0.644739
0.592126 0.611810 0.652338
0.586725 0.603723 0.672511
0.602869 0.591424 0.706233
0.669886 0.565667 0.751431
0.756741 0.570642 0.766110
0.800259 0.618799 0.736355
0.847837 0.657343 0.730465
0.616876 0.615412 0.603937
0.618097 0.620142 0.612573
0.624018 0.634852 0.641474
0.630976 0.644495 0.685725
0.660792 0.633234 0.734432
0.746975 0.623285 0.769131
0.795254 0.653651 0.744015
0.842741 0.679774 0.735470
0.645289 0.656489 0.651575
0.647120 0.657404 0.652125
0.652613 0.659876 0.653285
0.659022 0.661616 0.652094
0.671931 0.684871 0.704891
0.729152 0.675959 0.769894
0.789090 0.695003 0.754574
0.834836 0.707424 0.741024
0.669734 0.703792 0.702419
0.671962 0.705013 0.703517
0.679438 0.708705 0.707027
0.690455 0.713680 0.711482
0.702510 0.717678 0.714137
0.716915 0.729915 0.731075
0.781003 0.743221 0.768704
0.821134 0.738613 0.746212
0.691188 0.756161 0.752255
0.693904 0.757565 0.753719
0.702998 0.762264 0.758663
0.717617 0.769955 0.766781
0.737179 0.780575 0.777890
0.760494 0.793393 0.791104
0.786435 0.803922 0.802457
0.838071 0.803952 0.782467
0.720241 0.819852 0.807950
0.723507 0.821378 0.809598
0.734585 0.826719 0.815366
0.753262 0.836057 0.825345
0.779690 0.849516 0.839597
0.813382 0.866880 0.857939
0.844633 0.871550 0.866331
0.850370 0.859251 0.830777
0.635187 0.659327 0.749905
0.634516 0.656825 0.753445
0.638453 0.650782 0.765438
0.654505 0.637415 0.786038
0.697078 0.611749 0.813565
0.774777 0.575280 0.841123
0.828183 0.612879 0.826810
0.861173 0.661158 0.797910
0.641962 0.667109 0.747341
0.640192 0.664027 0.750973
0.641749 0.657374 0.763241
0.656062 0.645106 0.784024
0.696315 0.621485 0.811856
0.773465 0.584527 0.841215
0.827970 0.618799 0.828092
0.860655 0.665644 0.798856
0.662715 0.688624 0.737850
0.661006 0.686885 0.741573
0.655146 0.678340 0.754696
0.661341 0.667659 0.776608
0.693538 0.649561 0.805722
0.766354 0.616632 0.839048
0.827329 0.637842 0.832609
0.859007 0.680293 0.802182
0.679225 0.698024 0.710597
0.679438 0.699672 0.715694
0.681086 0.704738 0.733852
0.677028 0.699641 0.761288
0.691463 0.686671 0.793637
0.750240 0.664088 0.830198
0.822477 0.667811 0.836820
0.856443 0.703548 0.807858
0.700008 0.710262 0.705592
0.700435 0.710140 0.705074
0.701595 0.709194 0.702388
0.700496 0.717159 0.723171
0.703151 0.725490 0.771023
0.732387 0.712856 0.814969
0.812070 0.705440 0.839994
0.853086 0.734371 0.816159
0.717220 0.743069 0.745480
0.718166 0.743374 0.745602
0.721248 0.744076 0.745602
0.725368 0.743954 0.743954
0.728176 0.740749 0.737179
0.736233 0.758297 0.785702
0.795712 0.751461 0.842649
0.849119 0.772061 0.827512
0.733150 0.779446 0.783749
0.734524 0.780056 0.784329
0.739193 0.782040 0.786191
0.746883 0.785122 0.789090
0.757198 0.788815 0.792264
0.767727 0.790890 0.793027
0.780301 0.800778 0.809323
0.844816 0.816220 0.842496
0.746609 0.816709 0.817136
0.748318 0.817502 0.817960
0.754269 0.820340 0.820859
0.765042 0.825559 0.826169
0.780819 0.833371 0.834195
0.801785 0.844205 0.845182
0.827634 0.858091 0.859281
0.853147 0.870146 0.871855
