data/fiter_cube/29797953/1022864/file.cube
# Created by Adobe Lightroom plugin Export LUT (1.17.0)
# www.johnrellis.com/lightroom/exportlut.htm
# Preset: 电影灰蓝色_09 云集
# Color profile: C:\Program Files (x86)\Common Files\Adobe\Color\Profiles\Recommended\AdobeRGB1998.icc
LUT_3D_SIZE 5
DOMAIN_MIN 0.000000 0.000000 0.000000
DOMAIN_MAX 0.903226 0.903226 0.903226
0.069123 0.076112 0.088075
0.212314 0.098268 0.089265
0.617639 0.134646 0.029816
0.780819 0.345769 0.107515
0.880674 0.527764 0.264866
0.090425 0.163333 0.144350
0.221164 0.215000 0.112612
0.647852 0.313512 0.000000
0.785641 0.419989 0.117861
0.883055 0.558984 0.278782
0.393561 0.558099 0.447364
0.517144 0.571832 0.504875
0.631250 0.567864 0.293278
0.791165 0.575158 0.180819
0.887358 0.647730 0.324407
0.638727 0.730312 0.659632
0.668269 0.735805 0.676783
0.725765 0.744076 0.725399
0.756954 0.716732 0.516838
0.874296 0.700221 0.360174
0.735042 0.829618 0.773404
0.753384 0.832944 0.784878
0.800687 0.843015 0.819272
0.828061 0.846250 0.845823
0.858274 0.828092 0.670527
0.078798 0.106905 0.160525
0.252476 0.069093 0.215610
0.583154 0.220035 0.237705
0.757687 0.401801 0.286625
0.865843 0.551202 0.375677
0.119905 0.194186 0.209506
0.242069 0.272099 0.279728
0.616632 0.354803 0.270695
0.763851 0.460060 0.303166
0.867948 0.576776 0.385382
0.399451 0.579736 0.492012
0.518120 0.590051 0.526390
0.623438 0.584680 0.421454
0.779538 0.609064 0.363043
0.875395 0.658808 0.426520
0.639734 0.735653 0.671443
0.668940 0.740749 0.686061
0.728298 0.749874 0.729702
0.752621 0.723140 0.567559
0.868681 0.714443 0.447028
0.732540 0.831510 0.776669
0.751064 0.834592 0.787259
0.799832 0.845426 0.820340
0.831479 0.850156 0.848966
0.857359 0.831052 0.688502
0.174685 0.257450 0.407904
0.262608 0.226352 0.491005
0.648371 0.256016 0.515404
0.729854 0.447761 0.480049
0.830014 0.598138 0.555138
0.345403 0.361608 0.364019
0.375189 0.405951 0.467536
0.634180 0.407599 0.537652
0.713375 0.514397 0.514733
0.834287 0.614588 0.559533
0.459724 0.548394 0.535088
0.514122 0.570306 0.556085
0.617090 0.616144 0.601923
0.736446 0.634211 0.577111
0.847227 0.674891 0.581567
0.627955 0.748959 0.707698
0.656306 0.751308 0.712856
0.718410 0.758145 0.731563
0.746975 0.740444 0.661952
0.858671 0.753292 0.612543
0.725978 0.838163 0.792386
0.742458 0.840452 0.798520
0.788296 0.847959 0.819242
0.836759 0.857969 0.853819
0.853239 0.837491 0.732876
0.434607 0.471138 0.600458
0.456825 0.460212 0.630640
0.627802 0.384100 0.709285
0.763638 0.516503 0.674098
0.838682 0.615229 0.664790
0.515801 0.540398 0.583032
0.514611 0.535485 0.616693
0.616083 0.494026 0.696498
0.756710 0.561425 0.681270
0.833982 0.628565 0.667384
0.588800 0.599115 0.593774
0.601862 0.606806 0.599207
0.634913 0.642542 0.654566
0.742153 0.650660 0.700862
0.818448 0.672236 0.679072
0.648035 0.706386 0.698146
0.660121 0.712367 0.704463
0.693843 0.730709 0.723629
0.739376 0.752499 0.746914
0.838132 0.759274 0.718593
0.720027 0.836576 0.813718
0.732906 0.841642 0.819638
0.772854 0.856077 0.836332
0.828824 0.864897 0.853452
0.850004 0.850370 0.797086
0.635187 0.659327 0.749905
0.636774 0.652857 0.761563
0.671534 0.626551 0.799100
0.790249 0.584924 0.839261
0.861173 0.661158 0.797910
0.656397 0.682521 0.740993
0.650629 0.673976 0.753506
0.672755 0.652674 0.792660
0.785824 0.610864 0.839811
0.859525 0.675715 0.801114
0.690822 0.698024 0.691493
0.689693 0.704372 0.708095
0.689662 0.712062 0.765743
0.762234 0.682124 0.833707
0.854887 0.718013 0.811643
0.721340 0.751980 0.755367
0.724880 0.753109 0.756069
0.733700 0.754025 0.754757
0.746151 0.768032 0.790585
0.848081 0.782437 0.830869
0.746609 0.816709 0.817136
0.752346 0.819425 0.819913
0.772305 0.829099 0.829831
0.807797 0.847379 0.848447
0.853147 0.870146 0.871855
