data/fiter_cube/81078425/1022774/file.cube
# Created by Adobe Lightroom plugin Export LUT (1.17.0)
# www.johnrellis.com/lightroom/exportlut.htm
# Preset: 旅拍情绪景观_08 云集视觉
# Color profile: C:\Program Files (x86)\Common Files\Adobe\Color\Profiles\Recommended\AdobeRGB1998.icc
LUT_3D_SIZE 32
DOMAIN_MIN 0.0 0.0 0.0
DOMAIN_MAX 1.0 1.0 1.0
0.064698 0.074434 0.080537
0.066468 0.074952 0.080751
0.069123 0.075288 0.081300
0.074861 0.076539 0.082307
0.083314 0.077913 0.084138
0.094118 0.079316 0.085786
0.107759 0.080415 0.087587
0.125856 0.081117 0.089693
0.149294 0.081209 0.091676
0.180301 0.078889 0.094209
0.220951 0.072236 0.096681
0.272496 0.053712 0.099123
0.334569 0.000000 0.101106
0.405585 0.000000 0.103120
0.482155 0.000000 0.104982
0.559655 0.000000 0.106691
0.633112 0.000000 0.109743
0.699123 0.000000 0.114900
0.756924 0.000000 0.123323
0.810391 0.000000 0.136538
0.864134 0.091127 0.159579
0.904265 0.184451 0.188815
0.933928 0.250614 0.222507
0.956268 0.306188 0.259495
0.973205 0.355444 0.298741
0.986114 0.401190 0.341100
0.996094 0.445441 0.386755
1.000000 0.489479 0.436133
1.000000 0.533654 0.489052
1.000000 0.577508 0.543481
1.000000 0.619928 0.597253
1.000000 0.660639 0.649348
0.065644 0.076143 0.081300
0.067048 0.076326 0.081270
0.069276 0.076326 0.081819
0.074861 0.077577 0.083436
0.083253 0.079286 0.085206
0.094484 0.080262 0.086580
0.108064 0.081666 0.088350
0.125887 0.082399 0.090425
0.149294 0.082155 0.092714
0.180148 0.080323 0.094911
0.220706 0.073884 0.097353
0.271550 0.059236 0.099794
0.333043 0.000000 0.102052
0.402991 0.000000 0.104341
0.478614 0.000000 0.106111
0.555322 0.000000 0.108400
0.628717 0.000000 0.111116
0.694636 0.000000 0.116182
0.752956 0.000000 0.124331
0.807279 0.000000 0.137514
0.860014 0.088869 0.159396
0.900175 0.180880 0.187503
0.930419 0.245945 0.219883
0.953307 0.301335 0.255802
0.970794 0.350347 0.294377
0.984283 0.396277 0.336156
0.994720 0.440467 0.381231
1.000000 0.485115 0.431037
1.000000 0.529534 0.483925
1.000000 0.573724 0.538567
1.000000 0.616510 0.592737
1.000000 0.657282 0.644984
0.067414 0.078004 0.082338
0.068696 0.078523 0.082582
0.070649 0.078614 0.082246
0.075776 0.079561 0.083589
0.083528 0.080598 0.086549
0.094606 0.082185 0.088167
0.108492 0.083162 0.089601
0.126436 0.084199 0.091646
0.150118 0.083803 0.093843
0.180941 0.082277 0.096284
0.221530 0.076295 0.098634
0.272557 0.062379 0.101259
0.334020 0.005005 0.103639
0.403784 0.000000 0.105837
0.479347 0.000000 0.107973
0.555627 0.000000 0.110170
0.628595 0.000000 0.113436
0.694362 0.000000 0.118532
0.752255 0.000000 0.126772
0.807187 0.000000 0.140108
0.859037 0.099458 0.162020
0.898772 0.184939 0.189487
0.929046 0.248569 0.221622
0.952087 0.302739 0.256931
0.969665 0.351415 0.295323
0.983337 0.396674 0.336522
0.993866 0.441047 0.381781
1.000000 0.485328 0.431159
1.000000 0.529992 0.484382
1.000000 0.574182 0.539055
1.000000 0.616602 0.592767
1.000000 0.657496 0.645136
0.070497 0.082948 0.085237
0.072084 0.083375 0.085451
0.074159 0.084077 0.085359
0.078340 0.084474 0.084657
0.087007 0.084657 0.085878
0.097078 0.085573 0.089235
0.110170 0.087129 0.093080
0.129183 0.087739 0.094972
0.153445 0.087678 0.096773
0.185306 0.086152 0.099275
0.226505 0.081025 0.101900
0.278325 0.069093 0.104433
0.340215 0.025818 0.107179
0.409644 0.000000 0.109773
0.484565 0.000000 0.112032
0.560845 0.000000 0.114473
0.632624 0.000000 0.118257
0.697169 0.000000 0.123995
0.753964 0.000000 0.132662
0.808835 0.000000 0.146944
0.858244 0.121889 0.168215
0.897185 0.196262 0.195041
0.927306 0.256321 0.226688
0.950652 0.309941 0.262638
0.968750 0.358495 0.301701
0.982696 0.404822 0.344518
0.993347 0.449500 0.390967
1.000000 0.493996 0.441230
1.000000 0.538201 0.494362
1.000000 0.581201 0.547784
1.000000 0.622309 0.599969
1.000000 0.661677 0.650385
0.075044 0.089204 0.088380
0.076570 0.089570 0.088594
0.078462 0.089906 0.088808
0.082918 0.091341 0.088289
0.089387 0.092470 0.087160
0.101442 0.092683 0.087953
0.114595 0.092836 0.091920
0.132906 0.093568 0.096712
0.157900 0.094331 0.101961
0.190890 0.093324 0.104402
0.233371 0.089509 0.107118
0.286442 0.080201 0.109895
0.348730 0.059754 0.112825
0.419623 0.000000 0.115816
0.494636 0.000000 0.118502
0.571099 0.000000 0.121950
0.642145 0.000000 0.126497
0.705531 0.000000 0.133486
0.761379 0.000000 0.143191
0.815824 0.076692 0.159121
0.862394 0.159060 0.180972
0.899046 0.221103 0.208377
0.928038 0.276371 0.240085
0.950744 0.326665 0.276097
0.968444 0.373754 0.315435
0.982055 0.418708 0.358770
0.992340 0.462531 0.405280
0.999847 0.505608 0.454780
1.000000 0.548760 0.507134
1.000000 0.590234 0.558984
1.000000 0.630274 0.609949
1.000000 0.668482 0.658869
0.080690 0.096925 0.092256
0.082063 0.097261 0.092470
0.084230 0.097780 0.092378
0.088258 0.098543 0.092775
0.094942 0.101045 0.091798
0.104189 0.102419 0.090608
0.121279 0.103365 0.090486
0.139895 0.102937 0.095094
0.165316 0.103151 0.100710
0.199954 0.103731 0.108125
0.246647 0.102205 0.115846
0.302007 0.095308 0.118715
0.366430 0.081147 0.122164
0.437964 0.049165 0.125368
0.513573 0.000000 0.129030
0.588739 0.000000 0.133272
0.657984 0.000000 0.139071
0.719265 0.000000 0.147646
0.773068 0.074372 0.159213
0.826963 0.145998 0.177890
0.870146 0.204715 0.201907
0.904784 0.259129 0.230961
0.953582 0.367498 0.311620
0.969604 0.412543 0.354040
0.981476 0.454200 0.397375
0.990112 0.493568 0.441627
0.996399 0.531884 0.487160
1.000000 0.569146 0.532952
1.000000 0.605035 0.578119
1.000000 0.640009 0.622675
1.000000 0.673396 0.665309
1.000000 0.704952 0.705440
0.088624 0.108003 0.097322
0.090272 0.108248 0.097261
0.092164 0.108736 0.097414
0.096376 0.109804 0.097719
0.103975 0.112184 0.097536
0.113619 0.115450 0.096162
0.127718 0.117678 0.094667
0.153353 0.120668 0.093263
0.181247 0.120211 0.099275
0.219791 0.120912 0.106600
0.270909 0.120424 0.115419
0.335271 0.117342 0.126650
0.410101 0.109285 0.138796
0.483436 0.095857 0.142855
0.557488 0.081422 0.147158
0.627375 0.077546 0.153079
0.690517 0.094240 0.160891
0.746639 0.124941 0.171633
0.800565 0.168460 0.187716
0.850034 0.220645 0.211704
0.890257 0.273960 0.242191
0.922423 0.326818 0.279118
0.947082 0.378485 0.321965
0.965393 0.426490 0.368109
0.978363 0.471351 0.416266
0.987396 0.511955 0.463081
0.993561 0.550195 0.509178
0.997864 0.585840 0.553582
1.000000 0.620203 0.597009
1.000000 0.652979 0.638941
1.000000 0.684413 0.678950
1.000000 0.714229 0.716823
0.097688 0.120394 0.102480
0.099092 0.120821 0.102632
0.101045 0.121187 0.102785
0.105409 0.122072 0.103059
0.112367 0.123537 0.103182
0.122988 0.127932 0.102388
0.136385 0.132509 0.100954
0.155062 0.135988 0.098787
0.189395 0.142061 0.096010
0.229252 0.142824 0.102693
0.280430 0.144411 0.110842
0.344244 0.144686 0.121401
0.418769 0.143313 0.134585
0.501183 0.141299 0.151766
0.583124 0.143313 0.170962
0.649378 0.150729 0.178073
0.709224 0.167514 0.187655
0.762600 0.192660 0.199863
0.815763 0.231907 0.219974
0.859495 0.275578 0.245518
0.895445 0.321233 0.276860
0.924620 0.368200 0.314153
0.947143 0.414221 0.356542
0.963989 0.458350 0.401984
0.976013 0.499733 0.448463
0.984344 0.538140 0.494209
0.990295 0.573419 0.537560
0.994476 0.606622 0.579309
0.997284 0.638788 0.620264
0.999023 0.669429 0.659449
0.999817 0.699123 0.697322
1.000000 0.726680 0.732143
0.109621 0.136629 0.109133
0.110842 0.136812 0.109316
0.112825 0.137301 0.109438
0.117342 0.138308 0.109621
0.124636 0.139773 0.109682
0.134249 0.141817 0.110048
0.148836 0.148775 0.108248
0.167361 0.155032 0.106264
0.192233 0.160800 0.103822
0.236057 0.169894 0.099672
0.292302 0.175418 0.104646
0.356023 0.178195 0.114687
0.429969 0.181552 0.127047
0.511070 0.185641 0.143008
0.592767 0.194186 0.164858
0.667750 0.211521 0.194491
0.732082 0.237125 0.225650
0.786557 0.266026 0.242924
0.832090 0.299168 0.264286
0.870176 0.335882 0.290562
0.901884 0.375830 0.322881
0.927764 0.416968 0.360479
0.947753 0.458106 0.402380
0.962615 0.498177 0.446784
0.973266 0.536522 0.492012
0.980926 0.570947 0.534142
0.986450 0.602899 0.574090
0.990417 0.632929 0.612299
0.993225 0.661860 0.649287
0.994995 0.689906 0.685115
0.996033 0.716701 0.719112
0.996612 0.741482 0.750179
0.124727 0.156649 0.117006
0.126253 0.156924 0.116915
0.127962 0.157321 0.116823
0.132662 0.158389 0.117159
0.139803 0.159670 0.117189
0.149660 0.161654 0.117617
0.164706 0.167453 0.116762
0.183352 0.176059 0.114626
0.208499 0.185031 0.111849
0.241215 0.193301 0.108125
0.293370 0.205356 0.102266
0.365881 0.217258 0.104524
0.439521 0.223575 0.116091
0.519707 0.231724 0.131533
0.600671 0.244022 0.153140
0.674678 0.262455 0.181918
0.745357 0.292729 0.222446
0.804898 0.331975 0.273686
0.849454 0.373358 0.324437
0.881712 0.404120 0.351110
0.908446 0.437171 0.382544
0.930114 0.471687 0.418036
0.947112 0.506218 0.456336
0.959808 0.540551 0.496803
0.969360 0.573205 0.536584
0.976501 0.603632 0.574609
0.981842 0.632502 0.611170
0.985779 0.660029 0.646296
0.988586 0.686885 0.680629
0.990509 0.712612 0.713436
0.991852 0.736843 0.743893
0.992798 0.759243 0.771542
0.142641 0.180667 0.125521
0.144106 0.181155 0.125399
0.146426 0.181613 0.125643
0.151186 0.182681 0.125734
0.158968 0.184176 0.125643
0.169314 0.186465 0.126101
0.182864 0.189090 0.126314
0.204013 0.200015 0.124239
0.229465 0.211795 0.121340
0.262425 0.224094 0.117403
0.303166 0.235538 0.112306
0.362280 0.250065 0.103670
0.449928 0.270756 0.100710
0.529076 0.281407 0.115480
0.607904 0.295720 0.136446
0.685817 0.318364 0.168063
0.753780 0.345373 0.209262
0.809506 0.377142 0.260716
0.852995 0.413367 0.319646
0.886809 0.455940 0.387549
0.911681 0.499092 0.449805
0.930419 0.528893 0.483497
0.945159 0.559411 0.519677
0.956451 0.588891 0.555810
0.965087 0.616602 0.590448
0.971710 0.642298 0.622980
0.976745 0.666896 0.654414
0.980560 0.690791 0.684962
0.983520 0.713893 0.714382
0.985809 0.735805 0.742000
0.987549 0.756741 0.767941
0.988861 0.776364 0.791806
0.165621 0.211368 0.135714
0.167330 0.211673 0.135622
0.169741 0.212222 0.135775
0.174746 0.213413 0.135775
0.182986 0.215152 0.135744
0.194064 0.217472 0.135988
0.208286 0.220493 0.136141
0.227665 0.226627 0.135500
0.255436 0.242161 0.132418
0.288823 0.257725 0.128054
0.329808 0.273594 0.122621
0.378759 0.288518 0.115053
0.474098 0.327276 0.101900
0.580499 0.365850 0.088045
0.665705 0.389380 0.119997
0.738918 0.412818 0.163882
0.798886 0.436561 0.217502
0.845060 0.461799 0.278050
0.880095 0.490364 0.345098
0.906432 0.525200 0.418219
0.925170 0.565484 0.494972
0.937652 0.608453 0.569207
0.946349 0.644617 0.625544
0.954711 0.664668 0.650904
0.961456 0.684108 0.675715
0.966827 0.702937 0.699733
0.971252 0.720638 0.722194
0.975006 0.737514 0.743374
0.978058 0.754116 0.764034
0.980652 0.770260 0.783841
0.982788 0.785855 0.802579
0.984619 0.800809 0.820096
0.200015 0.256565 0.149569
0.201999 0.256931 0.149599
0.204288 0.257084 0.149325
0.209415 0.257511 0.149203
0.217594 0.258640 0.149020
0.228672 0.260075 0.148775
0.243351 0.262333 0.148653
0.261601 0.266056 0.148653
0.290135 0.279973 0.146059
0.325383 0.299199 0.142031
0.368841 0.320256 0.136080
0.420722 0.342229 0.128054
0.487648 0.369665 0.117708
0.565515 0.399145 0.101778
0.673182 0.448524 0.079713
0.742947 0.467659 0.134737
0.800473 0.485298 0.192782
0.844938 0.502770 0.254887
0.879301 0.523613 0.321904
0.905608 0.549889 0.395148
0.924773 0.582208 0.471809
0.937774 0.618463 0.547448
0.946044 0.655695 0.616724
0.951080 0.692653 0.678920
0.955322 0.721340 0.722164
0.960906 0.735927 0.740536
0.965667 0.749905 0.757961
0.969726 0.763668 0.775021
0.973236 0.777157 0.791440
0.976257 0.790646 0.807584
0.978820 0.803830 0.822965
0.981048 0.816739 0.837552
0.233371 0.299474 0.162936
0.235355 0.299748 0.162814
0.237613 0.299657 0.162722
0.243107 0.300328 0.162387
0.251286 0.301091 0.162295
0.262821 0.302525 0.161929
0.277714 0.304997 0.161746
0.296452 0.308385 0.161410
0.318853 0.312932 0.161654
0.356970 0.336065 0.156985
0.401343 0.361089 0.152041
0.457649 0.391302 0.146090
0.521111 0.422278 0.137636
0.587610 0.451575 0.125673
0.651728 0.474769 0.112154
0.744137 0.519554 0.090028
0.799649 0.531853 0.160616
0.843259 0.543694 0.226932
0.877684 0.557733 0.295720
0.904417 0.577050 0.369299
0.924254 0.601984 0.446357
0.937865 0.632074 0.524773
0.946685 0.664179 0.596521
0.952148 0.697169 0.661311
0.955322 0.729335 0.717739
0.957610 0.758206 0.763333
0.960571 0.779019 0.792813
0.964965 0.789700 0.805631
0.968811 0.800534 0.818387
0.972168 0.811521 0.831083
0.975128 0.822354 0.843198
0.977661 0.833036 0.854917
0.272740 0.348394 0.179019
0.274662 0.348852 0.179202
0.276951 0.348913 0.178958
0.282475 0.349157 0.178683
0.290867 0.349828 0.178164
0.302342 0.351110 0.177859
0.317449 0.353094 0.177462
0.336126 0.356481 0.177279
0.360449 0.362676 0.178103
0.395758 0.378943 0.177127
0.442969 0.408881 0.173220
0.496101 0.439948 0.168795
0.554040 0.471626 0.162661
0.613031 0.500450 0.155245
0.669795 0.524071 0.146639
0.721920 0.540551 0.138125
0.796902 0.576501 0.125948
0.841550 0.585290 0.194614
0.876066 0.593957 0.267338
0.903075 0.606744 0.342199
0.923522 0.624781 0.419959
0.937865 0.648219 0.499519
0.947204 0.674952 0.574304
0.953063 0.703639 0.642115
0.956573 0.732784 0.701534
0.958801 0.760433 0.751339
0.960693 0.785428 0.791440
0.962432 0.807980 0.823850
0.965057 0.824063 0.844358
0.968688 0.833188 0.854368
0.971893 0.842222 0.864103
0.974701 0.850950 0.873259
0.317113 0.401984 0.198795
0.319432 0.402655 0.198886
0.321904 0.402838 0.198734
0.328161 0.404059 0.198642
0.338079 0.406470 0.199191
0.351812 0.409583 0.199191
0.369116 0.413977 0.199741
0.390570 0.419379 0.200748
0.415686 0.425940 0.201602
0.444648 0.433783 0.202976
0.488899 0.459937 0.200443
0.536767 0.489326 0.197177
0.586603 0.517784 0.193606
0.636988 0.543572 0.189059
0.685939 0.565362 0.184115
0.732418 0.582361 0.178683
0.775418 0.594263 0.173770
0.834745 0.620813 0.172976
0.873808 0.630610 0.236423
0.902007 0.639033 0.314458
0.923491 0.651728 0.394476
0.938537 0.669581 0.477180
0.948302 0.691432 0.556115
0.954406 0.715938 0.627436
0.957977 0.741695 0.690028
0.960143 0.767147 0.742977
0.961883 0.790646 0.785611
0.963531 0.811948 0.819669
0.965209 0.830961 0.846494
0.966979 0.847501 0.867704
0.969268 0.859129 0.881132
0.972198 0.865751 0.887816
0.372686 0.465888 0.225711
0.374609 0.466224 0.225925
0.377264 0.466651 0.225895
0.383612 0.467597 0.225681
0.392889 0.469184 0.225895
0.405829 0.471534 0.225956
0.422156 0.474617 0.226474
0.441993 0.478889 0.227054
0.465553 0.484047 0.227970
0.492134 0.490333 0.229435
0.523247 0.499733 0.230777
0.571099 0.531365 0.228214
0.615503 0.558007 0.227237
0.660182 0.582391 0.226200
0.703792 0.603357 0.224308
0.744747 0.620172 0.222385
0.782864 0.632319 0.220523
0.817990 0.640192 0.218997
0.865385 0.659937 0.224979
0.899565 0.670558 0.281621
0.921874 0.678126 0.364233
0.937987 0.690028 0.447944
0.948516 0.706600 0.530236
0.955230 0.726558 0.604913
0.959167 0.748806 0.671687
0.961334 0.772030 0.729183
0.963043 0.794095 0.775418
0.964569 0.814511 0.812253
0.966155 0.832975 0.841306
0.967742 0.849363 0.864164
0.969360 0.863615 0.882231
0.970886 0.875914 0.896574
0.431189 0.529381 0.258579
0.433875 0.530327 0.258976
0.463905 0.558587 0.276890
0.469612 0.559106 0.276799
0.478492 0.560082 0.276860
0.490211 0.560998 0.276677
0.504784 0.562493 0.276616
0.522362 0.564660 0.276738
0.543145 0.567712 0.277562
0.566674 0.572045 0.279240
0.592493 0.576898 0.280919
0.627924 0.593896 0.281895
0.666865 0.617945 0.282872
0.704372 0.638788 0.284459
0.740780 0.656886 0.285618
0.775082 0.671382 0.286259
0.806821 0.682063 0.287327
0.835752 0.688960 0.288396
0.862333 0.692470 0.289708
0.897673 0.705104 0.300847
0.925078 0.714473 0.351354
0.940368 0.720821 0.437232
0.950652 0.731655 0.519799
0.957061 0.746181 0.596094
0.960723 0.763241 0.663050
0.962860 0.781827 0.720119
0.964324 0.800565 0.767361
0.965667 0.818662 0.805356
0.967102 0.835691 0.835721
0.968566 0.851438 0.860105
0.970062 0.865324 0.879240
0.971496 0.877348 0.894438
0.496040 0.595148 0.302739
0.501335 0.598962 0.306004
0.507591 0.602869 0.308965
0.516136 0.606653 0.311833
0.526513 0.609705 0.313573
0.538018 0.611566 0.314946
0.551537 0.612818 0.314702
0.567132 0.614252 0.315160
0.585473 0.616571 0.315953
0.606012 0.619471 0.317327
0.628901 0.623224 0.319097
0.653071 0.627314 0.321355
0.689815 0.649409 0.323125
0.722988 0.668482 0.325566
0.755123 0.685206 0.328069
0.785245 0.698695 0.330663
0.813413 0.709163 0.333013
0.839536 0.716823 0.335607
0.863798 0.721798 0.339178
0.886320 0.724117 0.342809
0.914885 0.733364 0.357458
0.939117 0.743374 0.403204
0.950439 0.749905 0.490394
0.957610 0.760311 0.571313
0.961883 0.773617 0.642329
0.964202 0.789425 0.704189
0.965667 0.806119 0.755154
0.966827 0.822965 0.796780
0.968048 0.839078 0.829801
0.969421 0.854032 0.855741
0.970825 0.867491 0.876158
0.972107 0.879301 0.892332
0.546136 0.644617 0.345251
0.551141 0.648035 0.348486
0.556909 0.651575 0.351934
0.564416 0.654688 0.354742
0.573663 0.657282 0.357183
0.583734 0.658747 0.358373
0.595636 0.659632 0.358740
0.609277 0.660517 0.358679
0.625422 0.662074 0.359442
0.643732 0.664363 0.360937
0.663966 0.667079 0.362615
0.685451 0.670161 0.364782
0.710628 0.677790 0.366979
0.743038 0.698054 0.370794
0.771084 0.713100 0.374548
0.797391 0.725490 0.378943
0.822324 0.735500 0.382238
0.845518 0.743221 0.386633
0.867369 0.748714 0.391089
0.887602 0.752255 0.397040
0.906310 0.753811 0.403449
0.929076 0.760311 0.420813
0.950164 0.770077 0.460761
0.958129 0.776425 0.545647
0.962829 0.786099 0.621332
0.965484 0.798459 0.686610
0.966949 0.812650 0.741543
0.968017 0.827604 0.786435
0.969116 0.842466 0.822110
0.970275 0.856687 0.850309
0.971557 0.869566 0.872221
0.972778 0.881102 0.889525
0.593317 0.690028 0.392737
0.598047 0.693080 0.396216
0.602991 0.696101 0.399725
0.609766 0.698909 0.403449
0.617792 0.700954 0.405707
0.626886 0.701991 0.406439
0.637079 0.702541 0.406775
0.648829 0.702998 0.406836
0.662867 0.703944 0.407599
0.678676 0.705257 0.408240
0.696223 0.707149 0.409918
0.714870 0.709224 0.412055
0.734279 0.711238 0.413581
0.761196 0.724453 0.417060
0.786648 0.738949 0.422980
0.810239 0.750942 0.428992
0.832761 0.761166 0.435920
0.854063 0.769680 0.443732
0.873930 0.776455 0.452949
0.892454 0.781491 0.462898
0.909422 0.784878 0.473854
0.924804 0.786404 0.485603
0.942107 0.790799 0.505455
0.959960 0.799802 0.538506
0.964660 0.806394 0.618128
0.967010 0.816007 0.686824
0.968322 0.827543 0.743465
0.969299 0.840085 0.788815
0.970245 0.852964 0.824765
0.971313 0.865385 0.852659
0.972442 0.876860 0.874357
0.973510 0.887205 0.891386
0.649195 0.741329 0.460609
0.651698 0.742519 0.462806
0.654383 0.743557 0.464546
0.658625 0.744381 0.465614
0.664363 0.744930 0.466468
0.671290 0.745083 0.466743
0.679774 0.745235 0.466835
0.690303 0.745571 0.466926
0.702602 0.746517 0.468238
0.716609 0.747768 0.469673
0.732052 0.749355 0.472297
0.748379 0.750942 0.474495
0.765103 0.752468 0.476905
0.782193 0.753841 0.478706
0.807401 0.769253 0.484321
0.827146 0.779477 0.491554
0.845945 0.788296 0.499275
0.863920 0.795651 0.507012
0.880797 0.801663 0.515770
0.896513 0.806149 0.524956
0.910948 0.809232 0.534874
0.924193 0.810727 0.544854
0.936187 0.810880 0.554894
0.949371 0.812833 0.570672
0.964385 0.820371 0.599329
0.968170 0.826871 0.667018
0.969512 0.835904 0.728481
0.970428 0.846464 0.777798
0.971252 0.857816 0.816770
0.972168 0.869139 0.846891
0.973175 0.879850 0.870237
0.974151 0.889738 0.888548
0.687800 0.775204 0.516533
0.690028 0.776272 0.518364
0.692409 0.777279 0.520348
0.695979 0.777951 0.521721
0.701045 0.778286 0.522271
0.706752 0.778256 0.522057
0.713802 0.778073 0.521843
0.722286 0.778042 0.521782
0.732540 0.778408 0.522423
0.744259 0.779080 0.523583
0.757412 0.780056 0.525383
0.771267 0.781186 0.527733
0.785824 0.782254 0.529625
0.800839 0.783230 0.531365
0.818753 0.789029 0.534997
0.838590 0.800534 0.542260
0.855070 0.808591 0.550500
0.870787 0.815579 0.559197
0.885588 0.821378 0.568780
0.899351 0.826047 0.579187
0.912169 0.829496 0.589685
0.923949 0.831754 0.600488
0.934661 0.832914 0.611719
0.944549 0.832975 0.622156
0.954131 0.830533 0.624689
0.966888 0.837278 0.651606
0.970733 0.843870 0.707515
0.971588 0.852384 0.762142
0.972290 0.862089 0.804990
0.973083 0.872313 0.838499
0.973968 0.882414 0.864378
0.974792 0.891966 0.884550
0.730037 0.810605 0.585260
0.732021 0.811582 0.587610
0.733822 0.812161 0.588800
0.736324 0.812314 0.589471
0.739803 0.812131 0.588952
0.744106 0.811643 0.588067
0.749477 0.811063 0.586816
0.755886 0.810391 0.585565
0.763699 0.809812 0.584314
0.772702 0.809537 0.584009
0.782834 0.809384 0.583764
0.793942 0.809506 0.584131
0.805814 0.809751 0.584985
0.818143 0.809842 0.585138
0.830594 0.809812 0.585229
0.847990 0.818112 0.588983
0.862303 0.825162 0.595117
0.875578 0.831174 0.602838
0.888579 0.836454 0.611475
0.900908 0.841093 0.621759
0.912383 0.844816 0.632715
0.923033 0.847501 0.643458
0.932647 0.849088 0.654047
0.941527 0.849577 0.663447
0.949645 0.848997 0.671717
0.957916 0.848631 0.681453
0.968658 0.854704 0.705898
0.972778 0.860655 0.748440
0.973388 0.868315 0.794675
0.974029 0.877043 0.830900
0.974731 0.886137 0.858946
0.975463 0.895018 0.880858
0.758480 0.833494 0.635401
0.760128 0.834287 0.637476
0.761685 0.834745 0.638788
0.763790 0.834897 0.639338
0.766690 0.834714 0.638911
0.770413 0.834379 0.638239
0.774929 0.833951 0.637385
0.780545 0.833524 0.636530
0.787259 0.833188 0.636194
0.795041 0.833127 0.636286
0.803769 0.833188 0.636744
0.813443 0.833433 0.637812
0.823667 0.833738 0.638911
0.834318 0.833951 0.639918
0.845274 0.834104 0.640436
0.856992 0.835325 0.641779
0.872007 0.843961 0.648005
0.883391 0.849241 0.655390
0.894408 0.853971 0.663844
0.904814 0.858152 0.673610
0.914702 0.861631 0.683436
0.923888 0.864317 0.693568
0.932372 0.866148 0.703182
0.940215 0.867155 0.712032
0.947509 0.867308 0.719966
0.954253 0.866728 0.727169
0.960845 0.865965 0.734768
0.969970 0.871550 0.756527
0.974426 0.877104 0.788296
0.974914 0.884245 0.826841
0.975463 0.892088 0.856504
0.976104 0.899962 0.879362
0.785916 0.854765 0.687617
0.787137 0.855161 0.688930
0.788113 0.855344 0.689387
0.789548 0.855253 0.689265
0.791653 0.854917 0.688441
0.794400 0.854490 0.687587
0.798001 0.853941 0.686152
0.802487 0.853483 0.685237
0.807980 0.853178 0.684657
0.814450 0.853056 0.684810
0.821775 0.853086 0.685298
0.829923 0.853361 0.686580
0.838651 0.853666 0.687861
0.847745 0.853880 0.689052
0.857053 0.853941 0.689723
0.866636 0.854032 0.690394
0.878264 0.857969 0.693507
0.889555 0.863920 0.700008
0.898924 0.868132 0.707668
0.908049 0.871885 0.715846
0.916655 0.875151 0.724697
0.924681 0.877806 0.733791
0.932311 0.879789 0.742092
0.939391 0.881071 0.749996
0.945953 0.881712 0.757290
0.952056 0.881743 0.764034
0.957824 0.881224 0.770199
0.963256 0.880278 0.776028
0.971099 0.885222 0.794553
0.975830 0.890379 0.818418
0.976287 0.896880 0.850492
0.976806 0.903685 0.874907
0.808316 0.871550 0.731258
0.809140 0.871794 0.731838
0.809873 0.871916 0.732357
0.811124 0.871916 0.732326
0.813138 0.871824 0.732326
0.815824 0.871824 0.732448
0.819547 0.872007 0.733486
0.824155 0.872404 0.734859
0.829709 0.872953 0.736904
0.835935 0.873747 0.739590
0.842771 0.874601 0.742519
0.850095 0.875456 0.745571
0.857664 0.876280 0.748440
0.865415 0.876890 0.750851
0.873228 0.877287 0.752682
0.881102 0.877470 0.753628
0.889158 0.877623 0.754726
0.899687 0.883177 0.759487
0.907530 0.886839 0.765743
0.914916 0.890013 0.772396
0.921996 0.892760 0.779355
0.928740 0.895109 0.786282
0.935088 0.896910 0.792844
0.941070 0.898192 0.799100
0.946746 0.898985 0.804715
0.951995 0.899351 0.810056
0.957000 0.899290 0.815152
0.961639 0.898863 0.820035
0.966033 0.898161 0.824796
0.972351 0.901976 0.838163
0.976898 0.906218 0.853941
0.977264 0.911437 0.877684
0.834531 0.890532 0.783047
0.835080 0.890654 0.783352
0.835477 0.890623 0.783352
0.836332 0.890501 0.783108
0.837675 0.890288 0.782589
0.839506 0.890105 0.782193
0.842039 0.889982 0.782040
0.845243 0.889921 0.782162
0.849149 0.890013 0.782650
0.853635 0.890196 0.783597
0.858671 0.890410 0.784543
0.864164 0.890684 0.785885
0.870054 0.890990 0.787167
0.876219 0.891203 0.788266
