data/fiter_cube/81078425/1022774/file.cube
# Created by Adobe Lightroom plugin Export LUT (1.17.0)
# www.johnrellis.com/lightroom/exportlut.htm
# Preset: 旅拍情绪景观_08 云集视觉
# Color profile: C:\Program Files (x86)\Common Files\Adobe\Color\Profiles\Recommended\AdobeRGB1998.icc
LUT_3D_SIZE 5
DOMAIN_MIN 0.000000 0.000000 0.000000
DOMAIN_MAX 0.903226 0.903226 0.903226
0.064698 0.074434 0.080537
0.125856 0.081117 0.089693
0.482155 0.000000 0.104982
0.904265 0.184451 0.188815
1.000000 0.533654 0.489052
0.097688 0.120394 0.102480
0.155062 0.135988 0.098787
0.583124 0.143313 0.170962
0.924620 0.368200 0.314153
0.997284 0.638788 0.620264
0.272740 0.348394 0.179019
0.336126 0.356481 0.177279
0.669795 0.524071 0.146639
0.937865 0.648219 0.499519
0.965057 0.824063 0.844358
0.649195 0.741329 0.460609
0.690303 0.745571 0.466926
0.807401 0.769253 0.484321
0.924193 0.810727 0.544854
0.971252 0.857816 0.816770
0.851682 0.902739 0.814725
0.860746 0.902556 0.814755
0.887541 0.899535 0.808499
0.932677 0.912963 0.833890
0.963836 0.918883 0.863401
0.089082 0.103761 0.117922
0.108675 0.114229 0.128145
0.360601 0.109346 0.153445
0.833219 0.245548 0.268376
0.988067 0.562310 0.541650
0.105440 0.143313 0.147097
0.146731 0.159762 0.164645
0.477119 0.214450 0.229252
0.870176 0.400153 0.381567
0.979950 0.650538 0.646021
0.248142 0.375616 0.230076
0.337957 0.392737 0.272007
0.608576 0.502220 0.285649
0.902953 0.686030 0.637293
0.957366 0.833768 0.856870
0.636927 0.750210 0.539910
0.680964 0.754177 0.564233
0.783200 0.762905 0.571130
0.906493 0.818143 0.644007
0.962158 0.874022 0.857664
0.851041 0.904143 0.838285
0.859159 0.904021 0.838102
0.887846 0.905394 0.841855
0.929625 0.916106 0.857328
0.960784 0.923888 0.883146
0.161685 0.184695 0.224338
0.188693 0.200351 0.228763
0.253544 0.227970 0.265171
0.576501 0.182406 0.339879
0.939055 0.475532 0.490455
0.206180 0.243839 0.280644
0.236667 0.255680 0.288304
0.304295 0.282750 0.313512
0.642969 0.248020 0.362982
0.945068 0.587457 0.602167
0.283299 0.433936 0.423255
0.337652 0.449195 0.441901
0.489326 0.495888 0.501335
0.825528 0.681941 0.703975
0.940887 0.818631 0.847013
0.591699 0.775875 0.653986
0.620264 0.774594 0.661006
0.736110 0.775051 0.726284
0.867155 0.830716 0.787106
0.948974 0.902647 0.914275
0.836118 0.908476 0.861540
0.848661 0.908965 0.869749
0.878996 0.909941 0.883635
0.917510 0.915923 0.887449
0.953796 0.930724 0.911620
0.316594 0.350652 0.440467
0.341497 0.362219 0.442329
0.404547 0.402472 0.438117
0.475044 0.408362 0.486915
0.741482 0.396918 0.603235
0.366949 0.410346 0.495644
0.382422 0.411658 0.493019
0.442908 0.442420 0.483497
0.507286 0.449256 0.521569
0.766384 0.434180 0.623255
0.429328 0.530694 0.597131
0.461646 0.539727 0.604974
0.557122 0.575586 0.631220
0.607843 0.581903 0.634119
0.851286 0.581079 0.694545
0.615564 0.764340 0.781674
0.636774 0.765560 0.784817
0.701930 0.776455 0.801450
0.782315 0.794736 0.826505
0.930114 0.892515 0.917052
0.849088 0.915557 0.906340
0.854948 0.916472 0.908019
0.871214 0.919524 0.912016
0.902617 0.920470 0.921172
0.947265 0.938476 0.937713
0.603693 0.640528 0.760616
0.612329 0.641688 0.757504
0.649073 0.658320 0.748623
0.680232 0.683467 0.727321
0.722011 0.656489 0.763149
0.619257 0.660273 0.772976
0.625727 0.659510 0.770047
0.658442 0.671229 0.761013
0.687800 0.691249 0.737514
0.729183 0.669947 0.770993
0.661677 0.721462 0.813565
0.673365 0.723659 0.813565
0.693935 0.720577 0.806149
0.726040 0.731991 0.785519
0.766079 0.728450 0.810330
0.738003 0.817777 0.872313
0.740780 0.815305 0.870634
0.753323 0.808896 0.866789
0.798428 0.816312 0.869230
0.829221 0.820279 0.871855
0.844724 0.909117 0.926665
0.848112 0.909331 0.927092
0.862821 0.912261 0.930419
0.885832 0.917052 0.935790
0.916381 0.923888 0.943114
