data/fiter_cube/81078425/1022774/file.cube
# Created by Adobe Lightroom plugin Export LUT (1.17.0)
# www.johnrellis.com/lightroom/exportlut.htm
# Preset: 旅拍情绪景观_08 云集视觉
# Color profile: C:\Program Files (x86)\Common Files\Adobe\Color\Profiles\Recommended\AdobeRGB1998.icc
LUT_3D_SIZE 8
DOMAIN_MIN 0.000000 0.000000 0.000000
DOMAIN_MAX 0.903226 0.903226 0.903226
0.064698 0.074434 0.080537
0.083314 0.077913 0.084138
0.149294 0.081209 0.091676
0.334569 0.000000 0.101106
0.633112 0.000000 0.109743
0.864134 0.091127 0.159579
0.973205 0.355444 0.298741
1.000000 0.533654 0.489052
0.075044 0.089204 0.088380
0.089387 0.092470 0.087160
0.157900 0.094331 0.101961
0.348730 0.059754 0.112825
0.642145 0.000000 0.126497
0.862394 0.159060 0.180972
0.968444 0.373754 0.315435
1.000000 0.548760 0.507134
0.109621 0.136629 0.109133
0.124636 0.139773 0.109682
0.192233 0.160800 0.103822
0.429969 0.181552 0.127047
0.732082 0.237125 0.225650
0.901884 0.375830 0.322881
0.973266 0.536522 0.492012
0.993225 0.661860 0.649287
0.200015 0.256565 0.149569
0.217594 0.258640 0.149020
0.290135 0.279973 0.146059
0.487648 0.369665 0.117708
0.800473 0.485298 0.192782
0.924773 0.582208 0.471809
0.955322 0.721340 0.722164
0.973236 0.777157 0.791440
0.372686 0.465888 0.225711
0.392889 0.469184 0.225895
0.465553 0.484047 0.227970
0.615503 0.558007 0.227237
0.782864 0.632319 0.220523
0.921874 0.678126 0.364233
0.959167 0.748806 0.671687
0.966155 0.832975 0.841306
0.593317 0.690028 0.392737
0.617792 0.700954 0.405707
0.662867 0.703944 0.407599
0.734279 0.711238 0.413581
0.832761 0.761166 0.435920
0.909422 0.784878 0.473854
0.964660 0.806394 0.618128
0.970245 0.852964 0.824765
0.758480 0.833494 0.635401
0.766690 0.834714 0.638911
0.787259 0.833188 0.636194
0.823667 0.833738 0.638911
0.872007 0.843961 0.648005
0.914702 0.861631 0.683436
0.947509 0.867308 0.719966
0.974426 0.877104 0.788296
0.851682 0.902739 0.814725
0.854246 0.902586 0.814389
0.864012 0.902678 0.815488
0.881926 0.904051 0.820645
0.899962 0.900328 0.811551
0.927092 0.910582 0.828244
0.947784 0.917845 0.848936
0.963836 0.918883 0.863401
0.074220 0.086244 0.095338
0.079866 0.089052 0.098329
0.139986 0.095308 0.106111
0.296605 0.092042 0.125093
0.579065 0.000000 0.144808
0.825895 0.139956 0.193912
0.953582 0.354955 0.313420
1.000000 0.530968 0.492195
0.077028 0.096223 0.102449
0.089174 0.101808 0.108614
0.153201 0.111940 0.119936
0.321874 0.111452 0.137850
0.602960 0.057465 0.161318
0.832975 0.196262 0.216617
0.950988 0.377234 0.332708
0.996857 0.543877 0.507073
0.105562 0.142977 0.120546
0.126741 0.150149 0.131502
0.187655 0.168490 0.130068
0.407507 0.200626 0.172732
0.696803 0.263432 0.256657
0.873777 0.378058 0.340154
0.957733 0.518212 0.478614
0.987427 0.649744 0.637140
0.192599 0.258488 0.166812
0.214847 0.264042 0.173037
0.280064 0.277501 0.173709
0.454505 0.354681 0.160220
0.748989 0.453529 0.239200
0.897642 0.565026 0.481544
0.946197 0.697383 0.695155
0.969390 0.766171 0.779507
0.371466 0.472908 0.259129
0.389075 0.473823 0.258091
0.454566 0.482795 0.257298
0.585565 0.537346 0.255467
0.750668 0.609339 0.252476
0.904845 0.668727 0.398047
0.950347 0.749935 0.687831
0.962097 0.834623 0.846159
0.579339 0.682399 0.413489
0.593347 0.683894 0.414527
0.639002 0.687800 0.416205
0.714015 0.698573 0.425116
0.818479 0.752377 0.454841
0.900969 0.783383 0.504479
0.957855 0.808804 0.646845
0.966857 0.854734 0.831846
0.744533 0.825040 0.633814
0.749386 0.823575 0.630518
0.772366 0.823697 0.630976
0.812802 0.827176 0.639796
0.864286 0.838987 0.653315
0.908843 0.858366 0.688716
0.942748 0.864347 0.721950
0.971344 0.875242 0.790127
0.847013 0.900298 0.814450
0.850278 0.900603 0.815518
0.860533 0.901030 0.817319
0.878813 0.902708 0.822873
0.901061 0.903807 0.826780
0.926329 0.911955 0.837461
0.946258 0.917967 0.853147
0.962371 0.918730 0.865599
0.095918 0.112001 0.128756
0.103151 0.116335 0.130098
0.122866 0.126223 0.142092
0.228092 0.121584 0.163821
0.471443 0.109651 0.176761
0.769162 0.214786 0.259617
0.928466 0.410376 0.395209
0.984039 0.581231 0.568597
0.107240 0.127321 0.142641
0.116091 0.131380 0.145632
0.134371 0.139712 0.153079
0.249943 0.131960 0.167483
0.503838 0.147280 0.198337
0.779751 0.255802 0.282719
0.928161 0.435767 0.418067
0.981506 0.599420 0.589288
0.119509 0.167208 0.169070
0.133577 0.173281 0.175418
0.177523 0.189822 0.193271
0.354070 0.231907 0.236484
0.631556 0.301213 0.307988
0.834745 0.421332 0.409796
0.934569 0.560784 0.548150
0.972869 0.682124 0.686580
0.175845 0.292149 0.209598
0.195377 0.300816 0.216434
0.283177 0.317174 0.256779
0.442847 0.380804 0.272038
0.733150 0.508995 0.433692
0.873594 0.658564 0.661311
0.930755 0.730068 0.742885
0.959838 0.789639 0.810819
0.340978 0.503258 0.305180
0.371801 0.508232 0.323522
0.457832 0.519829 0.365637
0.573877 0.551110 0.373053
0.738582 0.630762 0.406622
0.884245 0.705684 0.581720
0.931975 0.795407 0.788602
0.953857 0.862791 0.883970
0.561700 0.699214 0.475257
0.581842 0.700801 0.492897
0.632136 0.703029 0.518822
0.699306 0.709712 0.521721
0.795926 0.751492 0.549096
0.880735 0.789059 0.605951
0.940215 0.826902 0.744045
0.958801 0.874418 0.871519
0.741787 0.833707 0.690242
0.749691 0.832700 0.697566
0.769802 0.831174 0.700099
0.804074 0.832181 0.701076
0.848081 0.835080 0.704677
0.898100 0.862058 0.743893
0.933593 0.874083 0.783169
0.963165 0.890562 0.845426
0.846830 0.902464 0.838254
0.848997 0.901976 0.838315
0.857664 0.901915 0.838193
0.876158 0.904662 0.844816
0.896727 0.905608 0.846860
0.922301 0.913115 0.855894
0.943023 0.921080 0.871946
0.959503 0.923674 0.884764
0.133852 0.154269 0.183932
0.142580 0.159518 0.186770
0.167056 0.176730 0.191073
0.199863 0.186526 0.214511
0.317540 0.177462 0.251408
0.595026 0.088746 0.258732
0.844633 0.310857 0.345739
0.960296 0.540124 0.542901
0.153780 0.177493 0.206851
0.159915 0.179507 0.207706
0.183108 0.192996 0.208377
0.214817 0.202182 0.228519
0.341680 0.191043 0.264805
0.613519 0.134035 0.263066
0.854032 0.352697 0.376196
0.959869 0.564935 0.568750
0.170321 0.216403 0.240055
0.184146 0.223209 0.246433
0.227970 0.243503 0.262760
0.266972 0.259464 0.277440
0.437903 0.248112 0.308904
0.706447 0.331792 0.358434
0.892760 0.525872 0.534051
0.957458 0.672480 0.687221
0.212863 0.327367 0.318578
0.229648 0.333318 0.324987
0.285832 0.352819 0.347051
0.376806 0.384222 0.384314
0.624170 0.485359 0.489967
0.808652 0.596918 0.608087
0.905180 0.705440 0.724788
0.948730 0.785916 0.811734
0.353094 0.552331 0.439734
0.370336 0.553948 0.443183
0.426429 0.562982 0.457008
0.541711 0.574487 0.512291
0.693202 0.640131 0.556603
0.852689 0.750179 0.740322
0.915801 0.839994 0.864164
0.947051 0.872404 0.896727
0.534752 0.733913 0.555688
0.563745 0.740566 0.578485
0.618128 0.737514 0.612268
0.690394 0.737728 0.652674
0.770748 0.757870 0.664454
0.857633 0.803830 0.722683
0.923003 0.852140 0.834226
0.951568 0.895323 0.906767
0.725460 0.844511 0.731228
0.735500 0.844907 0.739590
0.764248 0.844877 0.762112
0.800687 0.845579 0.782010
0.838529 0.848203 0.783352
0.886168 0.868864 0.806973
0.922942 0.884245 0.838560
0.955322 0.904601 0.888182
0.843687 0.908293 0.857786
0.847532 0.908415 0.860594
0.858518 0.908110 0.867582
0.873747 0.908415 0.872557
0.891936 0.909331 0.873228
0.915618 0.913481 0.876951
0.938720 0.924620 0.892576
0.956085 0.929503 0.905211
0.195254 0.221195 0.272221
0.203372 0.225345 0.274418
0.230533 0.240909 0.276677
0.265080 0.270634 0.281010
0.312993 0.274418 0.322210
0.417670 0.251957 0.354650
0.694392 0.235203 0.424231
0.904906 0.347601 0.443519
0.215427 0.244114 0.294713
0.222843 0.247532 0.297063
0.248203 0.259739 0.297459
0.281315 0.286290 0.297948
0.326665 0.289769 0.335668
0.431098 0.265568 0.365728
0.709651 0.256107 0.432288
0.907958 0.386969 0.457008
0.255222 0.300572 0.348119
0.272221 0.310613 0.357000
0.296239 0.316625 0.358984
0.333654 0.337560 0.354711
0.374365 0.343725 0.382635
0.489601 0.314977 0.409735
0.754757 0.324285 0.450599
0.918822 0.509422 0.532677
0.287846 0.381384 0.414557
0.301305 0.385657 0.418921
0.346990 0.402991 0.436316
0.425879 0.439094 0.467231
0.469825 0.453559 0.480568
0.622339 0.433997 0.505669
0.824826 0.523919 0.548211
0.932006 0.696834 0.723476
0.370611 0.544854 0.538811
0.387060 0.549218 0.544549
0.437354 0.560601 0.560357
0.513115 0.579797 0.586847
0.592004 0.600183 0.615869
0.780331 0.701472 0.727413
0.884306 0.785916 0.815763
0.935363 0.842771 0.871397
0.540734 0.718563 0.657557
0.555291 0.722927 0.664515
0.598596 0.735653 0.684504
0.647028 0.743313 0.698268
0.712673 0.741390 0.721279
0.818570 0.794797 0.772915
0.908507 0.867369 0.881224
0.946258 0.911009 0.929931
0.719234 0.852750 0.783963
0.723598 0.852354 0.784817
0.739834 0.852415 0.789700
0.777951 0.851713 0.810666
0.818662 0.851255 0.827970
0.864866 0.863432 0.836851
0.910613 0.887724 0.869505
0.949065 0.913970 0.914794
0.832639 0.910857 0.870115
0.835660 0.910613 0.871641
0.846036 0.910216 0.877012
0.866392 0.912322 0.889067
0.885161 0.912291 0.894835
0.906004 0.914031 0.895506
0.932464 0.925872 0.907408
0.952148 0.933379 0.920165
0.295842 0.328740 0.412238
0.302922 0.331823 0.413733
0.327825 0.342748 0.411048
0.364569 0.365240 0.408728
0.391852 0.396399 0.401892
0.444282 0.382025 0.454505
0.559503 0.353643 0.501457
0.788632 0.388800 0.599756
0.307561 0.342504 0.423102
0.312688 0.343389 0.422492
0.335271 0.352239 0.420417
0.371283 0.373144 0.417151
0.400244 0.404089 0.411109
0.452247 0.392554 0.462623
0.565179 0.362921 0.507134
0.794461 0.399939 0.603601
0.365484 0.412116 0.489418
0.368963 0.410681 0.486946
0.383978 0.410315 0.482246
0.420020 0.425879 0.476173
0.450477 0.452125 0.466163
0.495216 0.443915 0.508415
0.596094 0.406317 0.538567
0.821408 0.452186 0.626581
0.390906 0.474342 0.543542
0.403174 0.478676 0.547051
0.450538 0.500328 0.565270
0.501152 0.521080 0.579675
0.540795 0.543114 0.571618
0.574212 0.541833 0.595972
0.654231 0.489021 0.598474
0.864988 0.545586 0.664698
0.459419 0.585992 0.631464
0.470253 0.588800 0.634516
0.504723 0.597375 0.643854
0.555444 0.610895 0.658106
0.620325 0.635157 0.678035
0.650996 0.641627 0.683223
0.762692 0.614740 0.693080
0.900145 0.683803 0.719112
0.563043 0.724605 0.737911
0.575158 0.728237 0.742611
0.605188 0.733516 0.750607
0.649317 0.741451 0.762692
0.697902 0.750454 0.776364
0.753140 0.765377 0.796353
0.875273 0.841978 0.872099
0.931640 0.886595 0.911864
0.726558 0.840787 0.830320
0.734707 0.843381 0.834134
0.755489 0.849088 0.842741
0.787015 0.859373 0.856718
0.813077 0.865812 0.864469
0.842069 0.862760 0.869902
0.896513 0.889189 0.893492
0.945922 0.926390 0.938811
0.844938 0.915068 0.899474
0.846250 0.915068 0.899687
0.851347 0.915373 0.900633
0.861021 0.916991 0.903197
0.877134 0.917754 0.908934
0.898100 0.917906 0.915312
0.923735 0.925231 0.920104
0.948486 0.937804 0.934813
0.424414 0.462745 0.577569
0.432349 0.467109 0.580774
0.453101 0.475166 0.577996
0.486427 0.492317 0.573297
0.516869 0.513359 0.562310
0.532036 0.536370 0.550286
0.578882 0.505364 0.601526
0.700099 0.495399 0.669886
0.428534 0.468574 0.579706
0.435340 0.471901 0.581964
0.453681 0.477974 0.579583
0.484932 0.492195 0.572686
0.514702 0.511833 0.560906
0.528588 0.533837 0.545769
0.573480 0.502434 0.595422
0.690669 0.487007 0.658473
0.478248 0.525566 0.629175
0.481514 0.525170 0.627955
0.491829 0.523522 0.622461
0.518639 0.532067 0.614466
0.546441 0.546288 0.599756
0.561639 0.568109 0.582330
0.604395 0.543633 0.630365
0.714961 0.524926 0.685939
0.525566 0.591516 0.684474
0.531945 0.592859 0.684535
0.554284 0.599451 0.687098
0.572320 0.598322 0.681636
0.600793 0.607599 0.668452
0.621241 0.626581 0.653407
0.654536 0.610773 0.687404
0.744503 0.575036 0.717891
0.548028 0.648402 0.725216
0.551080 0.647028 0.723598
0.569146 0.648249 0.723964
0.614496 0.663844 0.736233
0.650507 0.671595 0.737728
0.676936 0.683467 0.723201
0.701228 0.677150 0.740047
0.773159 0.628809 0.745449
0.634333 0.749905 0.798734
0.639307 0.750546 0.799496
0.655695 0.752529 0.801877
0.681392 0.755886 0.806058
0.709804 0.757107 0.808255
0.755856 0.772122 0.818845
0.777188 0.775906 0.821469
0.854643 0.753231 0.825406
0.731716 0.841733 0.863035
0.736812 0.842924 0.864561
0.749722 0.844785 0.867247
0.770230 0.848264 0.872038
0.793790 0.851530 0.876860
0.821775 0.856565 0.883574
0.852628 0.863706 0.892149
0.929015 0.912474 0.933867
0.830076 0.899840 0.904631
0.832761 0.900664 0.905608
0.845304 0.905516 0.911131
0.860624 0.911254 0.917418
0.879362 0.918883 0.925231
0.895811 0.925170 0.930907
0.911528 0.924651 0.933349
0.943053 0.940032 0.945861
0.603693 0.640528 0.760616
0.607965 0.642512 0.761471
0.615900 0.642756 0.756130
0.637263 0.652308 0.751888
0.659693 0.664149 0.743557
0.676997 0.678584 0.730495
0.686427 0.688350 0.728298
0.722011 0.656489 0.763149
0.604273 0.642390 0.760616
0.608240 0.644221 0.761410
0.616052 0.644404 0.757351
0.635859 0.652094 0.751583
0.658564 0.663661 0.743282
0.676081 0.677760 0.730220
0.684291 0.686976 0.725612
0.720211 0.655665 0.761135
0.622461 0.665095 0.775662
0.625025 0.665370 0.775448
0.628290 0.661311 0.769619
0.651148 0.671839 0.769711
0.672053 0.680201 0.759976
0.687770 0.690425 0.745052
0.695827 0.701747 0.737118
0.730617 0.673243 0.772549
0.656489 0.707210 0.803891
0.659541 0.707820 0.804196
0.663508 0.704341 0.800290
0.675319 0.703944 0.796872
0.696010 0.710201 0.789578
0.714443 0.719661 0.777462
0.722591 0.733425 0.764065
0.753170 0.708248 0.796811
0.669215 0.739712 0.824979
0.674708 0.741848 0.826413
0.686397 0.743404 0.826596
0.707729 0.748379 0.828092
0.720516 0.744839 0.822019
0.741115 0.751095 0.811856
0.755306 0.765316 0.800931
0.783383 0.754116 0.828000
0.715450 0.797360 0.859373
0.715694 0.796078 0.858427
0.718441 0.792752 0.856046
0.725063 0.788144 0.852995
0.751583 0.792416 0.855711
0.781125 0.800381 0.858488
0.805539 0.814939 0.855131
0.820584 0.807889 0.863890
0.786557 0.861814 0.898222
0.787564 0.861570 0.898070
0.791531 0.860929 0.897917
0.800504 0.861143 0.898711
0.812863 0.861234 0.899718
0.827634 0.860563 0.900237
0.850095 0.863523 0.901030
0.861143 0.862150 0.899626
0.844724 0.909117 0.926665
0.845548 0.909087 0.926696
0.849485 0.909575 0.927367
0.857603 0.911192 0.929229
0.868559 0.913359 0.931701
0.882017 0.916197 0.934844
0.898192 0.919921 0.938842
0.916381 0.923888 0.943114
