data/fiter_cube/80369196/1023072/file.cube
# Created by Adobe Lightroom plugin Export LUT (1.17.0)
# www.johnrellis.com/lightroom/exportlut.htm
# Preset: Have Fun_04
# Color profile: C:\Program Files (x86)\Common Files\Adobe\Color\Profiles\Recommended\AdobeRGB1998.icc
LUT_3D_SIZE 5
DOMAIN_MIN 0.000000 0.000000 0.000000
DOMAIN_MAX 0.903226 0.903226 0.903226
0.000000 0.000000 0.000000
0.210636 0.000000 0.062623
0.631464 0.000000 0.066407
0.949493 0.243046 0.158541
1.000000 0.510552 0.420691
0.000000 0.194736 0.096925
0.184482 0.194888 0.059998
0.652827 0.224338 0.000000
0.944121 0.359838 0.000000
1.000000 0.552300 0.394171
0.000000 0.623529 0.257939
0.000000 0.633875 0.091707
0.634882 0.633509 0.078309
0.947509 0.646540 0.000000
1.000000 0.647700 0.153445
0.000000 0.916899 0.512993
0.210117 0.919371 0.490089
0.517388 0.908507 0.236637
0.876921 0.869993 0.335424
1.000000 0.843412 0.308232
0.429114 1.000000 0.718898
0.525200 1.000000 0.725277
0.598077 1.000000 0.633906
0.786191 1.000000 0.520775
0.992767 0.982483 0.683986
0.000000 0.032929 0.155856
0.199649 0.000000 0.164950
0.576776 0.000000 0.200290
0.899443 0.221256 0.226139
1.000000 0.474220 0.371618
0.000000 0.158602 0.179355
0.199039 0.199557 0.196506
0.611902 0.211398 0.188449
0.903471 0.333227 0.198856
1.000000 0.510613 0.331579
0.000000 0.582147 0.355291
0.145266 0.603235 0.328435
0.592584 0.586938 0.248356
0.922240 0.607813 0.000000
1.000000 0.641596 0.240513
0.000000 0.906126 0.577142
0.266087 0.908476 0.565911
0.527092 0.901518 0.382300
0.869352 0.864744 0.431098
1.000000 0.839719 0.381720
0.428260 1.000000 0.742672
0.523735 1.000000 0.747921
0.675074 1.000000 0.731380
0.791470 1.000000 0.589441
0.991669 0.983459 0.728359
0.000000 0.068605 0.448646
0.261601 0.000000 0.484138
0.669917 0.000000 0.524590
0.903807 0.341833 0.549432
1.000000 0.586908 0.644099
0.000000 0.190463 0.450660
0.204623 0.207370 0.495430
0.670924 0.287480 0.551537
0.878202 0.429725 0.552056
1.000000 0.603906 0.632624
0.000000 0.507347 0.517571
0.115511 0.532982 0.532219
0.609155 0.597589 0.564538
0.876249 0.605402 0.537987
1.000000 0.670863 0.580560
0.076967 0.875853 0.717433
0.322271 0.873136 0.710780
0.616266 0.877836 0.692714
0.857511 0.859861 0.649348
1.000000 0.824338 0.540398
0.440375 1.000000 0.812100
0.525750 1.000000 0.815305
0.705348 1.000000 0.822171
0.796017 1.000000 0.729427
0.984222 0.979339 0.792782
0.000000 0.127321 0.766110
0.339422 0.043214 0.788205
0.742367 0.244694 0.838254
0.927672 0.402472 0.808682
1.000000 0.677485 0.818418
0.000000 0.221103 0.763027
0.274174 0.235203 0.780484
0.720089 0.383886 0.832883
0.915373 0.506432 0.811154
1.000000 0.701625 0.820523
0.000000 0.489967 0.726223
0.000000 0.486946 0.727108
0.588495 0.564233 0.797147
0.882719 0.702144 0.822019
0.995422 0.774319 0.833188
0.000000 0.801877 0.801694
0.097230 0.803769 0.801968
0.562036 0.821530 0.815305
0.842679 0.849821 0.831449
0.997742 0.836820 0.809751
0.518090 0.997070 0.904265
0.580713 0.995239 0.904906
0.723384 0.992370 0.906981
0.859586 0.988769 0.902434
0.978485 0.977020 0.884001
0.252934 0.314885 0.950317
0.431128 0.319890 0.953216
0.726131 0.389258 0.962890
0.934478 0.536156 0.967956
1.000000 0.646571 0.915251
0.251316 0.311345 0.948821
0.424964 0.315892 0.951690
0.710597 0.418708 0.959564
0.925597 0.600427 0.963989
1.000000 0.683894 0.917571
0.000000 0.495186 0.923491
0.000000 0.480690 0.929900
0.591760 0.541100 0.944945
0.901732 0.736629 0.958404
0.998352 0.792203 0.931945
0.000000 0.764431 0.925994
0.000000 0.755642 0.923125
0.221530 0.725612 0.918425
0.794858 0.795224 0.945800
0.989807 0.913909 0.960540
0.000000 0.960510 0.954162
0.231998 0.959380 0.953765
0.535241 0.958831 0.955688
0.796292 0.961212 0.958801
0.970916 0.972259 0.967468
