data/fiter_cube/80369196/1023072/file.cube
# Created by Adobe Lightroom plugin Export LUT (1.17.0)
# www.johnrellis.com/lightroom/exportlut.htm
# Preset: Have Fun_04
# Color profile: C:\Program Files (x86)\Common Files\Adobe\Color\Profiles\Recommended\AdobeRGB1998.icc
LUT_3D_SIZE 8
DOMAIN_MIN 0.000000 0.000000 0.000000
DOMAIN_MAX 0.903226 0.903226 0.903226
0.000000 0.000000 0.000000
0.093294 0.013336 0.038727
0.262821 0.000000 0.064973
0.514092 0.000000 0.066896
0.738674 0.000000 0.071962
0.919646 0.192752 0.134035
1.000000 0.360266 0.246128
1.000000 0.510552 0.420691
0.003449 0.080598 0.062379
0.083436 0.081270 0.047456
0.262882 0.068238 0.024292
0.498024 0.000000 0.008545
0.726436 0.000000 0.000000
0.893339 0.208011 0.083558
0.999695 0.353002 0.201785
1.000000 0.498695 0.382635
0.000000 0.242588 0.110323
0.000000 0.257664 0.064057
0.229129 0.241520 0.059358
0.530602 0.273381 0.000000
0.761318 0.309972 0.000000
0.909209 0.370275 0.000000
1.000000 0.460975 0.154086
1.000000 0.556207 0.369421
0.000000 0.485725 0.190585
0.000000 0.493324 0.167117
0.163272 0.519432 0.000000
0.524437 0.526116 0.011017
0.794919 0.576013 0.000000
0.939086 0.570886 0.000000
1.000000 0.580377 0.000000
1.000000 0.610834 0.260258
0.000000 0.731014 0.329320
0.000000 0.733639 0.310948
0.000000 0.743313 0.144320
0.449561 0.738766 0.000000
0.712673 0.710842 0.132418
0.887602 0.718654 0.000000
1.000000 0.708644 0.000000
1.000000 0.694484 0.000000
0.000000 0.880980 0.468757
0.000000 0.892515 0.473121
0.234379 0.892912 0.430243
0.392370 0.887419 0.241306
0.659419 0.863981 0.179965
0.849577 0.844266 0.289982
0.977081 0.841184 0.322393
1.000000 0.815915 0.211856
0.109957 0.978607 0.604395
0.217075 0.979248 0.604395
0.376379 0.974212 0.589441
0.423224 0.974884 0.462440
0.594842 0.961364 0.345647
0.797726 0.942962 0.364050
0.938567 0.928344 0.467018
1.000000 0.913359 0.537957
0.429114 1.000000 0.718898
0.459602 1.000000 0.720150
0.554070 1.000000 0.728817
0.650843 1.000000 0.729793
0.637446 1.000000 0.597955
0.742397 1.000000 0.503136
0.895781 0.995727 0.597498
0.992767 0.982483 0.683986
0.003113 0.013275 0.084749
0.082979 0.010651 0.082612
0.227787 0.000000 0.100313
0.470832 0.000000 0.102602
0.703914 0.000000 0.092164
0.876219 0.155245 0.094850
0.989654 0.320439 0.198703
1.000000 0.473213 0.372076
0.001709 0.070893 0.089296
0.084565 0.082643 0.097169
0.240543 0.081025 0.098939
0.474861 0.000000 0.092653
0.702144 0.000000 0.075990
0.865660 0.195346 0.069551
0.977874 0.324559 0.164584
1.000000 0.462654 0.335332
0.000000 0.218173 0.143587
0.052613 0.239109 0.140475
0.229953 0.237827 0.115297
0.517113 0.256626 0.000000
0.721798 0.277012 0.000000
0.875608 0.339269 0.000000
0.989654 0.421576 0.085756
1.000000 0.519554 0.311711
0.000000 0.451942 0.219944
0.000000 0.466712 0.210636
0.164523 0.494392 0.106996
0.474342 0.475380 0.125124
0.731807 0.511254 0.000000
0.890593 0.518029 0.000000
0.992096 0.542626 0.000000
1.000000 0.584497 0.201602
0.000000 0.713008 0.356725
0.000000 0.712978 0.339849
0.000000 0.720027 0.224247
0.417456 0.706538 0.071931
0.676265 0.673640 0.169284
0.862730 0.691798 0.094697
0.992432 0.689998 0.000000
1.000000 0.683375 0.000000
0.000000 0.863340 0.476967
0.000000 0.865080 0.469551
0.209262 0.867887 0.433997
0.372351 0.867887 0.264744
0.642908 0.850156 0.208469
0.840757 0.836149 0.315099
0.969818 0.834226 0.335515
1.000000 0.809018 0.216922
0.000000 0.964935 0.598016
0.131319 0.962554 0.590936
0.334417 0.959991 0.577142
0.411536 0.963561 0.469886
0.584894 0.953491 0.360571
0.786923 0.934905 0.367315
0.927703 0.918395 0.458595
1.000000 0.904601 0.516503
0.398718 1.000000 0.714168
0.435096 1.000000 0.716976
0.535302 1.000000 0.725246
0.652674 1.000000 0.737118
0.662104 1.000000 0.639734
0.748409 1.000000 0.535821
0.893706 0.994476 0.603662
0.990448 0.980194 0.680140
0.000000 0.040406 0.191958
0.090883 0.021820 0.194491
0.261509 0.000000 0.205661
0.501823 0.000000 0.230625
0.699794 0.000000 0.253941
0.874083 0.218143 0.277684
0.990723 0.364233 0.318883
1.000000 0.493446 0.403601
0.000000 0.086275 0.199893
0.082185 0.090272 0.208377
0.259403 0.092836 0.214694
0.476295 0.092409 0.232517
0.693019 0.118074 0.246189
0.864591 0.239658 0.262181
0.983093 0.367956 0.298344
1.000000 0.492714 0.384100
0.000000 0.199283 0.217929
0.036774 0.214206 0.225650
0.252537 0.250584 0.238926
0.502068 0.258488 0.234195
0.725063 0.293980 0.235172
0.875944 0.357031 0.241794
0.985962 0.438758 0.275517
1.000000 0.529076 0.358465
0.000000 0.440711 0.321721
0.000000 0.461341 0.328985
0.245182 0.502342 0.313878
0.503258 0.495247 0.280095
0.755795 0.519036 0.208072
0.893065 0.522423 0.192721
0.993317 0.553796 0.232609
1.000000 0.598260 0.317723
0.000000 0.696345 0.446937
0.000000 0.702724 0.444495
0.234928 0.717678 0.420966
0.437018 0.720760 0.284947
0.697780 0.693568 0.328710
0.872007 0.699062 0.271885
0.995422 0.685542 0.123720
1.000000 0.686824 0.235630
0.000000 0.856626 0.548791
0.000000 0.858488 0.546471
0.266758 0.859861 0.527031
0.398230 0.861631 0.403937
0.633600 0.843809 0.330877
0.832334 0.829496 0.414466
0.963622 0.829892 0.415778
1.000000 0.807584 0.323857
0.139956 0.963684 0.653346
0.219638 0.961975 0.649928
0.370275 0.957458 0.637629
0.509880 0.953979 0.601770
0.593530 0.949004 0.464607
0.783963 0.933532 0.451179
0.928740 0.921935 0.543633
1.000000 0.911192 0.593713
0.404425 1.000000 0.741878
0.428809 1.000000 0.740414
0.525750 1.000000 0.745083
0.665461 1.000000 0.768460
0.683528 1.000000 0.695430
0.757656 1.000000 0.609033
0.894072 0.994263 0.653864
0.989441 0.981292 0.725246
0.000000 0.061372 0.349157
0.048432 0.027832 0.364080
0.318029 0.000000 0.394446
0.544579 0.000000 0.409949
0.759274 0.043610 0.439704
0.859617 0.270054 0.451820
0.954559 0.403937 0.489784
1.000000 0.532250 0.551476
0.000000 0.097810 0.370428
0.000000 0.101167 0.380255
0.318242 0.107057 0.406806
0.546319 0.010986 0.420050
0.749691 0.182681 0.443153
0.847227 0.301274 0.449348
0.951781 0.410285 0.479774
1.000000 0.532341 0.540215
0.000000 0.216464 0.363134
0.000000 0.221775 0.369970
0.257755 0.249790 0.411505
0.538994 0.301549 0.443763
0.716274 0.354070 0.455116
0.848203 0.411231 0.466957
0.970550 0.497932 0.500084
1.000000 0.580835 0.546807
0.000000 0.402380 0.414984
0.000000 0.414313 0.422187
0.236851 0.451575 0.445106
0.512993 0.497627 0.465949
0.716793 0.500908 0.448035
0.859831 0.522881 0.442420
0.970397 0.565209 0.457679
1.000000 0.624872 0.511070
0.000000 0.682094 0.568597
0.000000 0.684199 0.567041
0.291173 0.698360 0.566491
0.505852 0.721584 0.540917
0.708309 0.705196 0.515373
0.876249 0.700374 0.453010
0.982696 0.689174 0.424506
1.000000 0.699702 0.465583
0.000000 0.854856 0.655604
0.116274 0.863981 0.664607
0.344976 0.861845 0.654841
0.528710 0.862242 0.633875
0.642237 0.855070 0.511742
0.836667 0.837400 0.569970
0.961822 0.831968 0.541436
1.000000 0.802029 0.448371
0.221347 0.956756 0.724239
0.284123 0.957061 0.724941
0.422797 0.956115 0.723995
0.573785 0.953277 0.719417
0.643091 0.951598 0.635401
0.787106 0.937957 0.581170
0.926848 0.924041 0.651087
1.000000 0.912688 0.667140
0.450233 1.000000 0.794064
0.478248 1.000000 0.795285
0.552026 1.000000 0.796139
0.661067 1.000000 0.802579
0.740017 1.000000 0.789700
0.775021 1.000000 0.709102
0.893065 0.993591 0.717678
0.987518 0.981811 0.779263
0.000000 0.078218 0.545586
0.000000 0.051026 0.559503
0.345434 0.000000 0.589593
0.590692 0.000000 0.623743
0.780697 0.074739 0.638544
0.908721 0.340551 0.642267
0.966857 0.479225 0.648554
1.000000 0.627008 0.709926
0.000000 0.113008 0.555047
0.000000 0.114137 0.568872
0.341375 0.106050 0.597864
0.592035 0.131441 0.629633
0.777462 0.202518 0.641993
0.903044 0.382391 0.645563
0.962860 0.500359 0.652064
1.000000 0.635462 0.711208
0.000000 0.231998 0.535698
0.000000 0.236332 0.553429
0.268772 0.256748 0.590295
0.591730 0.346960 0.646509
0.760800 0.386694 0.647913
0.874907 0.472297 0.642420
0.944396 0.547570 0.651514
1.000000 0.647852 0.702693
0.000000 0.400519 0.554376
0.000000 0.405249 0.557977
0.121126 0.421271 0.572442
0.510430 0.486976 0.634516
0.741207 0.570031 0.668513
0.837613 0.585718 0.649836
0.926787 0.614466 0.653162
1.000000 0.667933 0.679377
0.000000 0.605524 0.612421
0.000000 0.612573 0.617090
0.205539 0.631342 0.628870
0.490791 0.662501 0.650599
0.692134 0.688289 0.657099
0.833799 0.676326 0.629999
0.943511 0.685573 0.622919
1.000000 0.713893 0.643610
0.000000 0.812131 0.716426
0.100252 0.814664 0.719478
0.364874 0.819028 0.726192
0.527276 0.824277 0.722927
0.657099 0.829435 0.688106
0.820035 0.824704 0.687221
0.952483 0.819760 0.646876
1.000000 0.799100 0.617456
0.291325 0.941283 0.793790
0.331701 0.940093 0.792569
0.442451 0.938262 0.790555
0.577111 0.937652 0.788815
0.697566 0.937041 0.776913
0.767269 0.932219 0.680415
0.917144 0.918334 0.735378
1.000000 0.905486 0.718685
0.455329 1.000000 0.837858
0.477638 1.000000 0.837583
0.546136 1.000000 0.837095
0.655329 1.000000 0.844144
0.750637 0.999573 0.844022
0.794339 0.998749 0.799161
0.884550 0.990936 0.769619
0.982971 0.979156 0.820035
0.000000 0.117098 0.740597
0.081239 0.099794 0.748501
0.398199 0.000000 0.766140
0.637812 0.121798 0.795529
0.802335 0.207797 0.813870
0.909880 0.363806 0.787655
0.988647 0.555138 0.788754
1.000000 0.677882 0.804227
0.000000 0.133639 0.732937
0.078035 0.131106 0.738491
0.377661 0.124819 0.757321
0.624659 0.194644 0.788632
0.793362 0.269078 0.807919
0.902983 0.396948 0.784787
0.983856 0.570703 0.788663
1.000000 0.683467 0.803983
0.000000 0.252720 0.727932
0.000000 0.252934 0.734005
0.312993 0.274968 0.754177
0.604211 0.354009 0.793637
0.789609 0.442817 0.815610
0.895109 0.520806 0.795132
0.973266 0.638453 0.799741
1.000000 0.716396 0.812161
0.000000 0.412177 0.696773
0.000000 0.409918 0.696132
0.000000 0.421607 0.725216
0.530724 0.497993 0.787381
0.789364 0.638087 0.832822
0.888792 0.676753 0.820798
0.959533 0.725002 0.818662
1.000000 0.763912 0.825559
0.000000 0.596918 0.728145
0.000000 0.599298 0.729854
0.000000 0.606043 0.734859
0.382452 0.615106 0.743587
0.692592 0.686183 0.793729
0.859617 0.761593 0.820035
0.926543 0.760861 0.803891
0.987854 0.782742 0.812131
0.000000 0.762081 0.763821
0.000000 0.768032 0.768734
0.205142 0.776516 0.774716
0.466102 0.789425 0.783993
0.667140 0.806119 0.796017
0.818662 0.825406 0.804685
0.925994 0.814969 0.786923
1.000000 0.820493 0.788876
0.239353 0.927276 0.849607
0.308659 0.928801 0.852354
0.457069 0.928496 0.856138
0.624720 0.929107 0.865080
0.731319 0.929839 0.864134
0.811154 0.929412 0.841947
0.915465 0.919585 0.831052
1.000000 0.903319 0.798123
0.508965 1.000000 0.892424
0.526696 0.999207 0.891997
0.583673 0.996796 0.891234
0.668391 0.994934 0.892332
0.753689 0.992615 0.891539
0.835264 0.989990 0.888212
0.874937 0.989410 0.831174
0.979767 0.977844 0.872374
0.000000 0.191135 0.865873
0.209476 0.188479 0.872160
0.440101 0.171847 0.882902
0.650050 0.210758 0.898528
0.822660 0.383246 0.912840
0.916136 0.389166 0.907012
0.976593 0.530785 0.867979
1.000000 0.691951 0.867674
0.075654 0.182010 0.859159
0.226200 0.178286 0.865019
0.432502 0.176394 0.875303
0.632288 0.241550 0.888945
0.809323 0.395117 0.904234
0.906157 0.402106 0.899596
0.968750 0.529473 0.861204
1.000000 0.682643 0.861479
0.000000 0.278904 0.861723
0.065278 0.283238 0.864347
0.376776 0.300511 0.871824
0.605127 0.361364 0.886259
0.794003 0.488258 0.901823
0.902129 0.520592 0.903807
0.965179 0.619959 0.872007
1.000000 0.737301 0.875639
0.000000 0.426276 0.838224
0.000000 0.422889 0.841123
0.153750 0.422858 0.856840
0.529992 0.480568 0.878019
0.763821 0.596216 0.898680
0.894743 0.671321 0.910002
0.960174 0.728328 0.888884
1.000000 0.794736 0.890715
0.000000 0.581994 0.824765
0.000000 0.577478 0.822293
0.000000 0.565637 0.818601
0.262455 0.556390 0.829038
0.661280 0.643336 0.874113
0.872526 0.769192 0.905455
0.945586 0.797635 0.894774
0.997406 0.837095 0.898650
0.000000 0.742916 0.845914
0.000000 0.743252 0.846189
0.000000 0.743343 0.846891
0.309483 0.743465 0.849180
0.525536 0.739834 0.849790
0.806943 0.811215 0.889982
0.938506 0.875395 0.912688
0.984527 0.875273 0.903807
0.000000 0.879393 0.875334
0.000000 0.881285 0.877073
0.233341 0.883391 0.879118
0.451087 0.887480 0.883238
0.634791 0.891600 0.886870
0.793881 0.902007 0.895293
0.908568 0.913634 0.901396
0.983886 0.901305 0.886748
0.334295 0.990661 0.923033
0.372442 0.990112 0.923369
0.495949 0.990234 0.927611
0.631922 0.987396 0.931121
0.763760 0.983764 0.936706
0.852781 0.982757 0.939666
0.913146 0.982147 0.932769
0.976745 0.976410 0.925048
0.252934 0.314885 0.950317
0.322118 0.318273 0.952239
0.472969 0.322637 0.954009
0.645411 0.356756 0.959838
0.799893 0.431983 0.965484
0.916167 0.540337 0.968109
0.979400 0.523339 0.954131
1.000000 0.646571 0.915251
0.248661 0.308446 0.947448
0.317205 0.311620 0.949432
0.468971 0.317021 0.952026
0.639734 0.347295 0.957305
0.794675 0.426551 0.963195
0.912230 0.555566 0.965759
0.975616 0.533745 0.952209
1.000000 0.649928 0.913878
0.220188 0.318456 0.946471
0.288762 0.322972 0.947539
0.439948 0.335668 0.948180
0.620569 0.395117 0.955840
0.778500 0.490944 0.960143
0.905852 0.624567 0.963256
0.970550 0.601068 0.953674
1.000000 0.692653 0.917693
0.000000 0.423255 0.936400
0.000000 0.424323 0.939147
0.285374 0.430884 0.942748
0.546624 0.479194 0.949126
0.743587 0.569024 0.955779
0.889586 0.692683 0.961486
0.966430 0.698939 0.960052
1.000000 0.759762 0.927031
0.000000 0.569207 0.910643
0.000000 0.565911 0.911467
0.000000 0.551354 0.917693
0.295628 0.539788 0.932952
0.647364 0.614191 0.944610
0.850401 0.732082 0.954803
0.953216 0.785580 0.960876
0.995422 0.828824 0.939086
0.000000 0.723110 0.918883
0.000000 0.719326 0.917449
0.000000 0.707637 0.914183
0.000000 0.686549 0.911131
0.343084 0.655116 0.912200
0.764126 0.760098 0.944549
0.945647 0.877134 0.966369
0.991608 0.902464 0.958038
0.000000 0.856046 0.933501
0.000000 0.854765 0.932860
0.000000 0.850980 0.931426
0.209781 0.846891 0.931243
0.446479 0.841184 0.931029
0.634394 0.834684 0.930449
0.893156 0.897704 0.957427
0.984833 0.946349 0.968414
0.000000 0.960510 0.954162
0.072938 0.960021 0.953857
0.276555 0.959258 0.953857
0.450690 0.958953 0.954986
0.615167 0.958801 0.956268
0.762417 0.960296 0.958068
0.889738 0.965637 0.962341
0.970916 0.972259 0.967468
