data/fiter_cube/80369196/1023072/file.cube
# Created by Adobe Lightroom plugin Export LUT (1.17.0)
# www.johnrellis.com/lightroom/exportlut.htm
# Preset: Have Fun_04
# Color profile: C:\Program Files (x86)\Common Files\Adobe\Color\Profiles\Recommended\AdobeRGB1998.icc
LUT_3D_SIZE 32
DOMAIN_MIN 0.0 0.0 0.0
DOMAIN_MAX 1.0 1.0 1.0
0.000000 0.000000 0.000000
0.017273 0.001678 0.004822
0.039948 0.002441 0.009583
0.068452 0.006928 0.023102
0.093294 0.013336 0.038727
0.125765 0.010834 0.051575
0.164858 0.000000 0.059083
0.210636 0.000000 0.062623
0.262821 0.000000 0.064973
0.321202 0.000000 0.066255
0.384039 0.000000 0.067140
0.449378 0.000000 0.067201
0.514092 0.000000 0.066896
0.575128 0.000000 0.066529
0.631464 0.000000 0.066407
0.682887 0.000000 0.068055
0.738674 0.000000 0.071962
0.798795 0.000000 0.081636
0.845457 0.000000 0.095186
0.885222 0.129152 0.112795
0.919646 0.192752 0.134035
0.949493 0.243046 0.158541
0.974701 0.286015 0.185183
0.996307 0.324681 0.214298
1.000000 0.360266 0.246128
1.000000 0.395178 0.281529
1.000000 0.431342 0.321935
1.000000 0.469459 0.368078
1.000000 0.510552 0.420691
1.000000 0.555322 0.479194
1.000000 0.603784 0.542901
1.000000 0.655787 0.610742
0.000702 0.011322 0.007721
0.014313 0.010315 0.006348
0.042206 0.011627 0.004425
0.069978 0.015900 0.014679
0.094606 0.022065 0.031373
0.126253 0.018830 0.045899
0.164645 0.003479 0.054810
0.209110 0.000000 0.060182
0.260166 0.000000 0.062654
0.317296 0.000000 0.064271
0.379217 0.000000 0.064546
0.443397 0.000000 0.064546
0.507195 0.000000 0.063722
0.567987 0.000000 0.062806
0.623743 0.000000 0.062776
0.675257 0.000000 0.063630
0.731411 0.000000 0.067079
0.789364 0.000000 0.075319
0.835294 0.000000 0.087831
0.875181 0.118257 0.104524
0.910124 0.182284 0.124758
0.940673 0.232609 0.148043
0.966766 0.275547 0.174136
0.989319 0.314244 0.202579
1.000000 0.350011 0.233799
1.000000 0.385290 0.268650
1.000000 0.421546 0.308904
1.000000 0.460060 0.354742
1.000000 0.501427 0.407324
1.000000 0.546349 0.466224
1.000000 0.594934 0.530388
1.000000 0.646967 0.598718
0.001617 0.026062 0.018372
0.013092 0.029084 0.011353
0.034363 0.025513 0.013245
0.069917 0.031312 0.010193
0.095888 0.035645 0.020386
0.127504 0.033143 0.036957
0.165072 0.017273 0.049042
0.208499 0.000000 0.056611
0.258824 0.000000 0.059541
0.315160 0.000000 0.060761
0.376165 0.000000 0.061097
0.439948 0.000000 0.060700
0.503441 0.000000 0.059510
0.564111 0.000000 0.057984
0.619898 0.000000 0.056367
0.671290 0.000000 0.057649
0.728267 0.000000 0.060517
0.784360 0.000000 0.068330
0.829862 0.000000 0.080751
0.869688 0.121675 0.096925
0.905089 0.182376 0.117311
0.936126 0.231296 0.140749
0.962707 0.273289 0.166690
0.985718 0.311315 0.195010
1.000000 0.346960 0.225803
1.000000 0.381659 0.260594
1.000000 0.417823 0.300664
1.000000 0.456123 0.346471
1.000000 0.497322 0.399420
1.000000 0.542107 0.458534
1.000000 0.590478 0.522789
1.000000 0.642237 0.591241
0.002991 0.059083 0.042329
0.013916 0.061280 0.036194
0.031525 0.062623 0.024628
0.064240 0.059083 0.030671
0.093050 0.063630 0.022889
0.132418 0.062074 0.016846
0.169100 0.053559 0.032746
0.212100 0.030274 0.043458
0.261265 0.000000 0.048615
0.316655 0.000000 0.050538
0.376593 0.000000 0.050111
0.439094 0.000000 0.047456
0.501488 0.000000 0.042390
0.561273 0.000000 0.035981
0.616571 0.000000 0.033234
0.667720 0.000000 0.031617
0.726162 0.000000 0.034119
0.779355 0.000000 0.047822
0.823056 0.057008 0.064973
0.861784 0.134951 0.082002
0.896757 0.186801 0.102876
0.928099 0.231662 0.126528
0.955810 0.272587 0.152682
0.980499 0.310460 0.182132
1.000000 0.347112 0.214725
1.000000 0.382910 0.251621
1.000000 0.419898 0.293431
1.000000 0.458289 0.340826
1.000000 0.498970 0.394293
1.000000 0.542596 0.453407
1.000000 0.589349 0.516930
1.000000 0.639368 0.584344
0.003449 0.080598 0.062379
0.014771 0.082734 0.061128
0.022522 0.085206 0.048829
0.060121 0.086488 0.038178
0.083436 0.081270 0.047456
0.118624 0.085817 0.039979
0.167636 0.086580 0.015839
0.214878 0.079896 0.016663
0.262882 0.068238 0.024292
0.316503 0.037751 0.026551
0.375219 0.000000 0.023377
0.436591 0.000000 0.016297
0.498024 0.000000 0.008545
0.557488 0.000000 0.000000
0.613184 0.000000 0.000000
0.664851 0.000000 0.000000
0.726436 0.000000 0.000000
0.777890 0.048585 0.000000
0.820920 0.119448 0.017670
0.859068 0.166567 0.058869
0.893339 0.208011 0.083558
0.924407 0.246677 0.109682
0.952209 0.283207 0.137545
0.977295 0.318456 0.168063
0.999695 0.353002 0.201785
1.000000 0.387457 0.239109
1.000000 0.422889 0.281437
1.000000 0.459632 0.329198
1.000000 0.498695 0.382635
1.000000 0.540856 0.441810
1.000000 0.586481 0.506065
1.000000 0.635615 0.573999
0.000000 0.108461 0.072663
0.006531 0.111269 0.071138
0.017975 0.114382 0.067536
0.041291 0.117372 0.053315
0.077943 0.116854 0.047944
0.108186 0.109895 0.055879
0.150088 0.114809 0.050141
0.206516 0.118990 0.021118
0.269963 0.115358 0.000000
0.323278 0.106508 0.000000
0.380957 0.094331 0.000000
0.441047 0.077272 0.000000
0.501366 0.054566 0.000000
0.559991 0.015564 0.000000
0.614984 0.004150 0.000000
0.672450 0.058412 0.000000
0.730312 0.100984 0.000000
0.779782 0.138521 0.000000
0.822019 0.173129 0.000000
0.860014 0.207095 0.000000
0.894347 0.240879 0.046937
0.925719 0.273960 0.088289
0.999115 0.377508 0.177493
1.000000 0.405921 0.214633
1.000000 0.433326 0.253696
1.000000 0.461341 0.295201
1.000000 0.490394 0.339910
1.000000 0.521630 0.388708
1.000000 0.555871 0.441840
1.000000 0.593530 0.499214
1.000000 0.634241 0.559564
1.000000 0.677790 0.622126
0.000000 0.152712 0.085328
0.000000 0.155398 0.083314
0.000000 0.159030 0.080110
0.000183 0.163668 0.061677
0.061952 0.167208 0.049836
0.107149 0.163302 0.049348
0.147189 0.154055 0.059174
0.198459 0.159335 0.054231
0.267277 0.166873 0.010163
0.342077 0.167330 0.000000
0.412726 0.162478 0.000000
0.473457 0.156252 0.000000
0.532158 0.151919 0.000000
0.587854 0.149355 0.000000
0.640192 0.152316 0.000000
0.703334 0.172396 0.000000
0.757046 0.195163 0.000000
0.802426 0.218112 0.000000
0.842588 0.243381 0.000000
0.880247 0.271244 0.000000
0.915923 0.302281 0.000000
0.949462 0.335271 0.076356
0.979583 0.368963 0.126802
1.000000 0.401587 0.173281
1.000000 0.432837 0.219974
1.000000 0.462013 0.266545
1.000000 0.490791 0.314397
1.000000 0.520562 0.364874
1.000000 0.552972 0.419471
1.000000 0.588434 0.477394
1.000000 0.627375 0.538750
1.000000 0.669459 0.602319
0.000000 0.194736 0.096925
0.000000 0.197116 0.094850
0.000000 0.199985 0.091829
0.000000 0.205600 0.080262
0.007721 0.209232 0.057435
0.084230 0.212192 0.034333
0.139315 0.204318 0.047669
0.184482 0.194888 0.059998
0.240726 0.199649 0.058869
0.316625 0.210941 0.000000
0.395789 0.215549 0.000000
0.474372 0.215640 0.000000
0.535760 0.212863 0.000000
0.589990 0.212741 0.000000
0.652827 0.224338 0.000000
0.708248 0.237736 0.000000
0.757412 0.252720 0.000000
0.800137 0.268376 0.000000
0.838926 0.286412 0.000000
0.875669 0.307927 0.000000
0.910887 0.332647 0.000000
0.944121 0.359838 0.000000
0.974212 0.388098 0.080262
1.000000 0.416114 0.138308
1.000000 0.443336 0.188693
1.000000 0.469245 0.237339
1.000000 0.494972 0.286595
1.000000 0.522118 0.338354
1.000000 0.552300 0.394171
1.000000 0.585534 0.453834
1.000000 0.622553 0.516625
1.000000 0.663081 0.582086
0.000000 0.242588 0.110323
0.000000 0.244785 0.108492
0.000000 0.247471 0.105348
0.000000 0.253452 0.097780
0.000000 0.257664 0.064057
0.046662 0.260105 0.044160
0.118105 0.259861 0.021790
0.178256 0.251560 0.040436
0.229129 0.241520 0.059358
0.290257 0.246433 0.062196
0.371740 0.261112 0.000000
0.453346 0.268956 0.000000
0.530602 0.273381 0.000000
0.609369 0.283787 0.000000
0.665919 0.291112 0.000000
0.716030 0.299657 0.000000
0.761318 0.309972 0.000000
0.801877 0.322210 0.000000
0.839109 0.335088 0.000000
0.874907 0.350927 0.000000
0.909209 0.370275 0.000000
0.941802 0.391699 0.000000
0.971527 0.414771 0.000000
0.997528 0.438025 0.091646
1.000000 0.460975 0.154086
1.000000 0.482856 0.207218
1.000000 0.505241 0.259007
1.000000 0.529229 0.312383
1.000000 0.556207 0.369421
1.000000 0.586419 0.430213
1.000000 0.620539 0.494179
1.000000 0.658625 0.560754
0.000000 0.295415 0.125490
0.000000 0.297002 0.123781
0.000000 0.299168 0.120516
0.000000 0.304265 0.113436
0.000000 0.309483 0.089143
0.000000 0.311803 0.053376
0.086427 0.313603 0.012696
0.158938 0.310185 0.003540
0.223453 0.301427 0.026368
0.279118 0.291905 0.054017
0.343023 0.295445 0.065949
0.432929 0.317174 0.000000
0.521569 0.333532 0.000000
0.600824 0.345983 0.000000
0.670680 0.355840 0.000000
0.725246 0.363104 0.000000
0.769314 0.370245 0.000000
0.808621 0.378058 0.000000
0.844633 0.387854 0.000000
0.878721 0.400214 0.000000
0.910887 0.413336 0.000000
0.940978 0.428168 0.000000
0.968658 0.444373 0.000000
0.993408 0.461463 0.000000
1.000000 0.478950 0.100008
1.000000 0.496986 0.165530
1.000000 0.516045 0.222629
1.000000 0.537377 0.279881
1.000000 0.561822 0.340429
1.000000 0.589929 0.404547
1.000000 0.622187 0.472175
1.000000 0.658595 0.542199
0.000000 0.347784 0.141695
0.000000 0.349371 0.139834
0.000000 0.351568 0.136751
0.000000 0.356176 0.130404
0.000000 0.363043 0.116396
0.000000 0.366247 0.063355
0.000000 0.368414 0.022858
0.127230 0.370275 0.000000
0.207156 0.364691 0.000000
0.276555 0.356970 0.005768
0.343481 0.354620 0.038941
0.415808 0.362066 0.070924
0.504662 0.384436 0.000000
0.584863 0.399878 0.000000
0.655390 0.411200 0.000000
0.717861 0.420478 0.000000
0.772580 0.427131 0.000000
0.810452 0.430793 0.000000
0.845060 0.435920 0.000000
0.878080 0.443702 0.000000
0.909667 0.453986 0.000000
0.939544 0.465949 0.000000
0.967071 0.478187 0.000000
0.991760 0.491188 0.000000
1.000000 0.504570 0.000000
1.000000 0.518395 0.115694
1.000000 0.533318 0.184512
1.000000 0.550652 0.246281
1.000000 0.571069 0.308995
1.000000 0.595300 0.374975
1.000000 0.624018 0.444648
1.000000 0.657282 0.516777
0.000000 0.405676 0.160678
0.000000 0.407080 0.159182
0.000000 0.409064 0.156374
0.000000 0.413062 0.149752
0.000000 0.419440 0.138369
0.000000 0.424140 0.097078
0.000000 0.426673 0.042115
0.090944 0.428473 0.000000
0.181094 0.434882 0.000000
0.271702 0.433967 0.000000
0.350103 0.431037 0.000000
0.418463 0.425940 0.017487
0.555383 0.491005 0.085664
0.637232 0.512108 0.000000
0.707820 0.525444 0.000000
0.766964 0.532128 0.000000
0.816098 0.534051 0.000000
0.857725 0.533257 0.000000
0.891142 0.530907 0.000000
0.917967 0.530571 0.000000
0.943633 0.532769 0.000000
0.967956 0.537072 0.000000
0.990326 0.542412 0.000000
1.000000 0.548180 0.000000
1.000000 0.554803 0.000000
1.000000 0.562768 0.088380
1.000000 0.572473 0.174197
1.000000 0.584527 0.241306
1.000000 0.599908 0.306218
1.000000 0.619409 0.373449
1.000000 0.643397 0.443061
1.000000 0.672419 0.515282
0.000000 0.485725 0.190585
0.000000 0.486671 0.188846
0.000000 0.487312 0.185367
0.000000 0.489387 0.178622
0.000000 0.493324 0.167117
0.000000 0.502007 0.141451
0.000000 0.508202 0.065095
0.000000 0.513359 0.000000
0.163272 0.519432 0.000000
0.263157 0.523552 0.000000
0.361547 0.524895 0.000000
0.449012 0.525628 0.000000
0.524437 0.526116 0.011017
0.597925 0.535851 0.093538
0.675166 0.557275 0.000000
0.741390 0.570916 0.000000
0.794919 0.576013 0.000000
0.839322 0.576226 0.000000
0.877775 0.574334 0.000000
0.912230 0.572168 0.000000
0.939086 0.570886 0.000000
0.963134 0.571557 0.000000
0.985290 0.573663 0.000000
1.000000 0.576928 0.000000
1.000000 0.580377 0.000000
1.000000 0.584802 0.000000
1.000000 0.590753 0.096956
1.000000 0.599237 0.187381
1.000000 0.610834 0.260258
1.000000 0.626642 0.332067
1.000000 0.646967 0.405768
1.000000 0.672663 0.481971
0.000000 0.556329 0.221958
0.000000 0.557733 0.220432
0.000000 0.558679 0.217563
0.000000 0.561303 0.211490
0.000000 0.565179 0.200717
0.000000 0.570245 0.183474
0.000000 0.573632 0.119692
0.000000 0.576318 0.051118
0.127687 0.579217 0.000000
0.231968 0.583337 0.000000
0.336309 0.584924 0.000000
0.432715 0.585321 0.000000
0.514946 0.584619 0.000000
0.583032 0.582605 0.043336
0.647578 0.587976 0.109163
0.714260 0.603449 0.049866
0.771633 0.612177 0.000000
0.818997 0.614618 0.000000
0.860197 0.614099 0.000000
0.896818 0.612390 0.000000
0.930022 0.610468 0.000000
0.959319 0.608453 0.000000
0.981537 0.607660 0.000000
1.000000 0.608057 0.000000
1.000000 0.609308 0.000000
1.000000 0.610956 0.000000
1.000000 0.613642 0.000000
1.000000 0.618677 0.117311
1.000000 0.626734 0.210330
1.000000 0.638636 0.289708
1.000000 0.655146 0.368231
1.000000 0.677150 0.449104
0.000000 0.623529 0.257939
0.000000 0.624750 0.256352
0.000000 0.624903 0.253391
0.000000 0.625849 0.246769
0.000000 0.627192 0.235538
0.000000 0.629572 0.219608
0.000000 0.632166 0.178347
0.000000 0.633875 0.091707
0.062959 0.635370 0.035279
0.207126 0.637934 0.000000
0.301793 0.641444 0.000000
0.409430 0.641413 0.000000
0.499580 0.640406 0.000000
0.574090 0.638056 0.000000
0.634882 0.633509 0.078309
0.691341 0.634791 0.128176
0.748287 0.644526 0.104067
0.799069 0.649989 0.000000
0.842618 0.651301 0.000000
0.881254 0.650507 0.000000
0.916045 0.648737 0.000000
0.947509 0.646540 0.000000
0.975677 0.643214 0.000000
0.998566 0.640375 0.000000
1.000000 0.639246 0.000000
1.000000 0.639033 0.000000
1.000000 0.639734 0.000000
1.000000 0.642298 0.000000
1.000000 0.647700 0.153445
1.000000 0.656825 0.250278
1.000000 0.670466 0.338323
1.000000 0.689479 0.426429
0.000000 0.682307 0.294713
0.000000 0.683619 0.293309
0.000000 0.684291 0.291203
0.000000 0.685451 0.285222
0.000000 0.687312 0.275578
0.000000 0.690120 0.261479
0.000000 0.694179 0.238499
0.000000 0.696651 0.161929
0.000000 0.698207 0.102174
0.185061 0.698970 0.039307
0.288243 0.699245 0.000000
0.382391 0.698207 0.000000
0.479500 0.693812 0.000000
0.558343 0.688411 0.000000
0.622889 0.681971 0.057343
0.676081 0.674311 0.104250
0.726131 0.672908 0.147707
0.776486 0.679133 0.142184
0.824277 0.684474 0.058137
0.866270 0.686732 0.000000
0.903655 0.686885 0.000000
0.937133 0.685634 0.000000
0.966918 0.682856 0.000000
0.993622 0.678950 0.000000
1.000000 0.673945 0.000000
1.000000 0.671290 0.000000
1.000000 0.669764 0.000000
1.000000 0.669490 0.000000
1.000000 0.671321 0.026429
1.000000 0.676387 0.199710
1.000000 0.685542 0.297581
1.000000 0.699733 0.390234
0.000000 0.731014 0.329320
0.000000 0.731411 0.327611
0.000000 0.731594 0.325322
0.000000 0.732387 0.319890
0.000000 0.733639 0.310948
0.000000 0.735653 0.298466
0.000000 0.738796 0.281437
0.000000 0.741146 0.227756
0.000000 0.743313 0.144320
0.149050 0.743191 0.111757
0.265080 0.742885 0.052186
0.355627 0.742000 0.000000
0.449561 0.738766 0.000000
0.536065 0.733516 0.000000
0.606653 0.726925 0.030884
0.664424 0.719265 0.097566
0.712673 0.710842 0.132418
0.758450 0.708278 0.171572
0.803494 0.712123 0.180636
0.848081 0.716884 0.124178
0.887602 0.718654 0.000000
0.922759 0.718410 0.000000
0.954223 0.716426 0.000000
0.982422 0.713191 0.000000
1.000000 0.708644 0.000000
1.000000 0.703029 0.000000
1.000000 0.697841 0.000000
1.000000 0.695430 0.000000
1.000000 0.694484 0.000000
1.000000 0.696223 0.118044
1.000000 0.701686 0.245548
1.000000 0.711910 0.348577
0.000000 0.776425 0.366064
0.000000 0.777890 0.365606
0.000000 0.817411 0.399512
0.000000 0.817533 0.394415
0.000000 0.817594 0.386328
0.000000 0.817472 0.374334
0.000000 0.817624 0.358618
0.000000 0.817960 0.325292
0.000000 0.818570 0.244541
0.164004 0.817136 0.192447
0.279698 0.814298 0.159274
0.369085 0.810605 0.112093
0.446998 0.805570 0.000000
0.535180 0.798428 0.014038
0.609918 0.790311 0.091402
0.671443 0.781704 0.127596
0.722896 0.772732 0.157534
0.766018 0.763760 0.185000
0.806607 0.759274 0.218204
0.844358 0.758907 0.239567
0.883482 0.760464 0.193942
0.918791 0.759884 0.142672
0.950286 0.757412 0.071168
0.978180 0.753262 0.000000
1.000000 0.747311 0.000000
1.000000 0.740261 0.000000
1.000000 0.732387 0.000000
1.000000 0.724056 0.000000
1.000000 0.719112 0.000000
1.000000 0.717494 0.000000
1.000000 0.719142 0.175113
1.000000 0.725002 0.295567
0.000000 0.824979 0.410376
0.000000 0.829831 0.413794
0.000000 0.834775 0.416999
0.000000 0.838987 0.416785
0.000000 0.842222 0.413275
0.000000 0.843717 0.405066
0.000000 0.844327 0.392157
0.110292 0.844633 0.375219
0.105837 0.845426 0.313756
0.127871 0.845884 0.236088
0.256443 0.843015 0.207370
0.347295 0.839536 0.172610
0.425208 0.834775 0.124361
0.497139 0.828855 0.038819
0.579065 0.820920 0.096315
0.646021 0.812467 0.129671
0.701930 0.803799 0.158022
0.749386 0.795438 0.184939
0.790402 0.787564 0.210941
0.829465 0.784146 0.242222
0.864012 0.783047 0.274937
0.901976 0.785367 0.236088
0.935790 0.785031 0.195865
0.965637 0.782467 0.151400
0.991852 0.777798 0.089174
1.000000 0.771725 0.000000
1.000000 0.764614 0.000000
1.000000 0.756802 0.000000
1.000000 0.748379 0.000000
1.000000 0.740291 0.000000
1.000000 0.738491 0.000000
1.000000 0.740352 0.231754
0.000000 0.854215 0.439643
0.000000 0.858183 0.442908
0.000000 0.862150 0.445899
0.000000 0.865660 0.445869
0.000000 0.868223 0.443030
0.000000 0.869352 0.436347
0.000000 0.869657 0.426001
0.132265 0.869718 0.412360
0.177279 0.870420 0.375219
0.160128 0.871641 0.299992
0.239628 0.870268 0.254429
0.330694 0.867033 0.224765
0.407507 0.862669 0.188266
0.476020 0.857420 0.139590
0.547143 0.850614 0.109224
0.620142 0.842435 0.138979
0.680720 0.834165 0.164767
0.732265 0.826108 0.190463
0.776852 0.818662 0.215549
0.816129 0.812314 0.241520
0.853574 0.809659 0.271275
0.884916 0.808133 0.315221
0.921050 0.810269 0.281621
0.952758 0.809445 0.247105
0.980529 0.806119 0.211765
1.000000 0.800931 0.171115
1.000000 0.794491 0.122621
1.000000 0.787259 0.019501
1.000000 0.779385 0.000000
1.000000 0.770626 0.000000
1.000000 0.760708 0.000000
1.000000 0.756954 0.134279
0.000000 0.880980 0.468757
0.000000 0.884337 0.471962
0.000000 0.887663 0.474525
0.000000 0.890532 0.475196
0.000000 0.892515 0.473121
0.000000 0.893278 0.467536
0.000000 0.893309 0.459113
0.160586 0.893034 0.447913
0.234379 0.892912 0.430243
0.219760 0.893980 0.368872
0.229252 0.894560 0.298863
0.317937 0.891417 0.272801
0.392370 0.887419 0.241306
0.459419 0.882719 0.203891
0.521080 0.877379 0.156191
0.592370 0.870726 0.152895
0.659419 0.863981 0.179965
0.716762 0.857755 0.205997
0.766598 0.852384 0.232853
0.810666 0.847898 0.261082
0.849577 0.844266 0.289982
0.885527 0.842618 0.321355
0.914611 0.841550 0.377508
0.948058 0.842985 0.350134
0.977081 0.841184 0.322393
1.000000 0.836973 0.294682
1.000000 0.831022 0.267124
1.000000 0.823941 0.239322
1.000000 0.815915 0.211856
1.000000 0.807065 0.184024
1.000000 0.796963 0.152071
1.000000 0.786557 0.171572
0.000000 0.916899 0.512993
0.000000 0.918212 0.514061
0.000000 0.919219 0.514397
0.000000 0.919951 0.513420
0.000000 0.920317 0.510185
0.000000 0.920104 0.505272
0.123049 0.919738 0.498421
0.210117 0.919371 0.490089
0.278843 0.919127 0.479774
0.290349 0.920256 0.440894
0.278019 0.922148 0.374640
0.328252 0.920867 0.333867
0.396704 0.917479 0.306401
0.459205 0.913329 0.274083
0.517388 0.908507 0.236637
0.572351 0.903166 0.189456
0.642359 0.896300 0.208591
0.703059 0.889830 0.231693
0.755306 0.883970 0.256626
0.801022 0.878691 0.282017
0.841276 0.874022 0.308415
0.876921 0.869993 0.335424
0.908659 0.866514 0.362951
0.933562 0.863828 0.423468
0.963653 0.863676 0.398352
0.990234 0.860990 0.373327
1.000000 0.856382 0.349889
1.000000 0.850431 0.327947
1.000000 0.843412 0.308232
1.000000 0.835294 0.289769
1.000000 0.826291 0.271763
1.000000 0.816983 0.265446
0.000000 0.937774 0.540734
0.000000 0.938903 0.541955
0.000000 0.939910 0.542748
0.000000 0.940490 0.542016
0.000000 0.940612 0.539605
0.088869 0.940185 0.535546
0.178866 0.939452 0.529747
0.243900 0.938628 0.522698
0.303258 0.937926 0.514855
0.340795 0.937804 0.495644
0.328801 0.939544 0.441535
0.331823 0.940520 0.380316
0.394079 0.937621 0.356054
0.452399 0.934142 0.327550
0.507530 0.930144 0.295018
0.560632 0.925689 0.256931
0.616266 0.920653 0.227329
0.681453 0.914611 0.250431
0.737423 0.909056 0.274968
0.786282 0.904143 0.300023
0.829252 0.899870 0.326452
0.867399 0.896147 0.353735
0.901274 0.892912 0.381720
0.931426 0.889982 0.409827
0.948486 0.881163 0.453346
0.975494 0.880125 0.439277
1.000000 0.877379 0.418463
1.000000 0.872862 0.399573
1.000000 0.867094 0.383642
1.000000 0.860227 0.369665
1.000000 0.852750 0.359319
1.000000 0.844907 0.352758
0.000000 0.963714 0.580346
0.000000 0.964691 0.582055
0.000000 0.965270 0.582513
0.093660 0.965270 0.581628
0.152926 0.964691 0.579095
0.204074 0.963714 0.575250
0.252415 0.962371 0.570459
0.299199 0.960784 0.564233
0.345892 0.959075 0.557000
0.392432 0.957397 0.549248
0.386725 0.957855 0.507073
0.372625 0.959075 0.447547
0.403601 0.957305 0.408698
0.453559 0.953735 0.381811
0.502251 0.949462 0.350042
0.550164 0.944762 0.314824
0.597314 0.939788 0.274327
0.653468 0.934081 0.261936
0.712795 0.928405 0.284520
0.764828 0.923613 0.309361
0.810727 0.919524 0.335790
0.851194 0.915923 0.362951
0.886748 0.912383 0.390021
0.918181 0.908843 0.415961
0.945739 0.905211 0.440986
0.965209 0.900450 0.493812
0.988708 0.898344 0.490242
1.000000 0.894957 0.472724
1.000000 0.890074 0.457740
1.000000 0.884276 0.447028
1.000000 0.877989 0.440986
1.000000 0.871641 0.440192
0.109957 0.978607 0.604395
0.133516 0.979431 0.606104
0.154238 0.979889 0.606683
0.183139 0.979797 0.606226
0.217075 0.979248 0.604395
0.254276 0.978302 0.601617
0.293553 0.977081 0.598108
0.334142 0.975708 0.593988
0.376379 0.974212 0.589441
0.419440 0.972717 0.584680
0.438087 0.972412 0.563867
0.425635 0.973968 0.515557
0.423224 0.974884 0.462440
0.465736 0.972229 0.438666
0.508476 0.969024 0.411597
0.551507 0.965362 0.380652
0.594842 0.961364 0.345647
0.638483 0.957366 0.307134
0.695705 0.952178 0.314702
0.750088 0.947265 0.338506
0.797726 0.942962 0.364050
0.839811 0.939086 0.390387
0.876829 0.935393 0.416175
0.909545 0.931853 0.441810
0.938567 0.928344 0.467018
0.964385 0.924895 0.491371
0.981384 0.919585 0.541833
1.000000 0.916869 0.549828
1.000000 0.913359 0.537957
1.000000 0.908690 0.530480
1.000000 0.903502 0.528222
1.000000 0.898375 0.532616
0.215030 0.993866 0.632532
0.226505 0.994293 0.633570
0.236820 0.994354 0.633814
0.253666 0.993988 0.633051
0.276951 0.993133 0.631189
0.304356 0.992004 0.628779
0.335882 0.990631 0.626001
0.370581 0.989105 0.622919
0.408026 0.987549 0.619806
0.447059 0.985992 0.617121
0.486183 0.984405 0.613947
0.474861 0.986084 0.574517
0.462867 0.987976 0.524865
0.482582 0.987182 0.491188
0.518334 0.984649 0.466987
0.555322 0.981689 0.439033
0.593713 0.978332 0.408118
0.633143 0.974945 0.374029
0.674403 0.971557 0.339666
0.731106 0.966491 0.362432
0.780789 0.962005 0.386938
0.824399 0.957946 0.412299
0.862882 0.954131 0.437781
0.896941 0.950530 0.463203
0.927245 0.947021 0.488075
0.954253 0.943603 0.512230
0.978424 0.940368 0.536339
0.993469 0.934783 0.583642
1.000000 0.931518 0.601953
1.000000 0.928283 0.596490
1.000000 0.924315 0.596246
1.000000 0.920409 0.603143
0.278202 1.000000 0.655940
0.285527 1.000000 0.656733
0.293675 1.000000 0.656947
0.307439 1.000000 0.656672
0.327581 1.000000 0.656092
0.353368 1.000000 0.655756
0.384924 1.000000 0.656245
0.420142 1.000000 0.657221
0.458503 1.000000 0.659358
0.498848 1.000000 0.662409
0.539910 1.000000 0.666590
0.552575 1.000000 0.651270
0.544823 1.000000 0.616114
0.541161 1.000000 0.576135
0.567376 1.000000 0.556970
0.594354 1.000000 0.533257
0.623590 1.000000 0.507073
0.654871 0.998016 0.477760
0.688441 0.995575 0.446723
0.729183 0.992309 0.430640
0.778470 0.987579 0.453834
0.821836 0.983215 0.478157
0.859922 0.979095 0.502434
0.893706 0.975189 0.526635
0.923674 0.971435 0.550164
0.950561 0.967864 0.573693
0.974731 0.964538 0.596826
0.996338 0.961517 0.619715
1.000000 0.955779 0.661860
1.000000 0.951629 0.687648
1.000000 0.948241 0.689174
1.000000 0.944823 0.696742
0.377966 1.000000 0.695796
0.382788 1.000000 0.696345
0.387854 1.000000 0.696407
0.397253 1.000000 0.696162
0.411780 1.000000 0.695827
0.431037 1.000000 0.695705
0.454994 1.000000 0.696101
0.482399 1.000000 0.697169
0.513573 1.000000 0.699306
0.546807 1.000000 0.702296
0.580652 1.000000 0.705867
0.607202 1.000000 0.704891
0.598199 1.000000 0.675959
0.587427 1.000000 0.638911
