data/fiter_cube/89350833/1022880/file.cube
# Created by Adobe Lightroom plugin Export LUT (1.24.0)
# www.johnrellis.com/lightroom/exportlut.htm
# Preset: 婚礼接亲预设[余晖]-10 戒指 黑色背景
# Color profile: C:\Windows\System32\Spool\Drivers\Color\AppleRGB.icc
LUT_3D_SIZE 8
DOMAIN_MIN 0.000000 0.000000 0.000000
DOMAIN_MAX 0.903226 0.903226 0.903226
0.038117 0.060060 0.065705
0.068849 0.067384 0.063813
0.330419 0.109102 0.030671
0.881895 0.200046 0.000000
1.000000 0.431556 0.000000
1.000000 0.618433 0.000000
1.000000 0.726070 0.000000
1.000000 0.782559 0.000000
0.051362 0.067109 0.061555
0.116884 0.074617 0.056855
0.376654 0.101717 0.012146
0.913817 0.192996 0.000000
1.000000 0.413855 0.000000
1.000000 0.598962 0.000000
1.000000 0.718929 0.000000
1.000000 0.773495 0.000000
0.225742 0.187167 0.094118
0.328038 0.204288 0.030610
0.643305 0.140871 0.000000
1.000000 0.213809 0.000000
1.000000 0.426368 0.000000
1.000000 0.628595 0.000000
1.000000 0.737484 0.000000
1.000000 0.776394 0.000000
0.599481 0.466194 0.163973
0.720912 0.495033 0.031861
0.976440 0.512474 0.000000
1.000000 0.446601 0.000000
1.000000 0.543511 0.000000
1.000000 0.652674 0.000000
1.000000 0.722042 0.000000
1.000000 0.763027 0.000000
0.943633 0.780697 0.347234
0.989715 0.786221 0.251499
1.000000 0.786191 0.000000
1.000000 0.750332 0.000000
1.000000 0.629969 0.000000
1.000000 0.624567 0.000000
1.000000 0.692561 0.000000
1.000000 0.740963 0.000000
1.000000 0.904753 0.549920
1.000000 0.912840 0.509209
1.000000 0.908751 0.337713
1.000000 0.888365 0.000000
1.000000 0.833524 0.000000
1.000000 0.725185 0.000000
1.000000 0.680140 0.000000
1.000000 0.725521 0.000000
1.000000 0.959869 0.801266
1.000000 0.960754 0.774960
1.000000 0.958770 0.680415
1.000000 0.950805 0.493874
1.000000 0.927428 0.162966
1.000000 0.874937 0.000000
1.000000 0.772335 0.000000
1.000000 0.706752 0.000000
0.999939 0.979797 0.936889
1.000000 0.980011 0.924712
1.000000 0.979980 0.891173
1.000000 0.978393 0.827512
1.000000 0.969177 0.652277
1.000000 0.950195 0.364294
1.000000 0.902953 0.000000
1.000000 0.803006 0.000000
0.000000 0.107942 0.201938
0.000000 0.095125 0.225589
0.171511 0.000000 0.226505
0.557214 0.000000 0.064271
1.000000 0.093965 0.000000
1.000000 0.631159 0.000000
1.000000 0.739651 0.000000
1.000000 0.784817 0.000000
0.000000 0.117281 0.207034
0.000000 0.149233 0.259922
0.355291 0.000000 0.170809
0.887602 0.176669 0.000000
1.000000 0.489906 0.000000
1.000000 0.636561 0.000000
1.000000 0.730648 0.000000
1.000000 0.775906 0.000000
0.038178 0.343206 0.197208
0.302159 0.330144 0.309422
0.710079 0.271672 0.111818
1.000000 0.367742 0.000000
1.000000 0.543999 0.000000
1.000000 0.668147 0.000000
1.000000 0.739864 0.000000
1.000000 0.777127 0.000000
0.509178 0.517967 0.519707
0.627588 0.578424 0.442908
0.917296 0.627558 0.174197
1.000000 0.476631 0.000000
1.000000 0.537591 0.000000
1.000000 0.661555 0.000000
1.000000 0.735561 0.000000
1.000000 0.767666 0.000000
0.861845 0.808469 0.661952
0.914733 0.821347 0.578882
1.000000 0.830137 0.368627
1.000000 0.791958 0.000000
1.000000 0.644739 0.000000
1.000000 0.629664 0.000000
1.000000 0.700801 0.000000
1.000000 0.745388 0.000000
0.976593 0.911681 0.738582
0.999634 0.916045 0.692226
1.000000 0.918059 0.552911
1.000000 0.904845 0.299474
1.000000 0.854215 0.000000
1.000000 0.737392 0.000000
1.000000 0.680018 0.000000
1.000000 0.721157 0.000000
1.000000 0.954345 0.795956
1.000000 0.953918 0.759335
1.000000 0.951965 0.654139
1.000000 0.944152 0.458106
1.000000 0.919829 0.090486
1.000000 0.866819 0.000000
1.000000 0.764889 0.000000
1.000000 0.699580 0.000000
1.000000 0.977966 0.925414
1.000000 0.978393 0.913817
1.000000 0.978485 0.879362
1.000000 0.977081 0.814664
1.000000 0.970397 0.669123
1.000000 0.950866 0.372351
1.000000 0.902525 0.000000
1.000000 0.802090 0.000000
0.000000 0.256077 0.604822
0.000000 0.248478 0.636072
0.000000 0.205844 0.674403
0.000000 0.120638 0.713893
0.574578 0.000000 0.713100
1.000000 0.000000 0.334569
1.000000 0.000000 0.054994
1.000000 0.471534 0.000000
0.000000 0.281987 0.611353
0.000000 0.289647 0.663722
0.000000 0.245609 0.709285
0.000000 0.149477 0.756161
0.840330 0.000000 0.766934
1.000000 0.000000 0.206638
1.000000 0.000000 0.036988
1.000000 0.676631 0.000000
0.000000 0.309422 0.620233
0.000000 0.367834 0.682887
0.000000 0.507805 0.808133
0.000000 0.396979 0.878386
1.000000 0.000000 0.511376
1.000000 0.552392 0.350256
1.000000 0.846525 0.355444
1.000000 0.881010 0.269841
0.000000 0.329046 0.659846
0.000000 0.410224 0.726070
0.390295 0.780667 0.831937
0.967376 0.897307 0.854704
1.000000 0.912627 0.832029
1.000000 0.908324 0.715206
1.000000 0.898680 0.547326
1.000000 0.881102 0.310124
0.626032 0.931853 0.696010
0.798337 0.921019 0.775265
0.922911 0.918853 0.899016
0.989776 0.937041 0.847501
1.000000 0.869871 0.592004
1.000000 0.829129 0.383490
1.000000 0.861540 0.388037
1.000000 0.865660 0.270359
0.941405 0.938750 0.913664
0.944884 0.940337 0.937133
0.964904 0.950378 0.925505
1.000000 0.954894 0.839231
1.000000 0.933959 0.634882
1.000000 0.843687 0.244785
1.000000 0.777432 0.000000
1.000000 0.789029 0.000000
0.969940 0.964996 0.968872
0.977111 0.966979 0.955108
0.994751 0.969299 0.915160
1.000000 0.968231 0.837125
1.000000 0.956695 0.659846
1.000000 0.918181 0.300938
1.000000 0.812528 0.000000
1.000000 0.721675 0.000000
0.992828 0.978729 0.954833
0.997650 0.978973 0.941466
1.000000 0.979187 0.906462
1.000000 0.978088 0.843107
1.000000 0.970764 0.687282
1.000000 0.950256 0.365423
1.000000 0.903807 0.000000
1.000000 0.805325 0.000000
0.000000 0.479103 0.944610
0.000000 0.473304 0.956817
0.000000 0.424659 0.961578
0.000000 0.351385 0.971618
0.000000 0.250187 0.984680
0.000000 0.000000 0.999390
1.000000 0.000000 0.988281
1.000000 0.000000 0.633204
0.000000 0.500359 0.942443
0.000000 0.495003 0.953155
0.000000 0.452064 0.962463
0.000000 0.380133 0.977356
0.000000 0.275364 0.991333
0.000000 0.000000 1.000000
1.000000 0.000000 0.996368
1.000000 0.000000 0.485817
0.000000 0.538903 0.918486
0.000000 0.544121 0.932738
0.000000 0.554864 0.963287
0.000000 0.496315 0.985107
0.000000 0.401923 1.000000
0.340856 0.082582 1.000000
1.000000 0.000000 0.909270
1.000000 0.000000 0.241794
0.000000 0.539117 0.910216
0.000000 0.578485 0.924559
0.000000 0.695735 0.954772
0.000000 0.817746 0.987457
0.394598 0.771328 1.000000
1.000000 0.651667 1.000000
1.000000 0.671534 0.682460
1.000000 0.910307 0.766445
0.000000 0.545159 0.896696
0.000000 0.602838 0.913848
0.000000 0.754543 0.945190
0.772122 0.909606 0.978271
0.970642 0.975616 1.000000
0.988830 0.976745 1.000000
1.000000 0.973602 0.967224
1.000000 0.966094 0.904143
0.000000 0.995758 0.920836
0.396399 0.996124 0.922332
0.841398 0.979370 0.927337
0.966369 0.975982 0.997436
0.981933 0.980255 1.000000
1.000000 0.965972 0.935485
1.000000 0.948241 0.851682
1.000000 0.948486 0.816800
0.958801 0.979095 0.964691
0.966217 0.978302 0.979767
0.973205 0.977966 1.000000
0.980011 0.981170 1.000000
0.994598 0.982055 0.976623
1.000000 0.972961 0.890135
1.000000 0.928130 0.665339
1.000000 0.861357 0.341100
0.981262 0.982971 1.000000
0.981170 0.982757 1.000000
0.984253 0.984741 1.000000
0.989044 0.985931 1.000000
1.000000 0.984802 0.948516
1.000000 0.977356 0.842893
1.000000 0.949798 0.550439
1.000000 0.853452 0.000000
0.000000 0.676356 1.000000
0.000000 0.666682 1.000000
0.000000 0.626642 1.000000
0.000000 0.570672 1.000000
0.000000 0.487037 1.000000
0.000000 0.378485 1.000000
0.000000 0.249119 1.000000
0.406165 0.000000 1.000000
0.000000 0.683558 1.000000
0.000000 0.677790 1.000000
0.000000 0.645502 1.000000
0.000000 0.584894 1.000000
0.000000 0.502525 1.000000
0.000000 0.396338 1.000000
0.000000 0.264073 1.000000
0.582452 0.000000 1.000000
0.000000 0.705959 1.000000
0.000000 0.698482 1.000000
0.000000 0.679805 1.000000
0.000000 0.633021 1.000000
0.000000 0.554040 1.000000
0.000000 0.451331 1.000000
0.000000 0.314824 1.000000
0.962707 0.000000 1.000000
0.000000 0.735683 1.000000
0.000000 0.748959 1.000000
0.000000 0.751766 1.000000
0.000000 0.768612 1.000000
0.000000 0.726894 1.000000
0.000000 0.641474 1.000000
0.000092 0.385870 1.000000
1.000000 0.000000 1.000000
0.000000 0.697505 1.000000
0.000000 0.722377 1.000000
0.000000 0.787839 1.000000
0.000000 0.884215 1.000000
0.531701 0.924620 1.000000
0.751919 0.904540 1.000000
1.000000 0.864286 1.000000
1.000000 0.858549 0.859251
0.000000 0.662684 0.972808
0.000000 0.695186 0.977569
0.000000 0.771206 0.985016
0.403388 0.876463 0.995880
0.884672 0.953460 1.000000
0.984619 0.986847 1.000000
0.993256 0.988403 1.000000
0.997803 0.986816 1.000000
0.000000 0.770077 0.965057
0.000000 0.878172 0.965911
0.492592 0.992706 0.982116
0.913695 0.987579 0.991241
0.983673 0.987121 1.000000
0.990448 0.989136 1.000000
0.997833 0.981872 1.000000
1.000000 0.970001 0.936889
0.953338 0.991272 0.998962
0.964080 0.990021 1.000000
0.979217 0.988617 1.000000
0.987518 0.988800 1.000000
0.990509 0.990478 1.000000
0.994232 0.990265 1.000000
1.000000 0.984680 0.970123
1.000000 0.957885 0.820371
0.000000 0.797208 1.000000
0.000000 0.789639 1.000000
0.000000 0.761135 1.000000
0.000000 0.717189 1.000000
0.000000 0.655879 1.000000
0.000000 0.577142 1.000000
0.000000 0.481086 1.000000
0.000000 0.364569 1.000000
0.000000 0.794186 1.000000
0.000000 0.785519 1.000000
0.000000 0.761318 1.000000
0.000000 0.718959 1.000000
0.000000 0.660182 1.000000
0.000000 0.583917 1.000000
0.000000 0.490578 1.000000
0.000000 0.373114 1.000000
0.000000 0.815549 1.000000
0.000000 0.807187 1.000000
0.000000 0.788479 1.000000
0.000000 0.753902 1.000000
0.000000 0.698634 1.000000
0.000000 0.628199 1.000000
0.000000 0.539239 1.000000
0.000000 0.413458 1.000000
0.000000 0.844663 1.000000
0.000000 0.838468 1.000000
0.000000 0.828916 1.000000
0.000000 0.827726 1.000000
0.000000 0.798917 1.000000
0.000000 0.740688 1.000000
0.000000 0.658900 1.000000
0.000000 0.524193 1.000000
0.000000 0.845090 1.000000
0.000000 0.854490 1.000000
0.000000 0.879301 1.000000
0.000000 0.886046 1.000000
0.000000 0.899138 1.000000
0.000000 0.872557 1.000000
0.190005 0.818570 1.000000
0.542809 0.636591 1.000000
0.000000 0.809781 1.000000
0.000000 0.826658 1.000000
0.000000 0.860044 1.000000
0.000000 0.910246 1.000000
0.247501 0.953979 1.000000
0.837858 0.964691 1.000000
0.923217 0.962676 1.000000
1.000000 0.953155 1.000000
0.000000 0.811368 1.000000
0.000000 0.830625 1.000000
0.000000 0.868803 1.000000
0.374792 0.915435 1.000000
0.818418 0.953704 1.000000
0.969421 0.982513 1.000000
0.993591 0.993805 1.000000
0.996368 0.993683 1.000000
0.000000 0.750088 1.000000
0.000000 0.758694 1.000000
0.230777 0.911772 1.000000
0.829740 0.997528 1.000000
0.977234 0.992645 1.000000
0.993286 0.993652 1.000000
0.995727 0.994476 1.000000
0.999084 0.991241 1.000000
0.000000 0.836088 1.000000
0.000000 0.831876 1.000000
0.000000 0.815091 1.000000
0.000000 0.786679 1.000000
0.000000 0.745998 1.000000
0.000000 0.692683 1.000000
0.000000 0.624903 1.000000
0.000000 0.542321 1.000000
0.000000 0.837827 1.000000
0.000000 0.833402 1.000000
0.000000 0.818906 1.000000
0.000000 0.790494 1.000000
0.000000 0.749935 1.000000
0.000000 0.695552 1.000000
0.000000 0.626886 1.000000
0.000000 0.542565 1.000000
0.000000 0.855253 1.000000
0.000000 0.850492 1.000000
0.000000 0.838560 1.000000
0.000000 0.817075 1.000000
0.000000 0.777890 1.000000
0.000000 0.727169 1.000000
0.000000 0.664942 1.000000
0.000000 0.586328 1.000000
0.000000 0.881437 1.000000
0.000000 0.876921 1.000000
0.000000 0.867399 1.000000
0.000000 0.859220 1.000000
0.000000 0.835142 1.000000
0.000000 0.792142 1.000000
0.000000 0.737514 1.000000
0.000000 0.661585 1.000000
0.000000 0.909911 1.000000
0.000000 0.906615 1.000000
0.000000 0.900084 1.000000
0.000000 0.894743 1.000000
0.000000 0.894591 1.000000
0.000000 0.871946 1.000000
0.000000 0.831907 1.000000
0.000000 0.778500 1.000000
0.000000 0.904204 1.000000
0.000000 0.909972 1.000000
0.000000 0.924681 1.000000
0.000000 0.948760 1.000000
0.000000 0.956420 1.000000
0.328374 0.956329 1.000000
0.614008 0.941070 1.000000
0.722957 0.917235 1.000000
0.000000 0.897917 1.000000
0.000000 0.906218 1.000000
0.000000 0.924712 1.000000
0.000000 0.950103 1.000000
0.286168 0.969238 1.000000
0.785519 0.977478 1.000000
0.957244 0.984649 1.000000
0.979278 0.985779 1.000000
0.000000 0.902892 1.000000
0.000000 0.911528 1.000000
0.000000 0.931609 1.000000
0.505455 0.949004 1.000000
0.809598 0.964569 1.000000
0.955047 0.981842 1.000000
0.990845 0.992828 1.000000
0.997345 0.996979 1.000000
0.000000 0.863951 1.000000
0.000000 0.861143 1.000000
0.000000 0.850858 1.000000
0.000000 0.831418 1.000000
0.000000 0.803769 1.000000
0.000000 0.767727 1.000000
0.000000 0.723079 1.000000
0.000000 0.663050 1.000000
0.000000 0.867399 1.000000
0.000000 0.864591 1.000000
0.000000 0.856901 1.000000
0.000000 0.837552 1.000000
0.000000 0.810544 1.000000
0.000000 0.774533 1.000000
0.000000 0.728969 1.000000
0.000000 0.668208 1.000000
0.000000 0.879667 1.000000
0.000000 0.876860 1.000000
0.000000 0.869596 1.000000
0.000000 0.859495 1.000000
0.000000 0.832944 1.000000
0.000000 0.797330 1.000000
0.000000 0.753231 1.000000
0.000000 0.693721 1.000000
0.000000 0.899077 1.000000
0.000000 0.897002 1.000000
0.000000 0.891386 1.000000
0.000000 0.886931 1.000000
0.000000 0.873472 1.000000
0.000000 0.842313 1.000000
0.000000 0.803037 1.000000
0.000000 0.750515 1.000000
0.000000 0.926360 1.000000
0.000000 0.924956 1.000000
0.000000 0.920134 1.000000
0.000000 0.913878 1.000000
0.000000 0.914733 1.000000
0.000000 0.901488 1.000000
0.000000 0.873503 1.000000
0.000000 0.841001 1.000000
0.000000 0.957092 1.000000
0.000000 0.959777 1.000000
0.000000 0.959777 1.000000
0.000000 0.957580 1.000000
0.000000 0.957122 1.000000
0.000000 0.963043 1.000000
0.307591 0.950561 1.000000
0.491371 0.929290 1.000000
0.000000 0.962402 1.000000
0.000000 0.965698 1.000000
0.000000 0.973693 1.000000
0.000000 0.985412 1.000000
0.000000 0.995117 1.000000
0.462898 0.987854 1.000000
0.852323 0.979309 1.000000
0.920287 0.976959 1.000000
0.000000 0.967956 1.000000
0.000000 0.970642 1.000000
0.000000 0.976745 1.000000
0.204440 0.982300 1.000000
0.630793 0.982910 1.000000
0.869535 0.984833 1.000000
0.970703 0.991119 1.000000
0.993561 0.995850 1.000000
