data/fiter_cube/89350833/1022880/file.cube
# Created by Adobe Lightroom plugin Export LUT (1.24.0)
# www.johnrellis.com/lightroom/exportlut.htm
# Preset: 婚礼接亲预设[余晖]-10 戒指 黑色背景
# Color profile: C:\Windows\System32\Spool\Drivers\Color\AppleRGB.icc
LUT_3D_SIZE 5
DOMAIN_MIN 0.000000 0.000000 0.000000
DOMAIN_MAX 0.903226 0.903226 0.903226
0.038117 0.060060 0.065705
0.237797 0.095491 0.047547
1.000000 0.309422 0.000000
1.000000 0.651911 0.000000
1.000000 0.782559 0.000000
0.168429 0.144747 0.083040
0.478279 0.121675 0.000000
1.000000 0.315709 0.000000
1.000000 0.672450 0.000000
1.000000 0.779477 0.000000
0.823453 0.653986 0.245701
1.000000 0.665339 0.000000
1.000000 0.561028 0.000000
1.000000 0.655848 0.000000
1.000000 0.750149 0.000000
1.000000 0.929625 0.642969
1.000000 0.929351 0.487892
1.000000 0.894621 0.000000
1.000000 0.740993 0.000000
1.000000 0.720424 0.000000
0.999939 0.979797 0.936889
1.000000 0.980041 0.901640
1.000000 0.973632 0.742977
1.000000 0.942046 0.265202
1.000000 0.803006 0.000000
0.000000 0.203006 0.473671
0.000000 0.170230 0.550195
0.447517 0.000000 0.590478
1.000000 0.000000 0.063813
1.000000 0.682918 0.000000
0.000000 0.256748 0.519188
0.000000 0.407599 0.697963
0.991119 0.000000 0.410132
1.000000 0.732021 0.179049
1.000000 0.849882 0.000000
0.422126 0.867918 0.562310
0.853544 0.851499 0.809049
1.000000 0.792782 0.444404
1.000000 0.827176 0.333043
1.000000 0.846616 0.000000
0.952300 0.947631 0.951537
0.984009 0.958373 0.903532
1.000000 0.950072 0.680964
1.000000 0.811460 0.000000
1.000000 0.746853 0.000000
0.999542 0.979217 0.936034
1.000000 0.979126 0.893950
1.000000 0.974365 0.749935
1.000000 0.943481 0.281926
1.000000 0.807126 0.000000
0.000000 0.590173 1.000000
0.000000 0.546654 1.000000
0.000000 0.426337 1.000000
0.000000 0.221195 1.000000
1.000000 0.000000 1.000000
0.000000 0.621424 1.000000
0.000000 0.606134 1.000000
0.000000 0.496529 1.000000
0.000000 0.291630 1.000000
1.000000 0.000000 0.974243
0.000000 0.618799 0.961669
0.000000 0.710170 0.980346
0.218112 0.883543 1.000000
0.901122 0.783749 1.000000
1.000000 0.891386 0.827817
0.000000 0.577813 0.938262
0.000000 0.846525 0.953063
0.961791 0.982849 1.000000
0.994049 0.979675 1.000000
1.000000 0.970428 0.936126
0.979126 0.986267 1.000000
0.983581 0.985626 1.000000
0.989136 0.988159 1.000000
1.000000 0.983246 0.933898
1.000000 0.906523 0.410864
0.000000 0.802914 1.000000
0.000000 0.779690 1.000000
0.000000 0.707698 1.000000
0.000000 0.586877 1.000000
0.000000 0.412940 1.000000
0.000000 0.814389 1.000000
0.000000 0.795407 1.000000
0.000000 0.734066 1.000000
0.000000 0.616663 1.000000
0.000000 0.440345 1.000000
0.000000 0.856474 1.000000
0.000000 0.846250 1.000000
0.000000 0.838529 1.000000
0.000000 0.759457 1.000000
0.000000 0.605493 1.000000
0.000000 0.840024 1.000000
0.000000 0.868406 1.000000
0.000000 0.941650 1.000000
0.877897 0.970672 1.000000
0.989014 0.961913 1.000000
0.000000 0.817441 1.000000
0.139498 0.850278 1.000000
0.803220 0.969268 1.000000
0.993561 0.994385 1.000000
0.998230 0.993347 1.000000
0.000000 0.863951 1.000000
0.000000 0.854765 1.000000
0.000000 0.818814 1.000000
0.000000 0.757656 1.000000
0.000000 0.663050 1.000000
0.000000 0.876677 1.000000
0.000000 0.868681 1.000000
0.000000 0.841581 1.000000
0.000000 0.782071 1.000000
0.000000 0.689662 1.000000
0.000000 0.911315 1.000000
0.000000 0.904112 1.000000
0.000000 0.895171 1.000000
0.000000 0.855283 1.000000
0.000000 0.787381 1.000000
0.000000 0.960601 1.000000
0.000000 0.969085 1.000000
0.000000 0.974640 1.000000
0.212528 0.969970 1.000000
0.645777 0.942931 1.000000
0.000000 0.967956 1.000000
0.000000 0.975036 1.000000
0.452613 0.983093 1.000000
0.906767 0.986114 1.000000
0.993561 0.995850 1.000000
