data/fiter_cube/89350833/1022880/file.cube
# Created by Adobe Lightroom plugin Export LUT (1.24.0)
# www.johnrellis.com/lightroom/exportlut.htm
# Preset: 婚礼接亲预设[余晖]-10 戒指 黑色背景
# Color profile: C:\Windows\System32\Spool\Drivers\Color\AppleRGB.icc
LUT_3D_SIZE 32
DOMAIN_MIN 0.0 0.0 0.0
DOMAIN_MAX 1.0 1.0 1.0
0.038117 0.060060 0.065705
0.033722 0.058930 0.065949
0.031067 0.058198 0.066102
0.042664 0.060945 0.065492
0.068849 0.067384 0.063813
0.108644 0.075532 0.060945
0.164218 0.084657 0.056123
0.237797 0.095491 0.047547
0.330419 0.109102 0.030671
0.445167 0.125185 0.000000
0.582910 0.142489 0.000000
0.735531 0.165164 0.000000
0.881895 0.200046 0.000000
1.000000 0.249821 0.000000
1.000000 0.309422 0.000000
1.000000 0.371893 0.000000
1.000000 0.431556 0.000000
1.000000 0.486275 0.000000
1.000000 0.535302 0.000000
1.000000 0.579248 0.000000
1.000000 0.618433 0.000000
1.000000 0.651911 0.000000
1.000000 0.679500 0.000000
1.000000 0.701991 0.000000
1.000000 0.726070 0.000000
1.000000 0.746548 0.000000
1.000000 0.761593 0.000000
1.000000 0.773159 0.000000
1.000000 0.782559 0.000000
1.000000 0.790494 0.000000
1.000000 0.797391 0.000000
1.000000 0.803342 0.000000
0.036286 0.057801 0.063905
0.032410 0.058473 0.065675
0.032380 0.058106 0.065370
0.046052 0.061860 0.065278
0.073243 0.068116 0.063569
0.112825 0.075959 0.060670
0.167483 0.084718 0.055879
0.238834 0.095033 0.047578
0.329198 0.108217 0.031312
0.440497 0.123629 0.000000
0.575433 0.140505 0.000000
0.725246 0.161959 0.000000
0.869017 0.194583 0.000000
0.991211 0.241947 0.000000
1.000000 0.299901 0.000000
1.000000 0.361639 0.000000
1.000000 0.421271 0.000000
1.000000 0.476265 0.000000
1.000000 0.525963 0.000000
1.000000 0.570428 0.000000
1.000000 0.610163 0.000000
1.000000 0.644465 0.000000
1.000000 0.672694 0.000000
1.000000 0.696132 0.000000
1.000000 0.721370 0.000000
1.000000 0.741543 0.000000
1.000000 0.756771 0.000000
1.000000 0.768795 0.000000
1.000000 0.778714 0.000000
1.000000 0.787228 0.000000
1.000000 0.794583 0.000000
1.000000 0.800961 0.000000
0.034882 0.055482 0.060945
0.035309 0.055818 0.061463
0.037415 0.058839 0.064454
0.055299 0.062837 0.063844
0.080568 0.068208 0.061463
0.121553 0.076265 0.058869
0.182895 0.085847 0.054597
0.254185 0.095857 0.045808
0.344274 0.108522 0.028321
0.455451 0.123323 0.000000
0.591424 0.139376 0.000000
0.736843 0.160403 0.000000
0.876799 0.193179 0.000000
0.994842 0.239994 0.000000
1.000000 0.296818 0.000000
1.000000 0.357397 0.000000
1.000000 0.415595 0.000000
1.000000 0.470253 0.000000
1.000000 0.520012 0.000000
1.000000 0.565087 0.000000
1.000000 0.605646 0.000000
1.000000 0.640558 0.000000
1.000000 0.669368 0.000000
1.000000 0.693874 0.000000
1.000000 0.720180 0.000000
1.000000 0.739437 0.000000
1.000000 0.754269 0.000000
1.000000 0.766384 0.000000
1.000000 0.776425 0.000000
1.000000 0.785214 0.000000
1.000000 0.792752 0.000000
1.000000 0.799344 0.000000
0.039246 0.058473 0.060395
0.042176 0.059541 0.059785
0.050385 0.062196 0.059358
0.068299 0.065461 0.061585
0.105715 0.071199 0.060365
0.144106 0.076936 0.056580
0.193820 0.083558 0.050935
0.257115 0.092012 0.041962
0.358038 0.106142 0.021515
0.490822 0.123415 0.000000
0.625483 0.139101 0.000000
0.765133 0.160586 0.000000
0.896605 0.193912 0.000000
1.000000 0.240970 0.000000
1.000000 0.296818 0.000000
1.000000 0.355718 0.000000
1.000000 0.412726 0.000000
1.000000 0.465919 0.000000
1.000000 0.514214 0.000000
1.000000 0.559197 0.000000
1.000000 0.599451 0.000000
1.000000 0.634852 0.000000
1.000000 0.664515 0.000000
1.000000 0.694240 0.000000
1.000000 0.719203 0.000000
1.000000 0.738186 0.000000
1.000000 0.753170 0.000000
1.000000 0.765408 0.000000
1.000000 0.775570 0.000000
1.000000 0.784146 0.000000
1.000000 0.791531 0.000000
1.000000 0.797910 0.000000
0.051362 0.067109 0.061555
0.055207 0.068605 0.060060
0.066041 0.071382 0.057465
0.085176 0.074098 0.055879
0.116884 0.074617 0.056855
0.177615 0.077821 0.054719
0.228702 0.083528 0.048646
0.294560 0.091218 0.037476
0.376654 0.101717 0.012146
0.475868 0.114229 0.000000
0.612482 0.130129 0.000000
0.770626 0.154330 0.000000
0.913817 0.192996 0.000000
1.000000 0.240452 0.000000
1.000000 0.296849 0.000000
1.000000 0.356420 0.000000
1.000000 0.413855 0.000000
1.000000 0.467170 0.000000
1.000000 0.515587 0.000000
1.000000 0.559564 0.000000
1.000000 0.598962 0.000000
1.000000 0.633722 0.000000
1.000000 0.666163 0.000000
1.000000 0.696040 0.000000
1.000000 0.718929 0.000000
1.000000 0.737026 0.000000
1.000000 0.751553 0.000000
1.000000 0.763485 0.000000
1.000000 0.773495 0.000000
1.000000 0.782132 0.000000
1.000000 0.789548 0.000000
1.000000 0.796017 0.000000
0.073274 0.081422 0.063844
0.078553 0.082887 0.061891
0.091463 0.085664 0.057374
0.112703 0.088350 0.052735
0.143832 0.088930 0.049317
0.190311 0.084962 0.049104
0.282658 0.082673 0.043214
0.353948 0.089693 0.027771
0.440070 0.098939 0.000000
0.541161 0.109773 0.000000
0.655299 0.124178 0.000000
0.773281 0.145357 0.000000
0.900053 0.179782 0.000000
1.000000 0.233890 0.000000
1.000000 0.300633 0.000000
1.000000 0.365148 0.000000
1.000000 0.421576 0.000000
1.000000 0.473548 0.000000
1.000000 0.520775 0.000000
1.000000 0.563836 0.000000
1.000000 0.602625 0.000000
1.000000 0.639643 0.000000
1.000000 0.712062 0.000000
1.000000 0.734310 0.000000
1.000000 0.750484 0.000000
1.000000 0.762783 0.000000
1.000000 0.772488 0.000000
1.000000 0.780453 0.000000
1.000000 0.787137 0.000000
1.000000 0.792996 0.000000
1.000000 0.798032 0.000000
1.000000 0.802548 0.000000
0.121126 0.111482 0.072663
0.127657 0.113100 0.069306
0.145266 0.116732 0.061616
0.173404 0.120821 0.050996
0.212894 0.122347 0.038575
0.264805 0.118471 0.027405
0.338109 0.104158 0.019532
0.483711 0.084077 0.000000
0.581384 0.092378 0.000000
0.691127 0.105013 0.000000
0.803586 0.126589 0.000000
0.911559 0.160372 0.000000
1.000000 0.205386 0.000000
1.000000 0.258488 0.000000
1.000000 0.316289 0.000000
1.000000 0.383368 0.000000
1.000000 0.446509 0.000000
1.000000 0.503075 0.000000
1.000000 0.549523 0.000000
1.000000 0.589715 0.000000
1.000000 0.632959 0.000000
1.000000 0.672572 0.000000
1.000000 0.703609 0.000000
1.000000 0.727260 0.000000
1.000000 0.744991 0.000000
1.000000 0.758206 0.000000
1.000000 0.768307 0.000000
1.000000 0.776516 0.000000
1.000000 0.783474 0.000000
1.000000 0.789548 0.000000
1.000000 0.794949 0.000000
1.000000 0.799680 0.000000
0.168429 0.144747 0.083040
0.175875 0.146548 0.078737
0.194553 0.150851 0.069001
0.224674 0.155764 0.054292
0.265568 0.158755 0.034150
0.319219 0.157259 0.000000
0.387091 0.147066 0.000000
0.478279 0.121675 0.000000
0.661799 0.076539 0.000000
0.764584 0.092195 0.000000
0.867948 0.119265 0.000000
0.963012 0.158358 0.000000
1.000000 0.206607 0.000000
1.000000 0.260533 0.000000
1.000000 0.315709 0.000000
1.000000 0.369421 0.000000
1.000000 0.421363 0.000000
1.000000 0.477852 0.000000
1.000000 0.531823 0.000000
1.000000 0.588830 0.000000
1.000000 0.636408 0.000000
1.000000 0.672450 0.000000
1.000000 0.700587 0.000000
1.000000 0.722774 0.000000
1.000000 0.740017 0.000000
1.000000 0.753170 0.000000
1.000000 0.763577 0.000000
1.000000 0.772091 0.000000
1.000000 0.779477 0.000000
1.000000 0.785916 0.000000
1.000000 0.791623 0.000000
1.000000 0.796780 0.000000
0.225742 0.187167 0.094118
0.233738 0.189059 0.088869
0.253819 0.194095 0.077272
0.285283 0.200015 0.058961
0.328038 0.204288 0.030610
0.383032 0.204257 0.000000
0.451575 0.197269 0.000000
0.535607 0.178286 0.000000
0.643305 0.140871 0.000000
0.843473 0.078645 0.000000
0.936522 0.115114 0.000000
1.000000 0.161410 0.000000
1.000000 0.213809 0.000000
1.000000 0.269139 0.000000
1.000000 0.323552 0.000000
1.000000 0.375463 0.000000
1.000000 0.426368 0.000000
1.000000 0.482216 0.000000
1.000000 0.533684 0.000000
1.000000 0.583368 0.000000
1.000000 0.628595 0.000000
1.000000 0.666255 0.000000
1.000000 0.696437 0.000000
1.000000 0.720211 0.000000
1.000000 0.737484 0.000000
1.000000 0.750240 0.000000
1.000000 0.760464 0.000000
1.000000 0.769039 0.000000
1.000000 0.776394 0.000000
1.000000 0.782956 0.000000
1.000000 0.788846 0.000000
1.000000 0.794125 0.000000
0.293492 0.238041 0.105287
0.301488 0.239994 0.099794
0.322362 0.245060 0.085969
0.354467 0.250767 0.063630
0.398444 0.255772 0.026856
0.454566 0.256992 0.000000
0.523369 0.252476 0.000000
0.605371 0.239078 0.000000
0.697658 0.212528 0.000000
0.807858 0.169436 0.000000
0.992493 0.119417 0.000000
1.000000 0.166445 0.000000
1.000000 0.222660 0.000000
1.000000 0.278965 0.000000
1.000000 0.339422 0.000000
1.000000 0.399176 0.000000
1.000000 0.454322 0.000000
1.000000 0.504479 0.000000
1.000000 0.550225 0.000000
1.000000 0.591547 0.000000
1.000000 0.627893 0.000000
1.000000 0.659876 0.000000
1.000000 0.687831 0.000000
1.000000 0.710231 0.000000
1.000000 0.728237 0.000000
1.000000 0.742733 0.000000
1.000000 0.754757 0.000000
1.000000 0.764706 0.000000
1.000000 0.772549 0.000000
1.000000 0.779660 0.000000
1.000000 0.785977 0.000000
1.000000 0.791684 0.000000
0.364935 0.291630 0.117159
0.373541 0.293645 0.110719
0.395575 0.299077 0.095247
0.429938 0.305791 0.069917
0.476509 0.311864 0.022950
0.534539 0.315343 0.000000
0.604150 0.314580 0.000000
0.683619 0.305974 0.000000
0.770321 0.289036 0.000000
0.861479 0.259220 0.000000
0.960113 0.217502 0.000000
1.000000 0.198520 0.000000
1.000000 0.248356 0.000000
1.000000 0.309422 0.000000
1.000000 0.366888 0.000000
1.000000 0.419959 0.000000
1.000000 0.469123 0.000000
1.000000 0.513787 0.000000
1.000000 0.555108 0.000000
1.000000 0.592493 0.000000
1.000000 0.626093 0.000000
1.000000 0.655573 0.000000
1.000000 0.681086 0.000000
1.000000 0.702632 0.000000
1.000000 0.720607 0.000000
1.000000 0.735103 0.000000
1.000000 0.747311 0.000000
1.000000 0.757778 0.000000
1.000000 0.767117 0.000000
1.000000 0.775540 0.000000
1.000000 0.783230 0.000000
1.000000 0.789303 0.000000
0.453559 0.356420 0.132204
0.462409 0.358526 0.124941
0.485634 0.364294 0.107607
0.521111 0.371344 0.078126
0.567742 0.378058 0.022004
0.624414 0.383490 0.000000
0.690578 0.384985 0.000000
0.764675 0.381842 0.000000
0.853788 0.377356 0.000000
0.941985 0.364355 0.000000
1.000000 0.339696 0.000000
1.000000 0.307958 0.000000
1.000000 0.384283 0.000000
1.000000 0.419532 0.000000
1.000000 0.468147 0.000000
1.000000 0.510491 0.000000
1.000000 0.547723 0.000000
1.000000 0.580835 0.000000
1.000000 0.610864 0.000000
1.000000 0.637964 0.000000
1.000000 0.662196 0.000000
1.000000 0.683497 0.000000
1.000000 0.702052 0.000000
1.000000 0.718074 0.000000
1.000000 0.731868 0.000000
1.000000 0.743709 0.000000
1.000000 0.753597 0.000000
1.000000 0.761440 0.000000
1.000000 0.768734 0.000000
1.000000 0.775448 0.000000
1.000000 0.781735 0.000000
1.000000 0.787991 0.000000
0.599481 0.466194 0.163973
0.609705 0.468910 0.155123
0.635157 0.476173 0.133944
0.673487 0.485878 0.098695
0.720912 0.495033 0.031861
0.777371 0.503655 0.000000
0.841001 0.510491 0.000000
0.908232 0.513603 0.000000
0.976440 0.512474 0.000000
1.000000 0.505821 0.000000
1.000000 0.493416 0.000000
1.000000 0.472724 0.000000
1.000000 0.446601 0.000000
1.000000 0.443641 0.000000
1.000000 0.467079 0.000000
1.000000 0.508049 0.000000
1.000000 0.543511 0.000000
1.000000 0.574823 0.000000
1.000000 0.603326 0.000000
1.000000 0.629145 0.000000
1.000000 0.652674 0.000000
1.000000 0.673518 0.000000
1.000000 0.691798 0.000000
1.000000 0.708003 0.000000
1.000000 0.722042 0.000000
1.000000 0.734249 0.000000
1.000000 0.744961 0.000000
1.000000 0.754452 0.000000
1.000000 0.763027 0.000000
1.000000 0.770077 0.000000
1.000000 0.776608 0.000000
1.000000 0.783230 0.000000
0.727199 0.569116 0.202426
0.735134 0.571008 0.193881
0.755154 0.575158 0.170657
0.785336 0.580682 0.133028
0.822080 0.586114 0.075868
0.865354 0.590326 0.000000
0.913298 0.593347 0.000000
0.963653 0.594324 0.000000
1.000000 0.592554 0.000000
1.000000 0.587640 0.000000
1.000000 0.578210 0.000000
1.000000 0.562585 0.000000
1.000000 0.538415 0.000000
1.000000 0.508141 0.000000
1.000000 0.496864 0.000000
1.000000 0.503441 0.000000
1.000000 0.536980 0.000000
1.000000 0.567376 0.000000
1.000000 0.594995 0.000000
1.000000 0.620386 0.000000
1.000000 0.643305 0.000000
1.000000 0.664179 0.000000
1.000000 0.682490 0.000000
1.000000 0.698726 0.000000
1.000000 0.713039 0.000000
1.000000 0.725582 0.000000
1.000000 0.736568 0.000000
1.000000 0.746487 0.000000
1.000000 0.755428 0.000000
1.000000 0.764248 0.000000
1.000000 0.773037 0.000000
1.000000 0.780117 0.000000
0.823453 0.653986 0.245701
0.830564 0.655543 0.237064
0.846433 0.658320 0.214115
0.869078 0.661219 0.178653
0.896727 0.663264 0.127077
0.928832 0.664637 0.040711
0.964935 0.665400 0.000000
1.000000 0.665339 0.000000
1.000000 0.663600 0.000000
1.000000 0.659846 0.000000
1.000000 0.652766 0.000000
1.000000 0.641535 0.000000
1.000000 0.622583 0.000000
1.000000 0.594965 0.000000
1.000000 0.561028 0.000000
1.000000 0.541497 0.000000
1.000000 0.535058 0.000000
1.000000 0.563500 0.000000
1.000000 0.589532 0.000000
1.000000 0.613489 0.000000
1.000000 0.635645 0.000000
1.000000 0.655848 0.000000
1.000000 0.673915 0.000000
1.000000 0.690181 0.000000
1.000000 0.704677 0.000000
1.000000 0.717678 0.000000
1.000000 0.729274 0.000000
1.000000 0.739834 0.000000
1.000000 0.750149 0.000000
1.000000 0.759945 0.000000
1.000000 0.769070 0.000000
1.000000 0.777646 0.000000
0.896483 0.726619 0.297490
0.903044 0.729061 0.289952
0.916716 0.732448 0.269963
0.935210 0.735592 0.238834
0.957610 0.738155 0.194827
0.983398 0.740261 0.134218
1.000000 0.741909 0.028199
1.000000 0.742184 0.000000
1.000000 0.740749 0.000000
1.000000 0.736599 0.000000
1.000000 0.728664 0.000000
1.000000 0.715785 0.000000
1.000000 0.697200 0.000000
1.000000 0.671351 0.000000
1.000000 0.637781 0.000000
1.000000 0.599908 0.000000
1.000000 0.575982 0.000000
1.000000 0.559716 0.000000
1.000000 0.585412 0.000000
1.000000 0.609125 0.000000
1.000000 0.631128 0.000000
1.000000 0.651057 0.000000
1.000000 0.668910 0.000000
1.000000 0.684962 0.000000
1.000000 0.699397 0.000000
1.000000 0.712367 0.000000
1.000000 0.724086 0.000000
1.000000 0.735439 0.000000
1.000000 0.746029 0.000000
1.000000 0.755825 0.000000
1.000000 0.764920 0.000000
1.000000 0.773312 0.000000
0.943633 0.780697 0.347234
0.947784 0.781582 0.340276
0.957702 0.783047 0.321233
0.971954 0.784665 0.291447
0.989715 0.786221 0.251499
1.000000 0.787259 0.200656
1.000000 0.788174 0.135500
1.000000 0.787808 0.000000
1.000000 0.786191 0.000000
1.000000 0.782101 0.000000
1.000000 0.775387 0.000000
1.000000 0.765042 0.000000
1.000000 0.750332 0.000000
1.000000 0.729427 0.000000
1.000000 0.702205 0.000000
1.000000 0.667475 0.000000
1.000000 0.629969 0.000000
1.000000 0.604211 0.000000
1.000000 0.580194 0.000000
1.000000 0.603265 0.000000
1.000000 0.624567 0.000000
1.000000 0.644190 0.000000
1.000000 0.661952 0.000000
1.000000 0.678035 0.000000
1.000000 0.692561 0.000000
1.000000 0.705928 0.000000
1.000000 0.718624 0.000000
1.000000 0.730220 0.000000
1.000000 0.740963 0.000000
1.000000 0.750973 0.000000
1.000000 0.760311 0.000000
1.000000 0.768978 0.000000
0.977966 0.825345 0.403388
0.982269 0.827054 0.397772
1.000000 0.867613 0.456336
1.000000 0.868070 0.429175
1.000000 0.868101 0.392706
1.000000 0.867247 0.346197
1.000000 0.865690 0.291051
1.000000 0.863096 0.224369
1.000000 0.859312 0.138979
1.000000 0.853941 0.000000
1.000000 0.846525 0.000000
1.000000 0.836057 0.000000
1.000000 0.821897 0.000000
1.000000 0.803128 0.000000
1.000000 0.779232 0.000000
1.000000 0.749599 0.000000
1.000000 0.713436 0.000000
1.000000 0.674647 0.000000
1.000000 0.644282 0.000000
1.000000 0.611200 0.000000
1.000000 0.629206 0.000000
1.000000 0.646571 0.000000
1.000000 0.662562 0.000000
1.000000 0.677150 0.000000
1.000000 0.690852 0.000000
1.000000 0.703609 0.000000
1.000000 0.715358 0.000000
1.000000 0.726528 0.000000
1.000000 0.737057 0.000000
1.000000 0.747005 0.000000
1.000000 0.756405 0.000000
1.000000 0.765164 0.000000
1.000000 0.870970 0.481910
1.000000 0.874357 0.483192
1.000000 0.878141 0.474708
1.000000 0.880980 0.455879
1.000000 0.882994 0.428046
1.000000 0.883268 0.388861
1.000000 0.882170 0.339147
1.000000 0.880186 0.281041
1.000000 0.877073 0.210391
1.000000 0.872709 0.117525
1.000000 0.866819 0.000000
1.000000 0.858518 0.000000
1.000000 0.846952 0.000000
1.000000 0.831876 0.000000
1.000000 0.812497 0.000000
1.000000 0.788937 0.000000
1.000000 0.759762 0.000000
1.000000 0.725734 0.000000
1.000000 0.689448 0.000000
1.000000 0.660578 0.000000
1.000000 0.629236 0.000000
1.000000 0.639796 0.000000
1.000000 0.656245 0.000000
1.000000 0.671382 0.000000
1.000000 0.685115 0.000000
1.000000 0.697932 0.000000
1.000000 0.709865 0.000000
1.000000 0.721096 0.000000
1.000000 0.731624 0.000000
1.000000 0.741695 0.000000
1.000000 0.751247 0.000000
1.000000 0.760159 0.000000
1.000000 0.888518 0.514397
1.000000 0.891142 0.515526
1.000000 0.894072 0.507927
1.000000 0.896574 0.492317
1.000000 0.898222 0.467323
1.000000 0.898528 0.431647
1.000000 0.897704 0.386816
1.000000 0.896056 0.334112
1.000000 0.893523 0.271916
1.000000 0.889921 0.197940
1.000000 0.884916 0.094942
1.000000 0.877989 0.000000
1.000000 0.868498 0.000000
1.000000 0.856138 0.000000
1.000000 0.840330 0.000000
1.000000 0.821012 0.000000
1.000000 0.797848 0.000000
1.000000 0.770260 0.000000
1.000000 0.738155 0.000000
1.000000 0.704128 0.000000
1.000000 0.675898 0.000000
1.000000 0.645655 0.000000
1.000000 0.650568 0.000000
1.000000 0.665705 0.000000
1.000000 0.679530 0.000000
1.000000 0.692409 0.000000
1.000000 0.704280 0.000000
1.000000 0.715511 0.000000
1.000000 0.726284 0.000000
1.000000 0.736446 0.000000
1.000000 0.746059 0.000000
1.000000 0.755184 0.000000
1.000000 0.904753 0.549920
1.000000 0.906950 0.550927
1.000000 0.909483 0.545464
1.000000 0.911498 0.531609
1.000000 0.912840 0.509209
1.000000 0.913054 0.478218
1.000000 0.912352 0.438849
1.000000 0.910857 0.391821
1.000000 0.908751 0.337713
1.000000 0.905638 0.274601
1.000000 0.901427 0.199496
1.000000 0.895811 0.095033
1.000000 0.888365 0.000000
1.000000 0.878691 0.000000
1.000000 0.866545 0.000000
1.000000 0.851591 0.000000
1.000000 0.833524 0.000000
1.000000 0.811826 0.000000
1.000000 0.786435 0.000000
1.000000 0.756832 0.000000
1.000000 0.725185 0.000000
1.000000 0.697230 0.000000
1.000000 0.666865 0.000000
1.000000 0.666468 0.000000
1.000000 0.680140 0.000000
1.000000 0.692653 0.000000
1.000000 0.704189 0.000000
1.000000 0.715206 0.000000
1.000000 0.725521 0.000000
1.000000 0.735409 0.000000
1.000000 0.744747 0.000000
1.000000 0.753536 0.000000
1.000000 0.929625 0.642969
1.000000 0.930327 0.640681
1.000000 0.930999 0.631769
1.000000 0.931426 0.616327
1.000000 0.931548 0.593774
1.000000 0.931212 0.564965
1.000000 0.930480 0.529534
1.000000 0.929351 0.487892
1.000000 0.927794 0.440467
1.000000 0.925628 0.386481
1.000000 0.922576 0.324926
1.000000 0.918242 0.252140
1.000000 0.912322 0.161257
1.000000 0.904601 0.000000
1.000000 0.894621 0.000000
1.000000 0.882261 0.000000
1.000000 0.867155 0.000000
1.000000 0.849180 0.000000
1.000000 0.827604 0.000000
1.000000 0.802365 0.000000
1.000000 0.772793 0.000000
1.000000 0.740993 0.000000
1.000000 0.711757 0.000000
1.000000 0.680568 0.000000
1.000000 0.675013 0.000000
1.000000 0.687373 0.000000
1.000000 0.698970 0.000000
1.000000 0.709987 0.000000
1.000000 0.720424 0.000000
1.000000 0.730434 0.000000
1.000000 0.739834 0.000000
1.000000 0.748745 0.000000
1.000000 0.940764 0.696986
1.000000 0.941283 0.694881
1.000000 0.941741 0.687434
1.000000 0.942107 0.674159
1.000000 0.942199 0.655421
1.000000 0.941924 0.629877
1.000000 0.941344 0.598627
1.000000 0.940429 0.561852
1.000000 0.939147 0.519646
1.000000 0.937438 0.471412
1.000000 0.934997 0.416571
1.000000 0.931640 0.354162
1.000000 0.926940 0.281071
1.000000 0.920867 0.193606
1.000000 0.913024 0.058686
1.000000 0.903197 0.000000
1.000000 0.891081 0.000000
1.000000 0.876432 0.000000
1.000000 0.858793 0.000000
1.000000 0.837888 0.000000
1.000000 0.813230 0.000000
1.000000 0.784512 0.000000
1.000000 0.753536 0.000000
1.000000 0.724361 0.000000
1.000000 0.691707 0.000000
1.000000 0.682673 0.000000
1.000000 0.694301 0.000000
1.000000 0.705379 0.000000
1.000000 0.715846 0.000000
1.000000 0.725765 0.000000
1.000000 0.735317 0.000000
1.000000 0.744320 0.000000
1.000000 0.954070 0.764920
1.000000 0.954437 0.763516
1.000000 0.954681 0.757046
1.000000 0.954711 0.745693
1.000000 0.954498 0.729366
1.000000 0.954070 0.707820
1.000000 0.953307 0.680385
1.000000 0.952270 0.647700
1.000000 0.950896 0.608637
1.000000 0.949126 0.563989
1.000000 0.946685 0.512413
1.000000 0.943633 0.454108
1.000000 0.939635 0.388220
1.000000 0.934447 0.312657
1.000000 0.927733 0.223545
1.000000 0.919463 0.103731
1.000000 0.909331 0.000000
1.000000 0.897154 0.000000
1.000000 0.882750 0.000000
1.000000 0.865568 0.000000
1.000000 0.845212 0.000000
1.000000 0.821256 0.000000
1.000000 0.792996 0.000000
1.000000 0.762234 0.000000
1.000000 0.732509 0.000000
1.000000 0.701045 0.000000
1.000000 0.688746 0.000000
1.000000 0.699702 0.000000
1.000000 0.710201 0.000000
1.000000 0.720180 0.000000
1.000000 0.729885 0.000000
1.000000 0.738827 0.000000
1.000000 0.959869 0.801266
1.000000 0.960296 0.800717
1.000000 0.960571 0.796017
1.000000 0.960754 0.787381
1.000000 0.960754 0.774960
1.000000 0.960540 0.758297
1.000000 0.960174 0.736995
1.000000 0.959625 0.711208
1.000000 0.958770 0.680415
1.000000 0.957641 0.644007
1.000000 0.955962 0.600671
1.000000 0.953796 0.551141
1.000000 0.950805 0.493874
1.000000 0.946960 0.429053
1.000000 0.941863 0.354101
1.000000 0.935454 0.268345
1.000000 0.927428 0.162966
1.000000 0.917693 0.000000
1.000000 0.905913 0.000000
1.000000 0.891844 0.000000
1.000000 0.874937 0.000000
1.000000 0.854734 0.000000
1.000000 0.830747 0.000000
1.000000 0.802884 0.000000
1.000000 0.772335 0.000000
1.000000 0.742458 0.000000
1.000000 0.711086 0.000000
1.000000 0.696345 0.000000
1.000000 0.706752 0.000000
1.000000 0.716793 0.000000
1.000000 0.726040 0.000000
1.000000 0.734920 0.000000
1.000000 0.966308 0.841398
1.000000 0.966522 0.840452
1.000000 0.966644 0.836149
1.000000 0.966674 0.828733
1.000000 0.966613 0.818204
1.000000 0.966400 0.804532
1.000000 0.966064 0.787503
1.000000 0.965545 0.766659
1.000000 0.964904 0.741543
1.000000 0.964050 0.711879
1.000000 0.962860 0.676600
1.000000 0.961242 0.634913
1.000000 0.959075 0.586328
1.000000 0.956176 0.529870
1.000000 0.952300 0.464027
1.000000 0.947326 0.390112
1.000000 0.941009 0.305364
1.000000 0.933288 0.206210
1.000000 0.923857 0.057984
1.000000 0.912474 0.000000
1.000000 0.898680 0.000000
1.000000 0.881956 0.000000
1.000000 0.861997 0.000000
1.000000 0.838254 0.000000
1.000000 0.810636 0.000000
1.000000 0.780636 0.000000
1.000000 0.750515 0.000000
1.000000 0.718959 0.000000
1.000000 0.702266 0.000000
1.000000 0.711910 0.000000
1.000000 0.721218 0.000000
1.000000 0.730068 0.000000
1.000000 0.970794 0.872862
1.000000 0.970886 0.871672
1.000000 0.971008 0.868162
1.000000 0.971099 0.862425
1.000000 0.971191 0.854826
1.000000 0.971283 0.845121
1.000000 0.971405 0.833921
1.000000 0.971466 0.820462
1.000000 0.971466 0.804868
1.000000 0.971313 0.786435
1.000000 0.970947 0.763943
1.000000 0.970245 0.736629
1.000000 0.969055 0.703029
1.000000 0.967315 0.661036
1.000000 0.964813 0.609766
1.000000 0.961364 0.547723
1.000000 0.956847 0.476265
1.000000 0.951171 0.395087
1.000000 0.944152 0.304051
1.000000 0.935424 0.195773
1.000000 0.924498 0.000000
1.000000 0.911162 0.000000
1.000000 0.894713 0.000000
1.000000 0.874754 0.000000
1.000000 0.851041 0.000000
1.000000 0.823209 0.000000
1.000000 0.792966 0.000000
1.000000 0.761990 0.000000
1.000000 0.729946 0.000000
1.000000 0.710964 0.000000
1.000000 0.719722 0.000000
1.000000 0.728359 0.000000
1.000000 0.977081 0.915068
1.000000 0.977142 0.914183
1.000000 0.977203 0.911223
1.000000 0.977264 0.906584
1.000000 0.977234 0.900175
1.000000 0.977203 0.892088
1.000000 0.977173 0.882567
1.000000 0.977050 0.871183
1.000000 0.976898 0.857969
1.000000 0.976593 0.842405
1.000000 0.976135 0.823667
1.000000 0.975402 0.801144
1.000000 0.974365 0.773709
1.000000 0.972930 0.739528
1.000000 0.970947 0.697139
