data/fiter_cube/25649002/1023279/file.cube
# Created by Adobe Lightroom plugin Export LUT (1.17.0)
# www.johnrellis.com/lightroom/exportlut.htm
# Preset: 高级电影质感情绪胶片_09 云集
# Color profile: C:\Program Files (x86)\Common Files\Adobe\Color\Profiles\Recommended\AdobeRGB1998.icc
LUT_3D_SIZE 32
DOMAIN_MIN 0.0 0.0 0.0
DOMAIN_MAX 1.0 1.0 1.0
0.068147 0.076265 0.088075
0.069459 0.076417 0.088319
0.071534 0.077180 0.088502
0.075929 0.078248 0.089204
0.082033 0.080354 0.090272
0.090700 0.082460 0.091279
0.101747 0.084871 0.092164
0.116548 0.087556 0.092836
0.135317 0.090425 0.093233
0.157382 0.093385 0.093568
0.182986 0.096376 0.093782
0.212406 0.099153 0.093782
0.245457 0.101534 0.093660
0.281071 0.103273 0.093202
0.319158 0.104524 0.092470
0.356878 0.105592 0.091432
0.397009 0.107454 0.090639
0.435401 0.111025 0.089784
0.470344 0.116915 0.089418
0.503532 0.125917 0.089235
0.534997 0.138338 0.089723
0.564324 0.153872 0.090944
0.591730 0.172610 0.092714
0.617639 0.193454 0.095705
0.642206 0.216556 0.100099
0.665187 0.241672 0.106600
0.686915 0.268345 0.114839
0.707393 0.297063 0.126833
0.727108 0.327672 0.142184
0.747646 0.361852 0.161929
0.769375 0.399695 0.187381
0.792508 0.441138 0.220188
0.068849 0.076844 0.088594
0.069184 0.077150 0.088869
0.072328 0.078126 0.088136
0.077150 0.079133 0.088533
0.083650 0.080812 0.089387
0.092409 0.083162 0.090639
0.104005 0.085695 0.091768
0.118685 0.088624 0.092409
0.137331 0.091371 0.092805
0.159396 0.094484 0.093141
0.185367 0.097444 0.093294
0.214664 0.100099 0.093294
0.246952 0.102388 0.093202
0.282750 0.104402 0.092653
0.320592 0.105623 0.091920
0.357946 0.106813 0.090883
0.397528 0.108522 0.089906
0.435187 0.112154 0.088869
0.469795 0.117647 0.088319
0.502403 0.126711 0.088533
0.533623 0.138613 0.088624
0.562982 0.153872 0.089631
0.590356 0.171878 0.091279
0.616236 0.192599 0.094392
0.640772 0.215488 0.098695
0.663905 0.240391 0.104646
0.685695 0.267033 0.113344
0.706416 0.295628 0.124575
0.726192 0.326177 0.139956
0.746700 0.360113 0.159701
0.768460 0.397803 0.184665
0.791623 0.439063 0.217166
0.069337 0.078157 0.089326
0.069978 0.078767 0.090089
0.070863 0.078981 0.090059
0.077272 0.080507 0.088716
0.085786 0.082124 0.088685
0.094942 0.084382 0.089937
0.106752 0.087007 0.091005
0.121767 0.089723 0.091646
0.140475 0.092592 0.092287
0.162844 0.095674 0.092592
0.188846 0.098634 0.092744
0.218143 0.101534 0.092622
0.250797 0.103883 0.092195
0.286717 0.105715 0.091859
0.323796 0.107088 0.091127
0.361120 0.108217 0.090028
0.400153 0.110048 0.089082
0.437110 0.113771 0.087770
0.470771 0.119387 0.087648
0.503502 0.128145 0.087251
0.534203 0.139925 0.087709
0.563348 0.155001 0.088228
0.590631 0.172915 0.090211
0.616297 0.193301 0.093202
0.640864 0.216281 0.097261
0.663844 0.240787 0.103182
0.685603 0.267247 0.111604
0.706325 0.295537 0.122927
0.726101 0.326055 0.138216
0.746578 0.359777 0.157687
0.768307 0.397284 0.182559
0.791409 0.438270 0.214725
0.070619 0.081056 0.091279
0.071931 0.081483 0.092592
0.072572 0.082033 0.093080
0.074250 0.082460 0.093019
0.083772 0.085328 0.090700
0.098268 0.088167 0.089265
0.113985 0.090700 0.089113
0.129458 0.093507 0.090211
0.148714 0.096315 0.090791
0.171206 0.099336 0.090974
0.197482 0.102144 0.091035
0.227146 0.104952 0.090791
0.259464 0.107454 0.090791
0.295445 0.109224 0.090028
0.332433 0.110597 0.088899
0.368811 0.111879 0.088014
0.407050 0.113985 0.086641
0.442603 0.117739 0.085725
0.475257 0.123598 0.085084
0.506737 0.132052 0.084596
0.536614 0.143404 0.084627
0.565209 0.158267 0.085512
0.592096 0.175967 0.087007
0.617700 0.196231 0.090089
0.642267 0.218997 0.094270
0.665309 0.243565 0.100526
0.687160 0.270146 0.108827
0.707698 0.298222 0.120638
0.727291 0.328161 0.135805
0.747585 0.361547 0.155550
0.769131 0.398474 0.179904
0.791958 0.438758 0.211917
0.072877 0.084291 0.093690
0.073762 0.085084 0.094667
0.074891 0.086122 0.096101
0.076204 0.087160 0.096773
0.078767 0.087129 0.096223
0.091035 0.090761 0.093599
0.114321 0.097139 0.090211
0.137209 0.101198 0.088960
0.161746 0.104311 0.087984
0.184817 0.106783 0.088350
0.211154 0.109316 0.088563
0.241123 0.111910 0.088106
0.273747 0.113832 0.087617
0.310094 0.115602 0.086519
0.345892 0.116884 0.085512
0.382116 0.118471 0.084047
0.419013 0.121035 0.082490
0.453040 0.125032 0.081239
0.484291 0.130770 0.080629
0.514244 0.139406 0.080537
0.542809 0.150698 0.080659
0.570336 0.165164 0.081086
0.596521 0.182376 0.082460
0.621546 0.202335 0.085420
0.645502 0.224552 0.089387
0.668116 0.248539 0.095552
0.689357 0.274388 0.104524
0.709438 0.301854 0.116396
0.728756 0.331060 0.131930
0.748898 0.363867 0.151034
0.770291 0.399969 0.175265
0.792935 0.439704 0.207095
0.074830 0.088624 0.096193
0.075654 0.089387 0.097383
0.077058 0.090608 0.098756
0.079042 0.092622 0.100526
0.082124 0.094179 0.100832
0.085145 0.093538 0.099611
0.099733 0.097963 0.096651
0.132845 0.108095 0.091188
0.166842 0.116091 0.087861
0.198245 0.119509 0.086030
0.232456 0.122103 0.083864
0.262852 0.123873 0.083436
0.295933 0.125277 0.082551
0.330571 0.126253 0.081331
0.365423 0.127199 0.079713
0.400916 0.128908 0.078096
0.435676 0.131777 0.076417
0.467597 0.136080 0.075074
0.497261 0.142031 0.074006
0.525841 0.150576 0.073548
0.553124 0.162112 0.073610
0.579309 0.176394 0.074159
0.619745 0.206455 0.076478
0.642451 0.226596 0.080903
0.663935 0.248173 0.086213
0.683864 0.271061 0.094392
0.702846 0.295445 0.104585
0.720912 0.321447 0.118044
0.739315 0.349706 0.134401
0.758755 0.381445 0.155032
0.779416 0.416419 0.180484
0.801358 0.454292 0.212924
0.078004 0.095064 0.099641
0.078767 0.096040 0.100526
0.080079 0.097475 0.102052
0.083680 0.100862 0.105898
0.087007 0.103944 0.107393
0.091249 0.105379 0.106966
0.094820 0.102937 0.104585
0.111727 0.107546 0.100679
0.153414 0.121492 0.093416
0.201572 0.134005 0.086824
0.247959 0.142367 0.081636
0.288609 0.144289 0.077699
0.330236 0.144686 0.073060
0.363165 0.144259 0.071473
0.395575 0.144533 0.069856
0.430243 0.146242 0.067414
0.461830 0.149111 0.065492
0.491035 0.153170 0.063996
0.518456 0.159518 0.063050
0.545006 0.168643 0.062715
0.571283 0.180850 0.062196
0.596857 0.195987 0.063172
0.621820 0.214176 0.065339
0.645350 0.234470 0.069581
0.667140 0.255955 0.076143
0.687190 0.278691 0.084321
0.705806 0.302159 0.095399
0.723415 0.327001 0.109804
0.741543 0.354406 0.126284
0.760739 0.384863 0.146212
0.781033 0.418555 0.171817
0.802762 0.455390 0.203861
0.081453 0.103792 0.103639
0.082734 0.105074 0.104891
0.084199 0.106569 0.106569
0.088106 0.110475 0.110384
0.093141 0.115389 0.114290
0.099001 0.120607 0.116609
0.104036 0.120027 0.114290
0.107301 0.115328 0.110597
0.124239 0.118593 0.106294
0.173404 0.136263 0.096895
0.236545 0.153780 0.085115
0.294621 0.165866 0.075868
0.344213 0.170169 0.068177
0.385504 0.169528 0.061402
0.426062 0.169162 0.049073
0.456580 0.169680 0.043519
0.484443 0.171237 0.040070
0.510643 0.174472 0.036378
0.535210 0.179812 0.035584
0.559380 0.188022 0.033753
0.583429 0.199008 0.034760
0.607233 0.213107 0.035828
0.630426 0.229740 0.040528
0.652644 0.248478 0.048524
0.673060 0.268467 0.060517
0.692012 0.289372 0.070527
0.709712 0.311376 0.083375
0.726772 0.334600 0.098299
0.744594 0.360845 0.115297
0.763424 0.389990 0.136080
0.783474 0.422370 0.161379
0.804959 0.457832 0.193179
0.086854 0.116121 0.109255
0.088258 0.117647 0.110628
0.089784 0.119570 0.112337
0.094026 0.123934 0.116426
0.101411 0.130892 0.123659
0.107820 0.137057 0.126711
0.116915 0.144533 0.129976
0.121523 0.139803 0.123903
0.123751 0.131594 0.118441
0.139101 0.131868 0.113466
0.195590 0.153384 0.101808
0.267674 0.174258 0.086671
0.338476 0.189670 0.070314
0.403082 0.202090 0.045838
0.443000 0.201572 0.026581
0.478950 0.201541 0.005859
0.510613 0.201724 0.000000
0.533501 0.203189 0.000000
0.555138 0.207065 0.000000
0.576715 0.213626 0.000000
0.598474 0.223026 0.000000
0.620172 0.235233 0.000000
0.641413 0.249943 0.000000
0.661616 0.266697 0.000122
0.680598 0.284489 0.016144
0.698146 0.303349 0.042939
0.715023 0.323308 0.065370
0.731289 0.344976 0.083436
0.748684 0.369574 0.101686
0.767117 0.397223 0.123415
0.786740 0.427924 0.149386
0.807858 0.461677 0.181155
0.094179 0.132876 0.116823
0.095369 0.134371 0.118257
0.097444 0.136660 0.120150
0.102113 0.141329 0.124575
0.110323 0.149111 0.132326
0.119661 0.157595 0.139071
0.129641 0.166873 0.143587
0.139895 0.172396 0.144808
0.143984 0.164614 0.136294
0.144320 0.152041 0.128328
0.155581 0.147097 0.121981
0.219242 0.172122 0.108125
0.300175 0.196689 0.089509
0.383124 0.216617 0.063325
0.446082 0.230625 0.017304
0.494514 0.239231 0.000000
0.525414 0.238865 0.000000
0.553002 0.239689 0.000000
0.577752 0.241978 0.000000
0.596429 0.245884 0.000000
0.615625 0.252720 0.000000
0.634730 0.262455 0.000000
0.653437 0.274266 0.000000
0.671351 0.287816 0.000000
0.688411 0.302861 0.000000
0.704677 0.319188 0.000000
0.720455 0.337041 0.013886
0.736385 0.357153 0.059266
0.753384 0.380194 0.083223
0.771542 0.406287 0.106844
0.791012 0.435492 0.134127
0.811948 0.467750 0.166964
0.103456 0.153567 0.126131
0.104921 0.155245 0.127565
0.107393 0.157534 0.129793
0.112398 0.162722 0.134554
0.121096 0.170840 0.142580
0.134188 0.182254 0.154025
0.145052 0.192508 0.159274
0.159731 0.205356 0.165866
0.168856 0.205722 0.162356
0.171878 0.193790 0.150820
0.169070 0.176211 0.140261
0.174319 0.164553 0.132601
0.246464 0.194156 0.116518
0.332982 0.221012 0.094636
0.418708 0.243412 0.060853
0.482490 0.259922 0.000000
0.534539 0.276280 0.000000
0.564904 0.279820 0.000000
0.588678 0.280186 0.000000
0.611261 0.282719 0.000000
0.632837 0.287388 0.000000
0.649836 0.293919 0.000000
0.666346 0.302708 0.000000
0.682399 0.313207 0.000000
0.697749 0.325444 0.000000
0.712612 0.339086 0.000000
0.727230 0.354406 0.000000
0.742519 0.372229 0.000000
0.758968 0.393194 0.049073
0.776577 0.417121 0.084199
0.795590 0.444190 0.114656
0.816068 0.474372 0.149477
0.115236 0.178866 0.137636
0.117067 0.180728 0.139376
0.119509 0.183261 0.141604
0.125154 0.188449 0.146578
0.134615 0.197208 0.155215
0.148989 0.209293 0.167544
0.163668 0.222141 0.177462
0.179294 0.236118 0.184756
0.199435 0.253361 0.193759
0.204379 0.244266 0.182803
0.205905 0.228336 0.168124
0.199832 0.205447 0.154574
0.202640 0.190249 0.147890
0.287205 0.225559 0.129091
0.379187 0.255375 0.102937
0.463508 0.280400 0.063447
0.529351 0.301396 0.000000
0.574945 0.318730 0.000000
0.611719 0.333837 0.000000
0.631983 0.333715 0.000000
0.651240 0.335393 0.000000
0.669551 0.338598 0.000000
0.686305 0.342840 0.000000
0.699428 0.349065 0.000000
0.712428 0.357397 0.000000
0.725399 0.367681 0.000000
0.738888 0.380346 0.000000
0.753384 0.395727 0.000000
0.768887 0.413977 0.000000
0.785641 0.435157 0.046815
0.803830 0.459419 0.093324
0.823636 0.487068 0.132204
0.131685 0.211734 0.152743
0.133730 0.213535 0.154513
0.136385 0.216068 0.157015
0.142550 0.221439 0.162203
0.152621 0.230045 0.171115
0.167575 0.242283 0.183658
0.187411 0.258122 0.199680
0.204013 0.272953 0.207462
0.226017 0.291905 0.217777
0.252140 0.311925 0.228000
0.252720 0.294163 0.209567
0.251743 0.273472 0.191043
0.240452 0.243381 0.173770
0.229831 0.214389 0.160311
0.312383 0.247593 0.140993
0.403967 0.279240 0.114199
0.485603 0.306035 0.075319
0.552056 0.329778 0.000000
0.595789 0.347997 0.000000
0.633234 0.366613 0.000000
0.658564 0.375006 0.000000
0.675654 0.375769 0.000000
0.691798 0.377478 0.000000
0.707271 0.380407 0.000000
0.721523 0.384558 0.000000
0.733639 0.391760 0.000000
0.746517 0.401862 0.000000
0.760281 0.414618 0.000000
0.775204 0.430274 0.000000
0.791501 0.449073 0.000000
0.809171 0.470893 0.036988
0.828672 0.496162 0.101167
0.149447 0.245060 0.168429
0.151553 0.247074 0.170321
0.154452 0.249485 0.172763
0.161135 0.255070 0.178347
0.171695 0.263767 0.187289
0.187259 0.276310 0.200137
0.209354 0.293492 0.217838
0.231235 0.311345 0.231937
0.254154 0.330419 0.243229
0.282353 0.352514 0.257206
0.302647 0.361639 0.259861
0.300328 0.340093 0.236454
0.295628 0.314488 0.212711
0.278447 0.277531 0.191043
0.261326 0.241794 0.174136
0.337011 0.269902 0.154208
0.426795 0.302953 0.126986
0.504601 0.330938 0.090364
0.568292 0.355810 0.000000
0.615320 0.377081 0.000000
0.650904 0.395697 0.000000
0.681178 0.412970 0.000000
0.697322 0.413855 0.000000
0.711940 0.414679 0.000000
0.726162 0.416602 0.000000
0.740810 0.420569 0.000000
0.755215 0.426642 0.000000
0.768399 0.436530 0.000000
0.782712 0.449592 0.000000
0.798398 0.465644 0.000000
0.815640 0.484840 0.000000
0.834592 0.507530 0.039307
0.171145 0.283604 0.186801
0.173342 0.285771 0.188724
0.176547 0.288182 0.191165
0.183780 0.294041 0.197116
0.195315 0.303288 0.206516
0.211643 0.315770 0.219821
0.234104 0.331731 0.237766
0.261601 0.350500 0.259129
0.284154 0.368048 0.271031
0.311284 0.388464 0.285313
0.342351 0.411231 0.302007
0.352514 0.408057 0.293278
0.346777 0.383459 0.265293
0.338933 0.354620 0.236393
0.317235 0.312413 0.209934
0.294316 0.270115 0.188815
0.360082 0.291783 0.168399
0.447639 0.326238 0.141817
0.522545 0.355718 0.107546
0.583856 0.382208 0.043946
0.633967 0.405890 0.000000
0.667109 0.423713 0.000000
0.695369 0.439582 0.000000
0.716732 0.449226 0.000000
0.730617 0.449561 0.000000
0.744961 0.452064 0.000000
0.759854 0.456214 0.000000
0.775601 0.462654 0.000000
0.791562 0.471992 0.000000
0.806821 0.485542 0.000000
0.823758 0.502342 0.000000
0.842557 0.522637 0.000000
0.196933 0.326116 0.207889
0.199557 0.328191 0.210025
0.202945 0.330663 0.212680
0.210575 0.336278 0.218692
0.222538 0.344732 0.228550
0.239933 0.356695 0.242466
0.262760 0.371252 0.260746
0.291478 0.388983 0.284215
0.317632 0.406683 0.301915
0.342901 0.425299 0.315892
0.371099 0.445441 0.331609
0.401862 0.466987 0.349340
0.399268 0.450324 0.326635
0.390173 0.423316 0.294957
0.378790 0.391241 0.260838
0.353613 0.345769 0.229557
0.326146 0.298192 0.204257
0.380774 0.312810 0.183322
0.467323 0.349462 0.157748
0.540215 0.381109 0.126162
0.599634 0.409064 0.079957
0.648768 0.433356 0.000000
0.682948 0.451026 0.000000
0.709499 0.465827 0.000000
0.733577 0.479896 0.000000
0.750301 0.484871 0.000000
0.764889 0.487800 0.000000
0.780240 0.492653 0.000000
0.796567 0.499611 0.000000
0.814084 0.508598 0.000000
0.831876 0.520867 0.000000
0.849973 0.538109 0.000000
0.225223 0.366888 0.230625
0.227665 0.368719 0.232609
0.231022 0.370825 0.235294
0.238743 0.375860 0.241581
0.251164 0.383612 0.251591
0.268589 0.393988 0.265537
0.290745 0.407019 0.283757
0.317876 0.422644 0.306035
0.347936 0.440314 0.330205
0.371099 0.456855 0.343511
0.396857 0.474952 0.358770
0.424475 0.493965 0.375402
0.448585 0.508812 0.387915
0.439307 0.485939 0.357031
0.428504 0.458320 0.323095
0.415320 0.425422 0.286320
0.387884 0.377752 0.250736
0.357946 0.327031 0.220798
0.401648 0.334203 0.199283
0.486580 0.372747 0.175174
0.556725 0.406012 0.145998
0.614435 0.434974 0.107118
0.661250 0.458473 0.010407
0.696925 0.475837 0.000000
0.722408 0.489906 0.000000
0.746792 0.504601 0.000000
0.769467 0.518425 0.000000
0.784421 0.521843 0.000000
0.800381 0.527367 0.000000
0.817472 0.534966 0.000000
0.836057 0.544671 0.000000
0.856474 0.556725 0.000000
0.256779 0.406500 0.255894
0.259678 0.408423 0.258366
0.273259 0.421485 0.269322
0.281132 0.425879 0.275731
0.293584 0.432441 0.285924
0.310277 0.441413 0.299718
0.331273 0.452522 0.317082
0.356146 0.465827 0.338018
0.384985 0.481147 0.362615
0.409583 0.496284 0.380468
0.432166 0.511681 0.394568
0.456184 0.528008 0.410071
0.480568 0.544610 0.426551
0.492134 0.547417 0.425818
0.481941 0.524376 0.393378
0.469734 0.496498 0.356725
0.455512 0.463569 0.317418
0.426978 0.415198 0.278294
0.394507 0.361273 0.242313
0.426429 0.359899 0.218601
0.508995 0.400183 0.196109
0.576379 0.434668 0.169131
0.631556 0.463539 0.135683
0.675410 0.485481 0.088930
0.710628 0.501213 0.000000
0.736812 0.515343 0.000000
0.761257 0.530144 0.000000
0.785183 0.545556 0.000000
0.804532 0.555322 0.000000
0.821103 0.561364 0.000000
0.839170 0.569512 0.000000
0.858824 0.579797 0.000000
0.293492 0.447089 0.285710
0.297429 0.449714 0.288823
0.302373 0.453162 0.293004
0.311009 0.458106 0.300145
0.323796 0.465156 0.310704
0.339849 0.473426 0.324041
0.359319 0.483253 0.340581
0.382147 0.494697 0.360113
0.408179 0.508049 0.382971
0.435157 0.522393 0.406653
0.455299 0.536034 0.419837
0.476448 0.550469 0.434211
0.498116 0.565362 0.449561
0.519646 0.580438 0.465400
0.521691 0.573754 0.452796
0.511101 0.550866 0.419623
0.499245 0.524041 0.382757
0.485176 0.492256 0.342626
0.457191 0.444953 0.301579
0.424445 0.390448 0.262547
0.445655 0.381109 0.236606
0.526177 0.423316 0.216464
0.591669 0.458656 0.191897
0.644678 0.487434 0.163699
0.686488 0.508324 0.127321
0.721004 0.524102 0.069642
0.750576 0.538994 0.000000
0.775601 0.554681 0.000000
0.800259 0.570794 0.000000
0.824704 0.587243 0.000000
0.842618 0.594568 0.000000
0.861479 0.603143 0.000000
0.327337 0.481422 0.313329
0.331121 0.483925 0.316442
0.335729 0.486763 0.320317
0.343786 0.491096 0.327001
0.355566 0.497169 0.337102
0.370092 0.504143 0.349554
0.388098 0.512718 0.365148
0.408728 0.522576 0.383368
0.432013 0.534081 0.404486
0.457435 0.546990 0.428260
0.478370 0.559899 0.445380
0.497017 0.572778 0.458900
0.516106 0.586084 0.472908
0.535393 0.599634 0.487587
0.554345 0.612726 0.502556
0.548638 0.598199 0.478828
0.538445 0.576318 0.446204
0.526909 0.550500 0.409400
0.513298 0.520012 0.368444
0.486610 0.474556 0.326390
0.454444 0.420691 0.284977
0.465400 0.403601 0.256535
0.543450 0.447120 0.239078
0.606897 0.482826 0.217411
0.657374 0.510643 0.193362
0.697414 0.530846 0.164218
0.731991 0.547204 0.123354
0.764950 0.562860 0.025940
0.790799 0.579431 0.000000
0.816281 0.596338 0.000000
0.841642 0.613245 0.000000
0.864042 0.626123 0.000000
0.361700 0.513909 0.341863
0.365118 0.516014 0.344762
0.369207 0.518334 0.348394
0.376684 0.522179 0.354803
0.387549 0.527398 0.364294
0.400793 0.533410 0.376013
0.416876 0.540673 0.390326
0.435370 0.549279 0.407294
0.456123 0.559228 0.426917
0.478248 0.570459 0.448615
0.500511 0.582696 0.470497
0.516991 0.594110 0.482887
0.533867 0.605829 0.495827
0.550835 0.617548 0.509422
0.567803 0.629206 0.523491
0.581170 0.637293 0.532677
0.573144 0.620783 0.504692
0.564599 0.601221 0.473457
0.554162 0.577234 0.437568
0.541924 0.548974 0.397681
0.517357 0.506432 0.355505
0.486885 0.454322 0.311681
0.488533 0.429847 0.280278
0.563867 0.474739 0.266484
0.624964 0.510491 0.249149
0.672572 0.537163 0.229618
0.710964 0.556909 0.206332
0.746548 0.574792 0.174746
0.780880 0.591699 0.127626
0.810056 0.608667 0.101015
0.836271 0.625727 0.102144
0.861784 0.642176 0.107149
0.400610 0.548241 0.375311
0.403143 0.549554 0.377600
0.406256 0.551049 0.380255
0.412390 0.553826 0.385870
0.421424 0.557763 0.394141
0.432990 0.562737 0.404822
0.447120 0.569024 0.418097
0.463416 0.576562 0.433875
0.481880 0.585443 0.452094
0.501427 0.595392 0.472084
0.522179 0.606317 0.493874
0.539208 0.616846 0.509697
0.554009 0.626947 0.521813
0.568872 0.636988 0.534447
0.583612 0.647028 0.547478
0.598230 0.657099 0.560876
0.604303 0.658106 0.559869
0.596948 0.643030 0.532494
0.589044 0.624964 0.501640
0.579950 0.603052 0.466560
0.568566 0.576440 0.426886
0.544762 0.535393 0.383886
0.515679 0.485389 0.338201
0.508263 0.453376 0.302953
0.580926 0.498360 0.292241
0.639216 0.533562 0.278874
0.684474 0.559442 0.263859
0.722744 0.580194 0.245731
0.759426 0.599817 0.221073
0.795010 0.618067 0.186709
0.827451 0.634394 0.149172
0.854002 0.651728 0.157198
0.433356 0.576165 0.404547
0.435523 0.577295 0.406622
0.438392 0.578698 0.409308
0.443885 0.581079 0.414496
0.451728 0.584497 0.422034
0.461707 0.588800 0.431830
0.474006 0.594232 0.443946
0.488075 0.600671 0.458198
0.504112 0.608179 0.474800
0.521355 0.616632 0.493172
0.539696 0.625818 0.513176
0.557824 0.635431 0.533165
0.570794 0.644221 0.544366
0.583978 0.653040 0.556176
0.597101 0.661921 0.568261
0.610071 0.670863 0.580499
0.622950 0.679988 0.592615
0.623407 0.675471 0.583001
0.616815 0.661738 0.557580
0.609888 0.645411 0.527794
0.602136 0.625788 0.494087
0.592523 0.601770 0.455573
0.570825 0.563531 0.413001
0.543420 0.516106 0.366339
0.526513 0.475807 0.325597
0.596918 0.520745 0.318059
0.652552 0.555322 0.308965
0.695918 0.580987 0.298680
0.735042 0.603662 0.286015
0.772793 0.624933 0.268101
0.808713 0.643854 0.243229
0.843259 0.660822 0.210269
0.467628 0.605310 0.437171
0.469642 0.606348 0.439155
0.472023 0.607446 0.441566
0.476570 0.609369 0.446174
0.483070 0.611994 0.452766
0.491524 0.615473 0.461524
0.501823 0.619776 0.472358
0.513939 0.624964 0.485176
0.527489 0.630854 0.499886
0.542351 0.637629 0.516350
0.558160 0.645106 0.534295
0.574609 0.653162 0.553582
0.587854 0.660945 0.567468
0.599115 0.668482 0.577752
0.610376 0.676143 0.588159
0.621759 0.684169 0.598657
0.633326 0.692683 0.609186
0.645075 0.701534 0.619776
0.640650 0.691707 0.603265
0.634028 0.678157 0.579767
0.627741 0.663142 0.551873
0.621088 0.645441 0.519402
0.612909 0.623590 0.481910
0.593347 0.588190 0.440162
0.567773 0.543389 0.393133
0.552422 0.505882 0.353063
0.614374 0.544854 0.346990
0.666651 0.578393 0.342840
0.709102 0.604517 0.337163
0.748836 0.628595 0.329320
0.786770 0.650904 0.318425
0.823270 0.671412 0.305150
0.495064 0.628321 0.464912
0.496834 0.629236 0.466773
0.498909 0.630243 0.468940
0.502800 0.631800 0.473091
0.508537 0.634028 0.479194
0.516045 0.636957 0.487343
0.525078 0.640620 0.497230
0.535668 0.644984 0.508965
0.547814 0.650080 0.522667
0.561089 0.655909 0.538018
0.575189 0.662348 0.554681
0.589899 0.669368 0.572442
0.604181 0.676905 0.589654
0.614252 0.683955 0.598901
0.624537 0.691402 0.608270
0.635035 0.699245 0.617700
0.645686 0.707393 0.627131
0.656611 0.715877 0.636652
0.665553 0.722072 0.642847
0.659388 0.710048 0.624689
0.652827 0.696742 0.603388
0.646204 0.682033 0.578027
0.639796 0.665370 0.547204
0.632990 0.645808 0.511070
0.616114 0.613886 0.470710
0.594232 0.573480 0.424567
0.580346 0.538354 0.384100
0.632563 0.570245 0.379736
0.681575 0.602777 0.380743
0.723964 0.630060 0.379644
0.764279 0.655879 0.378210
0.802823 0.680049 0.377111
0.521599 0.650080 0.493233
0.523064 0.650782 0.494911
0.524804 0.651453 0.496742
0.527947 0.652644 0.500267
0.532860 0.654414 0.505730
0.539239 0.656764 0.512932
0.547112 0.659754 0.521965
0.556481 0.663416 0.532769
0.567163 0.667720 0.545312
0.578943 0.672694 0.559350
0.591424 0.678309 0.574548
0.604456 0.684810 0.590356
0.617823 0.692164 0.606653
0.628870 0.699458 0.618372
0.638178 0.706569 0.626673
0.647730 0.713985 0.635004
0.657557 0.721736 0.643427
0.667720 0.729732 0.652125
0.678340 0.738094 0.661311
0.682948 0.739284 0.661006
0.677058 0.727687 0.643793
0.670710 0.714717 0.624323
0.664057 0.700313 0.601221
0.657282 0.684077 0.573144
0.650507 0.665583 0.539300
0.636225 0.637171 0.500450
0.618036 0.601221 0.456153
0.606989 0.570031 0.417090
0.649348 0.594263 0.413001
0.695857 0.626307 0.418463
0.739010 0.655787 0.423560
0.779995 0.683680 0.430182
0.545434 0.669093 0.519890
0.546654 0.669612 0.521294
0.548119 0.670161 0.523003
0.550927 0.671199 0.526238
0.555322 0.672786 0.531395
0.561303 0.674983 0.538354
0.568750 0.677852 0.547234
0.577508 0.681422 0.557794
0.587549 0.685817 0.569848
0.598474 0.690974 0.583032
0.610040 0.696925 0.597070
0.622065 0.703578 0.611658
0.634424 0.711025 0.626490
0.646693 0.718898 0.640864
0.655360 0.725917 0.648463
0.664271 0.732967 0.656214
0.673610 0.740291 0.664332
0.683192 0.747799 0.672786
0.693202 0.755520 0.681727
0.703487 0.763424 0.690913
0.704036 0.760189 0.684504
0.698390 0.749111 0.667323
0.692378 0.736751 0.648615
0.685847 0.722835 0.627924
0.679011 0.707393 0.603296
0.671504 0.689418 0.573205
0.658106 0.663111 0.536767
0.643244 0.631586 0.494331
0.635126 0.604639 0.457588
0.669276 0.623163 0.455177
0.715663 0.656794 0.466407
0.759640 0.688624 0.479164
0.571893 0.689662 0.550835
0.572869 0.690089 0.552026
0.573968 0.690517 0.553368
0.576440 0.691371 0.556268
0.580224 0.692775 0.560784
0.585107 0.694667 0.566705
0.591394 0.697261 0.574243
0.598718 0.700465 0.583124
0.607172 0.704433 0.593347
0.616449 0.709102 0.604547
0.626398 0.714412 0.616541
0.636957 0.720516 0.629145
0.647883 0.727291 0.642115
0.659327 0.734676 0.655634
