data/fiter_cube/25649002/1023279/file.cube
# Created by Adobe Lightroom plugin Export LUT (1.17.0)
# www.johnrellis.com/lightroom/exportlut.htm
# Preset: 高级电影质感情绪胶片_09 云集
# Color profile: C:\Program Files (x86)\Common Files\Adobe\Color\Profiles\Recommended\AdobeRGB1998.icc
LUT_3D_SIZE 8
DOMAIN_MIN 0.000000 0.000000 0.000000
DOMAIN_MAX 0.903226 0.903226 0.903226
0.068147 0.076265 0.088075
0.082033 0.080354 0.090272
0.135317 0.090425 0.093233
0.245457 0.101534 0.093660
0.397009 0.107454 0.090639
0.534997 0.138338 0.089723
0.642206 0.216556 0.100099
0.727108 0.327672 0.142184
0.072877 0.084291 0.093690
0.078767 0.087129 0.096223
0.161746 0.104311 0.087984
0.273747 0.113832 0.087617
0.419013 0.121035 0.082490
0.542809 0.150698 0.080659
0.645502 0.224552 0.089387
0.728756 0.331060 0.131930
0.086854 0.116121 0.109255
0.101411 0.130892 0.123659
0.123751 0.131594 0.118441
0.338476 0.189670 0.070314
0.510613 0.201724 0.000000
0.598474 0.223026 0.000000
0.680598 0.284489 0.016144
0.748684 0.369574 0.101686
0.131685 0.211734 0.152743
0.152621 0.230045 0.171115
0.226017 0.291905 0.217777
0.240452 0.243381 0.173770
0.485603 0.306035 0.075319
0.658564 0.375006 0.000000
0.721523 0.384558 0.000000
0.775204 0.430274 0.000000
0.225223 0.366888 0.230625
0.251164 0.383612 0.251591
0.347936 0.440314 0.330205
0.448585 0.508812 0.387915
0.387884 0.377752 0.250736
0.556725 0.406012 0.145998
0.722408 0.489906 0.000000
0.800381 0.527367 0.000000
0.361700 0.513909 0.341863
0.387549 0.527398 0.364294
0.456123 0.559228 0.426917
0.533867 0.605829 0.495827
0.573144 0.620783 0.504692
0.517357 0.506432 0.355505
0.624964 0.510491 0.249149
0.780880 0.591699 0.127626
0.495064 0.628321 0.464912
0.508537 0.634028 0.479194
0.547814 0.650080 0.522667
0.604181 0.676905 0.589654
0.645686 0.707393 0.627131
0.652827 0.696742 0.603388
0.616114 0.613886 0.470710
0.681575 0.602777 0.380743
0.593042 0.707607 0.575769
0.600275 0.710597 0.584497
0.624323 0.722011 0.613581
0.661707 0.744106 0.658106
0.697017 0.767391 0.695674
0.734188 0.795163 0.729824
0.727596 0.771542 0.687343
0.695613 0.705379 0.592370
0.070130 0.080507 0.098085
0.084382 0.080537 0.100771
0.121065 0.097475 0.109895
0.229526 0.112764 0.113863
0.378119 0.123995 0.114412
0.513725 0.149508 0.115602
0.626490 0.218570 0.126070
0.717372 0.326818 0.162905
0.072877 0.086610 0.098360
0.082246 0.093385 0.106722
0.145663 0.106386 0.107301
0.257572 0.121828 0.109041
0.402045 0.133761 0.108278
0.526848 0.160830 0.108919
0.632074 0.227085 0.118044
0.719142 0.329625 0.153536
0.087892 0.118685 0.113710
0.104311 0.134951 0.131441
0.131960 0.142977 0.134615
0.339666 0.193362 0.090425
0.489174 0.198672 0.071443
0.581903 0.221988 0.074739
0.665736 0.279728 0.087709
0.738247 0.365026 0.130129
0.132326 0.210910 0.157961
0.154513 0.230350 0.178012
0.229953 0.292546 0.231510
0.241733 0.247257 0.187045
0.478614 0.304387 0.098848
0.642847 0.361151 0.000000
0.709316 0.375799 0.000000
0.765591 0.424475 0.008606
0.226841 0.365545 0.237003
0.251041 0.380591 0.256443
0.342687 0.433661 0.331395
0.445289 0.504295 0.394965
0.385626 0.377844 0.261143
0.555901 0.407904 0.160464
0.719112 0.489631 0.000000
0.795132 0.523186 0.000000
0.357305 0.508263 0.342016
0.378454 0.518029 0.360021
0.446143 0.550103 0.420661
0.528099 0.598993 0.493996
0.572564 0.620294 0.510887
0.517632 0.508354 0.364691
0.626062 0.513725 0.260044
0.779904 0.591882 0.146426
0.487678 0.622187 0.459510
0.499489 0.626612 0.471717
0.540032 0.643793 0.515557
0.598993 0.672175 0.584833
0.643153 0.704341 0.626246
0.651942 0.696132 0.605921
0.613581 0.611994 0.472450
0.679927 0.601221 0.381720
0.588464 0.704250 0.571374
0.596216 0.707546 0.580652
0.620813 0.719173 0.610224
0.658625 0.741421 0.655207
0.698878 0.768978 0.699275
0.734981 0.795773 0.732082
0.727993 0.772244 0.689967
0.694423 0.704524 0.593164
0.069551 0.088624 0.129854
0.081178 0.086580 0.142245
0.166018 0.084810 0.151095
0.190707 0.146914 0.168124
0.327398 0.167880 0.179385
0.479316 0.195132 0.186709
0.603723 0.253086 0.199222
0.703090 0.354406 0.236973
0.081971 0.105104 0.130678
0.086366 0.107027 0.145846
0.164096 0.108583 0.157290
0.199710 0.159152 0.175875
0.352331 0.174472 0.178561
0.493874 0.202213 0.183352
0.611109 0.260075 0.194583
0.706691 0.358343 0.230900
0.088289 0.131319 0.136965
0.101839 0.141115 0.147463
0.154482 0.175906 0.184543
0.311681 0.200168 0.172366
0.445350 0.217441 0.171359
0.552972 0.246250 0.172488
0.645350 0.301549 0.182101
0.723568 0.384619 0.215976
0.127565 0.208682 0.164614
0.148531 0.227665 0.184512
0.235111 0.294865 0.259495
0.275517 0.286503 0.242771
0.512413 0.341253 0.168368
0.631678 0.365728 0.140475
0.694697 0.387915 0.148440
0.753902 0.438911 0.181827
0.215183 0.355108 0.239536
0.242374 0.372900 0.262150
0.334936 0.427741 0.337865
0.449226 0.503319 0.422095
0.410651 0.409033 0.315557
0.578668 0.441291 0.219730
0.722499 0.507988 0.153017
0.789303 0.525841 0.129702
0.347784 0.500603 0.344152
0.371038 0.511437 0.363867
0.438758 0.543603 0.423377
0.525505 0.592645 0.504875
0.581903 0.630060 0.543053
0.525078 0.521599 0.400061
0.636255 0.531853 0.302708
0.782986 0.604852 0.228092
0.481880 0.618402 0.460700
0.494697 0.623316 0.473732
0.534112 0.639765 0.515068
0.591943 0.667262 0.580621
0.641199 0.701198 0.630915
0.657588 0.703151 0.624933
0.618128 0.620813 0.497108
0.688258 0.614893 0.411719
0.581598 0.700587 0.567132
0.588281 0.703120 0.574823
0.613123 0.714168 0.604181
0.652399 0.737087 0.650324
0.696834 0.766476 0.701198
0.734676 0.795193 0.735927
0.732113 0.777462 0.702449
0.696803 0.708949 0.604883
0.055573 0.106630 0.200137
0.071565 0.106020 0.215763
0.179324 0.080354 0.268589
0.343786 0.070008 0.252140
0.352850 0.185458 0.237278
0.381567 0.250767 0.266331
0.538476 0.291691 0.284459
0.663813 0.380591 0.324102
0.085664 0.136812 0.206180
0.085664 0.131441 0.221225
0.175235 0.113588 0.271702
0.344244 0.116243 0.260075
0.344945 0.206729 0.246128
0.403021 0.256840 0.269444
0.550103 0.298497 0.284672
0.669459 0.384802 0.321355
0.105318 0.178866 0.207279
0.121706 0.187381 0.217411
0.169894 0.208011 0.264897
0.323400 0.221958 0.279484
0.336553 0.272282 0.283482
0.479683 0.291569 0.282811
0.597345 0.337926 0.292485
0.693050 0.412268 0.320409
0.125551 0.231785 0.216007
0.142672 0.242008 0.226383
0.207767 0.279973 0.265782
0.318059 0.340581 0.330449
0.492500 0.364141 0.299321
0.578149 0.375647 0.289708
0.655451 0.404913 0.287877
0.725307 0.457191 0.308873
0.192325 0.340978 0.242405
0.217868 0.352544 0.259617
0.302068 0.403906 0.327367
0.435004 0.484932 0.436347
0.442573 0.451484 0.391363
0.611017 0.492226 0.319219
0.709987 0.518730 0.293004
0.770169 0.532189 0.284367
0.327184 0.486122 0.342504
0.351812 0.499184 0.362585
0.418799 0.530938 0.418708
0.510674 0.580804 0.502953
0.590692 0.638270 0.577020
0.541863 0.547539 0.456550
0.655726 0.563653 0.372564
0.786496 0.625086 0.336339
0.463813 0.607141 0.454353
0.477699 0.612970 0.467506
0.519524 0.631220 0.508873
0.578973 0.659632 0.572503
0.637964 0.696559 0.637507
0.669703 0.717861 0.655665
0.624201 0.633234 0.532097
0.700954 0.633570 0.451972
0.572595 0.695521 0.563928
0.579797 0.698482 0.571954
0.602136 0.708309 0.596918
0.639033 0.728420 0.638880
0.688167 0.759670 0.696040
0.732326 0.792752 0.739742
0.739498 0.786618 0.723232
0.700069 0.715114 0.621576
0.000000 0.142000 0.304784
0.041108 0.142000 0.319310
0.156802 0.130404 0.366644
0.367010 0.033936 0.410437
0.519463 0.126497 0.374701
0.512078 0.258640 0.338506
0.492775 0.338567 0.356970
0.591547 0.417029 0.406653
0.080171 0.175265 0.309026
0.079255 0.168917 0.323186
0.161746 0.160464 0.368017
0.366735 0.108156 0.415473
0.516777 0.170474 0.380407
0.505547 0.277409 0.344030
0.485573 0.348180 0.361639
0.600488 0.421302 0.407660
0.143435 0.228305 0.289281
0.156497 0.238621 0.306126
0.187259 0.246220 0.362158
0.359350 0.222873 0.428016
0.507134 0.275303 0.398505
0.480415 0.328832 0.360632
0.489021 0.372808 0.374792
0.627893 0.435279 0.408667
0.152255 0.301091 0.314977
0.171511 0.308690 0.323308
0.239139 0.335027 0.352209
0.340063 0.374548 0.414008
0.466499 0.394018 0.417792
0.465522 0.403479 0.399725
0.574640 0.419989 0.394568
0.673091 0.466682 0.408392
0.196017 0.364416 0.319371
0.215549 0.372686 0.328557
0.280583 0.398962 0.359380
0.383124 0.448676 0.415015
0.471443 0.492683 0.466621
0.601892 0.510704 0.432136
0.662654 0.508324 0.411902
0.726253 0.529107 0.409339
0.289860 0.464668 0.346441
0.307774 0.472419 0.356847
0.366094 0.496193 0.392523
0.462440 0.544152 0.469734
0.561089 0.607172 0.562829
0.555901 0.571374 0.511284
0.679591 0.598840 0.453071
0.780240 0.631281 0.432776
0.430915 0.585534 0.438880
0.443854 0.590753 0.450050
0.485725 0.609125 0.487678
0.547387 0.638972 0.547478
0.614435 0.676631 0.619226
0.676539 0.726955 0.680995
0.629480 0.645838 0.569512
0.719844 0.656489 0.497810
0.550652 0.682734 0.549493
0.557671 0.685206 0.556817
0.580835 0.694362 0.581231
0.618158 0.714168 0.621698
0.664088 0.743282 0.672297
0.722866 0.784024 0.737362
0.750210 0.799435 0.750881
0.702449 0.720882 0.639216
0.000000 0.198428 0.424598
0.066316 0.198367 0.434699
0.171267 0.192630 0.468177
0.358099 0.146029 0.522698
0.536461 0.134554 0.528405
0.629480 0.270756 0.490272
0.633570 0.372076 0.456397
0.636835 0.448280 0.469123
0.093843 0.226749 0.422614
0.100984 0.221988 0.432349
0.180423 0.217441 0.464668
0.352056 0.183108 0.517998
0.535058 0.174472 0.530663
0.626337 0.293034 0.492592
0.628809 0.382025 0.457679
0.632074 0.453437 0.470619
0.186313 0.298314 0.409155
0.199405 0.303655 0.421851
0.223484 0.297032 0.459174
0.347845 0.287083 0.511528
0.530632 0.282017 0.539788
0.620111 0.365362 0.505211
0.615320 0.417029 0.465919
0.616785 0.472267 0.477821
0.220768 0.356756 0.402289
0.237247 0.361608 0.407416
0.292576 0.379644 0.426581
0.364385 0.409430 0.496193
0.519982 0.409308 0.552911
0.608820 0.458045 0.524834
0.590356 0.464118 0.478737
0.585687 0.495705 0.486183
0.244388 0.439948 0.427222
0.261448 0.444617 0.432563
0.316197 0.460121 0.450629
0.397528 0.484840 0.480598
0.485115 0.517388 0.533928
0.570581 0.527794 0.531579
0.554406 0.510430 0.496712
0.652186 0.532464 0.501335
0.302708 0.490089 0.425666
0.318120 0.495338 0.432319
0.365087 0.510033 0.452522
0.434791 0.534051 0.485786
0.513878 0.572503 0.533837
0.578851 0.606378 0.578180
0.674617 0.614618 0.546899
0.733364 0.611688 0.524193
0.404608 0.576867 0.459266
0.416510 0.581262 0.466224
0.452338 0.594324 0.487526
0.504540 0.615625 0.521874
0.577447 0.650141 0.587701
0.651118 0.700526 0.666102
0.639857 0.665278 0.616419
0.752224 0.692164 0.566308
0.520653 0.668177 0.532341
0.528008 0.669612 0.538079
0.552087 0.678126 0.561395
0.589960 0.694911 0.599756
0.635584 0.722072 0.647852
0.694942 0.762722 0.712856
0.763119 0.813657 0.781369
0.708186 0.731197 0.665095
0.149477 0.279820 0.535485
0.172335 0.281224 0.543450
0.242466 0.277409 0.564782
0.373510 0.258915 0.600885
0.550286 0.207401 0.642573
0.637385 0.295781 0.611322
0.698848 0.408026 0.582971
0.716854 0.494820 0.569451
0.172427 0.298466 0.527947
0.185092 0.296910 0.535851
0.246006 0.293828 0.557519
0.367193 0.278233 0.593317
0.542382 0.229404 0.637507
0.630823 0.305089 0.606958
0.693263 0.409491 0.578485
0.710567 0.491157 0.563348
0.260380 0.375280 0.519982
0.273350 0.378637 0.528740
0.281163 0.359472 0.550530
0.373327 0.353277 0.586481
0.527001 0.328099 0.630823
0.628565 0.369818 0.615900
0.690669 0.455879 0.589105
0.706447 0.516716 0.572137
0.299474 0.417823 0.487129
0.308690 0.421820 0.493324
0.343633 0.439765 0.522515
0.391760 0.446082 0.571557
0.504753 0.442634 0.619776
0.630091 0.457649 0.636347
0.686854 0.518822 0.606073
0.695277 0.546899 0.579767
0.317357 0.484077 0.502525
0.326818 0.484932 0.504143
0.360998 0.490120 0.512078
0.416358 0.500816 0.528374
0.483711 0.525933 0.590936
0.608606 0.533196 0.639948
0.673518 0.571984 0.616144
0.671870 0.572900 0.581170
0.347692 0.557214 0.526055
0.357916 0.558892 0.528740
0.391516 0.564477 0.537926
0.443427 0.574701 0.554589
0.505272 0.588556 0.577783
0.580224 0.617151 0.627314
0.648615 0.627253 0.627375
0.626856 0.600488 0.585168
0.409644 0.595850 0.525597
0.419013 0.598596 0.529686
0.446265 0.605432 0.541070
0.488899 0.617395 0.560723
0.541924 0.633509 0.587915
0.603876 0.661616 0.628992
0.655451 0.690394 0.667933
0.745846 0.695766 0.637140
0.495552 0.660365 0.554589
0.501732 0.662104 0.558190
0.526482 0.670893 0.574090
0.560174 0.682216 0.596094
0.599908 0.699062 0.624750
0.653529 0.730098 0.674861
0.732174 0.786435 0.759915
0.717586 0.747311 0.703120
0.293187 0.388617 0.632471
0.305943 0.388830 0.636713
0.345617 0.382544 0.647669
0.425269 0.372137 0.668605
0.537835 0.349157 0.696925
0.654566 0.349798 0.716030
0.712551 0.434363 0.686549
0.765713 0.521447 0.672450
0.298711 0.399725 0.627680
0.309575 0.399359 0.631983
0.347295 0.394263 0.643671
0.422461 0.384009 0.664424
0.532677 0.363378 0.693050
0.650904 0.360754 0.714168
0.709499 0.439490 0.685054
0.763668 0.524895 0.671687
0.351873 0.456733 0.616480
0.352514 0.452186 0.620783
0.358160 0.433783 0.633173
0.425238 0.431891 0.657588
0.523461 0.417700 0.686305
0.643336 0.405585 0.713954
0.705074 0.469673 0.687922
0.761715 0.546654 0.676844
0.367773 0.490608 0.589380
0.377142 0.494423 0.595636
0.405463 0.502586 0.614099
0.430793 0.492042 0.642908
0.510033 0.488014 0.674739
0.629816 0.475593 0.714778
0.700008 0.518578 0.696559
0.761044 0.582055 0.687831
0.389014 0.532372 0.577050
0.396033 0.533288 0.578943
0.414527 0.531731 0.581506
0.445991 0.539544 0.604608
0.496529 0.548272 0.652186
0.593896 0.549615 0.697292
0.697414 0.570947 0.713619
0.757076 0.618647 0.697627
0.413642 0.594202 0.595392
0.417914 0.593469 0.595605
0.434058 0.592096 0.597650
0.462959 0.591180 0.603265
0.504387 0.591119 0.613336
0.570794 0.616327 0.671473
0.688441 0.635950 0.731167
0.754543 0.662837 0.712459
0.451575 0.655940 0.619898
0.455634 0.656184 0.620905
0.470497 0.657343 0.624872
0.499214 0.659266 0.632074
0.539757 0.663020 0.643732
0.589349 0.671107 0.662135
0.646967 0.690639 0.707942
0.730861 0.704250 0.716365
0.511528 0.685359 0.621698
0.514824 0.685573 0.622705
0.527611 0.687434 0.627558
0.551080 0.692287 0.637934
0.582330 0.700282 0.653315
0.619928 0.713588 0.675196
0.672267 0.738979 0.711940
0.734463 0.774197 0.761013
