data/fiter_cube/25649002/1023279/file.cube
# Created by Adobe Lightroom plugin Export LUT (1.17.0)
# www.johnrellis.com/lightroom/exportlut.htm
# Preset: 高级电影质感情绪胶片_09 云集
# Color profile: C:\Program Files (x86)\Common Files\Adobe\Color\Profiles\Recommended\AdobeRGB1998.icc
LUT_3D_SIZE 5
DOMAIN_MIN 0.000000 0.000000 0.000000
DOMAIN_MAX 0.903226 0.903226 0.903226
0.068147 0.076265 0.088075
0.116548 0.087556 0.092836
0.319158 0.104524 0.092470
0.564324 0.153872 0.090944
0.727108 0.327672 0.142184
0.081453 0.103792 0.103639
0.107301 0.115328 0.110597
0.426062 0.169162 0.049073
0.607233 0.213107 0.035828
0.744594 0.360845 0.115297
0.171145 0.283604 0.186801
0.261601 0.350500 0.259129
0.317235 0.312413 0.209934
0.667109 0.423713 0.000000
0.791562 0.471992 0.000000
0.400610 0.548241 0.375311
0.463416 0.576562 0.433875
0.583612 0.647028 0.547478
0.544762 0.535393 0.383886
0.759426 0.599817 0.221073
0.593042 0.707607 0.575769
0.616876 0.718196 0.604547
0.680415 0.754513 0.680537
0.742336 0.800534 0.736202
0.695613 0.705379 0.592370
0.070619 0.086030 0.118135
0.136049 0.084260 0.133303
0.263310 0.145724 0.157534
0.520836 0.190555 0.166751
0.706538 0.343023 0.212802
0.082918 0.115175 0.123598
0.127962 0.146456 0.157992
0.365789 0.181064 0.149691
0.570153 0.231235 0.153353
0.723171 0.369482 0.197848
0.167239 0.278691 0.196750
0.254459 0.342626 0.269902
0.334203 0.335851 0.258396
0.665339 0.436316 0.106386
0.777768 0.475715 0.106844
0.394324 0.541588 0.379828
0.456886 0.569909 0.436805
0.581903 0.642786 0.557458
0.550713 0.546685 0.416327
0.763455 0.609857 0.268223
0.586114 0.703609 0.571221
0.610346 0.714076 0.599939
0.677790 0.753536 0.679683
0.745266 0.803128 0.744411
0.697902 0.709682 0.603937
0.027619 0.122103 0.249454
0.126650 0.113863 0.300725
0.441382 0.077546 0.313817
0.417334 0.280583 0.303685
0.633783 0.398932 0.368902
0.121309 0.189639 0.241794
0.148104 0.200870 0.300603
0.434821 0.211795 0.335698
0.426490 0.315587 0.323980
0.658289 0.416876 0.368078
0.154818 0.296605 0.265843
0.218082 0.328191 0.299687
0.401404 0.422126 0.402502
0.607630 0.446876 0.357336
0.725704 0.493599 0.359014
0.345586 0.506859 0.364355
0.405890 0.534142 0.413581
0.554131 0.615534 0.550958
0.570428 0.580865 0.499855
0.777310 0.640711 0.398322
0.561791 0.688869 0.556298
0.585504 0.698695 0.582147
0.650813 0.735164 0.654627
0.739254 0.797330 0.748989
0.700160 0.716701 0.628626
0.031952 0.214511 0.451087
0.151186 0.212192 0.481270
0.469001 0.117464 0.567102
0.648890 0.304936 0.514549
0.659327 0.459632 0.491646
0.184909 0.299992 0.442542
0.202029 0.287602 0.474372
0.452827 0.252903 0.561028
0.641779 0.368353 0.523674
0.647211 0.472053 0.492653
0.246525 0.405798 0.430915
0.296422 0.419776 0.446174
0.424598 0.464271 0.525902
0.612970 0.496864 0.542443
0.595361 0.513909 0.503746
0.332738 0.520562 0.453346
0.372961 0.531304 0.469429
0.482368 0.568353 0.522545
0.599695 0.629175 0.602197
0.734524 0.631312 0.551598
0.511162 0.667933 0.534112
0.534447 0.673762 0.551171
0.604303 0.701778 0.616907
0.704341 0.769009 0.724971
0.709834 0.734218 0.672877
0.293187 0.388617 0.632471
0.332097 0.384405 0.644007
0.478004 0.362951 0.681788
0.675044 0.368078 0.714076
0.765713 0.521447 0.672450
0.338476 0.441840 0.621210
0.346838 0.425818 0.634241
0.471870 0.411994 0.673610
0.666712 0.407385 0.712276
0.762905 0.541161 0.676020
0.379583 0.502922 0.569757
0.396551 0.509880 0.586572
0.461616 0.517693 0.645594
0.643427 0.508598 0.714931
0.758907 0.599298 0.692073
0.426062 0.613062 0.604028
0.441169 0.611902 0.605982
0.493202 0.611536 0.616846
0.590326 0.635004 0.679194
0.751766 0.673548 0.714992
0.511528 0.685359 0.621698
0.523369 0.686702 0.625818
0.565942 0.695857 0.644953
0.630884 0.718257 0.682307
0.734463 0.774197 0.761013
