data/fiter_cube/25649002/1023272/file.cube
# Created by Adobe Lightroom plugin Export LUT (1.17.0)
# www.johnrellis.com/lightroom/exportlut.htm
# Preset: 高级电影质感情绪胶片_02 云集
# Color profile: C:\Program Files (x86)\Common Files\Adobe\Color\Profiles\Recommended\AdobeRGB1998.icc
LUT_3D_SIZE 5
DOMAIN_MIN 0.000000 0.000000 0.000000
DOMAIN_MAX 0.903226 0.903226 0.903226
0.067170 0.076387 0.088075
0.448737 0.115541 0.083925
0.724819 0.365209 0.168917
0.806302 0.560021 0.364721
0.831724 0.666438 0.508476
0.242374 0.406256 0.241886
0.419074 0.423163 0.277073
0.782437 0.506432 0.000000
0.821347 0.590967 0.328923
0.836728 0.678218 0.496284
0.594751 0.717556 0.604639
0.665949 0.758968 0.688533
0.665034 0.698970 0.596521
0.822629 0.724788 0.427802
0.847379 0.725704 0.460151
0.689296 0.813840 0.723903
0.712612 0.829252 0.761410
0.746242 0.867948 0.825162
0.737148 0.797635 0.718318
0.808133 0.815518 0.654078
0.726345 0.865141 0.788724
0.736172 0.872801 0.810880
0.754086 0.896117 0.864012
0.760128 0.912688 0.884855
0.764340 0.878172 0.826932
0.000000 0.150546 0.345525
0.546136 0.186648 0.418128
0.637110 0.479774 0.438117
0.765225 0.606104 0.514855
0.812863 0.691524 0.588769
0.246708 0.422827 0.368994
0.496529 0.543786 0.512505
0.709865 0.573480 0.468879
0.783810 0.633906 0.511223
0.817838 0.701747 0.583246
0.581811 0.705013 0.604364
0.652949 0.745174 0.683925
0.668696 0.712398 0.642267
0.805478 0.748043 0.562463
0.828428 0.748531 0.578882
0.686885 0.810147 0.726131
0.710323 0.825620 0.762448
0.746059 0.866972 0.831083
0.737392 0.804257 0.739071
0.803403 0.824033 0.687282
0.724514 0.863523 0.787472
0.734585 0.871122 0.809232
0.753658 0.895567 0.863615
0.760250 0.914305 0.888579
0.763882 0.881407 0.834745
0.322179 0.426978 0.643305
0.495644 0.441199 0.690059
0.731472 0.591394 0.684108
0.682734 0.652644 0.639429
0.769345 0.730648 0.699947
0.462013 0.575280 0.610010
0.537652 0.608240 0.669978
0.719051 0.659541 0.700832
0.682918 0.670314 0.651759
0.776883 0.738521 0.701228
0.550042 0.690730 0.640284
0.602228 0.707424 0.668910
0.692836 0.758602 0.739834
0.761715 0.758877 0.707240
0.794217 0.775418 0.712001
0.664149 0.789578 0.710323
0.689570 0.803952 0.742733
0.738338 0.850065 0.823301
0.739651 0.823270 0.786984
0.791379 0.847410 0.764950
0.718990 0.857908 0.785367
0.728481 0.864805 0.803067
0.749081 0.887388 0.851591
0.759945 0.914153 0.891691
0.762600 0.887694 0.850919
0.528588 0.617975 0.759060
0.569787 0.620905 0.775723
0.713283 0.631342 0.823758
0.771756 0.721645 0.785794
0.766201 0.768856 0.771572
0.579706 0.676570 0.745113
0.592645 0.672236 0.764706
0.703761 0.683619 0.816892
0.766537 0.746090 0.792721
0.762020 0.775051 0.774319
0.606378 0.730190 0.733608
0.629053 0.735836 0.741390
0.689570 0.766690 0.790494
0.752316 0.793576 0.804990
0.746212 0.795804 0.786465
0.651087 0.788266 0.750484
0.669123 0.794125 0.761257
0.712093 0.815976 0.795071
0.744350 0.849241 0.835966
0.774624 0.852628 0.821775
0.706935 0.850065 0.782742
0.716640 0.854795 0.794858
0.740078 0.874022 0.835386
0.757534 0.905730 0.884977
0.761318 0.898802 0.873655
0.628840 0.717830 0.836454
0.642756 0.717952 0.842039
0.696559 0.723201 0.861112
0.762570 0.755367 0.876341
0.778256 0.816983 0.853178
0.647730 0.743923 0.829648
0.652003 0.739101 0.836210
0.696742 0.744808 0.856535
0.759457 0.769772 0.875547
0.776547 0.825193 0.856107
0.661006 0.769863 0.802976
0.669520 0.774624 0.811551
0.698756 0.788815 0.842222
0.751217 0.808255 0.876341
0.771786 0.850523 0.866545
0.676112 0.820676 0.818448
0.684291 0.821775 0.820737
0.707790 0.827237 0.829862
0.739498 0.851926 0.864012
0.765835 0.882628 0.881132
0.703914 0.858732 0.826505
0.710445 0.861295 0.831113
0.729519 0.871946 0.847715
0.749325 0.890440 0.872587
0.760433 0.914031 0.898985
