data/fiter_cube/25649002/1023272/file.cube
# Created by Adobe Lightroom plugin Export LUT (1.17.0)
# www.johnrellis.com/lightroom/exportlut.htm
# Preset: 高级电影质感情绪胶片_02 云集
# Color profile: C:\Program Files (x86)\Common Files\Adobe\Color\Profiles\Recommended\AdobeRGB1998.icc
LUT_3D_SIZE 32
DOMAIN_MIN 0.0 0.0 0.0
DOMAIN_MAX 1.0 1.0 1.0
0.067170 0.076387 0.088075
0.073854 0.078218 0.088960
0.081910 0.080720 0.090517
0.117098 0.087434 0.092561
0.191531 0.095186 0.092866
0.281132 0.100221 0.091035
0.370550 0.104372 0.087678
0.448737 0.115541 0.083925
0.514336 0.137881 0.082277
0.568811 0.169619 0.083711
0.614191 0.207706 0.091005
0.651606 0.248844 0.103578
0.681575 0.289342 0.120760
0.705257 0.328405 0.143587
0.724819 0.365209 0.168917
0.741726 0.399481 0.195071
0.757565 0.433997 0.225376
0.771054 0.465614 0.256291
0.782071 0.492744 0.285069
0.791470 0.517235 0.312779
0.799466 0.539635 0.339605
0.806302 0.560021 0.364721
0.811978 0.578668 0.388861
0.816770 0.595758 0.411475
0.820890 0.611444 0.432380
0.824338 0.626276 0.452522
0.827268 0.640284 0.471870
0.829740 0.653651 0.490333
0.831724 0.666438 0.508476
0.833310 0.678645 0.525872
0.834501 0.690211 0.542504
0.835325 0.700923 0.558038
0.069093 0.080293 0.090547
0.072084 0.081483 0.092042
0.085878 0.085054 0.089570
0.134432 0.094575 0.088838
0.215000 0.104463 0.087892
0.304631 0.109987 0.084932
0.389685 0.115084 0.080446
0.462684 0.127047 0.076600
0.524041 0.148470 0.074800
0.575708 0.179171 0.076967
0.619379 0.215854 0.083955
0.655024 0.254887 0.097627
0.683680 0.293980 0.116609
0.706722 0.331884 0.139986
0.725948 0.367346 0.165133
0.742489 0.401099 0.192142
0.758022 0.434791 0.221927
0.771206 0.465309 0.252384
0.782040 0.491890 0.280888
0.791287 0.516167 0.308843
0.799313 0.538323 0.335454
0.806149 0.558648 0.360876
0.811856 0.577295 0.385138
0.816709 0.594446 0.407843
0.820859 0.610224 0.429114
0.824308 0.625177 0.449714
0.827268 0.639246 0.469215
0.829740 0.652766 0.488197
0.831815 0.665614 0.506249
0.833402 0.677913 0.523919
0.834592 0.689540 0.540764
0.835477 0.700282 0.556420
0.071870 0.084749 0.093935
0.075685 0.087556 0.097017
0.079530 0.088563 0.096864
0.138674 0.107607 0.089357
0.247044 0.124849 0.079957
0.337163 0.129213 0.074647
0.414954 0.133547 0.068818
0.481147 0.144533 0.064332
0.537957 0.164706 0.061921
0.585718 0.193240 0.065370
0.626734 0.227604 0.073793
0.660182 0.264378 0.089662
0.687312 0.301305 0.110567
0.709407 0.337591 0.135164
0.728145 0.372015 0.161074
0.744228 0.404456 0.188418
0.759426 0.437324 0.218570
0.772213 0.466773 0.248539
0.782712 0.492836 0.277684
0.791897 0.516594 0.305180
0.799741 0.538628 0.332464
0.806485 0.558740 0.358038
0.812192 0.577264 0.382422
0.816983 0.594263 0.405341
0.821042 0.610101 0.427161
0.824521 0.624903 0.447578
0.827481 0.639002 0.467292
0.829953 0.652522 0.486366
0.831968 0.665431 0.504814
0.833585 0.677668 0.522454
0.834745 0.689296 0.539422
0.835630 0.700130 0.555291
0.079805 0.102510 0.102113
0.088075 0.110964 0.110109
0.097108 0.118807 0.114565
0.110689 0.117891 0.110292
0.227756 0.156069 0.087495
0.383978 0.190219 0.038880
0.469123 0.189181 0.000000
0.521935 0.192416 0.000000
0.567773 0.205631 0.000000
0.608087 0.227878 0.000000
0.643061 0.255894 0.025391
0.671839 0.286900 0.068055
0.695766 0.319341 0.095583
0.715785 0.351629 0.124300
0.733211 0.382910 0.152285
0.748562 0.413214 0.180697
0.762844 0.443977 0.212345
0.774807 0.471565 0.242374
0.784695 0.496071 0.271458
0.793301 0.518730 0.299687
0.800900 0.539818 0.326604
0.807370 0.559503 0.352789
0.812955 0.577783 0.377539
0.817655 0.594812 0.401404
0.821714 0.610681 0.423621
0.825162 0.625635 0.444923
0.828092 0.639796 0.465095
0.830472 0.653315 0.484565
0.832425 0.666102 0.503258
0.833951 0.678279 0.521111
0.835111 0.689662 0.537865
0.835904 0.700374 0.553887
0.097353 0.146609 0.118379
0.110384 0.159518 0.129885
0.131502 0.178195 0.147524
0.163088 0.205112 0.159426
0.173800 0.176791 0.135225
0.303624 0.212863 0.095064
0.478767 0.264439 0.000000
0.560723 0.278752 0.000000
0.607843 0.278721 0.000000
0.638483 0.286748 0.000000
0.665095 0.302251 0.000000
0.687953 0.323400 0.000000
0.707637 0.347601 0.064302
0.725429 0.374121 0.104280
0.741421 0.401099 0.136782
0.755581 0.428168 0.169192
0.768643 0.455421 0.201602
0.779355 0.480537 0.234104
0.788479 0.503258 0.264103
0.796414 0.524407 0.292760
0.803311 0.544244 0.320500
0.809384 0.562951 0.346868
0.814633 0.580468 0.372076
0.819120 0.596979 0.396399
0.822965 0.612482 0.419104
0.826230 0.627131 0.441016
0.828977 0.641047 0.461738
0.831235 0.654292 0.481514
0.833097 0.666896 0.500359
0.834562 0.678889 0.518273
0.835630 0.690242 0.535546
0.836362 0.700893 0.551843
0.128969 0.216495 0.145724
0.145480 0.231510 0.159518
0.170291 0.252506 0.180148
0.216037 0.290806 0.209567
0.260716 0.315007 0.215457
0.253941 0.253300 0.170199
0.366674 0.273167 0.119875
0.537865 0.335180 0.000000
0.627161 0.372625 0.000000
0.663722 0.369085 0.000000
0.690761 0.367773 0.000000
0.707637 0.374548 0.000000
0.723598 0.388495 0.000000
0.738735 0.406928 0.063478
0.752377 0.427283 0.112825
0.765133 0.449928 0.152285
0.776303 0.472511 0.188540
0.785763 0.493965 0.222507
0.793729 0.514153 0.254459
0.800717 0.533318 0.284733
0.807004 0.551690 0.313481
0.812467 0.569268 0.341009
0.820035 0.597192 0.383673
0.823545 0.611994 0.407416
0.826505 0.625818 0.429725
0.829129 0.638819 0.450202
0.831235 0.651331 0.470039
0.832975 0.663264 0.488960
0.834379 0.674739 0.507012
0.835477 0.685695 0.524285
0.836210 0.696162 0.540887
0.836728 0.705837 0.556207
0.179477 0.312718 0.187716
0.198215 0.327489 0.203037
0.224247 0.347387 0.225040
0.284489 0.388556 0.277684
0.339666 0.431281 0.308049
0.367529 0.425818 0.289036
0.345403 0.344549 0.219211
0.421912 0.337285 0.162051
0.577020 0.403082 0.039490
0.663783 0.439338 0.000000
0.705806 0.452308 0.000000
0.726589 0.445777 0.000000
0.744991 0.445228 0.000000
0.756924 0.453132 0.000000
0.767819 0.465034 0.071534
0.778500 0.481422 0.130159
0.787442 0.498268 0.173281
0.795010 0.515160 0.211215
0.801450 0.532036 0.246647
0.807370 0.548821 0.279118
0.812833 0.565759 0.310185
0.817594 0.582391 0.340642
0.821866 0.598413 0.368566
0.825345 0.613611 0.395575
0.828275 0.627802 0.420050
0.830655 0.640986 0.442908
0.832578 0.653285 0.463752
0.834195 0.664942 0.483375
0.835416 0.676143 0.502129
0.836393 0.686885 0.519860
0.837064 0.697047 0.536645
0.837491 0.706661 0.552483
0.242374 0.406256 0.241886
0.260227 0.417334 0.257298
0.284550 0.431952 0.279240
0.335912 0.462257 0.326574
0.393744 0.499245 0.372930
0.448035 0.536858 0.407813
0.448798 0.504692 0.358679
0.419074 0.423163 0.277073
0.462318 0.392950 0.212345
0.602228 0.458259 0.136385
0.686030 0.489784 0.000000
0.728939 0.507927 0.000000
0.752834 0.509514 0.000000
0.768338 0.505669 0.000000
0.782437 0.506432 0.000000
0.790341 0.514092 0.085481
0.797147 0.524163 0.144839
0.802976 0.535760 0.189548
0.808133 0.548486 0.228305
0.812863 0.562158 0.263951
0.817288 0.576532 0.297490
0.821347 0.590967 0.328923
0.824949 0.605310 0.358312
0.827939 0.619165 0.386084
0.830533 0.632197 0.411322
0.832547 0.644587 0.435035
0.834226 0.656245 0.456764
0.835660 0.667353 0.476844
0.836728 0.678218 0.496284
0.837522 0.688563 0.514580
0.838010 0.698634 0.532189
0.838285 0.708064 0.548638
0.316197 0.488563 0.310155
0.331304 0.496345 0.323980
0.351049 0.506554 0.342535
0.391302 0.527001 0.381018
0.446387 0.555962 0.435065
0.487343 0.583734 0.463722
0.528862 0.610224 0.491890
0.512535 0.565362 0.423041
0.480262 0.490578 0.337865
0.494759 0.442786 0.267582
0.621576 0.504723 0.209384
0.697444 0.531823 0.132815
0.743191 0.548882 0.070283
0.775357 0.565759 0.027344
0.787778 0.560449 0.071565
0.798550 0.557061 0.085298
0.807584 0.555779 0.101778
0.811795 0.561517 0.161379
0.815488 0.569574 0.207431
0.819089 0.579461 0.246983
0.822599 0.590570 0.282536
0.825772 0.602472 0.315831
0.828641 0.614679 0.346807
0.831144 0.626795 0.375555
0.833188 0.638605 0.402167
0.834806 0.649866 0.426947
0.836240 0.660639 0.449287
0.837339 0.671138 0.470375
0.838163 0.681331 0.490364
0.838773 0.691279 0.509422
0.839109 0.700954 0.527520
0.839231 0.710109 0.544579
0.386816 0.553826 0.378088
0.398108 0.558831 0.388983
0.412757 0.565484 0.403479
0.443488 0.579858 0.434180
0.485145 0.600366 0.477241
0.523522 0.622400 0.512352
0.557122 0.643915 0.539239
0.575799 0.649561 0.542016
0.560845 0.611200 0.477546
0.529442 0.544671 0.394781
0.521843 0.484871 0.319432
0.636164 0.542077 0.275853
0.706050 0.568688 0.223911
0.755978 0.585931 0.161288
0.784543 0.600671 0.154910
0.801602 0.605524 0.156466
0.809842 0.599969 0.163027
0.817136 0.596399 0.170230
0.823484 0.595148 0.180880
0.825895 0.600671 0.227176
0.828244 0.608179 0.266667
0.830533 0.616815 0.301793
0.832670 0.626215 0.333623
0.834470 0.636072 0.363561
0.835996 0.646113 0.391394
0.837247 0.656031 0.416876
0.838376 0.665797 0.440192
0.839170 0.675624 0.462654
0.839780 0.685298 0.483803
0.840146 0.694789 0.503746
0.840299 0.704097 0.522728
0.840208 0.713069 0.540826
0.445716 0.603388 0.437690
0.453956 0.606897 0.446143
0.465126 0.611780 0.457740
0.487709 0.621637 0.481422
0.519310 0.635706 0.515373
0.554864 0.652583 0.554376
0.580652 0.668910 0.576471
0.606653 0.686122 0.599420
0.610163 0.678767 0.583154
0.596735 0.645655 0.523461
0.569268 0.588251 0.445197
0.546410 0.521477 0.367285
0.649073 0.574670 0.337255
0.713497 0.600580 0.298283
0.762203 0.617121 0.242466
0.790219 0.629206 0.224735
0.808927 0.639155 0.222965
0.817319 0.636194 0.227390
0.823148 0.631342 0.232334
0.828885 0.628412 0.236454
0.833951 0.627955 0.245823
0.835386 0.633417 0.284977
0.836790 0.640253 0.319951
0.838010 0.647944 0.351690
0.839048 0.656062 0.380804
0.839933 0.664424 0.407233
0.840604 0.672938 0.432105
0.841123 0.681544 0.455055
0.841459 0.690364 0.477089
0.841581 0.699153 0.497871
0.841520 0.707942 0.517632
0.841215 0.716579 0.536706
0.494392 0.641871 0.489784
0.500572 0.644312 0.496468
0.508995 0.647578 0.505577
0.525750 0.654200 0.523888
0.549950 0.664179 0.550958
0.577874 0.676509 0.583185
0.601770 0.690578 0.607507
0.622889 0.705837 0.625666
0.644617 0.722530 0.644068
0.637537 0.703822 0.615167
0.624445 0.673182 0.563561
0.602136 0.624872 0.492134
0.577295 0.563470 0.421698
0.665339 0.609827 0.402289
0.724575 0.635492 0.373480
0.768673 0.651759 0.332830
0.797574 0.661433 0.298344
0.813230 0.669337 0.298375
0.824216 0.673854 0.299657
0.828916 0.668269 0.302647
0.833524 0.664454 0.305394
0.837919 0.662257 0.309392
0.841611 0.661799 0.317327
0.842069 0.666438 0.349584
0.842466 0.671962 0.378912
0.842741 0.678218 0.406134
0.842893 0.684932 0.431220
0.843046 0.691981 0.454261
0.843015 0.699397 0.476204
0.842893 0.706996 0.497017
0.842496 0.714870 0.517357
0.841978 0.722683 0.536522
0.537530 0.673640 0.538323
0.542077 0.675288 0.543450
0.548150 0.677363 0.550286
0.560754 0.682033 0.564721
0.578576 0.689326 0.585168
0.599695 0.699458 0.609552
0.622034 0.712337 0.634852
0.639002 0.725582 0.649134
0.657679 0.740688 0.665553
0.674647 0.753841 0.679500
0.664057 0.730251 0.645228
0.650874 0.700679 0.601221
0.630335 0.657618 0.538262
0.603082 0.596857 0.461494
0.671321 0.628931 0.442542
0.727077 0.654780 0.420813
0.768307 0.671260 0.389563
0.798306 0.680293 0.347631
0.813352 0.687495 0.345586
0.824399 0.693568 0.347417
0.830869 0.693263 0.349950
0.834958 0.689143 0.352148
0.838773 0.686366 0.355230
0.842466 0.684779 0.358282
0.845304 0.684749 0.366583
0.845243 0.689113 0.395178
0.845151 0.694240 0.421271
0.844907 0.700069 0.446021
0.844694 0.706355 0.468818
0.844236 0.713222 0.491005
0.843687 0.720302 0.512108
0.842863 0.727749 0.532830
0.568597 0.696193 0.574365
0.572198 0.697627 0.578485
0.576654 0.699397 0.583612
0.586206 0.703426 0.594507
0.599878 0.709773 0.610224
0.616724 0.718593 0.629664
0.635981 0.730343 0.651850
0.653162 0.743130 0.669612
0.669001 0.756344 0.684443
0.685237 0.770443 0.700649
0.692622 0.772976 0.701076
0.682979 0.750057 0.667018
0.670253 0.721279 0.626276
0.648890 0.679744 0.570428
0.624537 0.625391 0.498512
0.677119 0.646082 0.477729
0.729366 0.671321 0.460029
0.767544 0.687800 0.436316
0.795682 0.697444 0.404273
0.813321 0.703822 0.386419
0.823545 0.709834 0.390021
0.831632 0.714778 0.393072
0.835416 0.711269 0.395483
0.838804 0.708278 0.398047
0.842069 0.706264 0.400855
0.845121 0.705043 0.403967
0.847166 0.705562 0.413184
0.846708 0.709895 0.438911
0.846189 0.715023 0.463081
0.845518 0.720882 0.486244
0.844663 0.727291 0.508721
0.843626 0.734096 0.530480
0.594751 0.717556 0.604639
0.597559 0.718868 0.607874
0.601038 0.720485 0.611841
0.608606 0.724208 0.620539
0.619501 0.729915 0.633173
0.633082 0.737728 0.648829
0.648981 0.747494 0.667811
0.665949 0.758968 0.688533
0.679011 0.770138 0.701442
0.692439 0.782162 0.715602
0.705470 0.794614 0.730434
0.706111 0.788357 0.718959
0.697566 0.766293 0.685573
0.686030 0.738613 0.645960
0.665034 0.698970 0.596521
0.641291 0.648737 0.530938
0.682521 0.661189 0.507897
0.731472 0.685969 0.493965
0.767147 0.702541 0.475624
0.793484 0.712947 0.451514
0.813230 0.718990 0.423590
0.822629 0.724788 0.427802
0.830014 0.729549 0.431830
0.835142 0.731136 0.435309
0.838132 0.727932 0.437659
0.841032 0.725765 0.440406
0.843687 0.724544 0.443885
0.846128 0.724117 0.448341
0.847379 0.725704 0.460151
0.846403 0.730617 0.484962
0.845304 0.736263 0.508537
0.843900 0.742550 0.532128
0.616388 0.737392 0.629694
0.618616 0.738552 0.632288
0.621241 0.739956 0.635370
0.627192 0.743130 0.642237
0.636011 0.748043 0.652552
0.647486 0.754757 0.666346
0.660914 0.763027 0.683101
0.675807 0.772915 0.702632
0.688472 0.783139 0.717861
0.699489 0.793362 0.730159
0.710231 0.804013 0.742977
0.720333 0.814847 0.756008
0.716426 0.801114 0.734218
0.708827 0.779629 0.701320
0.698512 0.753109 0.662501
0.678767 0.715358 0.617334
0.655634 0.668818 0.559136
0.687282 0.674464 0.534112
0.733577 0.699367 0.524041
0.767239 0.716396 0.510185
0.791928 0.727504 0.491981
0.810819 0.734218 0.469123
0.821683 0.739315 0.463600
0.828367 0.743984 0.468513
0.833677 0.747829 0.473213
0.836851 0.746731 0.476570
0.839322 0.744594 0.479774
0.841581 0.743435 0.484047
0.843595 0.743130 0.489265
0.845335 0.743557 0.495583
0.845609 0.746120 0.509911
0.843992 0.751583 0.534203
0.632959 0.753964 0.649195
0.634607 0.754818 0.651118
0.636927 0.756039 0.653895
0.641840 0.758694 0.659785
0.649256 0.762844 0.668849
0.658900 0.768460 0.680934
0.670283 0.775479 0.695735
0.682979 0.783871 0.713039
0.695735 0.793423 0.731106
0.704891 0.802243 0.741817
0.713985 0.811582 0.753109
0.722560 0.821134 0.764614
0.729061 0.827817 0.772030
0.723964 0.811124 0.746242
0.717525 0.790707 0.714870
0.708766 0.765805 0.677607
0.691035 0.730312 0.635309
0.669001 0.687190 0.583948
0.692439 0.687221 0.558221
0.736049 0.712093 0.551293
0.767514 0.729213 0.540795
0.790555 0.740719 0.526940
0.808133 0.747951 0.509270
0.820615 0.752468 0.494881
0.826658 0.757076 0.500664
0.831388 0.760983 0.506523
0.834989 0.763638 0.511986
0.837064 0.761776 0.516167
0.838926 0.760830 0.521416
0.840482 0.760800 0.527825
0.841672 0.761563 0.535729
0.842405 0.763302 0.545708
0.647150 0.768429 0.666438
0.648737 0.769314 0.668452
0.654719 0.774472 0.675990
0.658778 0.776669 0.681178
0.665034 0.780117 0.689265
0.672908 0.784726 0.699794
0.682338 0.790585 0.712795
0.692714 0.797543 0.727840
0.703792 0.805844 0.744839
0.712459 0.813962 0.757198
0.719722 0.821927 0.766751
0.726711 0.830076 0.776608
0.733181 0.838254 0.786404
0.735622 0.838163 0.784512
0.731441 0.822293 0.760189
0.726131 0.803037 0.730465
0.719051 0.779812 0.694942
0.704036 0.746731 0.654627
0.683772 0.706813 0.609186
0.699733 0.701991 0.583490
0.740078 0.726345 0.578820
0.768978 0.743252 0.571008
0.789975 0.754818 0.560998
0.805905 0.762325 0.547936
0.818601 0.766567 0.531395
0.824735 0.770596 0.533654
0.828885 0.774228 0.539605
0.832120 0.777493 0.546014
0.834257 0.778164 0.551812
0.835691 0.777493 0.557855
0.836759 0.777737 0.565576
0.837461 0.778744 0.574365
0.660456 0.782132 0.683467
0.662135 0.783261 0.685664
0.664302 0.784726 0.688533
0.668238 0.787076 0.693782
0.673854 0.790402 0.701350
0.680842 0.794583 0.711086
0.688991 0.799741 0.722774
0.697963 0.805875 0.736263
0.707546 0.813107 0.751461
0.716518 0.821042 0.766476
0.722713 0.828061 0.774960
0.728695 0.835325 0.783688
0.734371 0.842649 0.792477
0.739590 0.849912 0.801175
0.739528 0.844480 0.791989
0.736049 0.829496 0.768917
0.731685 0.811460 0.740963
0.725978 0.789944 0.707637
0.713252 0.759182 0.669520
0.695430 0.722377 0.628016
0.705318 0.713466 0.602594
0.743099 0.737636 0.600092
0.769986 0.754482 0.594476
0.789334 0.766354 0.587640
0.803952 0.774228 0.578119
0.815457 0.779110 0.566339
0.822904 0.782620 0.561822
0.826444 0.786435 0.569116
0.829191 0.789914 0.576684
0.831052 0.793301 0.585229
0.832059 0.793240 0.592645
0.832700 0.793637 0.600885
0.670741 0.793088 0.697230
0.672145 0.794064 0.699214
0.674037 0.795285 0.701778
0.677394 0.797330 0.706416
0.682246 0.800259 0.713222
0.688228 0.803922 0.721950
0.695277 0.808438 0.732509
0.703029 0.813840 0.744594
0.711238 0.820188 0.758175
0.719539 0.827420 0.772854
0.725826 0.834257 0.783169
0.730983 0.840726 0.790921
0.735836 0.847288 0.798795
0.740444 0.853819 0.806638
0.744625 0.860258 0.814298
0.743008 0.850553 0.799222
0.740200 0.836545 0.777615
0.736721 0.819791 0.751553
0.732265 0.799954 0.720424
0.721736 0.771603 0.684810
0.706691 0.737636 0.645777
0.711513 0.725216 0.620966
0.746609 0.748928 0.619959
0.771328 0.765591 0.616297
0.789090 0.777432 0.611444
0.802426 0.785580 0.604913
0.812833 0.790921 0.596826
0.821073 0.794308 0.588342
0.824033 0.798276 0.596674
0.826169 0.801968 0.605524
0.827481 0.805600 0.615442
0.828244 0.807675 0.624384
0.679835 0.803128 0.709987
0.681117 0.804013 0.711818
0.682734 0.805081 0.714107
0.685603 0.806882 0.718349
0.689815 0.809476 0.724514
0.694972 0.812680 0.732357
0.701015 0.816648 0.741756
0.707668 0.821378 0.752621
0.714870 0.826993 0.764920
0.722103 0.833402 0.778164
0.728817 0.840299 0.791104
0.733211 0.846036 0.798001
0.737453 0.851865 0.805020
0.741482 0.857816 0.812131
0.745174 0.863645 0.819150
0.747921 0.867338 0.823148
0.746120 0.856474 0.806455
0.743984 0.843687 0.786587
0.741451 0.828550 0.762814
0.738338 0.810758 0.734554
0.730159 0.785092 0.702022
0.718257 0.754299 0.665553
0.719570 0.739071 0.640558
0.751400 0.762051 0.640986
0.773678 0.778408 0.639155
0.789578 0.790127 0.636286
0.801358 0.798398 0.632502
0.810422 0.804166 0.628138
0.817502 0.808072 0.623529
0.821073 0.811704 0.627955
0.822507 0.815457 0.637964
0.823148 0.819120 0.648676
0.689296 0.813840 0.723903
0.690272 0.814450 0.725338
0.691371 0.815183 0.727047
0.693690 0.816587 0.730617
0.697200 0.818723 0.735988
0.701625 0.821500 0.743008
0.706783 0.825010 0.751492
0.712612 0.829252 0.761410
0.718807 0.834287 0.772519
0.725154 0.840055 0.784665
0.731411 0.846433 0.797421
0.735988 0.852232 0.806210
0.739590 0.857420 0.812497
0.743038 0.862699 0.818845
0.746242 0.867948 0.825162
0.749203 0.873106 0.831388
0.750423 0.872831 0.829892
0.749050 0.862852 0.814450
0.747524 0.851164 0.796170
0.745754 0.837369 0.774319
0.743587 0.821195 0.748348
0.737148 0.797635 0.718318
0.727779 0.769467 0.684260
0.726284 0.751400 0.658045
0.755093 0.773526 0.659419
0.775204 0.789456 0.658930
0.789639 0.801053 0.657465
0.800198 0.809445 0.655879
0.808133 0.815518 0.654078
0.814206 0.819913 0.652766
0.818112 0.823270 0.654505
0.818692 0.827420 0.666316
0.696407 0.822354 0.734890
0.697200 0.822904 0.736172
0.698238 0.823575 0.737789
0.700282 0.824887 0.741085
0.703304 0.826749 0.745937
0.707088 0.829252 0.752255
0.711574 0.832334 0.759945
0.716609 0.836088 0.768856
0.722072 0.840574 0.779049
0.727657 0.845701 0.790127
0.733211 0.851408 0.801846
0.738247 0.857420 0.813169
0.741329 0.862089 0.818784
0.744350 0.866850 0.824552
0.747127 0.871580 0.830289
0.749752 0.876310 0.835996
0.752163 0.880949 0.841642
0.752407 0.877592 0.835843
0.751461 0.868498 0.821622
0.750484 0.857939 0.804929
0.749386 0.845609 0.785153
0.748104 0.831205 0.761746
0.743252 0.809995 0.734646
0.736233 0.784634 0.703456
0.732296 0.763272 0.675013
0.758358 0.784726 0.677516
0.776516 0.800443 0.678431
0.789425 0.811978 0.678645
0.798703 0.820523 0.679255
0.805509 0.826841 0.680018
0.810483 0.831479 0.681209
0.813779 0.835325 0.684291
0.703609 0.831357 0.746609
0.704311 0.831876 0.747799
0.705196 0.832456 0.749264
0.706935 0.833555 0.752163
0.709438 0.835172 0.756466
0.712673 0.837339 0.762142
0.716518 0.840024 0.769039
0.720851 0.843320 0.777127
0.725551 0.847227 0.786282
0.730404 0.851713 0.796323
0.735256 0.856748 0.806973
0.739895 0.862272 0.817990
0.743221 0.867002 0.825437
0.745724 0.871153 0.830442
0.748135 0.875364 0.835508
0.750393 0.879515 0.840574
0.752468 0.883665 0.845579
0.754421 0.887755 0.850584
0.754086 0.881895 0.841276
0.753475 0.873716 0.828305
0.752926 0.864195 0.813077
0.752346 0.853208 0.795163
0.751797 0.840421 0.774075
0.748165 0.821195 0.749599
0.742947 0.798245 0.721004
0.740566 0.779294 0.695644
0.761746 0.797299 0.697414
0.777737 0.812528 0.699763
0.788998 0.823850 0.701595
0.796841 0.832181 0.703853
0.802396 0.838529 0.706722
0.805997 0.843778 0.711330
0.708980 0.838590 0.755734
0.709590 0.839017 0.756771
0.710384 0.839567 0.758145
0.711849 0.840543 0.760800
0.714107 0.842039 0.764858
0.716976 0.843992 0.770016
0.720394 0.846464 0.776486
0.724239 0.849454 0.783993
0.728420 0.853025 0.792538
0.732784 0.857145 0.801877
0.737118 0.861723 0.811795
0.741329 0.866789 0.822202
0.745083 0.871977 0.832151
0.747250 0.875731 0.836698
0.749325 0.879515 0.841276
0.751308 0.883268 0.845884
0.753140 0.887053 0.850492
0.754849 0.890776 0.855039
0.756130 0.893187 0.857786
0.755764 0.886870 0.847807
0.755459 0.879606 0.836118
0.755276 0.871183 0.822416
0.755215 0.861509 0.806424
0.755245 0.850309 0.787625
0.752834 0.833433 0.766049
0.749477 0.813443 0.740871
0.748409 0.796536 0.717922
0.764950 0.810971 0.718990
0.778622 0.825711 0.722774
0.788052 0.836393 0.725856
0.794400 0.844602 0.730098
0.798428 0.851286 0.735897
0.714046 0.845701 0.764736
0.714595 0.846128 0.765743
0.715206 0.846555 0.766873
0.716548 0.847379 0.769284
0.718441 0.848692 0.772915
0.720974 0.850401 0.777737
0.723964 0.852628 0.783627
0.727382 0.855344 0.790585
0.731136 0.858610 0.798550
0.735012 0.862303 0.807248
0.738918 0.866514 0.816556
0.742733 0.871153 0.826322
0.746273 0.876066 0.836210
0.748745 0.880186 0.842710
0.750515 0.883543 0.846860
0.752193 0.886931 0.851011
0.753780 0.890318 0.855161
0.755245 0.893675 0.859312
0.756619 0.897032 0.863432
0.757321 0.897124 0.862913
0.757168 0.891508 0.853941
0.757137 0.885100 0.843503
0.757229 0.877745 0.831266
0.757534 0.869413 0.817044
0.758022 0.859648 0.800534
0.756649 0.845060 0.781643
0.754818 0.827909 0.759884
0.754788 0.813199 0.739681
0.767453 0.824094 0.739590
0.778927 0.837949 0.744259
0.786648 0.848325 0.749020
0.791440 0.856535 0.755276
0.718349 0.852171 0.772702
0.718776 0.852476 0.773556
0.719356 0.852903 0.774655
0.720516 0.853666 0.776913
0.722286 0.854887 0.780392
0.724575 0.856565 0.785000
0.727352 0.858732 0.790768
0.730556 0.861418 0.797604
0.734035 0.864561 0.805356
0.737606 0.868162 0.813809
0.741207 0.872190 0.822843
0.744656 0.876555 0.832212
0.747860 0.881193 0.841642
0.750668 0.885832 0.850431
0.752132 0.888884 0.854215
0.753536 0.891905 0.857908
0.754849 0.894896 0.861631
0.756100 0.897887 0.865324
0.757259 0.900847 0.869047
0.758297 0.903777 0.872679
0.758633 0.902159 0.869749
0.758633 0.897368 0.861936
0.758816 0.891936 0.852873
0.759213 0.885801 0.842374
0.759854 0.878874 0.830259
0.760708 0.870787 0.816220
0.760311 0.858549 0.800076
0.759731 0.844327 0.781735
0.760555 0.831876 0.764492
0.769863 0.839933 0.764004
0.778775 0.852659 0.769772
0.784421 0.862364 0.776242
0.723018 0.859403 0.781888
0.723384 0.859709 0.782681
0.723903 0.860014 0.783658
0.724880 0.860716 0.785733
0.726436 0.861814 0.788968
0.728481 0.863310 0.793271
0.730922 0.865232 0.798642
0.733730 0.867582 0.804898
0.736751 0.870390 0.812039
0.739925 0.873594 0.819944
0.743069 0.877165 0.828305
0.746151 0.881102 0.837034
0.748989 0.885252 0.845762
0.751553 0.889525 0.854215
