data/fiter_cube/25649002/1023272/file.cube
# Created by Adobe Lightroom plugin Export LUT (1.17.0)
# www.johnrellis.com/lightroom/exportlut.htm
# Preset: 高级电影质感情绪胶片_02 云集
# Color profile: C:\Program Files (x86)\Common Files\Adobe\Color\Profiles\Recommended\AdobeRGB1998.icc
LUT_3D_SIZE 8
DOMAIN_MIN 0.000000 0.000000 0.000000
DOMAIN_MAX 0.903226 0.903226 0.903226
0.067170 0.076387 0.088075
0.191531 0.095186 0.092866
0.514336 0.137881 0.082277
0.681575 0.289342 0.120760
0.757565 0.433997 0.225376
0.799466 0.539635 0.339605
0.820890 0.611444 0.432380
0.831724 0.666438 0.508476
0.097353 0.146609 0.118379
0.173800 0.176791 0.135225
0.607843 0.278721 0.000000
0.707637 0.347601 0.064302
0.768643 0.455421 0.201602
0.803311 0.544244 0.320500
0.822965 0.612482 0.419104
0.833097 0.666896 0.500359
0.316197 0.488563 0.310155
0.446387 0.555962 0.435065
0.480262 0.490578 0.337865
0.743191 0.548882 0.070283
0.807584 0.555779 0.101778
0.822599 0.590570 0.282536
0.833188 0.638605 0.402167
0.838163 0.681331 0.490364
0.537530 0.673640 0.538323
0.578576 0.689326 0.585168
0.657679 0.740688 0.665553
0.630335 0.657618 0.538262
0.768307 0.671260 0.389563
0.830869 0.693263 0.349950
0.845304 0.684749 0.366583
0.844694 0.706355 0.468818
0.632959 0.753964 0.649195
0.649256 0.762844 0.668849
0.695735 0.793423 0.731106
0.729061 0.827817 0.772030
0.691035 0.730312 0.635309
0.767514 0.729213 0.540795
0.826658 0.757076 0.500664
0.838926 0.760830 0.521416
0.679835 0.803128 0.709987
0.689815 0.809476 0.724514
0.714870 0.826993 0.764920
0.737453 0.851865 0.805020
0.746120 0.856474 0.806455
0.730159 0.785092 0.702022
0.773678 0.778408 0.639155
0.817502 0.808072 0.623529
0.708980 0.838590 0.755734
0.714107 0.842039 0.764858
0.728420 0.853025 0.792538
0.745083 0.871977 0.832151
0.753140 0.887053 0.850492
0.755459 0.879606 0.836118
0.752834 0.833433 0.766049
0.778622 0.825711 0.722774
0.726345 0.865141 0.788724
0.729488 0.867369 0.795499
0.738949 0.875425 0.817746
0.750179 0.889403 0.850126
0.756130 0.901091 0.870237
0.759548 0.910948 0.882719
0.760891 0.902068 0.866697
0.764340 0.878172 0.826932
0.062654 0.094759 0.161532
0.253666 0.033692 0.195499
0.436713 0.235874 0.235966
0.645563 0.367315 0.277867
0.733242 0.476509 0.338201
0.781949 0.556970 0.405707
0.810147 0.621271 0.473213
0.825132 0.673182 0.534813
0.090852 0.169223 0.164889
0.235050 0.258854 0.258335
0.546166 0.327642 0.240574
0.677363 0.412177 0.268833
0.746273 0.495644 0.328832
0.787655 0.564660 0.396155
0.812619 0.623407 0.464088
0.826505 0.673487 0.527672
0.315740 0.479164 0.333501
0.443732 0.547997 0.454353
0.501488 0.527184 0.425910
0.734737 0.579156 0.286046
0.787839 0.577447 0.295293
0.808011 0.606012 0.374731
0.822995 0.646265 0.450324
0.831754 0.686885 0.519005
0.534691 0.667781 0.543694
0.576532 0.684352 0.590234
0.655848 0.736385 0.672877
0.628351 0.660792 0.561608
0.761532 0.675807 0.435706
0.820829 0.695003 0.411170
0.836118 0.690181 0.425757
0.838560 0.711299 0.502342
0.632624 0.751675 0.652674
0.647791 0.759976 0.670680
0.692744 0.789273 0.729824
0.728756 0.827298 0.777035
0.689235 0.730373 0.642817
0.764950 0.731777 0.557763
0.821988 0.761105 0.531182
0.834897 0.763638 0.545373
0.678584 0.800809 0.710414
0.687190 0.805814 0.722683
0.712276 0.823301 0.761959
0.736538 0.849607 0.805051
0.746212 0.857572 0.811032
0.729763 0.786343 0.708003
0.772915 0.780362 0.646967
0.815854 0.809659 0.633417
0.707424 0.836362 0.754299
0.712154 0.839292 0.762509
0.726802 0.850492 0.790036
0.744259 0.870115 0.830503
0.752956 0.886442 0.851041
0.755367 0.880125 0.838499
0.752010 0.832853 0.767575
0.777981 0.825254 0.724086
0.725307 0.863890 0.787289
0.728603 0.866239 0.794247
0.738216 0.874357 0.816464
0.749691 0.888457 0.848966
0.756344 0.901854 0.871946
0.759609 0.911376 0.883848
0.760861 0.902617 0.868254
0.764096 0.878141 0.827878
0.000000 0.181338 0.410437
0.221958 0.160372 0.478004
0.599481 0.282994 0.481788
0.542718 0.454963 0.450477
0.668177 0.536400 0.493690
0.742061 0.604974 0.536614
0.784726 0.657404 0.574395
0.808164 0.699428 0.609308
0.224186 0.329656 0.394965
0.299626 0.363745 0.473732
0.582086 0.426581 0.507134
0.555779 0.489601 0.472358
0.683619 0.553491 0.500267
0.748592 0.611505 0.535027
0.787503 0.660029 0.570764
0.809537 0.700954 0.606348
0.310674 0.491249 0.429786
0.398291 0.523583 0.472816
0.548455 0.598413 0.566888
0.678065 0.607843 0.529259
0.734432 0.620386 0.523919
0.772213 0.646418 0.539635
0.798154 0.678981 0.568536
0.814511 0.711635 0.602106
0.504967 0.648432 0.532586
0.550164 0.666560 0.577386
0.641840 0.719448 0.674678
0.642237 0.687861 0.631373
0.758389 0.713802 0.571588
0.797330 0.716060 0.559167
0.811917 0.718959 0.570611
0.821073 0.735439 0.600061
0.619379 0.740444 0.646662
0.636896 0.749966 0.666621
0.684047 0.780026 0.725154
0.727047 0.823636 0.786038
0.696407 0.746059 0.680903
0.764675 0.752590 0.620966
0.809995 0.780148 0.618433
0.822873 0.777005 0.617853
0.673335 0.795590 0.709346
0.683040 0.801083 0.722652
0.708736 0.818540 0.761135
0.735531 0.846220 0.809476
0.748196 0.864866 0.828916
0.730465 0.793668 0.730526
0.772091 0.791073 0.677516
0.808682 0.820523 0.678737
0.705776 0.834379 0.755642
0.710811 0.837522 0.764065
0.725216 0.848356 0.790127
0.742550 0.867216 0.828428
0.752865 0.886168 0.854765
0.755917 0.885039 0.849973
0.752132 0.838773 0.782803
0.777218 0.834348 0.745144
0.723476 0.862333 0.786160
0.726375 0.864256 0.791958
0.736294 0.872221 0.813779
0.748592 0.886687 0.846738
0.756313 0.901793 0.873808
0.759609 0.911986 0.886137
0.760830 0.905455 0.874418
0.763638 0.881468 0.835691
0.224643 0.342351 0.588281
0.313664 0.350561 0.614923
0.577844 0.352880 0.678584
0.702815 0.524895 0.634302
0.667384 0.581018 0.583886
0.668238 0.626917 0.605737
0.745357 0.677089 0.641444
0.784756 0.718685 0.670405
0.361425 0.474800 0.583459
0.385046 0.468177 0.610315
0.569665 0.471473 0.673304
0.696437 0.570275 0.645289
0.656703 0.594507 0.589868
0.679561 0.634394 0.610773
0.749599 0.680842 0.642145
0.786618 0.720363 0.669276
0.421820 0.572381 0.575036
0.464149 0.585107 0.588891
0.561334 0.624506 0.648066
0.669184 0.648859 0.659907
0.638575 0.636378 0.616754
0.717311 0.667536 0.632532
0.765469 0.702022 0.652522
0.793057 0.732387 0.672358
0.494789 0.651575 0.593225
0.525475 0.659022 0.607538
0.599207 0.684901 0.650111
0.662226 0.720912 0.698146
0.732662 0.726711 0.672572
0.759670 0.724117 0.660090
0.783566 0.734981 0.662623
0.800992 0.753719 0.676509
0.591699 0.721065 0.633173
0.608881 0.726650 0.647761
0.658167 0.755886 0.701656
0.714565 0.802426 0.777035
0.705531 0.767697 0.729946
0.766049 0.782071 0.695918
0.794369 0.792203 0.694179
0.806760 0.790616 0.691341
0.661067 0.784939 0.702541
0.671687 0.791135 0.715877
0.698878 0.808133 0.752651
0.729549 0.836393 0.803250
0.749111 0.869413 0.843870
0.733364 0.807492 0.763943
0.771725 0.810605 0.725124
0.798520 0.836423 0.736660
0.699947 0.828641 0.752590
0.705257 0.831968 0.760830
0.720668 0.843168 0.786557
0.739071 0.861936 0.823453
0.752255 0.884337 0.857939
0.756985 0.893431 0.866361
0.752285 0.846952 0.802792
0.776211 0.846281 0.771786
0.721492 0.860533 0.787106
0.724483 0.862608 0.792782
0.733333 0.869474 0.810605
0.745632 0.882536 0.840360
0.755459 0.899657 0.872435
0.759487 0.912169 0.888426
0.760800 0.909819 0.883177
0.763027 0.886046 0.846403
0.398962 0.496773 0.681788
0.432471 0.501274 0.692470
0.545495 0.509392 0.727047
0.694850 0.547814 0.755062
0.749752 0.636316 0.720027
0.731197 0.662745 0.675593
0.716304 0.695918 0.685023
0.751217 0.742153 0.724361
0.460426 0.561425 0.676509
0.470741 0.556115 0.688014
0.555169 0.562219 0.722347
0.691127 0.585016 0.755489
0.746609 0.652461 0.723629
0.726619 0.669825 0.678157
0.712276 0.699611 0.687343
0.753872 0.744137 0.725246
0.512108 0.618708 0.647639
0.533257 0.630091 0.660243
0.578149 0.648890 0.705348
0.680751 0.659754 0.757778
0.737209 0.697139 0.734981
0.709712 0.688289 0.684230
0.711543 0.710567 0.694820
0.762570 0.750393 0.726772
0.544762 0.682826 0.669154
0.560723 0.686397 0.674159
0.604425 0.699855 0.692409
0.662745 0.729854 0.738857
0.711940 0.739651 0.739406
0.696345 0.719448 0.704189
0.744900 0.739590 0.714870
0.776181 0.764920 0.730465
0.587427 0.722652 0.677028
0.598993 0.726589 0.683467
0.634302 0.740047 0.705074
0.683101 0.767453 0.743771
0.713649 0.788540 0.772641
0.754452 0.793545 0.755154
0.772274 0.788144 0.742123
0.788083 0.796262 0.744137
0.639307 0.770077 0.697200
0.647761 0.773648 0.704280
0.673701 0.785183 0.728206
0.711391 0.811917 0.777279
0.740322 0.847990 0.828977
0.735561 0.820310 0.793118
0.771908 0.833219 0.773709
0.789364 0.845731 0.779629
0.688655 0.817899 0.744045
0.693904 0.820798 0.751186
0.710079 0.831327 0.774838
0.730678 0.849729 0.810086
0.747616 0.873472 0.847776
0.757382 0.898741 0.877531
0.752224 0.855192 0.822019
0.775357 0.859617 0.799496
0.716487 0.855436 0.784115
0.719387 0.857298 0.789120
0.728481 0.863951 0.805661
0.740993 0.876402 0.832151
0.752041 0.892485 0.862058
0.758877 0.910124 0.888304
0.760891 0.915129 0.892729
0.762234 0.890562 0.857053
0.510185 0.600366 0.746334
0.524407 0.601801 0.752102
0.576104 0.605249 0.771603
0.670375 0.610834 0.803342
0.744106 0.647730 0.804471
0.769192 0.706630 0.774594
0.764431 0.731380 0.750210
0.760678 0.762356 0.760464
0.534142 0.627710 0.740993
0.540032 0.624842 0.747127
0.582544 0.627558 0.766873
0.667384 0.631922 0.799100
0.742184 0.661097 0.805295
0.767147 0.715145 0.776516
0.762325 0.734981 0.751247
0.758938 0.764645 0.761715
0.574884 0.674006 0.724208
0.583551 0.677974 0.732052
0.601648 0.678309 0.756344
0.662531 0.686030 0.790097
0.735592 0.704952 0.807706
0.761532 0.743587 0.785275
0.755734 0.748226 0.756405
0.753506 0.773587 0.767544
0.591333 0.705165 0.716884
0.599145 0.706966 0.719234
0.625483 0.714870 0.728908
0.666316 0.740200 0.775143
0.727169 0.758083 0.812192
0.753567 0.779080 0.797147
0.744900 0.765988 0.763851
0.744076 0.785977 0.775998
0.609064 0.749966 0.734218
0.616876 0.751797 0.737179
0.641932 0.758633 0.747524
0.677363 0.771633 0.765560
0.712703 0.794553 0.798856
0.738277 0.799924 0.797391
0.730709 0.782528 0.771847
0.762081 0.803586 0.786191
0.639155 0.775601 0.736110
0.646174 0.778134 0.740475
0.667384 0.785855 0.753780
0.696162 0.799557 0.775418
0.723171 0.820981 0.803433
0.739925 0.838254 0.824796
0.764889 0.843626 0.814511
0.777035 0.842374 0.808408
0.679194 0.813535 0.754330
0.684169 0.815915 0.758968
0.698848 0.823270 0.773312
0.717922 0.835721 0.795163
0.738643 0.856901 0.830106
0.753628 0.885496 0.868101
0.753079 0.867124 0.844663
0.773770 0.878264 0.834958
0.709529 0.849638 0.780636
0.712642 0.850919 0.784634
0.722011 0.857237 0.799771
0.735073 0.868711 0.823789
0.747463 0.884245 0.851865
0.756588 0.902922 0.880613
0.760983 0.920012 0.900999
0.761532 0.897063 0.870298
0.578088 0.666285 0.797330
0.586175 0.667445 0.801114
0.612909 0.668116 0.811643
0.664271 0.670527 0.829709
0.732082 0.680018 0.851621
0.763058 0.721157 0.834104
0.776791 0.765164 0.817502
0.776730 0.791897 0.809720
0.585107 0.676783 0.792294
0.590295 0.676387 0.796201
0.614496 0.677119 0.807218
0.662501 0.679408 0.825650
0.729488 0.687404 0.849210
0.761105 0.724056 0.832578
0.775662 0.765499 0.816068
0.775845 0.789975 0.807218
0.617090 0.715053 0.783810
0.623377 0.717403 0.788266
0.629053 0.710689 0.800168
0.666011 0.715297 0.819394
0.722835 0.723934 0.843809
0.757748 0.749233 0.837034
0.772457 0.783902 0.822904
0.773159 0.801633 0.813535
0.629511 0.732998 0.762814
0.633845 0.735012 0.766049
0.651087 0.745418 0.782162
0.674739 0.755398 0.809079
0.715236 0.766415 0.836057
0.754513 0.783841 0.846708
0.768154 0.809354 0.833127
0.768948 0.815518 0.820310
0.638758 0.764950 0.771572
0.642908 0.765377 0.772396
0.657801 0.768276 0.776699
0.680507 0.774594 0.785306
0.708705 0.795041 0.820218
0.746670 0.812558 0.848753
0.762814 0.829801 0.839719
0.762875 0.828122 0.825315
0.652613 0.800717 0.784970
0.657130 0.801633 0.786618
0.671901 0.804959 0.792294
0.692958 0.811337 0.802152
0.715114 0.820768 0.815366
0.737758 0.841428 0.842649
0.755001 0.850431 0.845823
0.753017 0.844663 0.834897
0.678096 0.819944 0.785641
0.682216 0.821592 0.788449
0.694209 0.826291 0.796536
0.710903 0.834653 0.809720
0.728389 0.846342 0.826535
0.744411 0.864408 0.848631
0.754147 0.880613 0.866972
0.768215 0.884886 0.861418
0.703944 0.848508 0.796750
0.706661 0.849882 0.799405
0.716396 0.856016 0.810208
0.728603 0.864622 0.825101
0.740993 0.876066 0.843412
0.752316 0.892271 0.868681
0.759518 0.912749 0.895354
0.760922 0.905150 0.884825
0.628840 0.717830 0.836454
0.633326 0.718379 0.838407
0.647669 0.718013 0.843870
0.676967 0.720516 0.854429
0.718105 0.727108 0.868406
0.756405 0.746975 0.877073
0.772396 0.782284 0.862760
0.778256 0.816983 0.853178
0.632074 0.723781 0.833829
0.635950 0.724147 0.835843
0.649592 0.724208 0.841733
0.676997 0.726253 0.852293
0.716884 0.732601 0.866636
0.755337 0.750820 0.876371
0.771695 0.784024 0.862547
0.777798 0.818265 0.853361
0.653193 0.750973 0.827176
0.653895 0.749569 0.829282
0.657221 0.743954 0.835691
0.681056 0.748531 0.847990
0.715145 0.754238 0.862943
0.752407 0.767727 0.876036
0.769436 0.795987 0.864805
0.775998 0.827481 0.856870
0.657221 0.764309 0.812955
0.661524 0.766751 0.815976
0.674922 0.773800 0.825376
0.686824 0.775021 0.840208
0.713100 0.781857 0.857023
0.747799 0.793729 0.875853
0.766171 0.815640 0.869749
0.773281 0.842985 0.863493
0.664057 0.782895 0.806088
0.667384 0.783780 0.807126
0.676387 0.784939 0.809079
0.690608 0.791958 0.821317
0.711177 0.804990 0.846433
0.738857 0.817594 0.868803
0.762936 0.836637 0.877287
0.770138 0.859129 0.870268
0.672084 0.811643 0.814420
0.674464 0.811765 0.814878
0.682826 0.812772 0.817075
0.696223 0.815305 0.821622
0.712825 0.820035 0.828946
0.734157 0.841459 0.859312
0.758206 0.863767 0.883940
0.766720 0.878538 0.879362
0.684016 0.842710 0.826200
0.686336 0.843259 0.827207
0.694148 0.845396 0.830808
0.707362 0.849149 0.837034
0.723140 0.855558 0.846281
0.739101 0.865995 0.859129
0.752071 0.882475 0.879332
0.762631 0.893645 0.885252
0.703914 0.858732 0.826505
0.705837 0.859403 0.827787
0.712581 0.862272 0.832761
0.723415 0.868040 0.841886
0.735561 0.876371 0.854124
0.746822 0.887266 0.868650
0.755734 0.901244 0.885222
0.760433 0.914031 0.898985
