data/fiter_cube/21023058/1023011/file.cube
# Created by Adobe Lightroom plugin Export LUT (1.17.0)
# www.johnrellis.com/lightroom/exportlut.htm
# Preset: 温暖焦糖婚礼婚纱_07 云集
# Color profile: C:\Program Files (x86)\Common Files\Adobe\Color\Profiles\Recommended\AdobeRGB1998.icc
LUT_3D_SIZE 32
DOMAIN_MIN 0.0 0.0 0.0
DOMAIN_MAX 1.0 1.0 1.0
0.031067 0.037263 0.027527
0.036774 0.040955 0.029236
0.047181 0.044953 0.032959
0.059663 0.053590 0.041352
0.071717 0.060243 0.048737
0.086397 0.064851 0.055207
0.106264 0.068971 0.061158
0.132021 0.072847 0.065339
0.163638 0.076936 0.070222
0.200839 0.080995 0.076143
0.244358 0.084688 0.083101
0.292882 0.088930 0.091341
0.345129 0.095644 0.100893
0.399207 0.106691 0.112612
0.452674 0.124880 0.125978
0.503899 0.150881 0.141939
0.550622 0.183200 0.160739
0.591821 0.219089 0.182071
0.628260 0.256413 0.206241
0.661433 0.294926 0.233738
0.692226 0.334295 0.264561
0.721309 0.374212 0.299901
0.748745 0.414038 0.339330
0.773892 0.453254 0.382177
0.796017 0.491707 0.426978
0.815152 0.529625 0.471534
0.831510 0.567010 0.515221
0.845792 0.604120 0.558099
0.859007 0.641138 0.600366
0.871061 0.677607 0.642329
0.882231 0.712306 0.682582
0.893004 0.743587 0.719173
0.033875 0.042603 0.029175
0.037568 0.043153 0.030121
0.046784 0.048157 0.032685
0.059510 0.055390 0.041169
0.071534 0.061707 0.048524
0.086275 0.066163 0.054994
0.106722 0.070527 0.061006
0.132540 0.074617 0.065156
0.164675 0.078645 0.070375
0.202548 0.082826 0.076173
0.246464 0.087221 0.082979
0.295689 0.092042 0.091585
0.348547 0.098756 0.101198
0.402899 0.110872 0.113100
0.456794 0.129793 0.126925
0.507866 0.156161 0.143069
0.554437 0.188724 0.162234
0.595422 0.224704 0.184054
0.631464 0.262028 0.208560
0.664454 0.300237 0.236271
0.695033 0.339605 0.267674
0.723903 0.379187 0.303319
0.751034 0.418585 0.342840
0.775906 0.457313 0.385931
0.797604 0.495613 0.430518
0.816464 0.533104 0.474800
0.832578 0.570123 0.518334
0.846677 0.607080 0.560906
0.859770 0.643793 0.603021
0.871702 0.680018 0.644800
0.882811 0.714351 0.684718
0.893553 0.745327 0.721035
0.038483 0.050050 0.032685
0.042176 0.050446 0.033631
0.046998 0.051575 0.034455
0.059327 0.058106 0.040864
0.071382 0.063142 0.048310
0.086458 0.067811 0.054688
0.106844 0.072023 0.060853
0.133028 0.076661 0.064912
0.165194 0.081239 0.070069
0.203281 0.086061 0.075807
0.247715 0.090455 0.083192
0.297398 0.095766 0.091646
0.350225 0.102998 0.101381
0.404883 0.115297 0.113130
0.458686 0.134432 0.127016
0.509850 0.161196 0.143465
0.556146 0.193881 0.162600
0.596979 0.229465 0.184665
0.633082 0.266423 0.209445
0.665858 0.304387 0.237278
0.696376 0.343420 0.268864
0.725032 0.382574 0.304540
0.752102 0.421485 0.344457
0.776730 0.460060 0.387427
0.798367 0.497963 0.432105
0.817105 0.535241 0.476356
0.833036 0.572045 0.519799
0.847105 0.608789 0.562249
0.860166 0.645350 0.604364
0.872038 0.681392 0.646021
0.883116 0.715541 0.685756
0.893828 0.746395 0.722042
0.048310 0.060304 0.041962
0.050233 0.060578 0.041840
0.053010 0.060792 0.042786
0.059052 0.061616 0.044556
0.069062 0.065797 0.049653
0.085420 0.070924 0.054231
0.106020 0.075715 0.060090
0.132265 0.081117 0.064485
0.164553 0.086366 0.069184
0.203006 0.091676 0.075288
0.247623 0.097353 0.082216
0.297612 0.103334 0.090669
0.350988 0.111940 0.100526
0.405737 0.124666 0.112612
0.460121 0.143923 0.126528
0.511223 0.170382 0.143038
0.557549 0.202243 0.162539
0.598535 0.237369 0.184817
0.634607 0.274113 0.210025
0.667536 0.311711 0.238437
0.698207 0.350195 0.270756
0.726864 0.388952 0.306889
0.753597 0.427008 0.346777
0.777798 0.464454 0.389288
0.798947 0.501274 0.433387
0.817319 0.537560 0.476936
0.833036 0.573602 0.519921
0.847074 0.609857 0.562158
0.860075 0.646174 0.604211
0.872007 0.682155 0.646082
0.883177 0.716335 0.686091
0.894041 0.747311 0.722621
0.056397 0.067994 0.050690
0.058320 0.068269 0.050568
0.060029 0.068452 0.050477
0.063691 0.068757 0.050233
0.069154 0.069947 0.052186
0.080720 0.074098 0.057221
0.102571 0.081086 0.060548
0.131777 0.087739 0.063294
0.164370 0.094209 0.068299
0.203250 0.100710 0.074220
0.248142 0.107393 0.081117
0.298497 0.114748 0.089662
0.352148 0.124422 0.099611
0.406958 0.137972 0.111360
0.461067 0.157229 0.125246
0.511742 0.183017 0.141817
0.557580 0.213535 0.161288
0.598199 0.247135 0.183505
0.634180 0.282597 0.208804
0.667384 0.319249 0.237583
0.698177 0.356878 0.270024
0.726955 0.394812 0.306767
0.753841 0.432288 0.346838
0.778042 0.468940 0.389746
0.799069 0.504936 0.433631
0.817441 0.540703 0.477333
0.833158 0.576226 0.520226
0.847196 0.612146 0.562707
0.860227 0.648157 0.604822
0.872190 0.683925 0.646815
0.883391 0.717891 0.686915
0.894224 0.748653 0.723384
0.062440 0.076936 0.057740
0.063478 0.077150 0.057618
0.065034 0.077302 0.057527
0.067811 0.077638 0.057313
0.073548 0.078218 0.057679
0.080781 0.080201 0.059388
0.094972 0.084565 0.062654
0.122988 0.094026 0.065156
0.158633 0.102907 0.067994
0.200595 0.111299 0.072053
0.245518 0.119631 0.078889
0.295903 0.128389 0.087190
0.349615 0.139101 0.096986
0.404883 0.153323 0.108766
0.458930 0.172549 0.122621
0.509880 0.197269 0.139223
0.555505 0.226535 0.158602
0.596124 0.258549 0.180789
0.632288 0.292332 0.205783
0.665400 0.327367 0.234623
0.696407 0.363775 0.267277
0.725338 0.400031 0.303807
0.737331 0.414679 0.320897
0.764004 0.451972 0.363653
0.787716 0.488930 0.409003
0.808194 0.525505 0.454749
0.825895 0.562066 0.499947
0.841154 0.598596 0.544244
0.855192 0.635645 0.588159
0.868040 0.672602 0.631983
0.879850 0.708492 0.674617
0.891264 0.741360 0.713771
0.066621 0.087007 0.062501
0.068086 0.087160 0.062013
0.069062 0.087037 0.062013
0.071809 0.087312 0.061463
0.076631 0.086976 0.060914
0.083864 0.088991 0.062135
0.094301 0.091127 0.063172
0.109499 0.095399 0.067231
0.141848 0.107362 0.070069
0.182193 0.118654 0.073243
0.229160 0.129397 0.077150
0.281102 0.139620 0.082246
0.333898 0.151186 0.091493
0.389136 0.165438 0.102815
0.444617 0.183963 0.116091
0.497230 0.207614 0.132204
0.544884 0.235050 0.151247
0.586908 0.265599 0.173037
0.623835 0.297368 0.197940
0.657374 0.330327 0.225895
0.688045 0.363928 0.256779
0.716426 0.397467 0.291234
0.742855 0.430732 0.328771
0.767391 0.464302 0.369421
0.789487 0.497963 0.412634
0.809140 0.532341 0.457069
0.826474 0.567468 0.501549
0.841611 0.603235 0.545861
0.855619 0.639643 0.589837
0.868498 0.676204 0.633753
0.880339 0.711666 0.676509
0.891783 0.744106 0.715572
0.072602 0.101503 0.067445
0.073518 0.101656 0.066987
0.074861 0.101503 0.066987
0.077852 0.101167 0.066560
0.082704 0.100832 0.065675
0.089723 0.101442 0.065339
0.099825 0.104250 0.066896
0.113191 0.107668 0.068147
0.130587 0.111360 0.073762
0.169375 0.126375 0.077180
0.215793 0.140841 0.080781
0.269230 0.154665 0.085054
0.328008 0.168826 0.090181
0.386450 0.184695 0.098909
0.442145 0.203738 0.112093
0.495094 0.226413 0.128389
0.542901 0.253239 0.147463
0.585321 0.281956 0.169741
0.622583 0.312413 0.194797
0.656397 0.344060 0.223239
0.687434 0.376318 0.254856
0.716152 0.408484 0.289921
0.742916 0.440528 0.328161
0.767697 0.472938 0.369604
0.789792 0.505638 0.413245
0.809506 0.539086 0.457954
0.826810 0.573266 0.502708
0.841917 0.608270 0.547204
0.855924 0.643977 0.591241
0.868833 0.679896 0.635340
0.880705 0.714839 0.678035
0.892180 0.746822 0.717098
0.079622 0.119783 0.072847
0.080842 0.119661 0.072816
0.082429 0.119509 0.072450
0.085237 0.119020 0.071717
0.090028 0.118257 0.070985
0.096315 0.116854 0.069856
0.106813 0.119478 0.070527
0.120241 0.123232 0.072206
0.136965 0.127413 0.074220
0.155642 0.130678 0.080964
0.199924 0.148714 0.085359
0.252201 0.166201 0.089876
0.310857 0.183597 0.094881
0.372839 0.202365 0.100893
0.434607 0.223301 0.108736
0.490181 0.246250 0.122652
0.538628 0.271489 0.142000
0.581598 0.299107 0.164309
0.619318 0.327855 0.189700
0.653803 0.357916 0.218692
0.685359 0.388434 0.251011
0.714595 0.419135 0.286625
0.741787 0.450111 0.325780
0.766964 0.481392 0.367742
0.789364 0.512993 0.412024
0.809232 0.545464 0.457313
0.826658 0.578729 0.502495
0.841855 0.612940 0.547265
0.855985 0.648005 0.591730
0.868986 0.683406 0.636103
0.880949 0.717952 0.679133
0.892515 0.749569 0.718379
0.088746 0.141695 0.079957
0.089540 0.141451 0.079652
0.091341 0.141115 0.079316
0.094545 0.140444 0.078676
0.099336 0.139254 0.077394
0.105959 0.137453 0.076143
0.114351 0.136934 0.075196
0.127993 0.141207 0.076875
0.144961 0.146212 0.078767
0.165011 0.151522 0.081147
0.185153 0.153994 0.088685
0.234745 0.174685 0.095735
0.292973 0.195987 0.100954
0.354650 0.217594 0.106874
0.417212 0.239963 0.114351
0.477211 0.264103 0.123934
0.531609 0.289708 0.136202
0.575586 0.315740 0.157382
0.614038 0.342779 0.182742
0.649287 0.371008 0.212192
0.681880 0.400671 0.245487
0.712245 0.430426 0.282414
0.740505 0.460609 0.322789
0.766354 0.491310 0.366186
0.789242 0.522057 0.411841
0.809323 0.553491 0.457557
0.826719 0.585626 0.503075
0.841947 0.618647 0.547845
0.856016 0.652644 0.592279
0.869017 0.687037 0.636622
0.880949 0.720790 0.679469
0.892546 0.751827 0.718746
0.099855 0.168551 0.088502
0.100923 0.168185 0.087953
0.102235 0.167788 0.087709
0.105592 0.166506 0.086671
0.110597 0.164584 0.085420
0.116732 0.162356 0.083467
0.124117 0.159121 0.081300
0.136416 0.160983 0.081941
0.153170 0.166293 0.083772
0.173373 0.172457 0.086488
0.196872 0.179019 0.089174
0.217960 0.180209 0.097780
0.272740 0.204044 0.107942
0.334264 0.229282 0.113863
0.397620 0.254368 0.121157
0.459358 0.280003 0.130404
0.516045 0.306126 0.142367
0.565728 0.333013 0.157351
0.609613 0.360113 0.175967
0.645655 0.386999 0.206180
0.678981 0.414771 0.240085
0.709773 0.442847 0.277562
0.738399 0.471656 0.318639
0.764797 0.500725 0.362768
0.788083 0.530388 0.409094
0.808469 0.560754 0.455665
0.826169 0.591852 0.501884
0.841642 0.624048 0.547295
0.855924 0.657313 0.592370
0.869047 0.691127 0.637171
0.881132 0.724331 0.680415
0.892821 0.754910 0.719783
0.112276 0.198489 0.098177
0.113527 0.198062 0.097749
0.114809 0.197360 0.097322
0.118135 0.195804 0.096254
0.123018 0.193606 0.094697
0.129274 0.190463 0.092470
0.136477 0.186404 0.089693
0.144930 0.182132 0.087312
0.161746 0.187839 0.089570
0.181338 0.194400 0.091798
0.204746 0.201541 0.094972
0.231571 0.209293 0.098390
0.239475 0.198337 0.103761
0.295384 0.223728 0.116640
0.357305 0.251072 0.123201
0.419867 0.277989 0.131533
0.480049 0.305089 0.142184
0.534020 0.332494 0.155673
0.581933 0.360021 0.172641
0.625238 0.388220 0.193881
0.663783 0.416205 0.221744
0.696834 0.443885 0.259342
0.727565 0.472297 0.301183
0.755947 0.501488 0.346563
0.781247 0.530938 0.394476
0.803159 0.560845 0.442908
0.822019 0.591485 0.490730
0.838315 0.623224 0.537804
0.853330 0.656245 0.584405
0.867063 0.690028 0.630640
0.879606 0.723568 0.675532
0.891691 0.754635 0.716365
0.123598 0.225467 0.107210
0.124758 0.225010 0.106813
0.126284 0.224582 0.106386
0.129671 0.223392 0.105379
0.134524 0.221378 0.103792
0.140993 0.218662 0.101747
0.148135 0.214420 0.098909
0.156161 0.208957 0.095949
0.168551 0.208225 0.094942
0.187350 0.214572 0.097200
0.209171 0.221378 0.100130
0.234073 0.228550 0.103151
0.262150 0.236240 0.106813
0.280369 0.232700 0.115755
0.338659 0.260166 0.133242
0.401312 0.289616 0.140963
0.462715 0.318608 0.151278
0.519066 0.346960 0.164492
0.569055 0.374914 0.181277
0.614466 0.403479 0.202518
0.655726 0.431556 0.228305
0.693294 0.458961 0.258335
0.726253 0.486366 0.297704
0.755032 0.514061 0.343938
0.780636 0.542168 0.392859
0.802792 0.570703 0.442084
0.821897 0.600214 0.490669
0.838315 0.630732 0.538231
0.853452 0.662684 0.585199
0.867247 0.695613 0.631830
0.879942 0.728206 0.676936
0.892027 0.758572 0.717891
0.139712 0.263035 0.120089
0.140383 0.262333 0.119631
0.142214 0.261784 0.119081
0.145480 0.260533 0.117861
0.150210 0.257969 0.116213
0.156558 0.254368 0.113893
0.163729 0.249729 0.110780
0.171603 0.243503 0.106966
0.179965 0.235782 0.102724
0.196994 0.239963 0.104158
0.218631 0.247044 0.107027
0.243442 0.254917 0.110475
0.271672 0.263096 0.114076
0.302617 0.272221 0.118776
0.320470 0.267765 0.128481
0.380835 0.297124 0.151461
0.443702 0.328832 0.161318
0.502159 0.359045 0.174350
0.554711 0.388128 0.190890
0.602136 0.417182 0.212009
0.645258 0.445106 0.237461
0.684382 0.472419 0.267369
0.720363 0.499641 0.302220
0.753079 0.526635 0.341039
0.779446 0.553307 0.389776
0.801846 0.580499 0.439887
0.821195 0.608637 0.489204
0.837888 0.637873 0.537438
0.853208 0.668757 0.584955
0.867155 0.700679 0.632074
0.879942 0.732509 0.677516
0.892210 0.762264 0.718776
0.156863 0.302251 0.134524
0.157900 0.301396 0.133974
0.159457 0.300664 0.133394
0.162600 0.299138 0.132418
0.167544 0.296361 0.130220
0.173617 0.292912 0.127535
0.180697 0.287388 0.124056
0.188357 0.280583 0.119875
0.196536 0.272221 0.115175
0.206973 0.265812 0.111513
0.228428 0.273228 0.114656
0.252903 0.281102 0.117983
0.280339 0.289738 0.122133
0.311162 0.299504 0.126802
0.344732 0.309880 0.132784
0.364324 0.306584 0.144106
0.422217 0.335027 0.172702
0.483162 0.367773 0.185428
0.538445 0.398779 0.201480
0.588373 0.428717 0.222080
0.633509 0.457404 0.247349
0.674495 0.484901 0.277470
0.712001 0.512047 0.311803
0.745998 0.538750 0.350225
0.775875 0.564874 0.392126
0.800717 0.590631 0.437232
0.820218 0.617060 0.486824
0.836973 0.644709 0.535302
0.852354 0.673976 0.582879
0.866423 0.704524 0.630030
0.879301 0.735348 0.675746
0.891661 0.764431 0.717403
0.176120 0.342046 0.150973
0.177096 0.341192 0.150393
0.178561 0.340307 0.149630
0.181338 0.338354 0.148165
0.185885 0.335119 0.145663
0.191653 0.330694 0.142672
0.198123 0.324895 0.138735
0.205631 0.317632 0.134035
0.213504 0.308904 0.128664
0.221561 0.298772 0.122896
0.237400 0.298314 0.122133
0.261845 0.306767 0.126131
0.289220 0.316258 0.130587
0.319707 0.326360 0.136049
0.352911 0.337713 0.142061
0.388373 0.349432 0.149691
0.408972 0.347021 0.162783
0.462715 0.373419 0.194675
0.520470 0.406592 0.213199
0.572656 0.437842 0.233066
0.619684 0.466987 0.257603
0.662501 0.494972 0.286687
0.701534 0.522087 0.320409
0.736904 0.548730 0.358038
0.768368 0.574640 0.398901
0.795041 0.599908 0.441444
0.817655 0.624994 0.484565
0.835569 0.651057 0.531640
0.851316 0.679225 0.580011
0.865690 0.708919 0.628107
0.878904 0.739223 0.674952
0.891600 0.768063 0.717556
0.198550 0.382910 0.170077
0.199680 0.382147 0.169558
0.200839 0.381323 0.168795
0.203708 0.379217 0.167208
0.207889 0.375982 0.164584
0.213291 0.371435 0.161074
0.219699 0.365545 0.156863
0.226688 0.358129 0.151583
0.234165 0.349126 0.145632
0.241917 0.338811 0.139254
0.249821 0.327153 0.131991
0.272374 0.333776 0.135439
0.299046 0.343084 0.140139
0.328618 0.353155 0.145907
0.360967 0.364233 0.152743
0.395453 0.376318 0.160281
0.431586 0.388861 0.169589
0.452186 0.387366 0.184817
0.501366 0.411719 0.219486
0.556237 0.445197 0.245487
0.605890 0.475990 0.269596
0.650721 0.504845 0.298344
0.691371 0.532433 0.331487
0.728267 0.559258 0.368444
0.761227 0.585351 0.408209
0.789181 0.610376 0.449561
0.812833 0.634852 0.491768
0.832761 0.659693 0.534630
0.850645 0.685908 0.578485
0.865232 0.714443 0.627222
0.878630 0.743771 0.674617
0.891539 0.772000 0.717830
0.223026 0.421942 0.191592
0.223697 0.420691 0.190829
0.216983 0.408331 0.183322
0.219821 0.406470 0.181613
0.223758 0.403571 0.179110
0.228672 0.399634 0.175784
0.234928 0.394354 0.171542
0.242100 0.387854 0.166384
0.249546 0.379858 0.160464
0.257267 0.370336 0.153964
0.265080 0.359625 0.146700
0.277043 0.353216 0.142428
0.303258 0.362799 0.147555
0.332219 0.373236 0.153628
0.363592 0.384527 0.160891
0.397009 0.396643 0.169314
0.432288 0.409552 0.178958
0.468269 0.422797 0.190372
0.488838 0.422156 0.207187
0.533349 0.444617 0.243748
0.586023 0.478004 0.277806
0.633722 0.508843 0.305852
0.676753 0.537743 0.338231
0.716030 0.565698 0.374762
0.751369 0.592767 0.414221
0.781582 0.618494 0.455451
0.807034 0.643427 0.497749
0.828214 0.668177 0.540764
0.847074 0.693904 0.584253
0.864042 0.720882 0.628626
0.878508 0.748989 0.674708
0.891691 0.776638 0.718746
0.248386 0.457893 0.214847
0.248112 0.455848 0.213138
0.248142 0.453346 0.211185
0.249302 0.450324 0.208560
0.252293 0.446235 0.205142
0.256565 0.442054 0.201175
0.262242 0.436835 0.196414
0.268711 0.430549 0.190707
0.275822 0.422797 0.184329
0.283330 0.413825 0.176913
0.290898 0.403418 0.168826
0.298650 0.391791 0.160464
0.317632 0.392615 0.160555
0.345922 0.402960 0.167391
0.376562 0.414099 0.175357
0.409247 0.425849 0.184604
0.443519 0.438209 0.195285
0.478065 0.451026 0.207370
0.512352 0.463966 0.220951
0.531640 0.463905 0.239384
0.570642 0.483131 0.277470
0.620050 0.515526 0.319524
0.664973 0.545739 0.351049
0.705898 0.574243 0.386450
0.742855 0.601831 0.424506
0.774655 0.627832 0.464363
0.801266 0.652583 0.505638
0.823575 0.676814 0.547753
0.843137 0.701869 0.590814
0.860868 0.728176 0.634760
0.876890 0.755154 0.678492
0.891722 0.781216 0.719265
0.281437 0.497658 0.245487
0.280858 0.495705 0.243717
0.280613 0.493599 0.241794
0.281529 0.490913 0.239048
0.284092 0.487404 0.235325
0.288182 0.483345 0.231235
0.293126 0.478676 0.226230
0.299290 0.472969 0.220371
0.305760 0.465919 0.213199
0.312779 0.457557 0.205356
0.320226 0.448005 0.196445
0.327611 0.437110 0.187137
0.335149 0.425177 0.177401
0.361639 0.433478 0.183780
0.391638 0.444038 0.192477
0.423377 0.455238 0.202548
0.456336 0.466987 0.214115
0.489509 0.478889 0.227024
0.522271 0.491279 0.241367
0.554253 0.503471 0.256687
0.571984 0.503746 0.276524
0.605615 0.519707 0.314855
0.652094 0.551659 0.364111
0.694789 0.581292 0.398199
0.733577 0.609827 0.434974
0.767239 0.636530 0.473671
0.795377 0.661372 0.514092
0.818845 0.685451 0.555688
0.839261 0.710048 0.598322
0.857725 0.735805 0.642023
0.874632 0.762051 0.685115
0.889891 0.786709 0.724086
0.318212 0.535912 0.281010
0.317784 0.534295 0.279393
0.317357 0.532372 0.277165
0.318120 0.529961 0.274479
0.320012 0.526787 0.270695
0.323552 0.523186 0.266178
0.328191 0.519127 0.261204
0.333837 0.514092 0.255253
0.339910 0.507836 0.247959
0.346349 0.500542 0.239689
0.353307 0.492164 0.230686
0.360540 0.482490 0.220706
0.367926 0.471809 0.210117
0.380346 0.465339 0.203647
0.409369 0.474891 0.213230
0.439612 0.485023 0.223941
0.470802 0.495430 0.235843
0.501732 0.506065 0.248722
0.532250 0.516930 0.263127
0.562036 0.527764 0.278294
0.590997 0.538842 0.294469
0.606744 0.538628 0.314183
0.635340 0.551629 0.350652
0.679133 0.582818 0.405035
0.719783 0.612177 0.440009
0.755795 0.639918 0.477180
0.786007 0.665339 0.516381
0.811246 0.689448 0.557122
0.832792 0.713710 0.599451
0.852445 0.739132 0.643091
0.870451 0.765164 0.686275
0.886320 0.788846 0.724269
0.353613 0.568322 0.316075
0.353521 0.567468 0.314855
0.353735 0.566369 0.313420
0.354894 0.564782 0.311498
0.357244 0.562402 0.308110
0.360723 0.559564 0.304295
0.364721 0.555962 0.299351
0.369696 0.551446 0.293065
0.375067 0.545892 0.286046
0.380835 0.539300 0.277531
0.386969 0.531792 0.268009
0.393561 0.523095 0.257786
0.400702 0.513817 0.246738
0.408057 0.503563 0.235233
0.426581 0.503441 0.235325
0.455787 0.512871 0.246769
0.485298 0.522576 0.259190
0.514885 0.532616 0.272953
0.544030 0.542992 0.287785
0.572534 0.553521 0.303655
0.600519 0.564172 0.320653
0.627649 0.575036 0.338231
0.642786 0.575830 0.359106
0.667506 0.586572 0.393896
0.709163 0.617914 0.451881
0.747372 0.646845 0.487831
0.779355 0.672999 0.525872
0.805966 0.697353 0.565942
0.828489 0.721309 0.607721
0.849058 0.746456 0.651148
0.867735 0.771298 0.692622
0.884276 0.794247 0.729519
0.397162 0.604059 0.359777
0.397040 0.603113 0.358648
0.397040 0.602197 0.357305
0.397925 0.600732 0.355077
0.399847 0.598779 0.352270
0.402899 0.596277 0.348394
0.406561 0.593408 0.343908
0.410956 0.589715 0.338384
0.415839 0.584985 0.331365
0.421180 0.579370 0.323369
0.426947 0.572869 0.314244
0.433082 0.565576 0.303990
0.439704 0.557580 0.293065
0.446571 0.548577 0.281254
0.453742 0.538872 0.268833
0.477699 0.544182 0.276524
0.505180 0.553063 0.289525
0.532799 0.562188 0.303410
0.559960 0.571588 0.318486
0.586725 0.581323 0.334539
0.613001 0.591150 0.351141
0.638544 0.601007 0.368444
0.663416 0.611261 0.386481
0.677333 0.612177 0.406500
0.700496 0.622980 0.440650
0.739437 0.653773 0.499580
0.773129 0.680903 0.537469
0.801083 0.705653 0.576806
0.824704 0.729580 0.618250
0.846250 0.754421 0.661036
0.865293 0.777798 0.700008
0.882536 0.799954 0.735714
0.437903 0.635279 0.401770
0.437568 0.634516 0.400671
0.437476 0.633722 0.399329
0.438483 0.632654 0.397681
0.440528 0.631250 0.395300
0.443336 0.629419 0.392370
0.446845 0.627070 0.388525
0.450996 0.624140 0.383978
0.455787 0.620569 0.378119
0.461036 0.616297 0.371405
0.466651 0.611261 0.363409
0.472633 0.605402 0.354467
0.479103 0.598871 0.344518
0.486061 0.591760 0.333745
0.493599 0.584039 0.322332
0.502953 0.577234 0.312596
0.529320 0.585901 0.326635
0.555261 0.594690 0.341405
0.580865 0.603540 0.356756
0.605707 0.612390 0.372442
0.630030 0.621332 0.388617
0.653986 0.630488 0.405127
0.677546 0.640009 0.422339
0.700679 0.649928 0.440009
0.714046 0.651575 0.459663
0.731167 0.657618 0.486091
0.765835 0.686427 0.544396
0.795407 0.712276 0.586603
0.820340 0.736568 0.627955
0.842710 0.760861 0.669398
0.862547 0.783505 0.706783
0.880613 0.805203 0.741543
0.484627 0.669825 0.449775
0.484108 0.669093 0.448676
0.484138 0.668391 0.447639
0.484901 0.667567 0.446235
0.486580 0.666285 0.444160
0.488808 0.664790 0.441627
0.491707 0.662806 0.438361
0.495216 0.660395 0.434424
0.499092 0.657313 0.429328
0.503410 0.653620 0.423346
0.508263 0.649500 0.416602
0.513420 0.644404 0.408576
0.519158 0.638880 0.399634
0.525353 0.632837 0.390021
0.532311 0.626337 0.379492
0.539605 0.619409 0.368444
0.553094 0.617395 0.365789
0.577050 0.625422 0.380438
0.600824 0.633570 0.395270
0.624079 0.641810 0.410346
0.646845 0.650019 0.425605
0.669337 0.658564 0.441260
0.691524 0.667323 0.457343
0.713252 0.676387 0.474006
0.734279 0.685512 0.491188
0.746212 0.687098 0.509941
0.758938 0.690211 0.532036
0.789151 0.716762 0.590082
0.815061 0.741726 0.635889
0.837949 0.765072 0.675135
0.858854 0.787503 0.711635
0.877867 0.809018 0.745632
0.529961 0.702022 0.495949
0.529686 0.701503 0.495064
0.529870 0.701076 0.494392
0.530724 0.700496 0.493355
0.532250 0.699733 0.492042
0.534447 0.698695 0.490181
0.537011 0.697230 0.487709
0.540063 0.695399 0.484596
0.543481 0.693080 0.480629
0.547265 0.690150 0.475898
0.551324 0.686793 0.470130
0.555840 0.682795 0.463569
0.560754 0.678309 0.456367
0.566461 0.673487 0.448310
0.572839 0.668391 0.439979
0.579706 0.662928 0.430945
0.587060 0.657008 0.421149
0.603449 0.658961 0.425391
0.625269 0.666499 0.439338
0.646876 0.673915 0.453498
0.668055 0.681483 0.467872
0.688838 0.689082 0.482612
0.709071 0.696742 0.497749
0.728786 0.704463 0.513359
0.747860 0.712276 0.529595
0.766110 0.720119 0.546319
0.776333 0.721553 0.564355
0.785855 0.723018 0.583459
0.810849 0.746700 0.639521
0.834073 0.770108 0.683253
0.855985 0.792447 0.718654
0.875914 0.813901 0.751888
0.577295 0.732326 0.543786
0.577111 0.732021 0.543145
0.577325 0.731716 0.542657
0.577935 0.731258 0.541833
0.578943 0.730556 0.540490
0.580346 0.729610 0.538628
0.581720 0.728145 0.536004
0.583368 0.726314 0.532586
0.585321 0.723964 0.528435
0.587427 0.721218 0.523552
0.590021 0.718044 0.517876
0.593042 0.714504 0.511711
0.596765 0.710689 0.504906
0.601312 0.706600 0.497963
0.606653 0.702419 0.490761
0.613031 0.698207 0.483436
0.619867 0.693721 0.475654
0.627314 0.688869 0.467353
0.645350 0.693568 0.476875
0.665217 0.700160 0.490211
0.684718 0.706722 0.503868
0.703853 0.713344 0.517906
0.722469 0.720027 0.532433
0.740597 0.726864 0.547539
0.758175 0.733761 0.563287
0.774899 0.740780 0.579583
0.790768 0.747646 0.596124
0.798947 0.748562 0.612451
0.806088 0.749142 0.628748
0.827817 0.770260 0.678614
0.850309 0.793210 0.719997
0.871580 0.815122 0.753262
0.618402 0.755489 0.585840
0.618433 0.755306 0.585412
0.618616 0.755184 0.585138
0.619318 0.754940 0.584619
0.620417 0.754574 0.583886
0.621759 0.754086 0.582666
0.623407 0.753262 0.581018
0.625238 0.752224 0.578820
0.627283 0.750912 0.576074
0.629603 0.749325 0.572747
0.632319 0.747494 0.569024
0.635401 0.745357 0.564691
0.639124 0.743069 0.560113
0.643458 0.740597 0.555291
