data/fiter_cube/21023058/1023011/file.cube
# Created by Adobe Lightroom plugin Export LUT (1.17.0)
# www.johnrellis.com/lightroom/exportlut.htm
# Preset: 温暖焦糖婚礼婚纱_07 云集
# Color profile: C:\Program Files (x86)\Common Files\Adobe\Color\Profiles\Recommended\AdobeRGB1998.icc
LUT_3D_SIZE 8
DOMAIN_MIN 0.000000 0.000000 0.000000
DOMAIN_MAX 0.903226 0.903226 0.903226
0.031067 0.037263 0.027527
0.071717 0.060243 0.048737
0.163638 0.076936 0.070222
0.345129 0.095644 0.100893
0.550622 0.183200 0.160739
0.692226 0.334295 0.264561
0.796017 0.491707 0.426978
0.859007 0.641138 0.600366
0.056397 0.067994 0.050690
0.069154 0.069947 0.052186
0.164370 0.094209 0.068299
0.352148 0.124422 0.099611
0.557580 0.213535 0.161288
0.698177 0.356878 0.270024
0.799069 0.504936 0.433631
0.860227 0.648157 0.604822
0.079622 0.119783 0.072847
0.090028 0.118257 0.070985
0.136965 0.127413 0.074220
0.310857 0.183597 0.094881
0.538628 0.271489 0.142000
0.685359 0.388434 0.251011
0.789364 0.512993 0.412024
0.855985 0.648005 0.591730
0.123598 0.225467 0.107210
0.134524 0.221378 0.103792
0.168551 0.208225 0.094942
0.262150 0.236240 0.106813
0.462715 0.318608 0.151278
0.655726 0.431556 0.228305
0.780636 0.542168 0.392859
0.853452 0.662684 0.585199
0.198550 0.382910 0.170077
0.207889 0.375982 0.164584
0.234165 0.349126 0.145632
0.299046 0.343084 0.140139
0.431586 0.388861 0.169589
0.605890 0.475990 0.269596
0.761227 0.585351 0.408209
0.850645 0.685908 0.578485
0.318212 0.535912 0.281010
0.320012 0.526787 0.270695
0.339910 0.507836 0.247959
0.367926 0.471809 0.210117
0.470802 0.495430 0.235843
0.590997 0.538842 0.294469
0.719783 0.612177 0.440009
0.832792 0.713710 0.599451
0.484627 0.669825 0.449775
0.486580 0.666285 0.444160
0.499092 0.657313 0.429328
0.519158 0.638880 0.399634
0.553094 0.617395 0.365789
0.646845 0.650019 0.425605
0.734279 0.685512 0.491188
0.815061 0.741726 0.635889
0.666102 0.778866 0.635157
0.667720 0.778317 0.633814
0.672755 0.775875 0.627771
0.681666 0.770657 0.615412
0.706935 0.768826 0.610681
0.741970 0.768948 0.614191
0.794553 0.785336 0.660670
0.840787 0.805386 0.708461
0.077302 0.078248 0.072847
0.075959 0.070405 0.068788
0.181033 0.084932 0.076997
0.356847 0.115816 0.101595
0.562097 0.208682 0.164431
0.702815 0.357092 0.275975
0.802121 0.506554 0.440467
0.862272 0.651637 0.611536
0.073426 0.077485 0.071962
0.093874 0.093751 0.086641
0.178683 0.104616 0.076112
0.354833 0.138003 0.098207
0.561913 0.230106 0.161685
0.703548 0.371588 0.275700
0.803830 0.516747 0.444373
0.863523 0.658503 0.616114
0.093660 0.141299 0.100984
0.117830 0.157198 0.103273
0.143343 0.131594 0.077974
0.317540 0.190585 0.097230
0.547387 0.284916 0.144442
0.693263 0.402625 0.259434
0.797391 0.528862 0.429694
0.860197 0.660060 0.605798
0.153445 0.280644 0.149935
0.161715 0.264164 0.135317
0.177096 0.213107 0.096803
0.273594 0.244083 0.110445
0.482643 0.335760 0.160189
0.670039 0.449500 0.244968
0.789975 0.557275 0.412696
0.857816 0.673701 0.599512
0.222538 0.411627 0.200839
0.225986 0.394965 0.183841
0.239322 0.348302 0.144472
0.310460 0.351385 0.143801
0.442512 0.397436 0.175814
0.615106 0.485359 0.279210
0.766842 0.592859 0.419196
0.853635 0.692378 0.588281
0.326513 0.538537 0.284886
0.329931 0.530694 0.273686
0.349737 0.512779 0.251896
0.375738 0.475898 0.212680
0.478889 0.500999 0.241123
0.594568 0.541405 0.298528
0.723720 0.616327 0.445441
0.835477 0.717983 0.606409
0.493751 0.674525 0.456123
0.497993 0.672755 0.453071
0.508965 0.663111 0.437415
0.526513 0.643427 0.405798
0.559442 0.621912 0.372290
0.652338 0.654627 0.432319
0.739559 0.690669 0.499062
0.819028 0.747036 0.645014
0.671260 0.781125 0.640223
0.672053 0.780209 0.638056
0.676631 0.777676 0.631769
0.685054 0.772396 0.619196
0.702937 0.766262 0.605127
0.740902 0.768002 0.612268
0.795712 0.786343 0.662745
0.842466 0.807156 0.711666
0.215610 0.203494 0.211368
0.210605 0.192599 0.206821
0.220493 0.160281 0.193362
0.464729 0.182712 0.238041
0.577874 0.234012 0.201144
0.697963 0.362036 0.269291
0.799954 0.506767 0.435492
0.861967 0.650843 0.610437
0.228519 0.218509 0.218479
0.237736 0.224704 0.229831
0.249821 0.196475 0.223117
0.475471 0.226230 0.254154
0.579828 0.259831 0.202670
0.698878 0.375860 0.269352
0.800931 0.515282 0.437842
0.862394 0.655299 0.612329
0.188815 0.197208 0.201755
0.215244 0.219669 0.222507
0.324804 0.310613 0.304814
0.450080 0.291325 0.228061
0.561547 0.306676 0.180850
0.689540 0.404791 0.254429
0.796750 0.530571 0.428382
0.860990 0.662135 0.608484
0.197452 0.328496 0.279362
0.233707 0.353887 0.293614
0.325505 0.398077 0.293370
0.365240 0.328679 0.202304
0.496437 0.347814 0.176516
0.666743 0.448402 0.243442
0.788754 0.556481 0.410071
0.858000 0.673610 0.600153
0.292271 0.482246 0.345861
0.319432 0.493690 0.350805
0.359899 0.486702 0.316136
0.364111 0.404944 0.209720
0.437903 0.388220 0.174807
0.616632 0.485054 0.278660
0.768124 0.593866 0.420783
0.854704 0.693690 0.591699
0.408453 0.596674 0.421881
0.424140 0.600702 0.422278
0.426001 0.575250 0.372015
0.409064 0.503441 0.258579
0.487861 0.503624 0.244511
0.598169 0.542199 0.303044
0.729427 0.620905 0.451362
0.837491 0.719600 0.609613
0.532525 0.696468 0.515007
0.531151 0.692439 0.505058
0.526452 0.673701 0.467262
0.526635 0.639704 0.400244
0.564813 0.623774 0.375647
0.655329 0.655299 0.433906
0.738735 0.688228 0.497353
0.819577 0.746426 0.643885
0.670680 0.780758 0.639490
0.673091 0.780758 0.639307
0.678950 0.778897 0.634546
0.685756 0.772854 0.620264
0.704067 0.766964 0.606744
0.741238 0.768246 0.612726
0.795834 0.786160 0.662470
0.842344 0.806455 0.710597
0.480262 0.455818 0.472236
0.474342 0.446571 0.467353
0.477424 0.430732 0.466926
0.492134 0.376593 0.445991
0.667170 0.454780 0.503258
0.737270 0.453071 0.459022
0.806821 0.523400 0.466865
0.866270 0.661646 0.625208
0.483253 0.461860 0.471229
0.481727 0.457984 0.470985
0.486763 0.447639 0.474708
0.504387 0.402472 0.460395
0.669093 0.465949 0.506981
0.736049 0.462928 0.458045
0.806546 0.529168 0.465461
0.866331 0.664332 0.625574
0.463600 0.445167 0.439246
0.480537 0.461952 0.458015
0.524895 0.501946 0.505211
0.547631 0.483223 0.508995
0.669764 0.491646 0.508202
0.725704 0.484291 0.443336
0.798245 0.534569 0.442329
0.863310 0.665431 0.616144
0.407874 0.421332 0.434455
0.427771 0.437201 0.447913
0.495277 0.490883 0.493355
0.600427 0.578271 0.568444
0.651270 0.534325 0.484565
0.713985 0.519707 0.415961
0.793118 0.560876 0.419623
0.861143 0.678248 0.610437
0.383581 0.517388 0.488838
0.418860 0.539422 0.508019
0.505760 0.586755 0.543847
0.567041 0.602014 0.528649
0.587579 0.546136 0.438819
0.666957 0.543847 0.396551
0.772793 0.595544 0.424659
0.857603 0.696651 0.600946
0.486244 0.634302 0.550652
0.497719 0.636713 0.550652
0.541741 0.651057 0.556268
0.563043 0.639979 0.517571
0.557031 0.574975 0.404578
0.624292 0.569390 0.375341
0.736446 0.624689 0.456153
0.842313 0.722957 0.616541
0.581842 0.718257 0.604181
0.588190 0.719326 0.603479
0.607813 0.722347 0.599420
0.602258 0.702937 0.550011
0.583246 0.644923 0.439185
0.654231 0.651606 0.429358
0.738766 0.685939 0.497627
0.824399 0.750210 0.650385
0.696468 0.788327 0.688228
0.698817 0.788602 0.687282
0.706996 0.789731 0.683436
0.698268 0.780240 0.648737
0.703487 0.767910 0.608728
0.740444 0.768429 0.612818
0.796139 0.786374 0.662959
0.842710 0.806058 0.710811
0.659693 0.633234 0.639612
0.657191 0.629450 0.637507
0.655482 0.621942 0.635981
0.661555 0.609583 0.636378
0.668574 0.570306 0.618250
0.771969 0.646296 0.670710
0.818479 0.634485 0.649378
0.867094 0.691127 0.678248
0.660090 0.635004 0.638514
0.657099 0.630854 0.636011
0.656275 0.624933 0.635767
0.664881 0.616999 0.639704
0.673884 0.582361 0.624842
0.772366 0.649836 0.672053
0.817472 0.635126 0.647761
0.867002 0.691646 0.676051
0.657679 0.635187 0.631189
0.663569 0.640803 0.637629
0.668574 0.643397 0.644556
0.676692 0.640558 0.651423
0.691218 0.619654 0.646540
0.774258 0.661707 0.676570
0.814115 0.642542 0.644678
0.867338 0.694789 0.669337
0.629084 0.608606 0.603143
0.635462 0.614374 0.607538
0.657740 0.635340 0.624842
0.695247 0.671839 0.667170
0.714199 0.669337 0.676173
0.770504 0.665858 0.668696
0.809812 0.646754 0.623102
0.866819 0.693874 0.646418
0.594110 0.596460 0.601678
0.601984 0.602502 0.606592
0.630274 0.624842 0.625177
0.678950 0.665370 0.660151
0.739956 0.718715 0.709163
0.758175 0.675868 0.639857
0.803647 0.657069 0.585657
0.864714 0.704829 0.624475
0.556878 0.630579 0.615381
0.572992 0.643458 0.626642
0.624170 0.684565 0.663233
0.689998 0.723659 0.696803
0.708339 0.721401 0.671046
0.717189 0.680171 0.598413
0.774258 0.675135 0.565911
0.852171 0.729824 0.631037
0.651453 0.745144 0.698970
0.658320 0.746975 0.700130
0.677943 0.751797 0.702022
0.700099 0.756130 0.698085
0.694911 0.741817 0.651698
0.691554 0.699458 0.559472
0.754025 0.704677 0.552941
0.834501 0.759213 0.665583
0.730587 0.800748 0.745907
0.733272 0.801511 0.745998
0.741207 0.803616 0.745083
0.748196 0.804074 0.736294
0.743038 0.795163 0.701350
0.741512 0.773922 0.635431
0.797879 0.788693 0.667384
0.845335 0.808103 0.716152
0.759823 0.736599 0.739315
0.758999 0.735317 0.738613
0.758206 0.732631 0.738094
0.757382 0.726650 0.736690
0.763516 0.720089 0.738003
0.766537 0.695735 0.725154
0.826841 0.744900 0.762997
0.870542 0.761898 0.776059
0.762936 0.740291 0.741970
0.762448 0.739406 0.741604
0.760983 0.736263 0.740566
0.760189 0.730739 0.739315
0.765927 0.724514 0.740749
0.769131 0.701839 0.728847
0.828458 0.748714 0.765682
0.870817 0.762387 0.775906
0.763027 0.741665 0.740139
0.763027 0.741421 0.740352
0.762264 0.739528 0.740352
0.762387 0.736172 0.740841
0.768917 0.733181 0.744442
0.774502 0.716518 0.736873
0.832242 0.758877 0.772335
0.870573 0.761105 0.772213
0.751034 0.730251 0.723659
0.753475 0.732753 0.726650
0.761501 0.740658 0.736324
0.766629 0.744411 0.743221
0.772549 0.744442 0.748745
0.781765 0.736263 0.747982
0.832639 0.761929 0.771603
0.868345 0.755825 0.761288
0.736599 0.718257 0.714595
0.738674 0.719936 0.715877
0.746029 0.726345 0.720729
0.759701 0.738766 0.730556
0.782895 0.761532 0.758663
0.796201 0.763333 0.767178
0.829923 0.757565 0.760586
0.868070 0.756741 0.744717
0.717739 0.713252 0.714992
0.719936 0.714778 0.716091
0.730007 0.722408 0.722438
0.748043 0.736568 0.734768
0.774380 0.758358 0.755032
0.811643 0.791379 0.787900
0.818570 0.755947 0.731746
0.865812 0.760555 0.714351
0.693324 0.726925 0.720668
0.696468 0.729122 0.722347
0.709194 0.738369 0.729732
0.742519 0.765164 0.754452
0.779416 0.793118 0.779202
0.781430 0.784787 0.750881
0.792355 0.760372 0.702663
0.849607 0.778836 0.711330
0.761166 0.811582 0.793149
0.764767 0.813748 0.795193
0.773617 0.817990 0.797910
0.783474 0.821561 0.797116
0.793729 0.824765 0.791257
0.790433 0.816220 0.757382
0.802243 0.799344 0.711604
0.847379 0.809232 0.721706
0.830594 0.809354 0.815244
0.830472 0.809018 0.815244
0.828824 0.806546 0.813657
0.826566 0.802304 0.811215
0.825895 0.797299 0.809445
0.829618 0.791836 0.809262
0.829191 0.775265 0.798489
0.871702 0.809659 0.828855
0.828702 0.807553 0.812985
0.828641 0.807370 0.813046
0.827237 0.805173 0.811734
0.825284 0.801328 0.809689
0.824399 0.796231 0.807797
0.827909 0.790646 0.807462
0.827604 0.774166 0.796841
0.870451 0.808347 0.827207
0.830350 0.809903 0.813962
0.829892 0.809293 0.813565
0.828275 0.807095 0.812161
0.826505 0.803769 0.810575
0.825589 0.799222 0.809018
0.829526 0.795010 0.809751
0.831083 0.781491 0.801755
0.873686 0.815152 0.832212
0.828641 0.808835 0.810483
0.829160 0.809323 0.811185
0.830503 0.810452 0.813138
0.829252 0.808255 0.812497
0.828794 0.805234 0.812161
0.833310 0.803281 0.814694
0.836973 0.793332 0.809995
0.878111 0.824460 0.838712
0.818296 0.798215 0.795621
0.818448 0.798398 0.796048
0.820310 0.800412 0.798947
0.826017 0.806210 0.806638
0.830777 0.810056 0.813199
0.834989 0.810025 0.817258
0.841550 0.804685 0.816983
0.881041 0.829648 0.841062
0.808133 0.790799 0.792416
0.808804 0.791318 0.792782
0.811307 0.793240 0.794186
0.816403 0.797482 0.797421
0.824613 0.804715 0.802945
0.841032 0.821073 0.823331
0.852049 0.824063 0.831357
0.880430 0.823758 0.831144
0.797391 0.788602 0.792996
0.798581 0.789517 0.793851
0.801724 0.791867 0.795834
0.807706 0.796506 0.799924
0.817105 0.803830 0.806516
0.833799 0.817838 0.819760
0.863767 0.845518 0.847379
0.875029 0.820523 0.804959
0.792416 0.803098 0.805020
0.793210 0.803830 0.805570
0.797696 0.807889 0.809110
0.803189 0.813291 0.813230
0.818418 0.828611 0.826596
0.844755 0.851133 0.846250
0.841764 0.843046 0.819242
0.860807 0.832425 0.791196
0.876921 0.858976 0.866270
0.876799 0.858732 0.866209
0.875456 0.856809 0.864927
0.873960 0.854307 0.863432
0.872374 0.850828 0.861540
0.871641 0.846464 0.859678
0.874052 0.842039 0.859037
0.873411 0.830411 0.851591
0.876188 0.858152 0.865476
0.876097 0.857908 0.865415
0.874907 0.856229 0.864256
0.873411 0.853788 0.862730
0.871885 0.850431 0.860960
0.871183 0.846189 0.859159
0.873442 0.841642 0.858457
0.872984 0.830137 0.851164
0.876188 0.858366 0.865171
0.875944 0.858091 0.864988
0.874662 0.856352 0.863706
0.873960 0.854887 0.863127
0.872313 0.851591 0.861357
0.871366 0.847318 0.859464
0.873747 0.843290 0.859098
0.873960 0.832731 0.852689
0.877501 0.860288 0.865934
0.877440 0.860136 0.865934
0.876341 0.858762 0.864958
0.875120 0.856962 0.863951
0.873716 0.854185 0.862638
0.872953 0.850675 0.861326
0.875395 0.847349 0.861509
0.876616 0.838285 0.856474
0.873777 0.856474 0.860502
0.874174 0.856901 0.861082
0.874876 0.857633 0.862181
0.876982 0.859770 0.865049
0.875456 0.857359 0.863981
0.874479 0.854368 0.863035
0.877073 0.852171 0.864103
0.880430 0.846098 0.861875
0.869444 0.851926 0.855192
0.869444 0.851865 0.855009
0.869841 0.852140 0.854826
0.871336 0.853788 0.856596
0.874846 0.857603 0.861723
0.878233 0.860563 0.866575
0.881407 0.860777 0.869688
0.887083 0.858396 0.870909
0.865049 0.849546 0.855680
0.865141 0.849577 0.855650
0.865751 0.849973 0.855772
0.867643 0.851438 0.856809
0.870939 0.854246 0.858793
0.876463 0.859342 0.862425
0.886656 0.870176 0.875334
0.893156 0.870878 0.879454
0.861875 0.851682 0.859495
0.862089 0.851835 0.859648
0.863401 0.852903 0.860533
0.865599 0.854704 0.862089
0.868650 0.857115 0.864073
0.873533 0.861051 0.867338
0.882322 0.868650 0.873869
0.902831 0.888975 0.892515
