data/fiter_cube/21023058/1023011/file.cube
# Created by Adobe Lightroom plugin Export LUT (1.17.0)
# www.johnrellis.com/lightroom/exportlut.htm
# Preset: 温暖焦糖婚礼婚纱_07 云集
# Color profile: C:\Program Files (x86)\Common Files\Adobe\Color\Profiles\Recommended\AdobeRGB1998.icc
LUT_3D_SIZE 5
DOMAIN_MIN 0.000000 0.000000 0.000000
DOMAIN_MAX 0.903226 0.903226 0.903226
0.031067 0.037263 0.027527
0.132021 0.072847 0.065339
0.452674 0.124880 0.125978
0.721309 0.374212 0.299901
0.859007 0.641138 0.600366
0.072602 0.101503 0.067445
0.113191 0.107668 0.068147
0.442145 0.203738 0.112093
0.716152 0.408484 0.289921
0.855924 0.643977 0.591241
0.156863 0.302251 0.134524
0.188357 0.280583 0.119875
0.344732 0.309880 0.132784
0.674495 0.484901 0.277470
0.852354 0.673976 0.582879
0.353613 0.568322 0.316075
0.369696 0.551446 0.293065
0.426581 0.503441 0.235325
0.627649 0.575036 0.338231
0.828489 0.721309 0.607721
0.666102 0.778866 0.635157
0.671260 0.776761 0.629908
0.697169 0.772000 0.618006
0.755917 0.773007 0.626001
0.840787 0.805386 0.708461
0.169955 0.161654 0.165011
0.169253 0.127596 0.148226
0.491585 0.171847 0.159030
0.730739 0.402045 0.311711
0.862882 0.653742 0.613611
0.147982 0.154849 0.155917
0.247349 0.236362 0.230228
0.475715 0.239597 0.143954
0.723964 0.428290 0.299504
0.861112 0.659144 0.608576
0.225834 0.396368 0.271672
0.291142 0.411475 0.252934
0.360418 0.318456 0.141787
0.684779 0.497536 0.291630
0.855314 0.680476 0.592432
0.418250 0.610010 0.409003
0.412024 0.579736 0.353918
0.437903 0.506676 0.239322
0.631006 0.575891 0.342565
0.831693 0.725032 0.614221
0.667384 0.779416 0.636316
0.672572 0.777310 0.631159
0.692134 0.769039 0.611475
0.754360 0.771603 0.623011
0.840665 0.804685 0.707393
0.582666 0.555901 0.566674
0.579126 0.544396 0.563745
0.594507 0.486610 0.544884
0.773220 0.541558 0.567254
0.868040 0.666011 0.631403
0.583490 0.561608 0.560174
0.596674 0.571344 0.575402
0.620386 0.541009 0.575128
0.767666 0.560266 0.567559
0.866758 0.670405 0.627619
0.513970 0.521538 0.530541
0.556512 0.554528 0.557794
0.684321 0.662104 0.651026
0.750179 0.597192 0.523766
0.862608 0.690639 0.616236
0.555352 0.677913 0.622522
0.592340 0.690791 0.629969
0.635462 0.688289 0.591211
0.678584 0.628473 0.474952
0.843229 0.735317 0.633356
0.714321 0.794827 0.718318
0.721462 0.795926 0.715633
0.720668 0.787259 0.675013
0.756405 0.774685 0.628992
0.844755 0.807980 0.714961
0.782345 0.759762 0.762936
0.779904 0.756008 0.760616
0.777920 0.746090 0.757198
0.784604 0.720516 0.746334
0.872465 0.781003 0.796841
0.783200 0.761715 0.762325
0.781765 0.759365 0.761379
0.781186 0.752529 0.760403
0.789822 0.733364 0.753994
0.873411 0.782406 0.796628
0.768917 0.748135 0.740749
0.773800 0.753231 0.747341
0.789517 0.767880 0.767330
0.802213 0.762295 0.771969
0.872221 0.774197 0.781003
0.740078 0.734096 0.735836
0.748013 0.740108 0.740932
0.772946 0.759609 0.758267
0.826444 0.806485 0.804623
0.868284 0.777005 0.739528
0.762203 0.807279 0.794369
0.773037 0.814054 0.800626
0.797604 0.827695 0.809018
0.801816 0.821592 0.771054
0.850431 0.814481 0.738003
0.876921 0.858976 0.866270
0.875853 0.857389 0.865293
0.873228 0.852720 0.862547
0.871885 0.845396 0.859403
0.873411 0.830411 0.851591
0.876371 0.858518 0.865507
0.875425 0.857176 0.864591
0.873106 0.853147 0.862303
0.871580 0.846006 0.859220
0.873960 0.832303 0.852567
0.875731 0.858518 0.863493
0.876432 0.859159 0.864500
0.874693 0.856535 0.863340
0.873045 0.850675 0.861173
0.878141 0.841581 0.858671
0.869108 0.851987 0.856016
0.869444 0.852140 0.855833
0.872496 0.854948 0.857664
0.879545 0.862028 0.867887
0.888304 0.861021 0.872648
0.861875 0.851682 0.859495
0.862913 0.852506 0.860197
0.866972 0.855802 0.862974
0.875242 0.862486 0.868528
0.902831 0.888975 0.892515
