data/fiter_cube/89100697/1022670/file.cube
# Created by Adobe Lightroom plugin Export LUT (1.17.0)
# www.johnrellis.com/lightroom/exportlut.htm
# Preset: VSCO胶片_04 云集
# Color profile: C:\Program Files (x86)\Common Files\Adobe\Color\Profiles\Recommended\AdobeRGB1998.icc
LUT_3D_SIZE 32
DOMAIN_MIN 0.0 0.0 0.0
DOMAIN_MAX 1.0 1.0 1.0
0.000000 0.000000 0.000000
0.023774 0.000793 0.000000
0.053376 0.001434 0.000000
0.082612 0.005097 0.000000
0.116670 0.015473 0.000000
0.156252 0.025055 0.000000
0.202213 0.015930 0.000000
0.252964 0.000000 0.000000
0.306615 0.000000 0.000000
0.361883 0.000000 0.000000
0.417884 0.000000 0.000000
0.473365 0.000000 0.000000
0.527581 0.000000 0.000000
0.580438 0.000000 0.000000
0.631464 0.000000 0.000000
0.679011 0.000000 0.000000
0.722164 0.000000 0.000000
0.762936 0.000000 0.000000
0.800595 0.000000 0.000000
0.835172 0.000000 0.000000
0.867491 0.000000 0.000000
0.897612 0.000000 0.000000
0.925566 0.000000 0.000000
0.951537 0.067445 0.000000
0.975708 0.116121 0.000000
0.998352 0.149691 0.000000
1.000000 0.177554 0.000000
1.000000 0.201236 0.000000
1.000000 0.221683 0.000000
1.000000 0.239506 0.000000
1.000000 0.254734 0.000000
1.000000 0.267277 0.000000
0.001526 0.019532 0.003784
0.020356 0.022431 0.000000
0.051698 0.024079 0.000000
0.082002 0.028931 0.000000
0.116152 0.045319 0.000000
0.155703 0.051270 0.000000
0.201266 0.047791 0.000000
0.251896 0.021881 0.000000
0.305486 0.000000 0.000000
0.360571 0.000000 0.000000
0.416510 0.000000 0.000000
0.471870 0.000000 0.000000
0.526024 0.000000 0.000000
0.578759 0.000000 0.000000
0.629755 0.000000 0.000000
0.677363 0.000000 0.000000
0.720485 0.000000 0.000000
0.761349 0.000000 0.000000
0.798764 0.000000 0.000000
0.833341 0.000000 0.000000
0.865629 0.000000 0.000000
0.895781 0.000000 0.000000
0.923857 0.000000 0.000000
0.950011 0.081758 0.000000
0.974334 0.125032 0.000000
0.997101 0.156405 0.000000
1.000000 0.182437 0.000000
1.000000 0.205600 0.000000
1.000000 0.225864 0.000000
1.000000 0.243076 0.000000
1.000000 0.258030 0.000000
1.000000 0.270390 0.000000
0.004547 0.044648 0.009216
0.016693 0.046235 0.006592
0.045899 0.050843 0.001038
0.080812 0.059541 0.000000
0.114809 0.065705 0.000000
0.154971 0.069581 0.000000
0.200412 0.068513 0.000000
0.250645 0.059449 0.000000
0.304204 0.021515 0.000000
0.359319 0.000000 0.000000
0.415106 0.000000 0.000000
0.470436 0.000000 0.000000
0.524468 0.000000 0.000000
0.577417 0.000000 0.000000
0.628260 0.000000 0.000000
0.676143 0.000000 0.000000
0.719326 0.000000 0.000000
0.760189 0.000000 0.000000
0.797604 0.000000 0.000000
0.832029 0.000000 0.000000
0.864408 0.000000 0.000000
0.894682 0.000000 0.000000
0.922820 0.033875 0.000000
0.949004 0.101472 0.000000
0.973419 0.137728 0.000000
0.996338 0.165896 0.000000
1.000000 0.190616 0.000000
1.000000 0.212314 0.000000
1.000000 0.231571 0.000000
1.000000 0.248478 0.000000
1.000000 0.262821 0.000000
1.000000 0.274632 0.000000
0.009522 0.073213 0.019532
0.020478 0.073426 0.017029
0.041596 0.074220 0.015198
0.076753 0.079805 0.000000
0.113405 0.089052 0.000000
0.151858 0.092683 0.000000
0.197604 0.094728 0.000000
0.248631 0.091493 0.000000
0.302647 0.081514 0.000000
0.357488 0.061158 0.000000
0.413031 0.000000 0.000000
0.468391 0.000000 0.000000
0.522332 0.000000 0.000000
0.574975 0.000000 0.000000
0.626001 0.000000 0.000000
0.673915 0.000000 0.000000
0.717342 0.000000 0.000000
0.758572 0.000000 0.000000
0.795529 0.000000 0.000000
0.829831 0.000000 0.000000
0.862211 0.000000 0.000000
0.892515 0.046906 0.000000
0.920867 0.102327 0.000000
0.947356 0.134432 0.000000
0.972198 0.161898 0.000000
0.995453 0.185977 0.000000
1.000000 0.207675 0.000000
1.000000 0.227298 0.000000
1.000000 0.245060 0.000000
1.000000 0.260319 0.000000
1.000000 0.273686 0.000000
1.000000 0.284550 0.000000
0.013367 0.098817 0.033326
0.023774 0.098726 0.027649
0.047486 0.098360 0.028260
0.072419 0.101503 0.021424
0.104250 0.110475 0.000000
0.149660 0.122652 0.000000
0.193362 0.124666 0.000000
0.243351 0.123934 0.000000
0.297185 0.119844 0.000000
0.352789 0.111757 0.000000
0.409308 0.098482 0.000000
0.464912 0.079530 0.000000
0.518975 0.045960 0.000000
0.571618 0.000000 0.000000
0.622736 0.000000 0.000000
0.671015 0.000000 0.000000
0.715328 0.000000 0.000000
0.756619 0.000000 0.000000
0.793606 0.000000 0.000000
0.827878 0.069123 0.000000
0.860197 0.099245 0.000000
0.890593 0.126864 0.000000
0.919127 0.150607 0.000000
0.945800 0.172854 0.000000
0.970794 0.193759 0.000000
0.994202 0.213413 0.000000
1.000000 0.231540 0.000000
1.000000 0.248417 0.000000
1.000000 0.264012 0.000000
1.000000 0.277775 0.000000
1.000000 0.289403 0.000000
1.000000 0.299229 0.000000
0.011810 0.126009 0.046845
0.019043 0.126284 0.035706
0.044678 0.125765 0.035309
0.069215 0.125277 0.034333
0.095705 0.132906 0.019471
0.134829 0.144076 0.000000
0.190768 0.160159 0.000000
0.239384 0.160769 0.000000
0.291142 0.157382 0.000000
0.346960 0.154116 0.000000
0.403418 0.148531 0.000000
0.459541 0.140169 0.000000
0.514427 0.131075 0.000000
0.567926 0.121523 0.000000
0.619379 0.115145 0.000000
0.667964 0.113863 0.000000
0.713344 0.116884 0.000000
0.754452 0.125521 0.000000
0.791409 0.135866 0.000000
0.825956 0.149142 0.000000
0.858427 0.164401 0.000000
0.889097 0.180423 0.000000
0.926421 0.205600 0.000000
0.952422 0.221622 0.000000
0.976684 0.237522 0.000000
0.999298 0.252201 0.000000
1.000000 0.266880 0.000000
1.000000 0.280186 0.000000
1.000000 0.292485 0.000000
1.000000 0.303563 0.000000
1.000000 0.313176 0.000000
1.000000 0.320867 0.000000
0.004913 0.157351 0.055116
0.007935 0.157351 0.042634
0.032197 0.156985 0.042237
0.065736 0.156252 0.042512
0.088960 0.157687 0.037446
0.123690 0.169162 0.011536
0.170718 0.182956 0.000000
0.237797 0.202640 0.000000
0.290043 0.202121 0.000000
0.344213 0.198672 0.000000
0.399725 0.193790 0.000000
0.456184 0.190524 0.000000
0.511376 0.186557 0.000000
0.565209 0.182925 0.000000
0.617060 0.181338 0.000000
0.667109 0.182956 0.000000
0.713649 0.186831 0.000000
0.754574 0.192599 0.000000
0.791653 0.199924 0.000000
0.826505 0.208927 0.000000
0.859617 0.220188 0.000000
0.891112 0.232609 0.000000
0.920562 0.245579 0.000000
0.947967 0.259037 0.000000
0.973388 0.272282 0.000000
0.996704 0.285039 0.000000
1.000000 0.297154 0.000000
1.000000 0.308324 0.000000
1.000000 0.318822 0.000000
1.000000 0.328008 0.000000
1.000000 0.335882 0.000000
1.000000 0.342290 0.000000
0.000000 0.189883 0.060700
0.000000 0.189792 0.050355
0.014710 0.189456 0.047700
0.058961 0.188632 0.048066
0.084291 0.187442 0.048066
0.113466 0.193912 0.032441
0.154147 0.207736 0.000000
0.208316 0.223178 0.000000
0.284642 0.246159 0.000000
0.338781 0.245151 0.000000
0.393866 0.242130 0.000000
0.448615 0.237339 0.000000
0.503593 0.234409 0.000000
0.557519 0.233677 0.000000
0.610498 0.234623 0.000000
0.661860 0.238315 0.000000
0.708003 0.242557 0.000000
0.749508 0.246769 0.000000
0.787198 0.252567 0.000000
0.822599 0.259495 0.000000
0.855863 0.267979 0.000000
0.887449 0.277775 0.000000
0.917205 0.288121 0.000000
0.944823 0.298650 0.000000
0.970489 0.309178 0.000000
0.994110 0.319615 0.000000
1.000000 0.329473 0.000000
1.000000 0.338689 0.000000
1.000000 0.347387 0.000000
1.000000 0.355016 0.000000
1.000000 0.361486 0.000000
1.000000 0.366491 0.000000
0.000000 0.225071 0.065064
0.000000 0.224949 0.059449
0.000000 0.224765 0.054292
0.043030 0.223758 0.054047
0.079469 0.222446 0.053437
0.105592 0.220706 0.053376
0.141451 0.233829 0.022278
0.188327 0.248997 0.000000
0.249058 0.265171 0.000000
0.333135 0.291691 0.000000
0.388006 0.290532 0.000000
0.442847 0.287816 0.000000
0.496742 0.284367 0.000000
0.550469 0.281163 0.000000
0.604547 0.284642 0.000000
0.655665 0.288914 0.000000
0.701930 0.293187 0.000000
0.743709 0.297551 0.000000
0.781674 0.302159 0.000000
0.817533 0.307530 0.000000
0.851560 0.314488 0.000000
0.883818 0.322057 0.000000
0.913939 0.330022 0.000000
0.941802 0.338750 0.000000
0.967681 0.347387 0.000000
0.991608 0.355535 0.000000
1.000000 0.363531 0.000000
1.000000 0.371008 0.000000
1.000000 0.377813 0.000000
1.000000 0.383856 0.000000
1.000000 0.388922 0.000000
1.000000 0.392554 0.000000
0.000000 0.261662 0.069245
0.000000 0.261357 0.063813
0.000000 0.261143 0.058991
0.017639 0.260044 0.059388
0.071443 0.258854 0.059541
0.101228 0.256870 0.059297
0.131594 0.260197 0.048951
0.173068 0.274876 0.006989
0.225956 0.290898 0.000000
0.291234 0.307683 0.000000
0.381292 0.337346 0.000000
0.436194 0.336400 0.000000
0.491463 0.335515 0.000000
0.545556 0.334356 0.000000
0.597925 0.333867 0.000000
0.648615 0.336156 0.000000
0.695552 0.340917 0.000000
0.737819 0.345037 0.000000
0.776333 0.349218 0.000000
0.812497 0.354101 0.000000
0.846799 0.359686 0.000000
0.879179 0.365637 0.000000
0.909545 0.371923 0.000000
0.937835 0.378393 0.000000
0.964202 0.384741 0.000000
0.988434 0.391424 0.000000
1.000000 0.397711 0.000000
1.000000 0.403876 0.000000
1.000000 0.409247 0.000000
1.000000 0.414038 0.000000
1.000000 0.417945 0.000000
1.000000 0.420447 0.000000
0.000000 0.298253 0.074800
0.000000 0.298192 0.070161
0.000000 0.297948 0.063905
0.000000 0.296910 0.063905
0.061494 0.295384 0.063447
0.095491 0.293431 0.063294
0.124971 0.290898 0.063081
0.160983 0.300847 0.038788
0.208042 0.316381 0.000000
0.266026 0.333257 0.000000
0.335027 0.350958 0.000000
0.430243 0.384405 0.000000
0.485786 0.384802 0.000000
0.539513 0.384497 0.000000
0.591638 0.385077 0.000000
0.641810 0.386206 0.000000
0.687739 0.386603 0.000000
0.730282 0.389624 0.000000
0.769375 0.393469 0.000000
0.806180 0.397589 0.000000
0.840970 0.402441 0.000000
0.873838 0.407599 0.000000
0.904784 0.412940 0.000000
0.933501 0.418250 0.000000
0.960296 0.423407 0.000000
0.985138 0.428321 0.000000
1.000000 0.433082 0.000000
1.000000 0.437415 0.000000
1.000000 0.441688 0.000000
1.000000 0.444984 0.000000
1.000000 0.447608 0.000000
1.000000 0.449104 0.000000
0.000000 0.335058 0.080537
0.000000 0.335027 0.076936
0.000000 0.334661 0.070466
0.000000 0.333715 0.069001
0.036225 0.332311 0.069001
0.087922 0.330083 0.068330
0.120455 0.327581 0.068269
0.151644 0.326757 0.065278
0.194491 0.342229 0.025116
0.246799 0.359228 0.000000
0.309117 0.376989 0.000000
0.380102 0.395026 0.000000
0.485206 0.437324 0.000000
0.542138 0.440345 0.000000
0.594598 0.441382 0.000000
0.644617 0.443030 0.000000
0.690303 0.443366 0.000000
0.731716 0.442725 0.000000
0.769772 0.442145 0.000000
0.806546 0.445441 0.000000
0.841215 0.449165 0.000000
0.873808 0.453040 0.000000
0.904387 0.456947 0.000000
0.932921 0.460822 0.000000
0.959625 0.464485 0.000000
0.984375 0.468147 0.000000
1.000000 0.471412 0.000000
1.000000 0.474250 0.000000
1.000000 0.476783 0.000000
1.000000 0.478309 0.000000
1.000000 0.479438 0.000000
1.000000 0.479591 0.000000
0.000000 0.373419 0.088563
0.000000 0.373236 0.083986
0.000000 0.372869 0.078157
0.000000 0.371832 0.075044
0.004883 0.370153 0.074922
0.079713 0.368414 0.074556
0.116213 0.366003 0.073854
0.148470 0.363134 0.073396
0.184909 0.369238 0.062135
0.232700 0.385870 0.004242
0.289250 0.403784 0.000000
0.355047 0.422400 0.000000
0.428443 0.441474 0.000000
0.524254 0.476570 0.000000
0.585199 0.485451 0.000000
0.635798 0.488014 0.000000
0.682033 0.488716 0.000000
0.723842 0.488167 0.000000
0.762356 0.487068 0.000000
0.798917 0.486213 0.000000
0.833738 0.487648 0.000000
0.867063 0.490974 0.000000
0.898161 0.494423 0.000000
0.927245 0.497597 0.000000
0.954467 0.500664 0.000000
0.979675 0.503563 0.000000
1.000000 0.506126 0.000000
1.000000 0.508263 0.000000
1.000000 0.509789 0.000000
1.000000 0.510735 0.000000
1.000000 0.510796 0.000000
1.000000 0.509606 0.000000
0.000000 0.410651 0.097383
0.000000 0.410376 0.092866
0.000000 0.410132 0.087709
0.000000 0.409277 0.082887
0.000000 0.407446 0.082338
0.070863 0.405341 0.082002
0.111757 0.402686 0.081025
0.145693 0.399512 0.080323
0.177523 0.395666 0.079225
0.220127 0.409369 0.057374
0.271458 0.426459 0.000000
0.330938 0.444648 0.000000
0.397833 0.463325 0.000000
0.471229 0.482368 0.000000
0.562524 0.515312 0.000000
0.626825 0.529686 0.000000
0.673274 0.530846 0.000000
0.715633 0.530602 0.000000
0.754788 0.529564 0.000000
0.791775 0.528862 0.000000
0.826932 0.528252 0.000000
0.860044 0.527825 0.000000
0.891814 0.530571 0.000000
0.921508 0.533440 0.000000
0.949279 0.536126 0.000000
0.975036 0.538506 0.000000
0.998871 0.540459 0.000000
1.000000 0.541924 0.000000
1.000000 0.542931 0.000000
1.000000 0.543297 0.000000
1.000000 0.542657 0.000000
1.000000 0.540856 0.000000
0.000000 0.446876 0.106813
0.000000 0.446662 0.103456
0.000000 0.446174 0.098604
0.000000 0.445258 0.091676
0.000000 0.443458 0.090974
0.063294 0.441077 0.090364
0.107881 0.438300 0.089418
0.143526 0.434821 0.088228
0.176120 0.431067 0.087129
0.210727 0.432074 0.081117
0.257450 0.448371 0.048768
0.311528 0.465888 0.000000
0.372747 0.484260 0.000000
0.440711 0.503075 0.000000
0.513207 0.522118 0.000000
0.599420 0.552911 0.000000
0.664759 0.570459 0.000000
0.707424 0.570397 0.000000
0.747097 0.569635 0.000000
0.784665 0.568963 0.000000
0.820249 0.568475 0.000000
0.853910 0.568017 0.000000
0.885588 0.567407 0.000000
0.915526 0.567712 0.000000
0.943877 0.570123 0.000000
0.970306 0.572290 0.000000
0.994720 0.573968 0.000000
1.000000 0.575250 0.000000
1.000000 0.575860 0.000000
1.000000 0.575769 0.000000
1.000000 0.574701 0.000000
1.000000 0.572534 0.000000
0.000000 0.481849 0.118257
0.000000 0.481636 0.114290
0.000000 0.481361 0.109957
0.000000 0.480507 0.101381
0.000000 0.478859 0.100984
0.053864 0.476539 0.099763
0.105379 0.473854 0.098970
0.142214 0.470649 0.097688
0.176089 0.466804 0.096407
0.207767 0.462409 0.094545
0.247318 0.470710 0.080873
0.296757 0.487343 0.036805
0.352697 0.504753 0.000000
0.415198 0.522820 0.000000
0.482765 0.541253 0.000000
0.553368 0.560082 0.000000
0.633204 0.587488 0.000000
0.698878 0.607599 0.000000
0.739345 0.607416 0.000000
0.777615 0.607141 0.000000
0.813901 0.606897 0.000000
0.848203 0.606470 0.000000
0.880430 0.606012 0.000000
0.910704 0.605402 0.000000
0.939147 0.604669 0.000000
0.965972 0.605554 0.000000
0.990906 0.607019 0.000000
1.000000 0.607965 0.000000
1.000000 0.608209 0.000000
1.000000 0.607630 0.000000
1.000000 0.606043 0.000000
1.000000 0.603357 0.000000
0.000000 0.515435 0.129458
0.000000 0.515282 0.126436
0.000000 0.514824 0.121950
0.000000 0.514092 0.113039
0.000000 0.512505 0.111025
0.045655 0.510338 0.110567
0.103731 0.507713 0.109285
0.142031 0.504295 0.107668
0.176028 0.500572 0.106630
0.208103 0.496284 0.104646
0.239292 0.491646 0.102266
0.284916 0.507469 0.080568
0.336553 0.524346 0.021729
0.394110 0.541985 0.000000
0.457252 0.559991 0.000000
0.523430 0.577905 0.000000
0.590692 0.595605 0.000000
0.664240 0.619623 0.000000
0.731319 0.642725 0.000000
0.770169 0.642817 0.000000
0.806912 0.642756 0.000000
0.841672 0.642512 0.000000
0.874449 0.642023 0.000000
0.905333 0.641382 0.000000
0.934264 0.640620 0.000000
0.961273 0.639582 0.000000
0.986389 0.638361 0.000000
1.000000 0.639216 0.000000
1.000000 0.639277 0.000000
1.000000 0.638453 0.000000
1.000000 0.636622 0.000000
1.000000 0.633600 0.000000
0.000000 0.548913 0.141848
0.000000 0.548821 0.138643
0.000000 0.554223 0.137911
0.000000 0.553399 0.128786
0.000000 0.551781 0.124819
0.050355 0.549432 0.123629
0.107240 0.546471 0.122530
0.145480 0.543023 0.120851
0.180056 0.539086 0.118990
0.212619 0.534630 0.117250
0.243595 0.529625 0.115114
0.279271 0.532219 0.106172
0.327428 0.548272 0.081697
0.381415 0.565301 0.011475
0.440070 0.582574 0.000000
0.502190 0.599603 0.000000
0.565820 0.616327 0.000000
0.629419 0.632807 0.000000
0.697414 0.653620 0.000000
0.765316 0.678950 0.000000
0.802243 0.678920 0.000000
0.837308 0.678614 0.000000
0.870359 0.678004 0.000000
0.901457 0.677211 0.000000
0.930541 0.676020 0.000000
0.957671 0.674647 0.000000
0.982879 0.672877 0.000000
1.000000 0.670832 0.000000
1.000000 0.669306 0.000000
1.000000 0.668299 0.000000
1.000000 0.666255 0.000000
1.000000 0.662959 0.000000
0.000000 0.584253 0.155245
0.000000 0.584680 0.153048
0.000000 0.585199 0.149844
0.000000 0.585138 0.141939
0.000000 0.584344 0.135988
0.050080 0.582391 0.134951
0.108125 0.579767 0.133730
0.147341 0.576471 0.132235
0.182101 0.572747 0.130373
0.214572 0.568444 0.128176
0.245853 0.563653 0.125948
0.276066 0.558221 0.123171
0.318120 0.568688 0.108797
0.368322 0.584985 0.080964
0.423224 0.601312 0.000000
0.481331 0.617578 0.000000
0.541497 0.633570 0.000000
0.602106 0.649378 0.000000
0.662959 0.664973 0.000000
0.726253 0.683284 0.000000
0.794980 0.710536 0.000000
0.830594 0.710628 0.000000
0.864286 0.710323 0.000000
0.895964 0.709712 0.000000
0.925628 0.708797 0.000000
0.953307 0.707454 0.000000
0.979004 0.705653 0.000000
1.000000 0.703487 0.000000
1.000000 0.700771 0.000000
1.000000 0.697444 0.000000
1.000000 0.694942 0.000000
1.000000 0.691585 0.000000
0.000000 0.617639 0.168246
0.000000 0.618158 0.166201
0.000000 0.618616 0.163180
0.000000 0.618647 0.156344
0.000000 0.617914 0.147372
0.055818 0.616175 0.146822
0.111269 0.613733 0.145663
0.150240 0.610712 0.144137
0.185122 0.607263 0.141939
0.217899 0.603296 0.139742
0.249516 0.598840 0.137362
0.280278 0.593774 0.134981
0.311742 0.590539 0.129885
0.358953 0.605890 0.110658
0.410407 0.621332 0.080812
0.465126 0.636683 0.000000
0.521996 0.651911 0.000000
0.579644 0.666987 0.000000
0.637812 0.681910 0.000000
0.695857 0.696651 0.000000
0.754788 0.712490 0.000000
0.824063 0.741115 0.000000
0.858305 0.741176 0.000000
0.890532 0.740810 0.000000
0.920775 0.740017 0.000000
0.948974 0.738674 0.000000
0.975097 0.736873 0.000000
0.999145 0.734676 0.000000
1.000000 0.731807 0.000000
1.000000 0.728359 0.000000
1.000000 0.723934 0.000000
1.000000 0.719173 0.000000
0.000000 0.650904 0.183291
0.000000 0.651331 0.181460
0.000000 0.651728 0.178653
0.000000 0.651789 0.171878
0.000000 0.651331 0.160922
0.065248 0.649714 0.159731
0.116274 0.647425 0.158541
0.154726 0.644739 0.156893
0.189792 0.641444 0.154910
0.222751 0.637751 0.153048
0.254429 0.633600 0.150088
0.285435 0.628901 0.147463
0.315221 0.623560 0.144076
0.352605 0.627649 0.134524
0.401099 0.642329 0.113924
0.452735 0.656916 0.082399
0.506889 0.671565 0.000000
0.562127 0.686244 0.000000
0.617975 0.700771 0.000000
0.673884 0.715053 0.000000
0.729610 0.729091 0.000000
0.784909 0.742855 0.000000
0.853330 0.771267 0.000000
0.887297 0.772061 0.000000
0.918029 0.771542 0.000000
0.946654 0.770443 0.000000
0.973114 0.768673 0.000000
0.997436 0.766323 0.000000
1.000000 0.763272 0.000000
1.000000 0.759518 0.000000
1.000000 0.754849 0.000000
1.000000 0.749660 0.000000
0.000000 0.686275 0.201083
0.000000 0.686366 0.198825
0.000000 0.686366 0.196017
0.000000 0.686152 0.189517
0.000000 0.685481 0.178744
0.079164 0.684077 0.174777
0.124941 0.682002 0.173495
0.162509 0.679530 0.172000
0.197269 0.676631 0.170230
0.230137 0.673365 0.167910
0.261997 0.669734 0.165652
0.293095 0.665492 0.162631
0.323400 0.660731 0.159335
0.352941 0.655451 0.156130
0.396277 0.665980 0.141817
0.445441 0.679744 0.120363
0.496529 0.693416 0.089509
0.549035 0.707118 0.000000
0.602136 0.720729 0.000000
0.655695 0.734127 0.000000
0.709071 0.747189 0.000000
0.761990 0.759792 0.000000
0.814267 0.771908 0.000000
0.879973 0.798642 0.000000
0.913207 0.799802 0.000000
0.942321 0.798917 0.000000
0.969238 0.797330 0.000000
0.994018 0.795071 0.000000
1.000000 0.792050 0.000000
1.000000 0.788205 0.000000
1.000000 0.783658 0.000000
1.000000 0.778744 0.000000
0.049256 0.718837 0.218906
0.051881 0.718990 0.216831
0.057160 0.719081 0.214572
0.061067 0.718807 0.208103
0.066835 0.718288 0.198154
0.095216 0.717098 0.190921
0.136263 0.715206 0.189639
0.171603 0.712917 0.187900
0.205570 0.710262 0.186130
0.238193 0.707271 0.184085
0.269993 0.703914 0.181765
0.300938 0.700130 0.178805
0.331182 0.695827 0.175479
0.361059 0.691066 0.172122
0.393317 0.689540 0.166323
0.439918 0.702327 0.150240
0.488563 0.715175 0.128634
0.538628 0.728145 0.098390
0.589410 0.740993 0.019226
0.640558 0.753658 0.000000
0.691920 0.766049 0.000000
0.743099 0.777981 0.000000
0.793606 0.789456 0.000000
0.843442 0.800351 0.000000
0.905119 0.824247 0.000000
0.937530 0.825681 0.000000
0.964996 0.824338 0.000000
0.990204 0.822324 0.000000
1.000000 0.819425 0.000000
1.000000 0.815824 0.000000
1.000000 0.811643 0.000000
1.000000 0.807065 0.000000
0.099031 0.753262 0.239994
0.099947 0.753445 0.238376
0.100862 0.753475 0.235599
0.103822 0.753262 0.230167
0.105989 0.752712 0.220798
0.116823 0.751766 0.210056
0.152193 0.749844 0.208652
0.185702 0.747585 0.206882
0.217746 0.745022 0.204990
0.249546 0.742092 0.202579
0.280644 0.738796 0.200107
0.311254 0.735286 0.197421
0.341436 0.731258 0.194095
0.371160 0.726833 0.190585
0.400183 0.721950 0.186709
0.437568 0.726223 0.177127
0.483558 0.737881 0.160830
0.530907 0.749722 0.139498
0.579339 0.761654 0.109834
0.628290 0.773495 0.056001
0.677516 0.785122 0.000000
0.726619 0.796292 0.000000
0.775357 0.806973 0.000000
0.823362 0.817075 0.000000
0.870268 0.826474 0.000000
0.928191 0.847898 0.000000
0.961364 0.850980 0.000000
0.986908 0.848997 0.000000
1.000000 0.846372 0.000000
1.000000 0.842924 0.000000
1.000000 0.838987 0.000000
1.000000 0.834806 0.000000
0.133089 0.785183 0.261601
0.133669 0.785397 0.259678
0.135073 0.785458 0.257694
0.136812 0.785306 0.252598
0.138430 0.784878 0.243381
0.141238 0.784176 0.231144
0.170382 0.782681 0.228885
0.201389 0.780728 0.227115
0.232059 0.778531 0.225437
0.262638 0.775998 0.223026
0.293278 0.773251 0.220920
0.323766 0.770077 0.217960
0.353948 0.766720 0.215274
0.383551 0.762905 0.211887
0.412696 0.758755 0.208347
0.441138 0.754269 0.204227
0.483650 0.763638 0.191745
0.528679 0.774563 0.175906
0.574701 0.785428 0.155123
0.621393 0.796262 0.127962
0.668299 0.806912 0.085969
0.715389 0.817166 0.000000
0.762051 0.826993 0.000000
0.808255 0.836301 0.000000
0.853696 0.844999 0.000000
0.897917 0.853117 0.000000
0.950713 0.871000 0.000000
0.984222 0.875456 0.000000
1.000000 0.873045 0.000000
1.000000 0.869902 0.000000
1.000000 0.866117 0.000000
1.000000 0.862181 0.000000
0.168521 0.817624 0.286320
0.169436 0.817746 0.284825
0.169741 0.817746 0.282261
0.171084 0.817533 0.277409
0.172335 0.817105 0.269139
0.174746 0.816556 0.257877
0.192355 0.815366 0.251377
0.220432 0.813626 0.250004
0.249790 0.811643 0.248325
0.278935 0.809476 0.246098
0.308812 0.807065 0.244114
0.338628 0.804471 0.241642
0.368475 0.801511 0.238956
0.397955 0.798306 0.236057
0.426795 0.794766 0.232761
0.455360 0.790921 0.229038
0.486915 0.790402 0.223301
0.529534 0.800168 0.209964
0.573083 0.809995 0.194430
0.617334 0.819760 0.174472
0.662135 0.829404 0.148714
0.706996 0.838712 0.112703
0.751583 0.847623 0.013794
0.795804 0.856077 0.000000
0.839445 0.863981 0.000000
0.882200 0.871336 0.000000
0.923857 0.878233 0.000000
0.971801 0.893065 0.000000
1.000000 0.898436 0.000000
1.000000 0.895506 0.000000
1.000000 0.891936 0.000000
1.000000 0.888304 0.000000
0.204837 0.848997 0.313359
0.205295 0.849058 0.311772
0.205722 0.849058 0.309728
0.206912 0.848966 0.305425
0.208225 0.848753 0.297826
0.209934 0.848539 0.287266
0.219364 0.848112 0.277958
0.245518 0.846983 0.277043
0.273198 0.845731 0.275700
0.301640 0.844327 0.274479
0.330632 0.842710 0.273228
0.359960 0.840879 0.271458
0.389288 0.838743 0.269596
0.418555 0.836271 0.267002
0.447333 0.833555 0.264500
0.475532 0.830411 0.261448
0.503197 0.827085 0.258061
0.538384 0.830991 0.250034
0.579431 0.839567 0.237461
0.621149 0.848112 0.222263
0.663325 0.856504 0.203494
0.705653 0.864652 0.179873
0.747860 0.872404 0.148074
0.789792 0.879728 0.099519
0.831357 0.886595 0.000000
0.872282 0.893065 0.000000
0.912261 0.899016 0.000000
0.950896 0.904509 0.000000
0.993774 0.916289 0.000000
1.000000 0.921935 0.000000
1.000000 0.918303 0.000000
1.000000 0.914641 0.000000
0.248631 0.882292 0.346990
0.249180 0.882383 0.345983
0.249424 0.882322 0.343847
0.250217 0.882200 0.339696
0.251011 0.881987 0.332494
0.252689 0.881773 0.322911
0.254337 0.881590 0.310246
0.277104 0.880461 0.309117
0.301854 0.879179 0.307713
0.328069 0.877775 0.306584
0.355077 0.876158 0.305028
0.382727 0.874388 0.303288
0.410712 0.872465 0.301610
0.438697 0.870237 0.299535
