data/fiter_cube/89100697/1022670/file.cube
# Created by Adobe Lightroom plugin Export LUT (1.17.0)
# www.johnrellis.com/lightroom/exportlut.htm
# Preset: VSCO胶片_04 云集
# Color profile: C:\Program Files (x86)\Common Files\Adobe\Color\Profiles\Recommended\AdobeRGB1998.icc
LUT_3D_SIZE 5
DOMAIN_MIN 0.000000 0.000000 0.000000
DOMAIN_MAX 0.903226 0.903226 0.903226
0.000000 0.000000 0.000000
0.252964 0.000000 0.000000
0.631464 0.000000 0.000000
0.897612 0.000000 0.000000
1.000000 0.221683 0.000000
0.000000 0.189883 0.060700
0.208316 0.223178 0.000000
0.610498 0.234623 0.000000
0.887449 0.277775 0.000000
1.000000 0.347387 0.000000
0.000000 0.446876 0.106813
0.143526 0.434821 0.088228
0.513207 0.522118 0.000000
0.853910 0.568017 0.000000
1.000000 0.575860 0.000000
0.000000 0.686275 0.201083
0.162509 0.679530 0.172000
0.396277 0.665980 0.141817
0.761990 0.759792 0.000000
1.000000 0.792050 0.000000
0.292271 0.912016 0.382208
0.311772 0.911223 0.343969
0.484535 0.898100 0.330327
0.705226 0.911864 0.283879
0.962005 0.944671 0.000000
0.018433 0.011261 0.205936
0.252445 0.000000 0.213504
0.626764 0.000000 0.166873
0.888121 0.000000 0.173373
1.000000 0.242893 0.123018
0.035492 0.207980 0.194858
0.243748 0.233341 0.201724
0.612207 0.235904 0.188907
0.880034 0.286503 0.161501
1.000000 0.357366 0.106752
0.131319 0.465492 0.247715
0.219059 0.461891 0.224735
0.526604 0.521630 0.165133
0.848936 0.563348 0.144839
1.000000 0.579278 0.072755
0.220188 0.696407 0.325963
0.232853 0.691951 0.274449
0.416938 0.664942 0.246738
0.767056 0.760342 0.125856
1.000000 0.790585 0.000000
0.365393 0.911528 0.463600
0.369329 0.911345 0.425025
0.500389 0.902739 0.390051
0.707515 0.911528 0.352941
0.962768 0.945190 0.167330
0.000000 0.013153 0.493874
0.271489 0.000000 0.507225
0.622065 0.000000 0.516930
0.883909 0.000000 0.480079
1.000000 0.178439 0.446998
0.000000 0.224918 0.475288
0.272038 0.238193 0.490333
0.614618 0.204959 0.509361
0.876310 0.230594 0.476905
1.000000 0.402838 0.495521
0.148745 0.499031 0.460548
0.309270 0.509270 0.468940
0.577569 0.542107 0.476814
0.848966 0.570001 0.487404
1.000000 0.591516 0.480873
0.293736 0.721675 0.507073
0.378332 0.719539 0.508995
0.502861 0.704524 0.465431
0.781460 0.765652 0.448859
1.000000 0.785794 0.468360
0.454932 0.913817 0.615625
0.503166 0.912261 0.618341
0.539300 0.911467 0.545617
0.703334 0.903593 0.510918
0.960571 0.944121 0.446754
0.126406 0.000000 0.754299
0.333318 0.000000 0.761013
0.649165 0.000000 0.785672
0.866300 0.000000 0.766323
1.000000 0.188846 0.726467
0.152956 0.248600 0.742885
0.335088 0.248722 0.750393
0.640101 0.265019 0.776181
0.860227 0.256870 0.761868
1.000000 0.344457 0.728756
0.096071 0.507744 0.708370
0.274876 0.508476 0.710231
0.593011 0.540215 0.741665
0.840055 0.560845 0.751308
1.000000 0.595636 0.742611
0.312169 0.749752 0.707790
0.405219 0.753048 0.712215
0.610071 0.758999 0.724361
0.805539 0.779110 0.732784
0.994629 0.793637 0.751949
0.515740 0.924926 0.768948
0.555901 0.923735 0.770596
0.658473 0.920836 0.772976
0.735164 0.913573 0.718868
0.957122 0.944244 0.711757
0.360571 0.125490 0.953185
0.457404 0.119600 0.954131
0.671809 0.144656 0.958007
0.884367 0.249729 0.963867
1.000000 0.251591 0.927611
0.356939 0.288701 0.948943
0.452491 0.289921 0.950103
0.666102 0.311437 0.954406
0.880613 0.385809 0.961028
1.000000 0.378332 0.927001
0.219303 0.518364 0.934478
0.350896 0.515953 0.936858
0.631281 0.553460 0.942168
0.863676 0.612146 0.952483
0.999054 0.605554 0.927672
0.301213 0.770382 0.918975
0.378058 0.767697 0.919066
0.549645 0.755734 0.920256
0.810727 0.777218 0.935973
0.983429 0.807279 0.933135
0.503471 0.944610 0.913420
0.545769 0.943694 0.913878
0.668208 0.944152 0.918883
0.825895 0.941619 0.924681
0.962554 0.951171 0.937316
