data/fiter_cube/89100697/1022670/file.cube
# Created by Adobe Lightroom plugin Export LUT (1.17.0)
# www.johnrellis.com/lightroom/exportlut.htm
# Preset: VSCO胶片_04 云集
# Color profile: C:\Program Files (x86)\Common Files\Adobe\Color\Profiles\Recommended\AdobeRGB1998.icc
LUT_3D_SIZE 8
DOMAIN_MIN 0.000000 0.000000 0.000000
DOMAIN_MAX 0.903226 0.903226 0.903226
0.000000 0.000000 0.000000
0.116670 0.015473 0.000000
0.306615 0.000000 0.000000
0.527581 0.000000 0.000000
0.722164 0.000000 0.000000
0.867491 0.000000 0.000000
0.975708 0.116121 0.000000
1.000000 0.221683 0.000000
0.013367 0.098817 0.033326
0.104250 0.110475 0.000000
0.297185 0.119844 0.000000
0.518975 0.045960 0.000000
0.715328 0.000000 0.000000
0.860197 0.099245 0.000000
0.970794 0.193759 0.000000
1.000000 0.264012 0.000000
0.000000 0.225071 0.065064
0.079469 0.222446 0.053437
0.249058 0.265171 0.000000
0.496742 0.284367 0.000000
0.701930 0.293187 0.000000
0.851560 0.314488 0.000000
0.967681 0.347387 0.000000
1.000000 0.377813 0.000000
0.000000 0.373419 0.088563
0.004883 0.370153 0.074922
0.184909 0.369238 0.062135
0.428443 0.441474 0.000000
0.682033 0.488716 0.000000
0.833738 0.487648 0.000000
0.954467 0.500664 0.000000
1.000000 0.509789 0.000000
0.000000 0.515435 0.129458
0.000000 0.512505 0.111025
0.176028 0.500572 0.106630
0.336553 0.524346 0.021729
0.590692 0.595605 0.000000
0.806912 0.642756 0.000000
0.934264 0.640620 0.000000
1.000000 0.639277 0.000000
0.000000 0.650904 0.183291
0.000000 0.651331 0.160922
0.189792 0.641444 0.154910
0.315221 0.623560 0.144076
0.506889 0.671565 0.000000
0.729610 0.729091 0.000000
0.918029 0.771542 0.000000
1.000000 0.763272 0.000000
0.133089 0.785183 0.261601
0.138430 0.784878 0.243381
0.232059 0.778531 0.225437
0.353948 0.766720 0.215274
0.483650 0.763638 0.191745
0.668299 0.806912 0.085969
0.853696 0.844999 0.000000
1.000000 0.873045 0.000000
0.292271 0.912016 0.382208
0.294347 0.911864 0.368872
0.334203 0.910185 0.343023
0.435981 0.905028 0.338781
0.538170 0.894194 0.326787
0.667872 0.905669 0.298314
0.817990 0.928527 0.214969
0.962005 0.944671 0.000000
0.017823 0.005768 0.103609
0.115633 0.000000 0.106783
0.303563 0.000000 0.082765
0.519219 0.000000 0.076081
0.715724 0.000000 0.000000
0.859648 0.000000 0.000000
0.970550 0.115389 0.000000
1.000000 0.221103 0.000000
0.019226 0.101778 0.097932
0.114443 0.114687 0.102327
0.297673 0.110750 0.094484
0.514641 0.013306 0.070069
0.711696 0.000000 0.000000
0.855131 0.096529 0.000000
0.966552 0.192721 0.000000
1.000000 0.262821 0.000000
0.057618 0.233646 0.125429
0.106630 0.236973 0.117067
0.259922 0.268070 0.084901
0.495308 0.278752 0.037232
0.697536 0.289494 0.000000
0.846464 0.310857 0.000000
0.961730 0.343633 0.000000
1.000000 0.376043 0.000000
0.067323 0.380835 0.154940
0.087587 0.379675 0.132296
0.202335 0.371710 0.125063
0.430396 0.437781 0.000000
0.672724 0.478279 0.000000
0.825711 0.481544 0.000000
0.948425 0.496407 0.000000
1.000000 0.507500 0.000000
0.075135 0.520897 0.187320
0.083162 0.518120 0.164340
0.198245 0.505455 0.152346
0.343999 0.522026 0.119417
0.589990 0.591699 0.000000
0.802731 0.637751 0.000000
0.931060 0.637537 0.000000
1.000000 0.638270 0.000000
0.102998 0.652094 0.227848
0.109377 0.650568 0.208713
0.207462 0.641535 0.189212
0.325322 0.624323 0.177798
0.509026 0.669368 0.116365
0.730465 0.728176 0.000000
0.916594 0.769680 0.000000
1.000000 0.761715 0.000000
0.177798 0.783017 0.293858
0.180484 0.781582 0.276982
0.242252 0.776486 0.248569
0.359747 0.765591 0.238804
0.484810 0.760830 0.218753
0.667597 0.804562 0.144564
0.851957 0.842741 0.000000
1.000000 0.870726 0.000000
0.312108 0.909972 0.405035
0.314336 0.910185 0.392767
0.339147 0.909392 0.359075
0.438788 0.904326 0.354437
0.543786 0.896666 0.346746
0.669184 0.905821 0.319707
0.817655 0.927825 0.244205
0.961334 0.943877 0.000000
0.000000 0.011597 0.246647
0.125032 0.000000 0.251316
0.306615 0.000000 0.254002
0.526055 0.000000 0.230442
0.721645 0.000000 0.203677
0.858976 0.000000 0.230472
0.969757 0.173892 0.217411
1.000000 0.255985 0.194400
0.000000 0.114961 0.241215
0.122011 0.117891 0.246006
0.304601 0.084352 0.249210
0.520470 0.000000 0.227420
0.713436 0.000000 0.231693
0.854520 0.145602 0.227329
0.966552 0.229129 0.213352
1.000000 0.291417 0.189914
0.039765 0.249149 0.231937
0.137728 0.257206 0.237095
0.293248 0.277684 0.239872
0.506767 0.282872 0.237278
0.702358 0.297398 0.229007
0.846372 0.325658 0.218601
0.960510 0.360540 0.204105
1.000000 0.391730 0.179568
0.111635 0.399969 0.256962
0.172915 0.403662 0.262242
0.265446 0.402136 0.249821
0.456611 0.446632 0.223606
0.677516 0.477333 0.217655
0.828733 0.489479 0.211612
0.949706 0.504997 0.193210
1.000000 0.515587 0.161013
0.166781 0.537316 0.292180
0.212284 0.538354 0.296513
0.263096 0.531548 0.263981
0.376471 0.528740 0.246983
0.607141 0.598871 0.202670
0.804715 0.637079 0.181521
0.930846 0.638697 0.195590
1.000000 0.642359 0.172549
0.227359 0.665187 0.339452
0.248600 0.664393 0.334417
0.265385 0.657984 0.286015
0.365454 0.639307 0.271458
0.522789 0.669734 0.245548
0.736355 0.729061 0.185672
0.915282 0.767361 0.138582
1.000000 0.761379 0.161807
0.288670 0.789609 0.397406
0.290776 0.788418 0.384497
0.294682 0.784848 0.334600
0.387945 0.773129 0.315343
0.493843 0.757900 0.296971
0.671748 0.803891 0.260868
0.855894 0.844297 0.180331
1.000000 0.870726 0.033417
0.385565 0.909972 0.486488
0.384283 0.909758 0.475105
0.387701 0.909606 0.435706
0.454566 0.906706 0.411292
0.553094 0.898741 0.400519
0.670253 0.904021 0.380926
0.818204 0.927459 0.328801
0.962036 0.944427 0.210727
0.000000 0.012634 0.411872
0.109957 0.000000 0.416663
0.324132 0.000000 0.431220
0.522057 0.000000 0.426337
0.716793 0.000000 0.413336
0.857725 0.000000 0.385931
0.968994 0.000000 0.364324
1.000000 0.303227 0.409491
0.000000 0.124025 0.407599
0.119112 0.122988 0.412116
0.323522 0.102632 0.426154
0.520409 0.000000 0.424018
0.713802 0.000000 0.411109
0.854643 0.000000 0.384710
0.964630 0.167758 0.380285
1.000000 0.328344 0.405127
0.000000 0.259068 0.390204
0.112032 0.263676 0.392493
0.309148 0.278538 0.408392
0.511101 0.266178 0.415106
0.704097 0.255833 0.401770
0.845396 0.314916 0.402594
0.957275 0.381720 0.412360
1.000000 0.414740 0.399847
0.104860 0.419226 0.386328
0.179019 0.423438 0.389349
0.328985 0.435981 0.400122
0.490272 0.457862 0.400031
0.680323 0.475013 0.403601
0.827604 0.493416 0.403082
0.946014 0.512963 0.400366
1.000000 0.527428 0.389837
0.201328 0.562066 0.409766
0.243626 0.562371 0.411505
0.350469 0.564294 0.417151
0.436835 0.552544 0.393133
0.629664 0.608820 0.382757
0.805264 0.634852 0.391150
0.930388 0.643153 0.396368
1.000000 0.646754 0.383642
0.258457 0.683223 0.440223
0.291752 0.684565 0.443122
0.378485 0.682643 0.445991
0.429603 0.670802 0.402136
0.544854 0.674098 0.382788
0.748470 0.734707 0.368811
0.914000 0.765286 0.370336
1.000000 0.760098 0.384924
0.331151 0.799222 0.491157
0.354437 0.798764 0.492134
0.422583 0.796536 0.493874
0.434302 0.790494 0.428687
0.524468 0.772152 0.405066
0.677699 0.804135 0.389014
0.860319 0.846220 0.360143
1.000000 0.868467 0.342748
0.445777 0.912902 0.578424
0.461555 0.912383 0.579522
0.498299 0.910704 0.573602
0.489540 0.911498 0.507134
0.570489 0.903716 0.486305
0.670069 0.900145 0.467964
0.817472 0.926238 0.438605
0.961913 0.944854 0.373144
0.000000 0.009064 0.573938
0.120638 0.000000 0.577752
0.335698 0.000000 0.590204
0.546380 0.000000 0.608270
0.706294 0.000000 0.599145
0.848325 0.000000 0.578637
0.959808 0.000000 0.554986
1.000000 0.181094 0.535058
0.000000 0.130037 0.568963
0.137850 0.126589 0.573449
0.337926 0.105959 0.586053
0.545861 0.000000 0.605737
0.703853 0.000000 0.596887
0.846281 0.000000 0.577173
0.958251 0.113069 0.555322
1.000000 0.243137 0.537469
0.000000 0.265568 0.549706
0.125643 0.269444 0.555047
0.330694 0.282628 0.569757
0.537530 0.292027 0.594385
0.694514 0.264988 0.587671
0.837583 0.276341 0.570733
0.951934 0.323369 0.556085
1.000000 0.381170 0.546715
0.060395 0.423529 0.534234
0.157961 0.426856 0.535851
0.310063 0.435554 0.541955
0.504326 0.456916 0.566766
0.679194 0.457069 0.572168
0.825162 0.473091 0.564996
0.940734 0.510063 0.571740
1.000000 0.555566 0.586358
0.194339 0.576287 0.533928
0.244388 0.579034 0.536400
0.368078 0.587152 0.544091
0.514733 0.598627 0.556909
0.652033 0.618006 0.553429
0.803616 0.632319 0.564935
0.926970 0.645777 0.569177
1.000000 0.652705 0.565240
0.299809 0.703090 0.558953
0.329290 0.702937 0.559747
0.411658 0.701564 0.561425
0.517540 0.699184 0.564691
0.575799 0.681086 0.524834
0.759579 0.739254 0.534203
0.909545 0.761257 0.553979
1.000000 0.760800 0.562066
0.366674 0.811460 0.592828
0.387884 0.810697 0.593256
0.452186 0.808377 0.594965
0.538750 0.804410 0.596796
0.568688 0.793729 0.538720
0.678492 0.798764 0.517662
0.863310 0.847135 0.520195
0.995850 0.864073 0.529290
0.468574 0.916289 0.657710
0.482948 0.915618 0.658259
0.527184 0.913695 0.659449
0.591791 0.912139 0.660639
0.594415 0.911589 0.591791
0.676417 0.900694 0.567132
0.813230 0.922576 0.554437
0.959716 0.944213 0.524926
0.084993 0.000000 0.722225
0.190097 0.000000 0.724483
0.367620 0.000000 0.731746
0.558679 0.000000 0.747402
0.720363 0.000000 0.758633
0.838773 0.000000 0.736782
0.949706 0.000000 0.716487
1.000000 0.190738 0.692073
0.112062 0.135317 0.716732
0.199466 0.131441 0.718990
0.369055 0.113436 0.727321
0.555962 0.087465 0.742977
0.717403 0.029938 0.755154
0.836210 0.000000 0.734615
0.947814 0.129641 0.715724
1.000000 0.248325 0.692744
0.123232 0.285008 0.705470
0.202579 0.285832 0.707942
0.364904 0.288731 0.716915
0.547204 0.297581 0.733150
0.710994 0.307713 0.748623
0.830655 0.296391 0.730556
0.942901 0.327550 0.715389
1.000000 0.385504 0.697810
0.000000 0.428321 0.680293
0.139010 0.428626 0.680537
0.320653 0.435950 0.692805
0.521386 0.460365 0.714137
0.699672 0.490455 0.738643
0.820706 0.483894 0.725582
0.934874 0.503563 0.718349
1.000000 0.532647 0.708339
0.171817 0.584161 0.672694
0.223423 0.585565 0.673610
0.345098 0.589502 0.676875
0.487434 0.594965 0.683375
0.660304 0.619562 0.709621
0.803189 0.626368 0.714900
0.923033 0.643030 0.717861
1.000000 0.662593 0.720119
0.286687 0.716609 0.673640
0.320317 0.719570 0.676631
0.418036 0.722469 0.680720
0.544427 0.726833 0.688350
0.662043 0.732540 0.698970
0.777584 0.750088 0.698939
0.907774 0.763210 0.715419
0.999695 0.768338 0.719356
0.421485 0.829099 0.705806
0.441779 0.828977 0.706844
0.501061 0.827329 0.708827
0.579248 0.824918 0.710994
0.660456 0.820859 0.710109
0.701320 0.802945 0.662135
0.870695 0.851865 0.680995
0.987610 0.862699 0.702785
0.505333 0.923095 0.746822
0.517998 0.922606 0.747250
0.558190 0.921050 0.748409
0.616846 0.919280 0.749599
0.683803 0.916350 0.747555
0.705989 0.912566 0.691676
0.807645 0.916442 0.672663
0.957610 0.944274 0.675746
0.232761 0.030213 0.848905
0.285863 0.000000 0.850309
0.419104 0.000000 0.854398
0.575677 0.000000 0.861997
0.730373 0.022248 0.872648
0.853819 0.000000 0.876371
0.940826 0.079011 0.846738
1.000000 0.204562 0.821134
0.239109 0.148745 0.845731
0.289738 0.145693 0.847135
0.419013 0.135317 0.851469
0.573541 0.131502 0.859129
0.727535 0.169924 0.870085
0.851377 0.168460 0.874388
0.938659 0.181888 0.845335
1.000000 0.254704 0.820676
0.234104 0.296452 0.838224
0.284092 0.296696 0.839536
0.412085 0.298680 0.844083
0.565881 0.308049 0.852506
0.719753 0.336584 0.864378
0.846128 0.345312 0.870726
0.934600 0.348608 0.844297
1.000000 0.387945 0.823117
0.134005 0.434241 0.822110
0.205173 0.434089 0.823728
0.375128 0.448341 0.829679
0.541711 0.462837 0.839719
0.703059 0.493080 0.853849
0.836698 0.514397 0.864805
0.927306 0.510887 0.843626
1.000000 0.529015 0.827268
0.149752 0.588464 0.805539
0.202914 0.587701 0.805539
0.322179 0.584314 0.806241
0.477302 0.585107 0.814481
0.665034 0.615900 0.834806
0.820615 0.651240 0.855894
0.916472 0.645838 0.841733
1.000000 0.660456 0.833005
0.267582 0.726711 0.800504
0.299809 0.726802 0.800900
0.390417 0.727260 0.802213
0.506493 0.727871 0.804898
0.624933 0.726986 0.809354
0.782162 0.750607 0.834928
0.904723 0.762936 0.840604
0.990661 0.778103 0.843259
0.387701 0.838285 0.801541
0.410986 0.839078 0.802853
0.479927 0.841489 0.806973
0.574517 0.842527 0.811185
0.680079 0.843626 0.816800
0.786007 0.847837 0.827329
0.883238 0.860288 0.828672
0.980591 0.868711 0.844083
0.550408 0.930877 0.833280
0.561761 0.930632 0.833738
0.598993 0.930114 0.835630
0.653803 0.929107 0.837980
0.719356 0.927550 0.840360
0.787655 0.924895 0.840726
0.821805 0.915526 0.800717
0.957305 0.945403 0.817990
0.360571 0.125490 0.953185
0.392432 0.123110 0.953552
0.484565 0.118105 0.954498
0.607141 0.127321 0.956573
0.736233 0.172183 0.959655
0.860075 0.251347 0.963684
0.955230 0.232242 0.964385
1.000000 0.251591 0.927611
0.361456 0.191318 0.951690
0.392798 0.190677 0.952056
0.483986 0.189273 0.953124
0.605646 0.198245 0.955230
0.734493 0.231144 0.958434
0.858335 0.296269 0.962554
0.953613 0.281132 0.963409
1.000000 0.294255 0.927214
0.352178 0.323278 0.947448
0.383581 0.323857 0.947814
0.475441 0.326116 0.948913
0.598749 0.336858 0.951598
0.728389 0.362524 0.955016
0.852781 0.412757 0.959350
0.948699 0.407355 0.960845
1.000000 0.410132 0.926848
0.284764 0.453681 0.940429
0.339910 0.462867 0.940612
0.444465 0.467201 0.942016
0.578058 0.479103 0.944884
0.714992 0.503929 0.949004
0.842496 0.544335 0.954253
0.940612 0.547204 0.957244
1.000000 0.541527 0.927184
0.166079 0.592218 0.926696
0.223026 0.591150 0.927520
0.353063 0.587915 0.930083
0.514519 0.594079 0.934997
0.682490 0.621424 0.940032
0.822324 0.654566 0.947173
0.929412 0.672999 0.952941
0.994903 0.667842 0.928649
0.270695 0.737819 0.919921
0.298283 0.736782 0.919921
0.377661 0.732937 0.920012
0.480323 0.724788 0.920684
0.607813 0.716335 0.924376
0.785092 0.747707 0.936492
0.917449 0.786343 0.948913
0.985901 0.781674 0.932097
0.389776 0.855131 0.915587
0.408362 0.854734 0.915648
0.465431 0.853269 0.915984
0.548516 0.850797 0.916869
0.645350 0.847257 0.918334
0.747250 0.841978 0.920592
0.885557 0.861295 0.935851
0.975891 0.877989 0.936889
0.503471 0.944610 0.913420
0.516503 0.944335 0.913512
0.559503 0.943664 0.914305
0.627741 0.943877 0.916991
0.711147 0.944640 0.921172
0.802853 0.941955 0.923552
0.893278 0.942565 0.930541
0.962554 0.951171 0.937316
