data/fiter_cube/63078869/1022679/file.cube
# Created by Adobe Lightroom plugin Export LUT (1.17.0)
# www.johnrellis.com/lightroom/exportlut.htm
# Preset: 暗调胶片街拍_08 云集
# Color profile: C:\Program Files (x86)\Common Files\Adobe\Color\Profiles\Recommended\AdobeRGB1998.icc
LUT_3D_SIZE 5
DOMAIN_MIN 0.000000 0.000000 0.000000
DOMAIN_MAX 0.903226 0.903226 0.903226
0.016815 0.046937 0.050721
0.092958 0.068360 0.058167
0.180575 0.095918 0.060945
0.351629 0.138888 0.038819
0.607599 0.168887 0.000000
0.042756 0.088075 0.086030
0.084443 0.097017 0.071077
0.177646 0.114778 0.067536
0.347784 0.156161 0.045960
0.629175 0.191104 0.000000
0.066377 0.120302 0.115175
0.067109 0.116579 0.114839
0.170901 0.168917 0.090639
0.372076 0.213169 0.033936
0.632380 0.249210 0.000000
0.084993 0.165042 0.149172
0.084535 0.159365 0.147738
0.095399 0.178531 0.136049
0.308843 0.264500 0.086763
0.670222 0.337835 0.000000
0.109804 0.227054 0.191836
0.106600 0.216190 0.186587
0.094697 0.178927 0.165194
0.188174 0.280308 0.158785
0.606897 0.427924 0.000000
0.037720 0.094057 0.105135
0.072572 0.095003 0.110933
0.159579 0.108431 0.107240
0.306188 0.135409 0.100008
0.561181 0.160983 0.040467
0.053681 0.103365 0.102907
0.075532 0.111574 0.113893
0.164706 0.123476 0.108553
0.310063 0.150637 0.099153
0.571374 0.180575 0.029328
0.073610 0.133455 0.124880
0.081300 0.135622 0.134035
0.155734 0.166659 0.119387
0.333196 0.201053 0.094972
0.609186 0.242008 0.000000
0.097566 0.183261 0.164614
0.098909 0.178470 0.165042
0.099641 0.184085 0.152773
0.301640 0.265049 0.120577
0.661799 0.334539 0.000000
0.125002 0.246616 0.207187
0.120424 0.234897 0.201480
0.106477 0.197757 0.180941
0.187076 0.285801 0.174228
0.613794 0.434241 0.000000
0.051026 0.149996 0.174289
0.079164 0.149874 0.178897
0.138186 0.143191 0.186160
0.289982 0.119539 0.177035
0.530022 0.153628 0.170230
0.065248 0.162173 0.175845
0.087587 0.164004 0.181552
0.140414 0.157168 0.188357
0.285832 0.149569 0.175326
0.543633 0.171237 0.168338
0.080446 0.173617 0.163149
0.097108 0.176761 0.169650
0.149020 0.196658 0.193423
0.305608 0.208072 0.180301
0.580316 0.231235 0.162203
0.112093 0.222507 0.181552
0.122988 0.222293 0.191989
0.141238 0.215488 0.208316
0.292058 0.279759 0.198306
0.636896 0.329137 0.155032
0.149569 0.293126 0.230533
0.158114 0.291569 0.236820
0.155062 0.261723 0.231327
0.164736 0.277897 0.206973
0.592859 0.433692 0.166018
0.091493 0.254398 0.284184
0.124666 0.256443 0.288853
0.160494 0.226749 0.285130
0.249607 0.212039 0.280522
0.506157 0.186618 0.312169
0.102358 0.262303 0.282048
0.128023 0.261936 0.284642
0.164981 0.238193 0.284062
0.247471 0.220798 0.278752
0.503349 0.188907 0.303868
0.104524 0.279515 0.274601
0.128206 0.278935 0.276524
0.187655 0.277317 0.284215
0.248814 0.250370 0.278752
0.523552 0.207462 0.276677
0.132204 0.288884 0.252018
0.146853 0.287877 0.254093
0.193027 0.294102 0.267033
0.277531 0.315984 0.290684
0.596246 0.327764 0.274754
0.201480 0.382208 0.264500
0.211307 0.381262 0.271580
0.241001 0.375769 0.292119
0.224949 0.313085 0.282353
0.581689 0.454749 0.277104
0.243198 0.425116 0.407782
0.267826 0.424994 0.409888
0.320409 0.411139 0.410742
0.345068 0.341955 0.395422
0.479866 0.320775 0.396704
0.238834 0.426917 0.403540
0.262547 0.426764 0.405768
0.322759 0.418677 0.409766
0.343236 0.349157 0.394232
0.478859 0.327001 0.395972
0.225711 0.443671 0.397894
0.243839 0.442206 0.399481
0.317937 0.441566 0.407477
0.355383 0.386633 0.401160
0.488075 0.352972 0.398596
0.227176 0.484504 0.395331
0.242710 0.482277 0.395911
0.300023 0.482368 0.403510
0.427253 0.489113 0.426032
0.516716 0.410925 0.407996
0.256718 0.493568 0.365576
0.268467 0.493294 0.366766
0.316655 0.499977 0.375097
0.401495 0.505577 0.389227
0.556878 0.521996 0.416083
