data/fiter_cube/63078869/1022679/file.cube
# Created by Adobe Lightroom plugin Export LUT (1.17.0)
# www.johnrellis.com/lightroom/exportlut.htm
# Preset: 暗调胶片街拍_08 云集
# Color profile: C:\Program Files (x86)\Common Files\Adobe\Color\Profiles\Recommended\AdobeRGB1998.icc
LUT_3D_SIZE 32
DOMAIN_MIN 0.0 0.0 0.0
DOMAIN_MAX 1.0 1.0 1.0
0.016815 0.046937 0.050721
0.024048 0.048646 0.052064
0.034241 0.050904 0.051667
0.054414 0.055116 0.052522
0.067994 0.059907 0.054688
0.076692 0.062837 0.056153
0.084779 0.065187 0.057710
0.092958 0.068360 0.058167
0.101930 0.071382 0.059846
0.111971 0.074891 0.060304
0.123323 0.078279 0.060609
0.136019 0.082094 0.060670
0.149935 0.086824 0.060853
0.164767 0.091066 0.060853
0.180575 0.095918 0.060945
0.197147 0.100954 0.060304
0.214450 0.105837 0.059815
0.236790 0.112001 0.058656
0.264561 0.119478 0.056275
0.292607 0.126467 0.053559
0.321599 0.132937 0.048737
0.351629 0.138888 0.038819
0.381933 0.144289 0.027771
0.413275 0.149538 0.012146
0.445808 0.153933 0.000000
0.480812 0.158236 0.000000
0.519432 0.162142 0.000000
0.561883 0.165713 0.000000
0.607599 0.168887 0.000000
0.652674 0.171298 0.000000
0.693324 0.173068 0.000000
0.728725 0.174441 0.000000
0.018006 0.050233 0.053681
0.022980 0.053162 0.052522
0.033509 0.053620 0.052277
0.054780 0.058564 0.053040
0.067811 0.061341 0.054475
0.076600 0.063813 0.056031
0.084199 0.066560 0.058320
0.092470 0.069276 0.058747
0.101259 0.072328 0.059785
0.111147 0.075135 0.060304
0.122377 0.078523 0.060609
0.134737 0.082460 0.061128
0.148257 0.087037 0.060945
0.162783 0.091127 0.061006
0.178225 0.095888 0.061158
0.194491 0.100893 0.060578
0.211551 0.105715 0.060182
0.233280 0.111788 0.059144
0.259434 0.118868 0.057893
0.286320 0.125490 0.054261
0.314214 0.131868 0.050111
0.343267 0.137850 0.041566
0.372778 0.143465 0.030213
0.403510 0.148379 0.016785
0.435523 0.152987 0.000000
0.470100 0.157382 0.000000
0.508659 0.161532 0.000000
0.551354 0.165225 0.000000
0.597772 0.168734 0.000000
0.644404 0.171267 0.000000
0.686732 0.173281 0.000000
0.723415 0.174655 0.000000
0.020020 0.055116 0.057313
0.020874 0.057679 0.057069
0.031922 0.059327 0.053407
0.053864 0.061494 0.053437
0.067445 0.063752 0.054932
0.076326 0.065644 0.056550
0.083619 0.067933 0.058778
0.091981 0.070222 0.059113
0.100557 0.073243 0.060182
0.110567 0.076020 0.060243
0.121309 0.079896 0.060975
0.133608 0.083467 0.061097
0.147066 0.087373 0.061402
0.161532 0.091829 0.061463
0.176974 0.096620 0.061189
0.192935 0.101411 0.061097
0.209812 0.106111 0.060304
0.231510 0.112032 0.059754
0.256840 0.119081 0.058534
0.282933 0.125368 0.055329
0.310521 0.131716 0.050629
0.339025 0.137758 0.043732
0.368414 0.143130 0.031769
0.398566 0.148287 0.018799
0.430365 0.152956 0.002197
0.464698 0.157443 0.000000
0.503136 0.161685 0.000000
0.545892 0.165560 0.000000
0.592645 0.169039 0.000000
0.640101 0.171939 0.000000
0.683192 0.173739 0.000000
0.720546 0.175235 0.000000
0.021698 0.063050 0.063020
0.022614 0.062959 0.063874
0.024384 0.064790 0.061555
0.051179 0.068299 0.056458
0.067109 0.068544 0.055787
0.075746 0.069520 0.057557
0.083497 0.071229 0.059358
0.091554 0.073396 0.059693
0.100282 0.075624 0.060365
0.109682 0.078340 0.061341
0.120607 0.081422 0.061707
0.132967 0.085267 0.061799
0.146120 0.089204 0.062135
0.160128 0.093690 0.062623
0.175479 0.097902 0.062013
0.191348 0.102480 0.061524
0.208103 0.107210 0.061189
0.229770 0.113161 0.060243
0.253483 0.119814 0.059358
0.278325 0.125948 0.056519
0.304448 0.131991 0.051728
0.332036 0.137881 0.046082
0.360998 0.143252 0.035737
0.391913 0.148714 0.021515
0.425055 0.153719 0.005249
0.461128 0.158480 0.000000
0.501122 0.162966 0.000000
0.544976 0.167178 0.000000
0.592157 0.170779 0.000000
0.639399 0.173587 0.000000
0.681910 0.175601 0.000000
0.718776 0.176913 0.000000
0.025544 0.069581 0.068086
0.026459 0.069490 0.068879
0.027588 0.069398 0.069245
0.035645 0.073396 0.065736
0.063874 0.076356 0.059480
0.074739 0.075532 0.058808
0.082490 0.075624 0.059815
0.090608 0.076905 0.061097
0.099245 0.079042 0.060914
0.108766 0.081331 0.061952
0.119295 0.084382 0.062745
0.131136 0.087922 0.062898
0.144350 0.091463 0.063264
0.158572 0.095857 0.063325
0.173526 0.100130 0.063600
0.189731 0.105043 0.062623
0.206790 0.109590 0.062257
0.229343 0.115999 0.061097
0.252537 0.121859 0.059968
0.276524 0.127871 0.057984
0.301976 0.133822 0.053468
0.328832 0.139559 0.047578
0.357366 0.145052 0.037781
0.388006 0.150393 0.024994
0.421332 0.155612 0.006531
0.457435 0.160372 0.000000
0.497444 0.165133 0.000000
0.541283 0.169528 0.000000
0.588403 0.173068 0.000000
0.635737 0.176181 0.000000
0.678950 0.178195 0.000000
0.716335 0.179751 0.000000
0.030884 0.076020 0.074128
0.030671 0.076020 0.074464
0.031617 0.075959 0.075166
0.031098 0.077485 0.072572
0.049744 0.081849 0.069032
0.070741 0.082979 0.062440
0.081331 0.082063 0.061311
0.090150 0.081849 0.062318
0.098756 0.083467 0.063050
0.108370 0.085939 0.063569
0.118685 0.088563 0.064424
0.130587 0.091920 0.065003
0.143648 0.095644 0.064912
0.157961 0.099519 0.065003
0.173037 0.103853 0.064393
0.189303 0.108095 0.063905
0.207462 0.113283 0.063294
0.230167 0.119356 0.062135
0.252964 0.125338 0.061006
0.277073 0.131319 0.059236
0.302617 0.137209 0.055177
0.330022 0.142977 0.048981
0.415717 0.160067 0.014923
0.450080 0.164920 0.000000
0.485756 0.169100 0.000000
0.523156 0.173190 0.000000
0.562402 0.176547 0.000000
0.603326 0.179843 0.000000
0.643580 0.182010 0.000000
0.680720 0.183993 0.000000
0.713466 0.185061 0.000000
0.742733 0.186038 0.000000
0.036316 0.083162 0.080476
0.037629 0.082765 0.080781
0.037201 0.082765 0.081422
0.039429 0.082277 0.082338
0.041413 0.086549 0.077821
0.062165 0.089693 0.073548
0.078279 0.090272 0.067109
0.090608 0.090517 0.064698
0.101198 0.090425 0.065095
0.111269 0.092836 0.065919
0.122713 0.095460 0.066163
0.135256 0.098817 0.066194
0.148714 0.102266 0.066438
0.163333 0.106386 0.066011
0.178592 0.110414 0.065766
0.194705 0.114473 0.064912
0.215732 0.120089 0.063752
0.239261 0.126375 0.062257
0.263310 0.132692 0.061067
0.289708 0.138918 0.059083
0.319341 0.145754 0.052461
0.352636 0.152468 0.043519
0.389349 0.159243 0.028504
0.428840 0.165652 0.007019
0.470069 0.171328 0.000000
0.511192 0.176089 0.000000
0.552605 0.179995 0.000000
0.594751 0.183536 0.000000
0.636408 0.186252 0.000000
0.674342 0.188327 0.000000
0.708095 0.189578 0.000000
0.737881 0.190555 0.000000
0.042756 0.088075 0.086030
0.042756 0.088075 0.086030
0.042725 0.087770 0.086366
0.043824 0.087373 0.086946
0.042908 0.089052 0.085084
0.052064 0.092531 0.081666
0.068727 0.094911 0.078279
0.084443 0.097017 0.071077
0.097871 0.098024 0.068574
0.109712 0.098878 0.068330
0.121889 0.100984 0.068238
0.134524 0.103883 0.068299
0.148074 0.107393 0.068116
0.162417 0.111116 0.067720
0.177646 0.114778 0.067536
0.194369 0.119142 0.066529
0.216220 0.125277 0.065309
0.238346 0.130983 0.063630
0.261418 0.136873 0.061799
0.286900 0.142977 0.059937
0.315373 0.149386 0.055512
0.347784 0.156161 0.045960
0.383368 0.162936 0.030732
0.421698 0.169100 0.010498
0.462043 0.175113 0.000000
0.502617 0.179995 0.000000
0.543969 0.184298 0.000000
0.586481 0.188113 0.000000
0.629175 0.191104 0.000000
0.668391 0.193332 0.000000
0.703243 0.194827 0.000000
0.733822 0.195804 0.000000
0.048798 0.092714 0.090944
0.048920 0.092409 0.090974
0.048768 0.092409 0.091249
0.049744 0.092042 0.091554
0.050721 0.091676 0.091829
0.049989 0.095277 0.088533
0.060853 0.098512 0.085786
0.074495 0.100130 0.082979
0.091859 0.103731 0.075349
0.106538 0.106264 0.072358
0.119997 0.107790 0.071199
0.134493 0.109926 0.070161
0.148043 0.113222 0.069978
0.162539 0.116915 0.069551
0.177920 0.120516 0.068910
0.197269 0.125917 0.067842
0.218143 0.131319 0.065980
0.239200 0.136812 0.064912
0.261662 0.142245 0.062745
0.286534 0.148318 0.060517
0.314580 0.154482 0.055940
0.346044 0.161135 0.047761
0.380774 0.167697 0.032319
0.418402 0.174136 0.011292
0.457862 0.180026 0.000000
0.498116 0.185183 0.000000
0.539269 0.189670 0.000000
0.581781 0.193729 0.000000
0.624628 0.196994 0.000000
0.664240 0.199252 0.000000
0.699519 0.200992 0.000000
0.730465 0.202029 0.000000
0.052216 0.096864 0.095094
0.053254 0.096834 0.095094
0.053376 0.096559 0.095094
0.053193 0.096559 0.095369
0.054017 0.096193 0.095918
0.053040 0.097658 0.094759
0.057099 0.101015 0.091798
0.067414 0.104280 0.089418
0.080873 0.105623 0.086976
0.099336 0.111025 0.079500
0.115908 0.114687 0.075074
0.130953 0.116915 0.073671
0.147768 0.119387 0.071626
0.162661 0.122805 0.070863
0.180667 0.127718 0.069795
0.200473 0.133333 0.068544
0.221164 0.138521 0.067018
0.242649 0.143954 0.065034
0.265080 0.149477 0.063630
0.289433 0.155093 0.061006
0.316289 0.160983 0.057130
0.345953 0.166995 0.048157
0.378424 0.173312 0.033051
0.413367 0.179110 0.014191
0.450721 0.184939 0.000000
0.489906 0.190097 0.000000
0.531365 0.195071 0.000000
0.574914 0.199374 0.000000
0.619379 0.203128 0.000000
0.660975 0.206088 0.000000
0.697688 0.208011 0.000000
0.729519 0.209079 0.000000
0.056703 0.101045 0.098756
0.056550 0.101045 0.099001
0.056672 0.100801 0.099031
0.057527 0.100740 0.099275
0.057313 0.100465 0.099794
0.058595 0.099886 0.099825
0.057008 0.103182 0.096590
0.063111 0.106752 0.094881
0.074128 0.110323 0.092226
0.088594 0.112215 0.090333
0.108522 0.119203 0.082521
0.126955 0.123659 0.077668
0.143282 0.126589 0.075746
0.163424 0.130709 0.073121
0.183688 0.135683 0.070771
0.202914 0.140627 0.069642
0.222965 0.145754 0.068086
0.243748 0.150881 0.066194
0.265812 0.156039 0.064515
0.289616 0.161410 0.061982
0.316136 0.167300 0.058137
0.345403 0.173342 0.049165
0.377661 0.179629 0.033265
0.412421 0.185550 0.014313
0.449317 0.191409 0.000000
0.488014 0.196658 0.000000
0.528557 0.201663 0.000000
0.571557 0.206180 0.000000
0.615717 0.210239 0.000000
0.657435 0.213291 0.000000
0.694545 0.215335 0.000000
0.726802 0.216587 0.000000
0.059693 0.105562 0.102693
0.059754 0.105287 0.102693
0.059663 0.105287 0.102937
0.060273 0.104982 0.102968
0.060182 0.104738 0.103456
0.060365 0.103975 0.103517
0.060304 0.105501 0.102449
0.061280 0.109407 0.099428
0.068727 0.113222 0.097719
0.081697 0.117342 0.095277
0.096956 0.119692 0.093080
0.118654 0.127840 0.085237
0.151461 0.142550 0.080323
0.176089 0.149325 0.077272
0.203037 0.155673 0.072877
0.230259 0.161349 0.068544
0.252415 0.166476 0.066621
0.274693 0.171176 0.064820
0.297704 0.175845 0.061891
0.322667 0.180667 0.058503
0.349767 0.185824 0.049500
0.379217 0.191196 0.035462
0.410864 0.196262 0.017670
0.445045 0.201602 0.000000
0.481147 0.206485 0.000000
0.519188 0.211460 0.000000
0.558495 0.215518 0.000000
0.598749 0.219272 0.000000
0.638148 0.222416 0.000000
0.674708 0.224552 0.000000
0.707149 0.225925 0.000000
0.736385 0.226719 0.000000
0.062409 0.111360 0.107637
0.062409 0.111360 0.107637
0.062470 0.110903 0.107912
0.062623 0.110658 0.107698
0.062654 0.110201 0.107973
0.062867 0.109438 0.108034
0.063050 0.108705 0.108095
0.062013 0.112428 0.105074
0.066133 0.116640 0.102785
0.075715 0.121187 0.100984
0.091005 0.126009 0.098421
0.110109 0.131136 0.096345
0.138674 0.144015 0.088197
0.168093 0.155093 0.080964
0.194278 0.162478 0.077394
0.222263 0.168856 0.072511
0.251347 0.174380 0.067506
0.274022 0.178897 0.064881
0.296422 0.183291 0.062074
0.320562 0.187778 0.058442
0.346868 0.192844 0.048951
0.375708 0.197818 0.035370
0.406409 0.203067 0.019135
0.439734 0.208255 0.000000
0.475074 0.213291 0.000000
0.512261 0.218082 0.000000
0.551202 0.222568 0.000000
0.591577 0.226535 0.000000
0.631922 0.230106 0.000000
0.669520 0.232761 0.000000
0.703120 0.234318 0.000000
0.733120 0.235172 0.000000
0.064271 0.115846 0.111391
0.064271 0.115846 0.111391
0.064424 0.115389 0.111421
0.064485 0.115175 0.111452
0.064759 0.114473 0.111269
0.064942 0.113802 0.111330
0.065187 0.112856 0.111421
0.064576 0.114534 0.110414
0.065034 0.118776 0.106966
0.071687 0.123293 0.105287
0.084077 0.129366 0.103761
0.101991 0.136294 0.101625
0.123995 0.142733 0.098939
0.155032 0.156710 0.089662
0.185855 0.168093 0.081422
0.212528 0.175051 0.076875
0.240238 0.181125 0.072023
0.269230 0.186313 0.066285
0.295384 0.190677 0.061707
0.319097 0.195254 0.057771
0.345098 0.200107 0.049256
0.373632 0.205356 0.035584
0.404059 0.210544 0.018433
0.437049 0.215854 0.000000
0.472114 0.221073 0.000000
0.509178 0.226047 0.000000
0.548119 0.230686 0.000000
0.588525 0.235050 0.000000
0.629114 0.238926 0.000000
0.667262 0.241550 0.000000
0.701381 0.243351 0.000000
0.731868 0.244450 0.000000
0.066377 0.120302 0.115175
0.066285 0.120302 0.115358
0.066499 0.119875 0.115206
0.066529 0.119661 0.115206
0.066804 0.118990 0.115053
0.066621 0.118166 0.114931
0.066865 0.117250 0.114992
0.067109 0.116579 0.114839
0.066072 0.121248 0.112581
0.069490 0.126558 0.110353
0.078676 0.132570 0.109163
0.093690 0.139406 0.107240
0.113436 0.145998 0.105043
0.138155 0.154452 0.100801
0.170901 0.168917 0.090639
0.203037 0.180453 0.081361
0.230076 0.187259 0.076478
0.257939 0.193057 0.071260
0.287968 0.198459 0.064790
0.318700 0.203342 0.056947
0.344274 0.208103 0.048493
0.372076 0.213169 0.033936
0.402075 0.218326 0.016938
0.434699 0.223697 0.000000
0.469825 0.229282 0.000000
0.507347 0.234501 0.000000
0.547631 0.239689 0.000000
0.589929 0.244724 0.000000
0.632380 0.249210 0.000000
0.671595 0.252384 0.000000
0.706233 0.254337 0.000000
0.736904 0.255436 0.000000
0.068605 0.125154 0.118959
0.068605 0.125154 0.118959
0.068666 0.124941 0.118959
0.068788 0.124544 0.118990
0.068971 0.123903 0.119051
0.069093 0.123476 0.119081
0.069123 0.122835 0.119539
0.069703 0.122164 0.119783
0.069276 0.124483 0.118990
0.068849 0.129976 0.115480
0.075410 0.135683 0.114229
0.087251 0.142336 0.112490
0.104616 0.149844 0.110201
0.125124 0.155734 0.107790
0.151858 0.165164 0.102571
0.185397 0.179843 0.091127
0.218265 0.191440 0.080812
0.246372 0.198550 0.075380
0.276005 0.204898 0.069612
0.308782 0.211368 0.061921
0.344884 0.217411 0.046845
0.375036 0.222995 0.029633
0.405646 0.228397 0.011597
0.438880 0.234043 0.000000
0.474647 0.239780 0.000000
0.513146 0.245518 0.000000
0.553948 0.251072 0.000000
0.596460 0.256260 0.000000
0.638056 0.260502 0.000000
0.675837 0.263645 0.000000
0.708949 0.265385 0.000000
0.738521 0.266209 0.000000
0.070924 0.131075 0.123598
0.070924 0.131075 0.123598
0.071015 0.130678 0.123629
0.071077 0.130495 0.123659
0.071260 0.129915 0.123690
0.071412 0.129305 0.123751
0.071626 0.128511 0.123812
0.071962 0.127504 0.123720
0.072145 0.126894 0.123751
0.071107 0.131899 0.121248
0.073213 0.137881 0.118502
0.082094 0.144381 0.117098
0.095918 0.151583 0.115236
0.115175 0.159426 0.112612
0.136904 0.164797 0.110414
0.165316 0.175753 0.103670
0.200259 0.190738 0.091615
0.234257 0.202457 0.079896
0.263706 0.210147 0.074342
0.295262 0.217227 0.067109
0.330205 0.224247 0.056489
0.368750 0.231083 0.032898
0.404761 0.237217 0.008759
0.438178 0.243107 0.000000
0.474189 0.249088 0.000000
0.512932 0.255100 0.000000
0.554467 0.261021 0.000000
0.597711 0.266789 0.000000
0.639734 0.271397 0.000000
0.677668 0.274662 0.000000
0.710872 0.276432 0.000000
0.740475 0.277226 0.000000
0.073640 0.137209 0.128389
0.073579 0.137209 0.128573
0.075624 0.141360 0.131899
0.075288 0.141024 0.131930
0.075593 0.140322 0.131807
0.075593 0.139254 0.131533
0.075685 0.138003 0.131289
0.075746 0.136751 0.131044
0.075990 0.135103 0.130678
0.075227 0.137575 0.129580
0.074220 0.143893 0.125551
0.080232 0.150607 0.124056
0.091859 0.158145 0.122469
0.108888 0.166232 0.120027
0.131533 0.174807 0.116762
0.154879 0.179568 0.114290
0.187259 0.192905 0.105806
0.224949 0.208530 0.091829
0.262028 0.220951 0.078187
0.293828 0.229007 0.071015
0.328038 0.236393 0.061769
0.366308 0.243870 0.041657
0.408392 0.251102 0.007965
0.451820 0.257694 0.000000
0.486152 0.262913 0.000000
0.522576 0.268070 0.000000
0.561181 0.273289 0.000000
0.601770 0.278416 0.000000
0.642176 0.282719 0.000000
0.679286 0.285771 0.000000
0.712123 0.287602 0.000000
0.741390 0.288426 0.000000
0.076478 0.144808 0.134157
0.076997 0.145083 0.134646
0.077089 0.145571 0.135103
0.077302 0.145724 0.135439
0.077760 0.145327 0.135622
0.077607 0.144686 0.135500
0.077729 0.143313 0.135286
0.077546 0.141787 0.134920
0.077913 0.140047 0.134371
0.077729 0.138643 0.133822
0.076722 0.144533 0.131594
0.077852 0.151492 0.127687
0.086091 0.158663 0.126467
0.099886 0.166537 0.124392
0.118837 0.174899 0.121645
0.142489 0.183688 0.118013
0.166323 0.187472 0.116213
0.200595 0.202609 0.106142
0.239750 0.218753 0.091279
0.278019 0.231662 0.076143
0.311894 0.240421 0.067964
0.349248 0.249119 0.054536
0.390784 0.257694 0.024384
0.436316 0.265873 0.000000
0.485359 0.273289 0.000000
0.524712 0.279149 0.000000
0.564019 0.284642 0.000000
0.604913 0.289952 0.000000
0.645045 0.294469 0.000000
0.681666 0.297642 0.000000
0.713985 0.299260 0.000000
0.743008 0.299992 0.000000
0.079011 0.150271 0.138491
0.079072 0.150912 0.138766
0.079500 0.151339 0.139376
0.079805 0.151461 0.139528
0.079805 0.150973 0.139895
0.079774 0.150179 0.139651
0.080018 0.148714 0.139284
0.079957 0.147066 0.138766
0.080018 0.145266 0.138094
0.079713 0.143252 0.137453
0.078614 0.145602 0.136263
0.077852 0.152132 0.132601
0.082399 0.159304 0.130404
0.093263 0.167147 0.128664
0.108736 0.175387 0.126497
0.129305 0.184329 0.123384
0.154696 0.193362 0.119387
0.178927 0.196109 0.118044
0.215732 0.213687 0.106416
0.256779 0.230381 0.090547
0.297337 0.243992 0.072969
0.333898 0.253788 0.063142
0.374640 0.263615 0.041047
0.419348 0.273136 0.001495
0.468025 0.281987 0.000000
0.520104 0.289891 0.000000
0.566705 0.296147 0.000000
0.607202 0.301640 0.000000
0.646784 0.306157 0.000000
0.682918 0.309239 0.000000
0.714809 0.310948 0.000000
0.743740 0.311620 0.000000
0.080995 0.156008 0.142489
0.081331 0.156558 0.143069
0.081666 0.157137 0.143648
0.081941 0.157107 0.143954
0.082033 0.156802 0.143984
0.082155 0.155734 0.143587
0.082094 0.154177 0.143099
0.082094 0.152468 0.142611
0.081575 0.150271 0.141878
0.081392 0.148196 0.141085
0.081209 0.146273 0.140139
0.079957 0.152621 0.138094
0.079927 0.159854 0.133700
0.087922 0.167453 0.132631
0.100496 0.175875 0.130739
0.118288 0.184848 0.128389
0.141238 0.194614 0.125368
0.167941 0.203647 0.121462
0.196201 0.209384 0.119539
0.237522 0.229282 0.106905
0.282689 0.247684 0.089265
0.328862 0.263401 0.068086
0.370611 0.274876 0.050385
0.417884 0.286473 0.008515
0.469306 0.297551 0.000000
0.524041 0.307622 0.000000
0.580926 0.315984 0.000000
0.632715 0.321630 0.000000
0.668818 0.324895 0.000000
0.700984 0.326635 0.000000
0.729610 0.327276 0.000000
0.756893 0.327581 0.000000
0.084993 0.165042 0.149172
0.085145 0.165316 0.149447
0.085176 0.165164 0.149477
0.085267 0.164889 0.149477
0.085237 0.164004 0.149416
0.085084 0.162875 0.148928
0.084810 0.161135 0.148318
0.084535 0.159365 0.147738
0.084504 0.157137 0.146853
0.084169 0.154696 0.145998
0.083925 0.152255 0.144839
0.082826 0.154726 0.143679
0.081971 0.162020 0.140444
0.085115 0.170077 0.137301
0.095399 0.178531 0.136049
0.110811 0.187900 0.134157
0.131167 0.197787 0.131533
0.156649 0.208591 0.128206
0.185275 0.217685 0.124636
0.217350 0.225376 0.121462
0.261265 0.245731 0.107271
0.308843 0.264500 0.086763
0.357397 0.280339 0.060060
0.400671 0.291630 0.027802
0.450477 0.303746 0.000000
0.504936 0.315373 0.000000
0.562890 0.325872 0.000000
0.620294 0.334020 0.000000
0.670222 0.337835 0.000000
0.703273 0.339330 0.000000
0.731350 0.339818 0.000000
0.758419 0.340154 0.000000
0.087373 0.171511 0.153719
0.087221 0.171664 0.153994
0.087465 0.171756 0.154147
0.087587 0.171328 0.154177
0.087678 0.170504 0.153811
0.087312 0.169009 0.153384
0.087098 0.167361 0.152651
0.086763 0.165133 0.151827
0.086427 0.162997 0.150851
0.086244 0.160372 0.149874
0.085786 0.157748 0.148623
0.085115 0.155062 0.147036
0.084138 0.162020 0.145510
0.083253 0.170230 0.141238
0.090517 0.178805 0.139895
0.102968 0.188327 0.138430
0.120699 0.198428 0.136507
0.143618 0.209598 0.133913
0.172122 0.221408 0.130220
0.202731 0.230716 0.126925
0.238651 0.240940 0.122499
0.286046 0.262394 0.106600
0.337682 0.282383 0.083284
0.390906 0.299565 0.039368
0.427588 0.306371 0.001495
0.480751 0.319463 0.000000
0.538781 0.331975 0.000000
0.598596 0.342809 0.000000
0.653071 0.349706 0.000000
0.698024 0.351781 0.000000
0.730892 0.351873 0.000000
0.758236 0.352544 0.000000
0.091218 0.181033 0.160708
0.091341 0.181277 0.160952
0.091402 0.181125 0.160952
0.091279 0.180636 0.160861
0.091279 0.179355 0.160311
0.090730 0.177829 0.159609
0.090120 0.175784 0.158694
0.089754 0.173281 0.157534
0.089265 0.170321 0.156100
0.088685 0.167453 0.154788
0.088319 0.164096 0.153231
0.087648 0.160647 0.151492
0.086549 0.162570 0.149996
0.085267 0.170474 0.147311
0.086976 0.178836 0.143160
0.096590 0.188113 0.142153
0.111238 0.197787 0.140414
0.131106 0.208469 0.138277
0.156191 0.220310 0.135256
0.186893 0.233249 0.131472
0.219242 0.242374 0.128847
0.258701 0.254917 0.122621
0.308629 0.276982 0.105226
0.362341 0.297185 0.078004
0.417060 0.314214 0.009186
0.463935 0.325628 0.000000
0.521172 0.339544 0.000000
0.581140 0.352117 0.000000
0.638483 0.361547 0.000000
0.686641 0.365942 0.000000
0.725704 0.366400 0.000000
0.759609 0.365576 0.000000
0.093660 0.187686 0.165194
0.093843 0.187778 0.165438
0.094118 0.187747 0.165560
0.093812 0.187167 0.165225
0.093751 0.185946 0.164828
0.093324 0.184237 0.164187
0.092836 0.182132 0.163180
0.092226 0.179629 0.161898
0.091676 0.176944 0.160525
0.091218 0.173770 0.159304
0.090364 0.170474 0.157504
0.089662 0.166659 0.155581
0.088960 0.162875 0.153475
0.087739 0.170840 0.152468
0.086793 0.179751 0.148470
0.092348 0.189181 0.146181
0.104799 0.199344 0.145266
0.122164 0.210544 0.143526
0.145052 0.222873 0.141299
0.173587 0.236332 0.138277
0.208316 0.250797 0.134035
0.243137 0.259739 0.131930
0.286961 0.274571 0.123690
0.341039 0.297551 0.103182
0.399115 0.318608 0.069459
0.458686 0.336767 0.000000
0.508782 0.348608 0.000000
0.570275 0.363348 0.000000
0.630396 0.375189 0.000000
0.680964 0.381689 0.000000
0.721706 0.383642 0.000000
0.757107 0.383703 0.000000
0.097017 0.195834 0.170871
0.097047 0.195712 0.170901
0.097108 0.195590 0.170901
0.096864 0.194919 0.170596
0.096437 0.193423 0.169833
0.095949 0.191440 0.168887
0.095308 0.189090 0.167788
0.094820 0.186557 0.166476
0.094179 0.183505 0.165042
0.093294 0.180270 0.163607
0.092561 0.176822 0.161746
0.091554 0.173068 0.159915
0.090822 0.168887 0.157626
0.089784 0.170687 0.156222
0.088838 0.179446 0.154391
0.089113 0.189303 0.149538
0.098573 0.199710 0.148989
0.113802 0.211154 0.147951
0.134066 0.223606 0.146365
0.160037 0.237400 0.144015
0.191958 0.252201 0.140780
0.230381 0.267796 0.135897
0.267033 0.275944 0.134218
0.315618 0.293553 0.123720
0.373541 0.317418 0.099886
0.435859 0.339300 0.054841
0.500084 0.358404 0.000000
0.552087 0.370153 0.000000
0.613642 0.384253 0.000000
0.668330 0.393744 0.000000
0.712062 0.397742 0.000000
0.748806 0.399054 0.000000
0.099947 0.203311 0.175906
0.099947 0.203311 0.175906
0.099794 0.202976 0.175814
0.099611 0.202213 0.175509
0.099428 0.200870 0.174899
0.099001 0.199313 0.174319
0.098756 0.197513 0.173495
0.098360 0.195346 0.172580
0.097566 0.192813 0.171420
0.097139 0.189975 0.170291
0.096376 0.186740 0.168795
0.095552 0.182956 0.166934
0.094667 0.178683 0.164675
0.093263 0.173678 0.161746
0.092775 0.182956 0.161746
0.092256 0.193912 0.158724
0.096590 0.205661 0.155673
0.110018 0.218326 0.155550
0.129122 0.232181 0.154849
0.154330 0.247440 0.153414
0.185672 0.263737 0.151034
0.223911 0.280949 0.147280
0.267979 0.297887 0.141909
0.309941 0.306035 0.140902
0.367590 0.327489 0.126192
0.434913 0.353826 0.094728
0.506371 0.377630 0.000000
0.575372 0.396521 0.000000
0.625269 0.405707 0.000000
0.676051 0.414069 0.000000
0.718288 0.418097 0.000000
0.754574 0.419776 0.000000
0.105806 0.217319 0.185458
0.105867 0.217105 0.185489
0.105989 0.216892 0.185397
0.105531 0.215671 0.184817
0.104768 0.214084 0.183932
0.104250 0.211887 0.182986
0.103670 0.209384 0.181674
0.102815 0.206760 0.180392
0.102205 0.203494 0.178927
0.100954 0.200015 0.177066
0.099947 0.195865 0.174990
0.098512 0.191379 0.172549
0.097292 0.186404 0.169833
0.095644 0.181033 0.166690
