data/fiter_cube/63078869/1022679/file.cube
# Created by Adobe Lightroom plugin Export LUT (1.17.0)
# www.johnrellis.com/lightroom/exportlut.htm
# Preset: 暗调胶片街拍_08 云集
# Color profile: C:\Program Files (x86)\Common Files\Adobe\Color\Profiles\Recommended\AdobeRGB1998.icc
LUT_3D_SIZE 8
DOMAIN_MIN 0.000000 0.000000 0.000000
DOMAIN_MAX 0.903226 0.903226 0.903226
0.016815 0.046937 0.050721
0.067994 0.059907 0.054688
0.101930 0.071382 0.059846
0.149935 0.086824 0.060853
0.214450 0.105837 0.059815
0.321599 0.132937 0.048737
0.445808 0.153933 0.000000
0.607599 0.168887 0.000000
0.025544 0.069581 0.068086
0.063874 0.076356 0.059480
0.099245 0.079042 0.060914
0.144350 0.091463 0.063264
0.206790 0.109590 0.062257
0.301976 0.133822 0.053468
0.421332 0.155612 0.006531
0.588403 0.173068 0.000000
0.048798 0.092714 0.090944
0.050721 0.091676 0.091829
0.091859 0.103731 0.075349
0.148043 0.113222 0.069978
0.218143 0.131319 0.065980
0.314580 0.154482 0.055940
0.457862 0.180026 0.000000
0.624628 0.196994 0.000000
0.062409 0.111360 0.107637
0.062654 0.110201 0.107973
0.066133 0.116640 0.102785
0.138674 0.144015 0.088197
0.251347 0.174380 0.067506
0.346868 0.192844 0.048951
0.475074 0.213291 0.000000
0.631922 0.230106 0.000000
0.070924 0.131075 0.123598
0.071260 0.129915 0.123690
0.072145 0.126894 0.123751
0.095918 0.151583 0.115236
0.200259 0.190738 0.091615
0.330205 0.224247 0.056489
0.474189 0.249088 0.000000
0.639734 0.271397 0.000000
0.080995 0.156008 0.142489
0.082033 0.156802 0.143984
0.081575 0.150271 0.141878
0.079927 0.159854 0.133700
0.141238 0.194614 0.125368
0.282689 0.247684 0.089265
0.469306 0.297551 0.000000
0.668818 0.324895 0.000000
0.093660 0.187686 0.165194
0.093751 0.185946 0.164828
0.091676 0.176944 0.160525
0.088960 0.162875 0.153475
0.104799 0.199344 0.145266
0.208316 0.250797 0.134035
0.399115 0.318608 0.069459
0.630396 0.375189 0.000000
0.109804 0.227054 0.191836
0.108705 0.223697 0.190280
0.105776 0.213107 0.185061
0.100374 0.195438 0.175784
0.094148 0.200198 0.163668
0.155520 0.261479 0.160403
0.325902 0.337041 0.146365
0.606897 0.427924 0.000000
0.022644 0.073884 0.082185
0.053040 0.074281 0.086427
0.090944 0.084901 0.086610
0.136049 0.096162 0.087739
0.199435 0.110018 0.083497
0.287633 0.129305 0.077272
0.403357 0.148745 0.057527
0.565820 0.164645 0.000000
0.029145 0.080537 0.079438
0.054932 0.086397 0.088655
0.090120 0.091676 0.089204
0.135164 0.100404 0.087953
0.198337 0.114046 0.083711
0.281041 0.132265 0.076997
0.388220 0.151064 0.059846
0.545830 0.168154 0.000000
0.054749 0.097566 0.095277
0.060883 0.099641 0.101015
0.087098 0.108522 0.094209
0.139223 0.115816 0.088441
0.203159 0.129854 0.084047
0.288090 0.148836 0.076661
0.406104 0.169833 0.055116
0.574731 0.189273 0.000000
0.065980 0.115694 0.112215
0.067048 0.115328 0.113527
0.068147 0.118837 0.110231
0.129519 0.140719 0.098756
0.218265 0.159579 0.083253
0.301152 0.176913 0.074952
0.417548 0.198032 0.044404
0.583703 0.220005 0.000000
0.075257 0.136690 0.129122
0.075502 0.135042 0.128725
0.075319 0.130739 0.128176
0.093294 0.149935 0.119875
0.185855 0.182437 0.100618
0.306035 0.213260 0.074861
0.442115 0.238285 0.017731
0.610651 0.263310 0.000000
0.084047 0.158877 0.145632
0.084321 0.157351 0.145296
0.083558 0.151522 0.143465
0.081666 0.157961 0.136904
0.136904 0.191897 0.129702
0.275395 0.244419 0.099397
0.454902 0.291569 0.011292
0.650965 0.318761 0.000000
0.095216 0.187289 0.165591
0.094301 0.184146 0.164157
0.092622 0.176577 0.160952
0.090486 0.164431 0.155184
0.103426 0.197055 0.147707
0.201389 0.245884 0.137850
0.379889 0.308293 0.084230
0.603357 0.363714 0.000000
0.111421 0.227512 0.192630
0.110811 0.225223 0.191653
0.107973 0.215030 0.186923
0.102907 0.198093 0.178195
0.097749 0.203311 0.169100
0.155917 0.263981 0.165072
0.321355 0.335302 0.150698
0.594293 0.422004 0.000000
0.042298 0.100893 0.113375
0.056611 0.101961 0.116091
0.079683 0.100801 0.119661
0.132601 0.098939 0.115755
0.199405 0.117433 0.114931
0.287419 0.134218 0.112642
0.408118 0.150118 0.101900
0.575769 0.160403 0.067964
0.050202 0.105867 0.114015
0.060792 0.106935 0.116304
0.079896 0.106325 0.120241
0.129335 0.107973 0.116243
0.195285 0.121248 0.114809
0.280613 0.136995 0.111421
0.397772 0.153109 0.100771
0.566400 0.165469 0.067201
0.059205 0.110872 0.109499
0.065553 0.112764 0.113130
0.082643 0.120638 0.122805
0.133730 0.125826 0.119051
0.203281 0.137758 0.115938
0.288518 0.153292 0.110872
0.405341 0.170443 0.099397
0.572625 0.185336 0.063355
0.070039 0.127840 0.117891
0.074250 0.130037 0.123659
0.083558 0.133181 0.134890
0.130282 0.152682 0.127962
0.217380 0.165957 0.114412
0.303349 0.181552 0.109926
0.424170 0.200839 0.096742
0.591547 0.218936 0.050385
0.080903 0.149844 0.137026
0.084932 0.151614 0.141695
0.090913 0.151522 0.148165
0.097597 0.161440 0.142672
0.189853 0.193576 0.129946
0.311009 0.217868 0.108339
0.440253 0.239261 0.090608
0.610925 0.262150 0.015290
0.092683 0.174289 0.156832
0.096010 0.175540 0.160464
0.097688 0.170993 0.161379
0.095003 0.163455 0.156069
0.135317 0.197757 0.148806
0.267979 0.245365 0.129335
0.446754 0.289616 0.093202
0.650294 0.318761 0.000000
0.108766 0.207492 0.181552
0.110628 0.206638 0.183047
0.107485 0.196689 0.178378
0.102480 0.181521 0.170474
0.105806 0.200565 0.161410
0.199100 0.251041 0.156558
0.385473 0.315892 0.119997
0.624231 0.373419 0.000000
0.128023 0.249180 0.209415
0.125948 0.244755 0.206943
0.121218 0.232944 0.201144
0.115297 0.216068 0.192813
0.106111 0.201511 0.179416
0.152438 0.264683 0.177310
0.321019 0.341772 0.168704
0.601770 0.428717 0.051942
0.049744 0.129976 0.149783
0.062074 0.131563 0.152865
0.076967 0.125978 0.155947
0.113832 0.126802 0.160159
0.186587 0.122835 0.165316
0.268620 0.124422 0.149294
0.375860 0.147829 0.148348
0.541619 0.151614 0.135378
0.059419 0.136416 0.152407
0.066194 0.137148 0.154452
0.080140 0.131838 0.157687
0.115755 0.132448 0.162234
0.188022 0.126009 0.163333
0.264591 0.136294 0.150790
0.372473 0.151949 0.147494
0.539605 0.156649 0.133486
0.062135 0.144350 0.151186
0.068879 0.145052 0.152834
0.088472 0.147311 0.158724
0.117952 0.146517 0.164889
0.191257 0.144503 0.158145
0.277012 0.160250 0.156985
0.403052 0.174563 0.153567
0.569787 0.179416 0.134920
0.072419 0.149935 0.143587
0.078126 0.151217 0.145754
0.094759 0.157656 0.155276
0.124819 0.170260 0.169375
0.199039 0.173739 0.159945
0.284184 0.185000 0.156161
0.405432 0.199985 0.149935
0.581750 0.213596 0.131594
0.089204 0.174960 0.147555
0.092744 0.175509 0.151949
0.106203 0.179507 0.167208
0.118685 0.179965 0.180392
0.189883 0.210269 0.174075
0.310124 0.225071 0.156435
0.435615 0.242863 0.149264
0.608057 0.260197 0.127657
0.102571 0.200015 0.169619
0.107942 0.203952 0.175845
0.119326 0.205020 0.186893
0.125093 0.198215 0.191379
0.139864 0.215030 0.183963
0.271611 0.259983 0.175113
0.455085 0.296605 0.151064
0.646540 0.319127 0.122774
0.118593 0.231724 0.193668
0.122255 0.232425 0.196811
0.132509 0.233158 0.205722
0.132357 0.220493 0.203922
0.122408 0.209476 0.190646
0.198642 0.264591 0.188998
0.388495 0.326299 0.168826
0.633600 0.379187 0.122286
0.144350 0.280888 0.226230
0.146822 0.280278 0.228000
0.152773 0.275151 0.231479
0.143679 0.253513 0.221988
0.125307 0.218235 0.200778
0.145998 0.263493 0.195773
0.313085 0.348089 0.197208
0.606287 0.436988 0.136934
0.055329 0.173068 0.201358
0.067323 0.174228 0.203616
0.091402 0.172763 0.207431
0.116274 0.159945 0.208347
0.165255 0.160891 0.212589
0.247990 0.159030 0.222507
0.367987 0.122621 0.205692
0.521996 0.141024 0.201663
0.063416 0.177951 0.202457
0.072755 0.179446 0.205386
0.096559 0.180087 0.210788
0.117952 0.164858 0.209323
0.165194 0.164584 0.212558
0.249821 0.161837 0.221836
0.368658 0.127810 0.202853
0.521263 0.156435 0.202853
0.071473 0.189761 0.204654
0.080507 0.191135 0.206943
0.102388 0.191073 0.210452
0.121584 0.179110 0.210971
0.165133 0.176394 0.212497
0.251133 0.168765 0.214908
0.362585 0.160586 0.200107
0.519066 0.180117 0.199985
0.073060 0.201663 0.202487
0.080720 0.201694 0.203250
0.103609 0.202914 0.207431
0.135470 0.205112 0.215457
0.171542 0.200168 0.218082
0.260105 0.193668 0.207980
0.373358 0.205264 0.205478
0.546410 0.205570 0.194522
0.090608 0.200809 0.185245
0.095979 0.201968 0.187381
0.113222 0.204685 0.193210
0.140566 0.214847 0.207156
0.177737 0.226108 0.219333
0.276188 0.228733 0.207828
0.397864 0.239292 0.202579
0.576745 0.250095 0.190555
0.110994 0.225528 0.180179
0.115541 0.226902 0.182589
0.127565 0.227726 0.193606
0.146578 0.230533 0.212467
0.152987 0.220462 0.217716
0.257542 0.268742 0.219516
0.445991 0.297459 0.205570
0.627375 0.315160 0.193423
0.132998 0.264591 0.207095
0.135744 0.263920 0.209537
0.146212 0.263188 0.218540
0.162753 0.262333 0.232303
0.160922 0.243290 0.229526
0.185733 0.268711 0.221500
0.375982 0.332250 0.217044
0.630640 0.378943 0.189120
0.160250 0.313298 0.239048
0.162387 0.312016 0.240513
0.169223 0.307774 0.245335
0.184115 0.305394 0.255985
0.169192 0.272282 0.242649
0.146731 0.251377 0.218082
0.284886 0.344701 0.227237
0.592615 0.438972 0.198032
0.086275 0.246281 0.276738
0.098085 0.247044 0.278386
0.125063 0.242985 0.278141
0.143313 0.224979 0.275578
0.176333 0.201938 0.266056
0.233036 0.202518 0.268772
0.338964 0.210941 0.288762
0.524773 0.150912 0.292973
0.086946 0.241581 0.269200
0.096742 0.241398 0.269871
0.123751 0.240574 0.272496
0.143587 0.225589 0.270481
0.173404 0.202853 0.262882
0.230045 0.203861 0.266453
0.337011 0.211307 0.286534
0.522393 0.152132 0.289403
0.099886 0.255650 0.272465
0.107179 0.254307 0.272221
0.131014 0.252567 0.273869
0.159487 0.245365 0.274693
0.178378 0.218204 0.266453
0.233371 0.216861 0.268620
0.345037 0.219211 0.286168
0.528527 0.162325 0.281834
0.101808 0.267124 0.269566
0.109133 0.265782 0.269108
0.133974 0.265537 0.271611
0.173129 0.269841 0.280400
0.193973 0.249638 0.277897
0.246708 0.243717 0.277562
0.368658 0.234989 0.286259
0.544549 0.186038 0.267552
0.102480 0.272129 0.258457
0.109560 0.272984 0.259861
0.130922 0.275303 0.264195
0.164126 0.277165 0.270268
0.203311 0.275792 0.276738
0.246555 0.264164 0.275975
0.370825 0.251072 0.266636
0.545068 0.258732 0.263615
0.119295 0.264927 0.234623
0.125612 0.267185 0.237278
0.142580 0.269383 0.242039
0.168246 0.272618 0.249485
0.201999 0.282200 0.262577
0.254887 0.296757 0.276585
0.410773 0.306096 0.269596
0.602686 0.313848 0.261173
0.155001 0.309636 0.238437
0.160525 0.312078 0.241062
0.175540 0.315129 0.246494
0.197665 0.317906 0.258122
0.219547 0.313909 0.274784
0.212375 0.283818 0.269627
0.376898 0.355474 0.275822
0.649866 0.392187 0.263157
0.192081 0.367651 0.259770
0.194369 0.366308 0.261357
0.202853 0.362860 0.267521
0.218173 0.359533 0.278264
0.232273 0.347234 0.287755
0.209079 0.301213 0.271794
0.251743 0.341192 0.262913
0.586114 0.451759 0.261875
0.143221 0.318273 0.335454
0.153902 0.320562 0.337713
0.181979 0.320745 0.340276
0.208804 0.311254 0.339391
0.216037 0.277195 0.332647
0.253635 0.247318 0.319677
0.321141 0.250553 0.323919
0.467536 0.273320 0.354681
0.140078 0.314214 0.330327
0.149844 0.316106 0.332341
0.176913 0.316472 0.335119
0.203342 0.307378 0.334020
0.210239 0.274540 0.327764
0.246159 0.244877 0.314549
0.311131 0.247379 0.318364
0.454597 0.268620 0.348974
0.149966 0.327306 0.333013
0.157504 0.327153 0.333654
0.181186 0.325689 0.335027
0.213687 0.321202 0.336706
0.218296 0.288640 0.329870
0.250553 0.258091 0.317327
0.318700 0.260563 0.322179
0.473610 0.277653 0.353216
0.155581 0.343267 0.333898
0.161166 0.341405 0.333349
0.182437 0.339117 0.334051
0.220218 0.338964 0.338354
0.248173 0.323552 0.336217
0.262638 0.284245 0.325109
0.331945 0.282628 0.328527
0.496590 0.287449 0.355047
0.148592 0.350561 0.325719
0.153719 0.348913 0.325139
0.173465 0.346441 0.325719
0.206363 0.345922 0.329595
0.250736 0.343908 0.335088
0.266453 0.310521 0.327886
0.332036 0.301457 0.327733
0.517815 0.294591 0.348608
0.151827 0.356451 0.314702
0.157473 0.356817 0.315465
0.175906 0.358587 0.318547
0.205722 0.362951 0.324926
0.245060 0.365118 0.331823
0.300542 0.363745 0.340215
0.354131 0.342199 0.336889
0.551049 0.310918 0.328862
0.170565 0.355627 0.295415
0.176089 0.357122 0.296910
0.191806 0.358709 0.300175
0.217105 0.361639 0.305638
0.249210 0.362676 0.311742
0.295720 0.372442 0.324132
0.368872 0.386725 0.336645
0.607599 0.398322 0.330053
0.211368 0.406806 0.295323
0.215640 0.407782 0.296330
0.234745 0.416968 0.302953
0.260777 0.424567 0.309483
0.295811 0.430732 0.318486
0.319707 0.418067 0.333318
0.279545 0.349676 0.314183
0.577905 0.476112 0.329717
0.243198 0.425116 0.407782
0.252201 0.426551 0.409369
0.275608 0.424781 0.410529
0.307622 0.419562 0.412116
0.324498 0.394507 0.407874
0.335058 0.351110 0.398505
0.382208 0.315557 0.386999
0.479866 0.320775 0.396704
0.238682 0.422248 0.404181
0.247715 0.423804 0.405890
0.271580 0.422980 0.407721
0.304295 0.418097 0.409369
0.323766 0.395239 0.405402
0.331640 0.351019 0.396429
0.377447 0.315038 0.384710
0.476020 0.320958 0.395056
0.235447 0.426154 0.401465
0.243015 0.426734 0.402441
0.264530 0.424048 0.403082
0.311711 0.429694 0.411292
0.334051 0.409094 0.406867
0.333959 0.361212 0.397284
0.377813 0.322759 0.384955
0.477577 0.328496 0.395331
0.228611 0.437568 0.400031
0.236912 0.438849 0.401465
0.260227 0.437446 0.402930
0.303471 0.439277 0.408576
0.348058 0.432624 0.411933
0.347295 0.385901 0.403998
0.386053 0.341283 0.389532
0.485328 0.343786 0.397894
0.223728 0.451392 0.395789
0.230777 0.452766 0.397284
0.249027 0.451545 0.398993
0.282170 0.451270 0.403967
0.341985 0.451392 0.411109
0.381140 0.429938 0.410224
0.399481 0.373999 0.398077
0.493965 0.365270 0.400519
0.221683 0.472175 0.392584
0.225925 0.470954 0.392462
0.241886 0.468635 0.393194
0.272129 0.468147 0.396979
0.320409 0.470253 0.405310
0.405371 0.478859 0.421698
0.428412 0.429023 0.413977
0.514549 0.401801 0.407538
0.237156 0.489601 0.385199
0.241032 0.489479 0.385534
0.255894 0.490791 0.387915
0.285435 0.497017 0.394446
0.331640 0.508049 0.405859
0.390906 0.510948 0.416480
0.475532 0.503746 0.427527
0.529839 0.448768 0.411566
0.256718 0.493568 0.365576
0.259770 0.493141 0.365759
0.272862 0.493812 0.367498
0.299168 0.497719 0.372076
0.336889 0.501976 0.378576
0.386786 0.505058 0.386786
0.456794 0.511955 0.400305
0.556878 0.521996 0.416083
