data/fiter_cube/65184230/1022650/file.cube
# Created by Adobe Lightroom plugin Export LUT (1.17.0)
# www.johnrellis.com/lightroom/exportlut.htm
# Preset: ins网红旅拍风景人像_09 云集
# Color profile: C:\Program Files (x86)\Common Files\Adobe\Color\Profiles\Recommended\AdobeRGB1998.icc
LUT_3D_SIZE 32
DOMAIN_MIN 0.0 0.0 0.0
DOMAIN_MAX 1.0 1.0 1.0
0.108766 0.103700 0.098177
0.109499 0.103822 0.098390
0.111330 0.103975 0.098299
0.123934 0.105348 0.097780
0.162753 0.110140 0.095705
0.217136 0.118837 0.091737
0.274418 0.130220 0.085542
0.331060 0.142885 0.076722
0.387945 0.156954 0.064118
0.445808 0.173068 0.030396
0.504692 0.189395 0.000000
0.564172 0.207401 0.000000
0.621302 0.225620 0.000000
0.672847 0.242344 0.000000
0.718898 0.258152 0.000000
0.759640 0.272557 0.000000
0.801175 0.287907 0.000000
0.848783 0.306737 0.000000
0.884825 0.321965 0.000000
0.915190 0.335698 0.000000
0.941924 0.348608 0.000000
0.965820 0.360754 0.000000
0.986999 0.371862 0.000000
1.000000 0.382300 0.000000
1.000000 0.391913 0.000000
1.000000 0.401343 0.000000
1.000000 0.410986 0.000000
1.000000 0.420935 0.000000
1.000000 0.431220 0.022583
1.000000 0.441810 0.082368
1.000000 0.452674 0.114961
1.000000 0.465370 0.129946
0.108675 0.103944 0.098390
0.109194 0.104097 0.098360
0.111513 0.104707 0.098238
0.124636 0.107424 0.097566
0.163363 0.114321 0.095247
0.216526 0.124483 0.091127
0.272923 0.136049 0.084596
0.328191 0.148531 0.076173
0.384100 0.162264 0.063233
0.441260 0.177523 0.030396
0.499184 0.193606 0.000000
0.557763 0.210666 0.000000
0.614374 0.228122 0.000000
0.665888 0.244541 0.000000
0.712001 0.259770 0.000000
0.753017 0.273960 0.000000
0.795193 0.289342 0.000000
0.841123 0.306981 0.000000
0.876677 0.321447 0.000000
0.907103 0.334783 0.000000
0.934081 0.347295 0.000000
0.958221 0.358862 0.000000
0.979736 0.369848 0.000000
0.999481 0.379858 0.000000
1.000000 0.389593 0.000000
1.000000 0.399145 0.000000
1.000000 0.408728 0.000000
1.000000 0.418860 0.000000
1.000000 0.429145 0.000000
1.000000 0.439826 0.066041
1.000000 0.450629 0.102174
1.000000 0.461250 0.133822
0.108797 0.104677 0.098573
0.109346 0.104829 0.098543
0.110353 0.105135 0.098482
0.123415 0.109804 0.097383
0.163668 0.119936 0.094667
0.216709 0.131685 0.090242
0.271641 0.143587 0.083894
0.326146 0.156069 0.075044
0.381537 0.169589 0.061860
0.438025 0.183871 0.027924
0.495521 0.199557 0.000000
0.553796 0.216220 0.000000
0.610346 0.233280 0.000000
0.662013 0.249058 0.000000
0.708156 0.263981 0.000000
0.749416 0.277897 0.000000
0.792477 0.293187 0.000000
0.836973 0.309819 0.000000
0.872190 0.323583 0.000000
0.902647 0.336584 0.000000
0.929808 0.348577 0.000000
0.954253 0.360021 0.000000
0.976043 0.370672 0.000000
0.995941 0.380468 0.000000
1.000000 0.389960 0.000000
1.000000 0.399298 0.000000
1.000000 0.408820 0.000000
1.000000 0.418830 0.000000
1.000000 0.429084 0.000000
1.000000 0.439734 0.050507
1.000000 0.450416 0.094759
1.000000 0.460914 0.127016
0.108797 0.108095 0.098756
0.110018 0.108827 0.098909
0.112367 0.108919 0.098817
0.117159 0.110933 0.098482
0.153506 0.126711 0.094911
0.217411 0.147585 0.087953
0.274296 0.161196 0.080598
0.327977 0.173404 0.071015
0.381994 0.185733 0.056550
0.437537 0.199222 0.016083
0.494087 0.213840 0.000000
0.551537 0.229648 0.000000
0.607355 0.245823 0.000000
0.658503 0.260655 0.000000
0.704585 0.274601 0.000000
0.745724 0.287083 0.000000
0.790311 0.302464 0.000000
0.832547 0.317357 0.000000
0.866514 0.329839 0.000000
0.896117 0.341405 0.000000
0.922881 0.352453 0.000000
0.947326 0.363134 0.000000
0.969818 0.373297 0.000000
0.990875 0.383246 0.000000
1.000000 0.392889 0.000000
1.000000 0.402655 0.000000
1.000000 0.412390 0.000000
1.000000 0.422492 0.000000
1.000000 0.432471 0.000000
1.000000 0.442756 0.038666
1.000000 0.452888 0.089448
1.000000 0.462654 0.120974
0.108156 0.116426 0.099458
0.109621 0.117739 0.099062
0.113680 0.117983 0.099397
0.119905 0.118044 0.098939
0.131838 0.123568 0.097932
0.185519 0.150027 0.091463
0.261997 0.178683 0.079042
0.324315 0.195499 0.066072
0.380316 0.208042 0.042451
0.434730 0.220554 0.000214
0.490181 0.233890 0.000000
0.546746 0.248600 0.000000
0.602258 0.263523 0.000000
0.653620 0.277287 0.000000
0.700282 0.290257 0.000000
0.742397 0.302312 0.000000
0.789822 0.317052 0.000000
0.830838 0.330602 0.000000
0.864378 0.341802 0.000000
0.893614 0.352270 0.000000
0.919890 0.362188 0.000000
0.944030 0.371740 0.000000
0.966430 0.380896 0.000000
0.987732 0.390143 0.000000
1.000000 0.399268 0.000000
1.000000 0.408484 0.000000
1.000000 0.417792 0.000000
1.000000 0.427222 0.000000
1.000000 0.436866 0.000000
1.000000 0.446540 0.003662
1.000000 0.456214 0.077974
1.000000 0.465644 0.112001
0.106569 0.131472 0.100618
0.107851 0.133242 0.099153
0.113649 0.134859 0.100252
0.122927 0.132265 0.099763
0.134615 0.133974 0.098909
0.154086 0.142428 0.096803
0.217868 0.175784 0.086824
0.298802 0.208896 0.068482
0.377478 0.235721 0.023285
0.435004 0.248661 0.000000
0.492531 0.261814 0.000000
0.548486 0.274998 0.000000
0.603113 0.288334 0.000000
0.653986 0.300938 0.000000
0.700404 0.312383 0.000000
0.743679 0.323400 0.000000
0.792203 0.337713 0.000000
0.831693 0.349401 0.000000
0.864744 0.359319 0.000000
0.893950 0.368353 0.000000
0.920378 0.377081 0.000000
0.944884 0.385565 0.000000
1.000000 0.419135 0.000000
1.000000 0.427070 0.000000
1.000000 0.434363 0.000000
1.000000 0.441566 0.000000
1.000000 0.448676 0.000000
1.000000 0.456031 0.064332
1.000000 0.463447 0.091859
1.000000 0.471015 0.116152
1.000000 0.478492 0.138521
1.000000 0.495796 0.105409
0.103426 0.158602 0.102785
0.105165 0.159976 0.100618
0.111116 0.161624 0.099733
0.126986 0.159609 0.101198
0.141390 0.152407 0.099977
0.159487 0.158877 0.098024
0.186740 0.171084 0.094942
0.258305 0.209506 0.080751
0.346624 0.247959 0.044556
0.437171 0.282475 0.000000
0.514092 0.306126 0.000000
0.573724 0.319036 0.000000
0.628992 0.330999 0.000000
0.677180 0.340063 0.000000
0.719936 0.347997 0.000000
0.767056 0.359319 0.000000
0.812161 0.370977 0.000000
0.848875 0.379797 0.000000
0.880400 0.387549 0.000000
0.909575 0.395483 0.000000
0.937591 0.404089 0.000000
0.964752 0.413336 0.000000
0.990539 0.423041 0.000000
1.000000 0.432532 0.000000
1.000000 0.441444 0.000000
1.000000 0.449226 0.000000
1.000000 0.456306 0.000000
1.000000 0.463142 0.014588
1.000000 0.469947 0.072633
1.000000 0.476722 0.099763
1.000000 0.483406 0.123507
1.000000 0.498634 0.082979
0.100313 0.183841 0.105348
0.102510 0.184848 0.103059
0.106172 0.186130 0.099641
0.127382 0.186038 0.104005
0.144869 0.177340 0.102174
0.159426 0.169314 0.100435
0.182834 0.180697 0.097871
0.213413 0.194430 0.094240
0.284825 0.233494 0.078370
0.375158 0.275425 0.024506
0.470802 0.314763 0.000000
0.561975 0.348333 0.000000
0.624414 0.363256 0.000000
0.674495 0.371771 0.000000
0.720699 0.379004 0.000000
0.771115 0.390600 0.000000
0.812131 0.398505 0.000000
0.846616 0.404547 0.000000
0.877043 0.410040 0.000000
0.905547 0.415900 0.000000
0.933074 0.422583 0.000000
0.959869 0.430091 0.000000
0.985351 0.438148 0.000000
1.000000 0.446113 0.000000
1.000000 0.453681 0.000000
1.000000 0.460365 0.000000
1.000000 0.466499 0.000000
1.000000 0.472328 0.000000
1.000000 0.478401 0.027008
1.000000 0.484382 0.078737
1.000000 0.490394 0.106600
1.000000 0.500267 0.100710
0.097597 0.211460 0.109224
0.100313 0.212070 0.106844
0.104311 0.213016 0.103822
0.124910 0.213260 0.106600
0.147982 0.205875 0.106935
0.164309 0.193332 0.103883
0.180850 0.190372 0.101228
0.207126 0.203006 0.098573
0.240055 0.218143 0.094606
0.310307 0.257450 0.078462
0.403601 0.303166 0.013764
0.501671 0.346166 0.000000
0.597620 0.384009 0.000000
0.673396 0.407843 0.000000
0.728298 0.418921 0.000000
0.775326 0.426520 0.000000
0.814908 0.431189 0.000000
0.847715 0.434211 0.000000
0.876799 0.437079 0.000000
0.904570 0.440833 0.000000
0.931487 0.445594 0.000000
0.957671 0.450996 0.000000
0.982696 0.457191 0.000000
1.000000 0.463600 0.000000
1.000000 0.469642 0.000000
1.000000 0.474922 0.000000
1.000000 0.479896 0.000000
1.000000 0.484657 0.000000
1.000000 0.489631 0.000000
1.000000 0.494636 0.049989
1.000000 0.499580 0.087404
1.000000 0.504356 0.112459
0.096010 0.239109 0.114870
0.099489 0.239322 0.112673
0.103883 0.239567 0.109499
0.121950 0.239292 0.109285
0.150942 0.234684 0.114351
0.168978 0.221439 0.109804
0.182162 0.205661 0.105653
0.202152 0.210575 0.103212
0.230686 0.224399 0.100465
0.264561 0.240269 0.096651
0.333074 0.279301 0.081056
0.428534 0.328527 0.014069
0.528588 0.374762 0.000000
0.634363 0.420691 0.000000
0.721736 0.453101 0.000000
0.778927 0.466011 0.000000
0.817777 0.468391 0.000000
0.851286 0.469093 0.000000
0.880888 0.469581 0.000000
0.907439 0.470527 0.000000
0.932586 0.472450 0.000000
0.956786 0.475166 0.000000
0.979950 0.478553 0.000000
1.000000 0.482368 0.000000
1.000000 0.486336 0.000000
1.000000 0.490181 0.000000
1.000000 0.494026 0.000000
1.000000 0.498085 0.000000
1.000000 0.502373 0.000000
1.000000 0.506798 0.000000
1.000000 0.511101 0.066011
1.000000 0.514916 0.098726
0.096407 0.264164 0.121736
0.100313 0.264164 0.119509
0.105226 0.264195 0.116793
0.118288 0.264042 0.113008
0.152651 0.261784 0.122621
0.172793 0.249210 0.118166
0.187839 0.233341 0.112642
0.198032 0.216861 0.107271
0.223239 0.229892 0.105440
0.253269 0.244938 0.103273
0.288334 0.261631 0.099306
0.355047 0.300267 0.085115
0.458869 0.357916 0.020783
0.569238 0.413519 0.000000
0.670710 0.458106 0.000000
0.752865 0.487556 0.000000
0.815915 0.505364 0.000000
0.849546 0.504570 0.000000
0.878477 0.502586 0.000000
0.905608 0.501122 0.000000
0.931426 0.500511 0.000000
0.955505 0.501122 0.000000
0.978424 0.502800 0.000000
1.000000 0.504936 0.000000
1.000000 0.507317 0.000000
1.000000 0.509422 0.000000
1.000000 0.511772 0.000000
1.000000 0.514336 0.000000
1.000000 0.517296 0.000000
1.000000 0.520409 0.000000
1.000000 0.523644 0.000000
1.000000 0.526482 0.073121
0.098573 0.289982 0.129366
0.102266 0.289891 0.127871
0.107729 0.289830 0.125216
0.118166 0.289250 0.119753
0.150454 0.286717 0.127321
0.177127 0.277653 0.129213
0.192905 0.261418 0.121675
0.203952 0.242283 0.114229
0.216770 0.234226 0.109621
0.243503 0.248569 0.108156
0.275151 0.264744 0.106020
0.314672 0.285710 0.103212
0.411841 0.351537 0.092500
0.536065 0.425635 0.031739
0.654322 0.487404 0.000000
0.750576 0.528283 0.000000
0.824765 0.551751 0.000000
0.876829 0.562707 0.000000
0.912749 0.564019 0.000000
0.935821 0.557671 0.000000
0.957977 0.552697 0.000000
0.979370 0.548821 0.000000
0.999786 0.545495 0.000000
1.000000 0.543786 0.000000
1.000000 0.542840 0.000000
1.000000 0.542321 0.000000
1.000000 0.541985 0.000000
1.000000 0.542016 0.000000
1.000000 0.542535 0.000000
1.000000 0.543420 0.000000
1.000000 0.544396 0.050355
1.000000 0.547417 0.063478
0.103609 0.324834 0.141604
0.107576 0.324468 0.140017
0.112825 0.323430 0.137331
0.123629 0.321752 0.132052
0.150820 0.318059 0.134920
0.184451 0.310979 0.143526
0.200137 0.293309 0.134127
0.211795 0.272923 0.124453
0.218143 0.250156 0.115358
0.236240 0.252445 0.111910
0.268742 0.272129 0.111788
0.307836 0.295079 0.110964
0.353552 0.321294 0.109743
0.429969 0.369757 0.098299
0.556268 0.447761 0.059205
0.671595 0.509606 0.000000
0.763607 0.549523 0.000000
0.833799 0.572015 0.000000
0.885985 0.582910 0.000000
0.926116 0.588403 0.000000
0.951781 0.584436 0.000000
0.973083 0.578668 0.000000
0.993317 0.573754 0.000000
1.000000 0.569482 0.000000
1.000000 0.565789 0.000000
1.000000 0.563195 0.000000
1.000000 0.561425 0.000000
1.000000 0.560204 0.000000
1.000000 0.559411 0.000000
1.000000 0.559258 0.000000
1.000000 0.559167 0.000000
1.000000 0.558892 0.021332
0.108583 0.348547 0.150607
0.112367 0.348150 0.149264
0.117159 0.347082 0.146853
0.127260 0.345190 0.142061
0.148501 0.341375 0.140322
0.183841 0.335302 0.150393
0.204593 0.320500 0.146273
0.216739 0.300023 0.135378
0.225223 0.278202 0.124727
0.228244 0.253788 0.114443
0.256840 0.271824 0.114809
0.291081 0.292729 0.114656
0.331304 0.316655 0.114748
0.377050 0.343023 0.113832
0.449348 0.389014 0.104005
0.575708 0.468849 0.072541
0.686122 0.528923 0.000000
0.773739 0.567620 0.000000
0.841794 0.590204 0.000000
0.894896 0.601862 0.000000
0.934844 0.607935 0.000000
0.967559 0.610315 0.000000
0.987915 0.603845 0.000000
1.000000 0.598352 0.000000
1.000000 0.593347 0.000000
1.000000 0.588556 0.000000
1.000000 0.584039 0.000000
1.000000 0.580987 0.000000
1.000000 0.578973 0.000000
1.000000 0.577569 0.000000
1.000000 0.576379 0.000000
1.000000 0.575036 0.000000
0.113924 0.373175 0.160586
0.117586 0.372717 0.159243
0.122316 0.371466 0.156924
0.131930 0.369329 0.152590
0.146334 0.365789 0.146670
0.181491 0.359380 0.155734
0.210758 0.350256 0.160220
0.224338 0.331579 0.149203
0.233768 0.309453 0.136904
0.237827 0.283726 0.124331
0.244968 0.269291 0.116182
0.275456 0.288884 0.116793
0.311406 0.311254 0.117159
0.352514 0.336034 0.117433
0.398474 0.362799 0.117159
0.466163 0.405829 0.108553
0.592279 0.487404 0.083528
0.699519 0.546807 0.018006
0.784482 0.585443 0.000000
0.850980 0.608515 0.000000
0.903258 0.620783 0.000000
0.944274 0.627100 0.000000
0.977630 0.630610 0.000000
1.000000 0.628046 0.000000
1.000000 0.621790 0.000000
1.000000 0.616205 0.000000
1.000000 0.611139 0.000000
1.000000 0.606531 0.000000
1.000000 0.602319 0.000000
1.000000 0.599603 0.000000
1.000000 0.597528 0.000000
1.000000 0.595117 0.000000
0.121187 0.401709 0.172396
0.124910 0.401801 0.171420
0.129274 0.401282 0.169650
0.138643 0.400061 0.165957
0.151919 0.397681 0.159579
0.183963 0.392828 0.165316
0.218753 0.385809 0.175631
0.233951 0.367041 0.165286
0.243717 0.343481 0.151461
0.248325 0.316503 0.136629
0.246647 0.285649 0.121645
0.261692 0.284794 0.117128
0.293675 0.305425 0.118318
0.330266 0.328496 0.119265
0.371405 0.353307 0.119783
0.416541 0.379553 0.119814
0.479744 0.419776 0.111788
0.605859 0.503044 0.092256
0.712490 0.563928 0.062257
0.797299 0.604211 0.009552
0.863157 0.628351 0.000000
0.914855 0.641535 0.000000
0.957122 0.648066 0.000000
0.990234 0.651881 0.000000
1.000000 0.653651 0.020081
1.000000 0.647517 0.007446
1.000000 0.641382 0.000000
1.000000 0.635798 0.000000
1.000000 0.630518 0.000000
1.000000 0.625269 0.000000
1.000000 0.619623 0.000000
1.000000 0.614862 0.000000
0.129671 0.433845 0.186007
0.132876 0.433387 0.184909
0.137118 0.432410 0.183078
0.145815 0.430579 0.179385
0.158328 0.427405 0.173098
0.183291 0.422095 0.173465
0.218143 0.414160 0.182376
0.241032 0.398474 0.180301
0.250919 0.374670 0.165743
0.256565 0.347356 0.149691
0.256809 0.316655 0.133211
0.250675 0.282872 0.117525
0.277012 0.298711 0.117891
0.310552 0.320714 0.119509
0.348119 0.344579 0.120729
0.389410 0.369818 0.121828
0.434455 0.396338 0.122011
0.494301 0.434394 0.115236
0.620844 0.519738 0.099672
0.726619 0.581506 0.080201
0.809964 0.622187 0.068727
0.873930 0.646387 0.059174
0.924315 0.659724 0.019532
0.966400 0.666865 0.000000
1.000000 0.670497 0.000000
1.000000 0.672358 0.066102
1.000000 0.670375 0.087678
1.000000 0.664057 0.077729
1.000000 0.658137 0.065827
1.000000 0.652186 0.036103
1.000000 0.645991 0.000000
1.000000 0.638880 0.000000
0.138186 0.465736 0.199924
0.141421 0.465797 0.199008
0.153780 0.491402 0.209201
0.162234 0.488746 0.204776
0.173983 0.484291 0.198001
0.192813 0.477333 0.192111
0.228428 0.467079 0.199802
0.259800 0.452766 0.205264
0.269718 0.425849 0.188418
0.275364 0.395453 0.169741
0.275731 0.361700 0.149874
0.269963 0.324437 0.130068
0.267796 0.298863 0.116915
0.300267 0.321477 0.119142
0.336645 0.346014 0.121553
0.376715 0.371832 0.123659
0.420569 0.399054 0.125338
0.467536 0.427222 0.126436
0.527092 0.465461 0.119997
0.655818 0.553765 0.111849
0.758297 0.614130 0.105806
0.837095 0.652247 0.108858
0.896574 0.674037 0.113191
0.943816 0.686061 0.110201
0.983307 0.691798 0.091737
1.000000 0.693385 0.059480
1.000000 0.693629 0.097475
1.000000 0.692287 0.120119
1.000000 0.686488 0.119844
1.000000 0.679652 0.110994
1.000000 0.672663 0.100954
1.000000 0.664851 0.088045
0.148348 0.504540 0.216831
0.152377 0.507652 0.217105
0.157382 0.510582 0.217136
0.166049 0.511437 0.214633
0.177768 0.509636 0.209079
0.191440 0.504356 0.200168
0.225834 0.494453 0.205966
0.259190 0.481392 0.213107
0.276249 0.458381 0.203677
0.283207 0.428779 0.185122
0.285374 0.395666 0.164981
0.282261 0.359258 0.143954
0.272709 0.319677 0.123751
0.282597 0.312505 0.116732
0.315984 0.336034 0.119356
0.353033 0.360967 0.121828
0.393561 0.387182 0.124269
0.437537 0.414740 0.125948
0.485237 0.443702 0.127413
0.547051 0.484535 0.121401
0.670924 0.570245 0.117494
0.773129 0.631830 0.118593
0.850187 0.670008 0.127291
0.908049 0.691829 0.136782
0.954528 0.704189 0.138552
0.993835 0.710689 0.128298
1.000000 0.712551 0.101472
1.000000 0.712428 0.110628
1.000000 0.711177 0.136019
1.000000 0.707851 0.152956
1.000000 0.700099 0.146578
1.000000 0.691707 0.139864
0.154269 0.532921 0.228672
0.158083 0.536095 0.229160
0.162997 0.538842 0.229160
0.171237 0.539635 0.226658
0.182376 0.537865 0.221317
0.195102 0.532677 0.212558
0.223117 0.523369 0.212741
0.256779 0.510643 0.219242
0.282719 0.492195 0.219028
0.290990 0.463111 0.200473
0.295293 0.431067 0.180514
0.294469 0.395758 0.159182
0.287846 0.356878 0.137453
0.275181 0.315496 0.117281
0.299046 0.328099 0.116823
0.333593 0.352453 0.119356
0.371679 0.378119 0.122194
0.413001 0.405249 0.124697
0.458137 0.433906 0.126711
0.507378 0.464607 0.128084
0.572198 0.508324 0.123140
0.691249 0.591333 0.124422
0.791775 0.652857 0.133120
0.865873 0.689876 0.147280
0.921691 0.711086 0.160678
0.967193 0.723629 0.164736
1.000000 0.730495 0.158907
1.000000 0.732631 0.141054
1.000000 0.731319 0.123812
1.000000 0.729610 0.149996
1.000000 0.725765 0.170871
1.000000 0.718532 0.176761
0.160220 0.561730 0.240696
0.164248 0.564752 0.241398
0.168795 0.567742 0.241642
0.176699 0.568536 0.239200
0.187411 0.566888 0.234287
0.199557 0.561883 0.225528
0.220462 0.553460 0.220218
0.254673 0.541161 0.226017
0.286564 0.525902 0.231418
0.298833 0.499245 0.216403
0.304723 0.467933 0.196567
0.306157 0.433112 0.174990
0.302281 0.395331 0.152560
0.292882 0.354742 0.130312
0.284459 0.321538 0.113710
0.317601 0.346105 0.116701
0.354620 0.372595 0.119814
0.395605 0.401160 0.123049
0.441047 0.432013 0.125948
0.491249 0.465431 0.128664
0.545922 0.501030 0.131044
0.617395 0.550866 0.129793
0.732357 0.631312 0.141665
0.828702 0.690333 0.163241
0.897581 0.724208 0.186282
0.950591 0.744503 0.205234
0.994629 0.756893 0.214694
1.000000 0.763210 0.214755
1.000000 0.764187 0.205539
1.000000 0.760220 0.185336
1.000000 0.755215 0.197971
1.000000 0.753353 0.210513
0.174075 0.607660 0.262272
0.177157 0.608789 0.262028
0.180850 0.609369 0.261295
0.187533 0.608209 0.258122
0.196933 0.604852 0.252079
0.208011 0.599329 0.243229
0.221469 0.591638 0.232242
0.256443 0.580377 0.237644
0.289403 0.566613 0.242649
0.311589 0.545708 0.236606
0.319829 0.516503 0.216648
0.323857 0.482521 0.194705
0.322911 0.445106 0.171481
0.316472 0.404608 0.147402
0.304173 0.361486 0.124300
0.309819 0.348028 0.114107
0.345953 0.375067 0.117647
0.386023 0.404150 0.121340
0.430243 0.435218 0.124941
0.478767 0.468666 0.128481
0.531273 0.503777 0.131502
0.585779 0.538964 0.134981
0.657160 0.588647 0.136904
0.761685 0.660945 0.156069
0.851408 0.715297 0.184146
0.916197 0.746853 0.210605
0.967956 0.767025 0.231937
1.000000 0.779843 0.244419
1.000000 0.786069 0.247959
1.000000 0.786313 0.242557
1.000000 0.781064 0.227176
1.000000 0.774594 0.211032
0.183261 0.638605 0.277104
0.186526 0.639826 0.277134
0.190097 0.640803 0.276646
0.196658 0.639765 0.273533
0.205417 0.636866 0.267979
0.215640 0.631434 0.259251
0.226993 0.624079 0.247532
0.255985 0.613733 0.247715
0.289616 0.600610 0.252171
0.320226 0.584741 0.255711
0.330144 0.557855 0.235142
0.336858 0.526848 0.213260
0.338994 0.491249 0.190249
0.336065 0.452003 0.165896
0.327733 0.410254 0.141268
0.313878 0.366247 0.117800
0.336187 0.375555 0.114961
0.375708 0.405432 0.119020
0.419409 0.437598 0.123232
0.467689 0.472328 0.127535
0.520134 0.509117 0.131685
0.574975 0.545983 0.136599
0.630762 0.581933 0.142641
0.703975 0.633417 0.150607
0.785824 0.685847 0.169528
0.870298 0.736782 0.202945
0.933135 0.767788 0.232975
0.984009 0.788357 0.256809
1.000000 0.801358 0.272160
1.000000 0.807401 0.279179
1.000000 0.807492 0.278813
1.000000 0.802304 0.271244
0.204288 0.685389 0.303105
0.207553 0.687098 0.303532
0.211154 0.687648 0.303014
0.216648 0.686152 0.299748
0.224094 0.682429 0.293431
0.232883 0.676783 0.284672
0.242802 0.669215 0.272801
0.263401 0.658900 0.266056
0.296361 0.645411 0.269230
0.327214 0.629419 0.271641
0.344671 0.606226 0.258976
0.352758 0.577386 0.236088
0.357610 0.543969 0.211704
0.357824 0.505791 0.186740
0.352148 0.463386 0.160861
0.341314 0.418921 0.135134
0.327428 0.376196 0.112459
0.364477 0.404761 0.116426
0.406378 0.436530 0.120699
0.453468 0.471748 0.125277
0.505455 0.509789 0.130068
0.559625 0.547723 0.135714
0.613977 0.583825 0.142458
0.667475 0.617426 0.150271
0.736904 0.665400 0.161959
0.819760 0.720363 0.193606
0.897398 0.766293 0.233799
0.956512 0.795224 0.266575
1.000000 0.815122 0.292119
1.000000 0.827176 0.310643
1.000000 0.832944 0.323491
1.000000 0.832425 0.330571
0.218479 0.715694 0.320836
0.221927 0.717464 0.321294
0.225315 0.718105 0.320806
0.230747 0.716854 0.317998
0.237430 0.713680 0.312322
0.245762 0.708888 0.304265
0.255100 0.702480 0.293248
0.268070 0.694179 0.281529
0.301213 0.682887 0.284794
0.332860 0.669490 0.287633
0.359319 0.652430 0.285191
0.369421 0.627802 0.262089
0.377600 0.599725 0.237766
0.382605 0.567041 0.212039
0.382788 0.529503 0.185458
0.377447 0.487312 0.158785
0.366644 0.442847 0.131930
0.370336 0.423621 0.116670
0.412970 0.457038 0.121798
0.460822 0.494057 0.127047
0.512657 0.532891 0.133242
0.566278 0.571283 0.140810
0.619959 0.607660 0.149752
0.672663 0.641352 0.160281
0.723262 0.671656 0.171633
0.789425 0.716640 0.191409
0.859770 0.761288 0.231418
0.930755 0.802701 0.278477
0.986999 0.830991 0.316747
1.000000 0.850065 0.347875
1.000000 0.861234 0.374792
1.000000 0.864988 0.396826
0.241489 0.752407 0.345403
0.244541 0.753506 0.345708
0.247105 0.753506 0.344854
0.251469 0.751766 0.341741
0.257084 0.748409 0.336126
0.264042 0.743679 0.328069
0.272190 0.737545 0.317418
0.281163 0.730343 0.304082
0.309300 0.720638 0.303838
0.340581 0.709316 0.306645
0.370825 0.695491 0.308202
0.386664 0.676722 0.291783
0.397162 0.653559 0.267613
0.405829 0.626459 0.241703
0.411139 0.594720 0.214328
0.412207 0.558282 0.186130
0.408179 0.517876 0.157900
0.398871 0.474647 0.130220
0.422431 0.481239 0.124147
0.470314 0.519066 0.130404
0.521324 0.557855 0.138003
0.573877 0.595972 0.147494
0.626429 0.632074 0.158816
0.677790 0.665278 0.171542
0.726986 0.695003 0.185489
0.773678 0.721309 0.200229
0.835203 0.762142 0.227451
0.894438 0.797940 0.272007
0.960021 0.836179 0.323491
1.000000 0.864378 0.368780
1.000000 0.882414 0.407691
1.000000 0.891691 0.443366
0.265354 0.784482 0.369421
0.268070 0.785092 0.369543
0.270603 0.785122 0.368841
0.274632 0.783963 0.366339
0.280491 0.781888 0.361944
0.288396 0.779355 0.356115
0.298528 0.776974 0.349218
0.310155 0.774350 0.340490
0.333501 0.770718 0.338689
0.367681 0.765560 0.345495
0.401038 0.759030 0.351324
0.427924 0.749783 0.348302
0.442115 0.736538 0.326726
0.456092 0.720180 0.302373
0.468910 0.700130 0.275395
0.479255 0.675380 0.245792
0.487190 0.646876 0.214694
0.492500 0.615839 0.183413
0.495460 0.583490 0.151888
0.540276 0.615015 0.160494
0.589868 0.650843 0.174441
0.639704 0.684840 0.190677
0.688106 0.715663 0.208408
0.734554 0.743252 0.227237
0.778439 0.767330 0.246769
0.819791 0.788327 0.266331
0.859190 0.807095 0.285985
0.911803 0.840238 0.324224
0.959319 0.867613 0.376074
1.000000 0.899321 0.434791
1.000000 0.920012 0.486275
1.000000 0.926848 0.520653
0.325383 0.837583 0.422217
0.327520 0.837888 0.422309
0.329046 0.837461 0.421302
0.331975 0.836118 0.418769
0.336309 0.833951 0.414527
0.342229 0.831235 0.408850
0.349920 0.828367 0.402106
0.359197 0.825284 0.393927
0.372778 0.821714 0.386664
0.403021 0.816312 0.392096
0.432990 0.809751 0.396704
0.462654 0.801846 0.399695
0.476448 0.791379 0.380743
0.489143 0.778653 0.356359
