data/fiter_cube/65184230/1022650/file.cube
# Created by Adobe Lightroom plugin Export LUT (1.17.0)
# www.johnrellis.com/lightroom/exportlut.htm
# Preset: ins网红旅拍风景人像_09 云集
# Color profile: C:\Program Files (x86)\Common Files\Adobe\Color\Profiles\Recommended\AdobeRGB1998.icc
LUT_3D_SIZE 5
DOMAIN_MIN 0.000000 0.000000 0.000000
DOMAIN_MAX 0.903226 0.903226 0.903226
0.108766 0.103700 0.098177
0.331060 0.142885 0.076722
0.718898 0.258152 0.000000
0.965820 0.360754 0.000000
1.000000 0.431220 0.022583
0.100313 0.183841 0.105348
0.213413 0.194430 0.094240
0.720699 0.379004 0.000000
0.959869 0.430091 0.000000
1.000000 0.478401 0.027008
0.113924 0.373175 0.160586
0.224338 0.331579 0.149203
0.398474 0.362799 0.117159
0.944274 0.627100 0.000000
1.000000 0.602319 0.000000
0.174075 0.607660 0.262272
0.256443 0.580377 0.237644
0.304173 0.361486 0.124300
0.585779 0.538964 0.134981
1.000000 0.786069 0.247959
0.368048 0.869383 0.459724
0.402960 0.861509 0.440528
0.507805 0.787961 0.355993
0.681239 0.765164 0.255222
0.950866 0.901946 0.429175
0.103639 0.100069 0.239170
0.321996 0.000000 0.234684
0.656703 0.224369 0.243442
0.917296 0.367407 0.266117
1.000000 0.453773 0.288701
0.070405 0.249821 0.249821
0.297795 0.270146 0.255802
0.682216 0.354314 0.256016
0.920043 0.430701 0.263554
1.000000 0.491859 0.286412
0.163943 0.433417 0.281590
0.264469 0.422950 0.261357
0.433448 0.396857 0.216129
0.929351 0.627649 0.292241
1.000000 0.615320 0.283909
0.221378 0.647639 0.355840
0.283146 0.628412 0.325322
0.347112 0.424567 0.189914
0.597925 0.550896 0.198001
1.000000 0.789517 0.355566
0.385626 0.875517 0.508019
0.422583 0.867979 0.493721
0.547601 0.831937 0.451911
0.693446 0.784146 0.293645
0.959747 0.912444 0.472786
0.094148 0.117037 0.557183
0.342657 0.097658 0.559655
0.688441 0.100008 0.525872
0.885100 0.406226 0.520928
1.000000 0.602716 0.620966
0.000000 0.295720 0.570123
0.313024 0.288945 0.569268
0.677455 0.302037 0.535668
0.866148 0.500237 0.561761
1.000000 0.621698 0.619562
0.126741 0.564752 0.582452
0.325048 0.572930 0.584619
0.637293 0.599756 0.587579
0.878660 0.658137 0.612848
1.000000 0.692012 0.615045
0.372076 0.754726 0.614923
0.433478 0.738918 0.599451
0.523369 0.672389 0.512810
0.670497 0.625544 0.402502
1.000000 0.823728 0.625635
0.459236 0.891508 0.651545
0.497444 0.889799 0.648280
0.564752 0.872801 0.597894
0.645167 0.767117 0.346899
0.940490 0.894408 0.513939
0.195224 0.221256 0.797513
0.359564 0.227909 0.801389
0.654902 0.239139 0.804166
0.889342 0.351537 0.719814
1.000000 0.600092 0.735164
0.194797 0.343420 0.801236
0.356207 0.348882 0.800717
0.642237 0.358129 0.799283
0.877043 0.432441 0.723903
1.000000 0.631678 0.743984
0.192020 0.559594 0.797513
0.339269 0.564385 0.797086
0.619013 0.591821 0.793362
0.849577 0.611200 0.746426
0.999420 0.737118 0.788724
0.355505 0.781003 0.806058
0.447456 0.781888 0.803494
0.647974 0.793240 0.804562
0.832975 0.809445 0.804623
1.000000 0.845335 0.816281
0.568658 0.927245 0.830686
0.618647 0.926970 0.834867
0.716915 0.925780 0.836851
0.739132 0.890288 0.743252
0.936889 0.899382 0.663478
0.363470 0.377447 0.959014
0.442573 0.384558 0.958190
0.641382 0.411902 0.956847
0.875975 0.462715 0.953307
1.000000 0.585779 0.877501
0.381903 0.450141 0.956115
0.454353 0.455604 0.955352
0.642267 0.477211 0.954009
0.867704 0.511223 0.950164
1.000000 0.616388 0.881834
0.306157 0.565637 0.955688
0.401373 0.574548 0.954528
0.639155 0.627375 0.950164
0.844785 0.639704 0.947723
1.000000 0.708980 0.901061
0.391791 0.762356 0.953704
0.452094 0.764981 0.952544
0.607507 0.775174 0.952667
0.813748 0.798978 0.954925
1.000000 0.827787 0.928527
0.513176 0.931212 0.956359
0.556756 0.933410 0.956786
0.680171 0.942168 0.959564
0.828489 0.954833 0.963134
0.980529 0.972351 0.968444
