data/fiter_cube/65184230/1022650/file.cube
# Created by Adobe Lightroom plugin Export LUT (1.17.0)
# www.johnrellis.com/lightroom/exportlut.htm
# Preset: ins网红旅拍风景人像_09 云集
# Color profile: C:\Program Files (x86)\Common Files\Adobe\Color\Profiles\Recommended\AdobeRGB1998.icc
LUT_3D_SIZE 8
DOMAIN_MIN 0.000000 0.000000 0.000000
DOMAIN_MAX 0.903226 0.903226 0.903226
0.108766 0.103700 0.098177
0.162753 0.110140 0.095705
0.387945 0.156954 0.064118
0.621302 0.225620 0.000000
0.801175 0.287907 0.000000
0.941924 0.348608 0.000000
1.000000 0.391913 0.000000
1.000000 0.431220 0.022583
0.108156 0.116426 0.099458
0.131838 0.123568 0.097932
0.380316 0.208042 0.042451
0.602258 0.263523 0.000000
0.789822 0.317052 0.000000
0.919890 0.362188 0.000000
1.000000 0.399268 0.000000
1.000000 0.436866 0.000000
0.097597 0.211460 0.109224
0.147982 0.205875 0.106935
0.240055 0.218143 0.094606
0.597620 0.384009 0.000000
0.814908 0.431189 0.000000
0.931487 0.445594 0.000000
1.000000 0.469642 0.000000
1.000000 0.489631 0.000000
0.103609 0.324834 0.141604
0.150820 0.318059 0.134920
0.218143 0.250156 0.115358
0.353552 0.321294 0.109743
0.763607 0.549523 0.000000
0.951781 0.584436 0.000000
1.000000 0.565789 0.000000
1.000000 0.559411 0.000000
0.129671 0.433845 0.186007
0.158328 0.427405 0.173098
0.250919 0.374670 0.165743
0.277012 0.298711 0.117891
0.434455 0.396338 0.122011
0.809964 0.622187 0.068727
1.000000 0.670497 0.000000
1.000000 0.658137 0.065827
0.160220 0.561730 0.240696
0.187411 0.566888 0.234287
0.286564 0.525902 0.231418
0.302281 0.395331 0.152560
0.354620 0.372595 0.119814
0.545922 0.501030 0.131044
0.897581 0.724208 0.186282
1.000000 0.764187 0.205539
0.218479 0.715694 0.320836
0.237430 0.713680 0.312322
0.301213 0.682887 0.284794
0.377600 0.599725 0.237766
0.366644 0.442847 0.131930
0.512657 0.532891 0.133242
0.723262 0.671656 0.171633
0.986999 0.830991 0.316747
0.368048 0.869383 0.459724
0.378637 0.866697 0.454017
0.414435 0.859739 0.434333
0.522820 0.843137 0.449226
0.540642 0.762448 0.306279
0.634424 0.734401 0.230472
0.810208 0.838407 0.336492
0.950866 0.901946 0.429175
0.108309 0.103426 0.126528
0.163210 0.093721 0.129366
0.346624 0.113954 0.122560
0.573877 0.194644 0.110292
0.772030 0.272831 0.082734
0.903380 0.335760 0.086854
0.995789 0.384527 0.113985
1.000000 0.427863 0.147341
0.101991 0.131624 0.127657
0.155032 0.142306 0.133150
0.353521 0.179934 0.126192
0.574853 0.239322 0.102388
0.768673 0.303777 0.071107
0.894774 0.353552 0.068971
0.984436 0.392859 0.091310
1.000000 0.431495 0.123507
0.103944 0.228946 0.151797
0.155947 0.238834 0.149447
0.265263 0.241306 0.137606
0.596002 0.376928 0.087770
0.782162 0.409461 0.000000
0.902342 0.431403 0.029847
0.994842 0.454932 0.089845
1.000000 0.481331 0.130800
0.122377 0.335210 0.181430
0.161593 0.334142 0.173861
0.239841 0.280034 0.149447
0.357000 0.324865 0.143984
0.721920 0.515648 0.088502
0.910094 0.555047 0.075593
0.998230 0.545800 0.044709
1.000000 0.549432 0.097047
0.152316 0.450202 0.223728
0.177707 0.441962 0.211643
0.264805 0.396826 0.198856
0.282872 0.305211 0.136568
0.428473 0.390936 0.145846
0.790585 0.605219 0.129763
0.985657 0.660822 0.143038
1.000000 0.651301 0.149264
0.172396 0.560845 0.263951
0.193332 0.554314 0.253330
0.274815 0.519951 0.238285
0.306218 0.402441 0.171847
0.351232 0.369329 0.133028
0.542168 0.497627 0.150576
0.890196 0.717189 0.210452
1.000000 0.757534 0.232395
0.211887 0.696407 0.326146
0.225406 0.686732 0.313237
0.276860 0.661799 0.278325
0.367895 0.588525 0.247349
0.359747 0.437110 0.141909
0.489967 0.509148 0.138735
0.693202 0.642390 0.170077
0.966796 0.809873 0.297734
0.346990 0.856077 0.453132
0.361975 0.855711 0.450752
0.400855 0.849729 0.432807
0.510704 0.834318 0.448554
0.564904 0.793698 0.348425
0.643824 0.746975 0.246830
0.800870 0.829465 0.328985
0.937194 0.887358 0.408301
0.099611 0.097932 0.289097
0.192416 0.078553 0.291997
0.377935 0.000000 0.276310
0.566400 0.139651 0.263676
0.762173 0.285100 0.304906
0.895995 0.374609 0.326390
0.992523 0.433326 0.339727
1.000000 0.478340 0.351049
0.014832 0.160861 0.293858
0.170260 0.152956 0.295140
0.366766 0.146548 0.275639
0.545464 0.221530 0.279271
0.752895 0.312505 0.302037
0.888029 0.385351 0.316472
0.985168 0.437263 0.327092
1.000000 0.481086 0.339910
0.069612 0.292760 0.294560
0.170626 0.299138 0.298100
0.346654 0.315496 0.300298
0.574701 0.362707 0.306706
0.774319 0.418647 0.316014
0.896025 0.455695 0.320958
0.987915 0.486824 0.327428
1.000000 0.515892 0.335088
0.169009 0.408453 0.316564
0.217227 0.409339 0.314427
0.318730 0.399023 0.297551
0.430182 0.395270 0.268437
0.779904 0.561700 0.324102
0.908354 0.570306 0.332677
0.995178 0.573236 0.334173
1.000000 0.580346 0.334203
0.191775 0.514397 0.336126
0.227420 0.512200 0.331884
0.303563 0.491432 0.303685
0.333227 0.362615 0.217685
0.487098 0.447211 0.239231
0.827207 0.636957 0.297429
0.991241 0.686702 0.366033
1.000000 0.668391 0.341161
0.213626 0.611749 0.359594
0.239902 0.607752 0.353857
0.296300 0.582574 0.320684
0.357397 0.482765 0.261814
0.372168 0.393317 0.183627
0.562402 0.517418 0.216220
0.896635 0.723842 0.312932
1.000000 0.770169 0.372320
0.258213 0.734096 0.411200
0.273808 0.727504 0.402564
0.312810 0.703456 0.366705
0.397101 0.644617 0.330968
0.388800 0.486610 0.196231
0.494911 0.517144 0.175051
0.714321 0.663355 0.227054
0.985504 0.830167 0.388159
0.371984 0.866789 0.508324
0.378698 0.862577 0.500603
0.415717 0.854368 0.484169
0.504631 0.848692 0.483833
0.565301 0.806729 0.400610
0.636561 0.748013 0.266270
0.803433 0.834989 0.358618
0.946715 0.898497 0.453803
0.087892 0.101900 0.463661
0.200351 0.092378 0.469673
0.390356 0.031037 0.472450
0.586114 0.000000 0.440040
0.760067 0.207309 0.418830
0.854276 0.407385 0.480812
0.954833 0.494697 0.513024
1.000000 0.548974 0.529595
0.000000 0.177737 0.479408
0.187930 0.176089 0.480293
0.386358 0.161624 0.478676
0.586236 0.158236 0.445930
0.753109 0.267552 0.428870
0.847898 0.432624 0.489326
0.951965 0.500008 0.508202
1.000000 0.550561 0.522881
0.000000 0.326665 0.477607
0.143618 0.324590 0.479866
0.350011 0.317784 0.480476
0.575891 0.326116 0.460090
0.733852 0.416510 0.475074
0.862913 0.509422 0.519371
0.968688 0.567590 0.543725
1.000000 0.593591 0.540459
0.095766 0.474647 0.486885
0.188052 0.480507 0.490883
0.360418 0.496223 0.499641
0.559411 0.520195 0.505180
0.745541 0.562829 0.521874
0.869474 0.593286 0.530785
0.966918 0.618585 0.536736
1.000000 0.638025 0.536675
0.251926 0.615412 0.522026
0.302373 0.616724 0.524010
0.408453 0.609522 0.515282
0.497200 0.564813 0.470741
0.584985 0.545098 0.409857
0.867430 0.698207 0.537865
0.975982 0.717250 0.561883
1.000000 0.709529 0.542321
0.303807 0.700465 0.526268
0.338720 0.706233 0.531426
0.399908 0.685359 0.508568
0.452827 0.638514 0.447639
0.428199 0.457893 0.286076
0.625788 0.580560 0.340520
0.918914 0.756893 0.491859
1.000000 0.804318 0.573938
0.334722 0.781216 0.538750
0.354131 0.779629 0.536706
0.402869 0.768734 0.521019
0.445960 0.737331 0.467536
0.469398 0.617456 0.338384
0.520470 0.551415 0.242130
0.738460 0.688228 0.315770
0.994812 0.844388 0.500572
0.443519 0.891814 0.612238
0.455879 0.891264 0.611139
0.484474 0.885161 0.598352
0.526390 0.873930 0.569207
0.592737 0.840116 0.521996
0.639246 0.780362 0.349920
0.800626 0.838285 0.400793
0.953704 0.907805 0.511467
0.113039 0.141329 0.638025
0.214084 0.140169 0.640467
0.390906 0.129458 0.639673
0.593774 0.105348 0.647333
0.765164 0.176364 0.593988
0.875731 0.319585 0.551049
0.944182 0.504204 0.605188
1.000000 0.652369 0.697108
0.101137 0.208530 0.643458
0.209018 0.208988 0.647456
0.388403 0.200839 0.645899
0.591669 0.188235 0.650782
0.760372 0.234043 0.595331
0.871366 0.360662 0.560418
0.940978 0.526238 0.615534
1.000000 0.655787 0.696071
0.000000 0.339330 0.648280
0.148501 0.336278 0.649470
0.366217 0.342260 0.652583
0.574029 0.339391 0.652979
0.743252 0.364538 0.599878
0.849577 0.459236 0.583001
0.925231 0.585657 0.642695
1.000000 0.660304 0.684810
0.061555 0.497932 0.654627
0.176242 0.498421 0.654963
0.349584 0.502739 0.658381
0.551110 0.514763 0.658808
0.726558 0.526513 0.625208
0.828550 0.594934 0.638819
0.926055 0.658534 0.674128
1.000000 0.685908 0.678096
0.187137 0.639765 0.661128
0.249607 0.642603 0.662623
0.395666 0.649042 0.663355
0.562310 0.658900 0.664088
0.704036 0.669947 0.660456
0.837430 0.701289 0.675441
0.939147 0.723323 0.681270
1.000000 0.736416 0.676692
0.324010 0.735256 0.656428
0.363836 0.736202 0.658289
0.471748 0.735775 0.662196
0.575525 0.726497 0.656306
0.601953 0.659327 0.577722
0.687068 0.648188 0.518120
0.937652 0.803525 0.682063
1.000000 0.822507 0.702907
0.450782 0.825711 0.686885
0.464820 0.822507 0.683955
0.507561 0.813260 0.674464
0.555627 0.795590 0.649653
0.566522 0.747646 0.564965
0.520897 0.563989 0.330358
0.750698 0.703883 0.429389
0.995422 0.853635 0.620203
0.498238 0.900938 0.706569
0.507408 0.899168 0.704463
0.535668 0.893614 0.696376
0.587243 0.894255 0.689479
0.609552 0.875029 0.633631
0.641840 0.815854 0.497902
0.770718 0.819638 0.426673
0.941619 0.897307 0.550500
0.183871 0.210575 0.780209
0.250980 0.211765 0.780301
0.400671 0.215213 0.781521
0.577691 0.220981 0.785275
0.759548 0.233616 0.781064
0.872282 0.324712 0.701289
0.962280 0.452186 0.673640
1.000000 0.620966 0.732021
0.181003 0.254032 0.772671
0.246220 0.254551 0.772976
0.394324 0.256779 0.775265
0.567346 0.258762 0.776394
0.749111 0.269139 0.773648
0.865293 0.349310 0.698970
0.957244 0.468574 0.675563
1.000000 0.628962 0.733883
0.143221 0.363531 0.786801
0.229770 0.368322 0.785519
0.395361 0.381048 0.783383
0.564233 0.385595 0.781979
0.740566 0.393927 0.776791
0.857939 0.448035 0.711299
0.948974 0.543023 0.698573
1.000000 0.669276 0.752071
0.173007 0.506889 0.788937
0.232914 0.506218 0.787198
0.383124 0.513695 0.786740
0.572381 0.546624 0.790768
0.735561 0.555322 0.789883
0.853788 0.583093 0.741451
0.940215 0.650385 0.741543
1.000000 0.732326 0.783963
0.232090 0.636652 0.780209
0.281437 0.638972 0.780636
0.409033 0.647181 0.781277
0.556359 0.660548 0.782223
0.699275 0.669398 0.778988
0.827787 0.677638 0.750698
0.913787 0.728847 0.766201
1.000000 0.778195 0.795773
0.312078 0.751522 0.776303
0.355077 0.755581 0.779202
0.459541 0.760616 0.780270
0.585565 0.767666 0.780911
0.700984 0.772976 0.778897
0.811582 0.786221 0.780941
0.926574 0.818143 0.799405
1.000000 0.831968 0.798886
0.451026 0.851987 0.790005
0.480385 0.853422 0.792416
0.556085 0.852689 0.794583
0.655329 0.853208 0.800473
0.732235 0.847349 0.796994
0.721828 0.780667 0.706172
0.799100 0.763363 0.628992
1.000000 0.893614 0.786587
0.581384 0.924926 0.816159
0.595148 0.924010 0.816770
0.631739 0.921324 0.816678
0.670985 0.918120 0.810605
0.702632 0.908537 0.788174
0.706569 0.881834 0.714199
0.736324 0.806394 0.493019
0.939513 0.900298 0.639063
0.261112 0.281987 0.872953
0.304509 0.285588 0.874357
0.415808 0.292058 0.873808
0.559838 0.304112 0.873869
0.714992 0.318517 0.871183
0.871000 0.357855 0.865629
0.948058 0.450568 0.786648
1.000000 0.563409 0.774289
0.262669 0.312261 0.868498
0.304021 0.315099 0.869596
0.413031 0.320012 0.869261
0.553735 0.327916 0.867918
0.707637 0.340093 0.865293
0.862516 0.373083 0.859556
0.940887 0.456519 0.781888
1.000000 0.563287 0.769924
0.278111 0.407141 0.872801
0.323491 0.413214 0.872343
0.422736 0.416297 0.870634
0.556603 0.424018 0.868894
0.703853 0.434180 0.865293
0.854551 0.457923 0.860472
0.938079 0.523491 0.794034
1.000000 0.614649 0.788357
0.250980 0.506188 0.876555
0.292973 0.507652 0.874968
0.413458 0.520745 0.872770
0.567987 0.550774 0.870665
0.701350 0.557641 0.867887
0.843687 0.571618 0.865141
0.933745 0.614038 0.813382
1.000000 0.679500 0.810880
0.281559 0.624506 0.870176
0.315526 0.625391 0.869139
0.413947 0.631342 0.867674
0.539910 0.642481 0.867399
0.686091 0.664546 0.864836
0.818662 0.668452 0.862547
0.919585 0.692714 0.825193
1.000000 0.749935 0.833677
0.348363 0.740871 0.867399
0.377325 0.742611 0.867491
0.461372 0.748806 0.867704
0.570977 0.758938 0.868864
0.681941 0.768643 0.869566
0.799710 0.777768 0.869780
0.911803 0.786831 0.849790
0.995697 0.829770 0.864866
0.431128 0.844724 0.870268
0.454932 0.846494 0.871122
0.522576 0.850095 0.871946
0.614862 0.856260 0.873716
0.712215 0.862638 0.874449
0.805783 0.869902 0.875425
0.899046 0.880644 0.876005
0.997314 0.904387 0.887541
0.514427 0.932555 0.880430
0.531548 0.932464 0.880613
0.591852 0.935454 0.884825
0.669673 0.936767 0.887816
0.754391 0.938720 0.891997
0.829892 0.940673 0.894865
0.826993 0.902586 0.820157
0.943267 0.914488 0.772091
0.363470 0.377447 0.959014
0.389899 0.380774 0.959472
0.465736 0.386725 0.957824
0.578058 0.401740 0.957305
0.706966 0.423163 0.955932
0.842313 0.449561 0.954009
0.970214 0.503899 0.946990
1.000000 0.585779 0.877501
0.366522 0.398566 0.956512
0.392432 0.401587 0.956970
0.467109 0.407385 0.955871
0.576837 0.419867 0.954803
0.704311 0.439582 0.953521
0.838651 0.462928 0.951781
0.967102 0.511803 0.945830
1.000000 0.591363 0.876982
0.385870 0.469886 0.954681
0.408667 0.471870 0.954711
0.475837 0.474708 0.952758
0.583795 0.489693 0.954131
0.703853 0.503105 0.952361
0.832273 0.518364 0.949920
0.961608 0.555505 0.947387
1.000000 0.624842 0.882750
0.318608 0.519860 0.956390
0.358465 0.527733 0.956542
0.478218 0.560601 0.953887
0.590356 0.580957 0.952941
0.702510 0.590845 0.952117
0.824430 0.601617 0.950744
0.950744 0.625483 0.949279
1.000000 0.678950 0.894469
0.313573 0.619318 0.954467
0.342748 0.621973 0.955077
0.422705 0.627192 0.954376
0.540429 0.640345 0.953674
0.690150 0.676783 0.950561
0.806760 0.683436 0.949706
0.933227 0.699153 0.950439
1.000000 0.740108 0.907866
0.368170 0.731807 0.951629
0.387976 0.732265 0.951019
0.450935 0.734920 0.949889
0.542107 0.740169 0.949798
0.648432 0.747372 0.951263
0.789059 0.774319 0.953246
0.916197 0.786893 0.958129
1.000000 0.810636 0.924926
0.437018 0.837888 0.952331
0.453101 0.838437 0.951995
0.504875 0.840940 0.951415
0.585748 0.847105 0.952178
0.680812 0.855894 0.954009
0.778897 0.865568 0.958129
0.889311 0.875242 0.961547
0.992493 0.886381 0.942229
0.513176 0.931212 0.956359
0.526116 0.931670 0.956298
0.571069 0.934478 0.957214
0.640650 0.939330 0.958801
0.721004 0.945220 0.960327
0.806210 0.952636 0.962463
0.897917 0.961913 0.965515
0.980529 0.972351 0.968444
