data/fiter_cube/21023058/1023006/file.cube
# Created by Adobe Lightroom plugin Export LUT (1.17.0)
# www.johnrellis.com/lightroom/exportlut.htm
# Preset: 温暖焦糖婚礼婚纱_02 云集
# Color profile: C:\Program Files (x86)\Common Files\Adobe\Color\Profiles\Recommended\AdobeRGB1998.icc
LUT_3D_SIZE 32
DOMAIN_MIN 0.0 0.0 0.0
DOMAIN_MAX 1.0 1.0 1.0
0.026184 0.032380 0.022644
0.032197 0.033661 0.024537
0.041810 0.037903 0.026093
0.056886 0.047364 0.032410
0.070283 0.054566 0.038331
0.086091 0.060883 0.044709
0.107179 0.064240 0.049470
0.134066 0.066316 0.053498
0.166873 0.068116 0.057465
0.204715 0.068544 0.059907
0.248386 0.067231 0.061952
0.295384 0.064729 0.064027
0.344579 0.063020 0.066804
0.393896 0.066438 0.070649
0.441993 0.078462 0.075776
0.487739 0.098970 0.082521
0.529503 0.126345 0.091646
0.566583 0.156741 0.102205
0.599756 0.188602 0.115389
0.630518 0.221653 0.130465
0.659602 0.255467 0.148348
0.687770 0.290715 0.170016
0.715419 0.327001 0.195834
0.741939 0.363684 0.225925
0.766812 0.399786 0.260380
0.789944 0.435035 0.299077
0.811154 0.469429 0.341070
0.831113 0.503349 0.384863
0.850675 0.537682 0.429419
0.869718 0.572625 0.473671
0.888029 0.608820 0.518090
0.905119 0.646479 0.563714
0.027802 0.036744 0.024414
0.031495 0.037293 0.025330
0.041108 0.041505 0.026917
0.057649 0.049012 0.032197
0.070527 0.057130 0.039124
0.085969 0.062348 0.044434
0.107607 0.065888 0.049165
0.134981 0.068513 0.053010
0.168368 0.070314 0.057649
0.207248 0.070710 0.059846
0.250858 0.070314 0.061769
0.298497 0.068421 0.063996
0.348241 0.067781 0.066926
0.397955 0.072084 0.070832
0.446448 0.084688 0.076295
0.492103 0.105531 0.083314
0.533410 0.132662 0.092470
0.570336 0.163149 0.103639
0.603204 0.194797 0.116640
0.633783 0.227451 0.132174
0.662776 0.261173 0.150729
0.690730 0.296025 0.172488
0.718196 0.332219 0.198581
0.744442 0.368566 0.229129
0.768948 0.404211 0.263951
0.791775 0.438972 0.302647
0.812741 0.472999 0.344671
0.832547 0.506798 0.388556
0.852018 0.540764 0.432624
0.870970 0.575616 0.476692
0.889128 0.611627 0.521080
0.906065 0.649195 0.566705
0.031586 0.043061 0.027039
0.033936 0.043824 0.027985
0.039948 0.045106 0.029877
0.055665 0.052796 0.035096
0.070283 0.059754 0.038758
0.086458 0.064088 0.045106
0.107942 0.067872 0.049592
0.135622 0.071138 0.053285
0.169314 0.073365 0.056916
0.208316 0.074708 0.059754
0.252598 0.074464 0.061524
0.300694 0.073182 0.064027
0.350347 0.073793 0.066804
0.400275 0.078859 0.070863
0.448402 0.091585 0.075868
0.494240 0.112154 0.083589
0.535424 0.139162 0.092531
0.572198 0.168978 0.104036
0.605035 0.200137 0.117494
0.635340 0.232303 0.132876
0.664210 0.265782 0.151675
0.692103 0.300298 0.173770
0.719448 0.335943 0.200015
0.745480 0.371862 0.230503
0.770016 0.407141 0.265660
0.792660 0.441718 0.304448
0.813504 0.475349 0.346380
0.833280 0.508965 0.390417
0.852689 0.542840 0.434516
0.871580 0.577478 0.478340
0.889647 0.613367 0.522576
0.906554 0.650935 0.568261
0.039948 0.054231 0.034363
0.042267 0.054810 0.035309
0.045960 0.055207 0.036255
0.053376 0.057465 0.039002
0.067659 0.062501 0.043793
0.084901 0.067872 0.046601
0.107546 0.072053 0.049714
0.135256 0.076204 0.053193
0.169284 0.079225 0.056580
0.208865 0.081514 0.059388
0.253239 0.083131 0.061372
0.301732 0.083650 0.063600
0.351812 0.085847 0.066468
0.401709 0.092012 0.070314
0.450385 0.104646 0.075990
0.495979 0.124392 0.083223
0.537224 0.150240 0.092744
0.574151 0.179294 0.104402
0.607080 0.209476 0.118227
0.637446 0.241276 0.133974
0.666499 0.274174 0.153353
0.694301 0.308171 0.176089
0.721279 0.342962 0.202182
0.746883 0.377600 0.232975
0.770840 0.411872 0.267460
0.793088 0.445014 0.305974
0.813596 0.478035 0.347265
0.833219 0.510948 0.390814
0.852598 0.544427 0.434760
0.871550 0.578973 0.478859
0.889799 0.614954 0.523308
0.906828 0.652796 0.569482
0.048585 0.063081 0.041382
0.050324 0.063386 0.042329
0.053285 0.063600 0.042206
0.059663 0.064332 0.045045
0.065736 0.066377 0.048920
0.080537 0.071901 0.053559
0.104402 0.078676 0.054414
0.134981 0.084199 0.053986
0.170108 0.088716 0.056001
0.210025 0.092531 0.058778
0.255039 0.095674 0.060822
0.303868 0.098390 0.063020
0.353948 0.102571 0.065614
0.404334 0.109804 0.069703
0.452399 0.122591 0.075196
0.497322 0.141482 0.082582
0.537896 0.165194 0.092134
0.574304 0.191867 0.103944
0.607141 0.220706 0.117525
0.637690 0.251255 0.134127
0.666773 0.283055 0.153414
0.694789 0.316411 0.176761
0.721859 0.350408 0.203555
0.747372 0.384131 0.234073
0.771237 0.417243 0.269017
0.793393 0.449928 0.307347
0.813809 0.482063 0.348669
0.833494 0.514611 0.392401
0.852934 0.547814 0.436286
0.871916 0.582116 0.480415
0.890105 0.617853 0.525017
0.907164 0.655390 0.571160
0.054810 0.070649 0.049439
0.057740 0.070832 0.049348
0.059174 0.071077 0.049256
0.061677 0.071504 0.049866
0.068940 0.073487 0.053162
0.077546 0.076143 0.058625
0.097230 0.083803 0.062654
0.128389 0.092531 0.062043
0.165835 0.099916 0.060822
0.207919 0.105837 0.059266
0.253727 0.110567 0.059602
0.302861 0.115297 0.061402
0.353124 0.121096 0.064515
0.403388 0.129427 0.068299
0.451423 0.142336 0.073548
0.496407 0.160006 0.081178
0.536950 0.181857 0.090730
0.573114 0.206882 0.102632
0.605829 0.233738 0.116640
0.636316 0.262486 0.133028
0.665431 0.292882 0.152651
0.693263 0.324437 0.175631
0.703426 0.334417 0.184970
0.730892 0.368627 0.214237
0.756771 0.402655 0.248020
0.780850 0.436164 0.285863
0.803220 0.469337 0.327672
0.823972 0.502403 0.372045
0.844358 0.536248 0.417975
0.864408 0.571038 0.463752
0.883757 0.607385 0.509789
0.902129 0.645838 0.557610
0.060426 0.078279 0.054292
0.061433 0.078523 0.054200
0.062470 0.078737 0.054108
0.065492 0.078706 0.054780
0.069978 0.079500 0.056001
0.079530 0.083070 0.059541
0.090883 0.087160 0.063813
0.114778 0.096529 0.069551
0.151522 0.107729 0.067842
0.193362 0.116854 0.066590
0.239322 0.124331 0.064363
0.288151 0.130312 0.061128
0.338506 0.136965 0.061799
0.389410 0.145937 0.065095
0.438849 0.158267 0.070497
0.485206 0.174868 0.077272
0.527428 0.195132 0.086824
0.564874 0.218296 0.098451
0.598108 0.242985 0.112581
0.628656 0.269139 0.128145
0.657130 0.296574 0.146639
0.684138 0.324956 0.167910
0.710079 0.354223 0.192264
0.735286 0.384405 0.220554
0.759274 0.414618 0.252811
0.782345 0.445716 0.289769
0.804166 0.477333 0.330999
0.824826 0.509422 0.375311
0.845212 0.542473 0.421210
0.865263 0.576898 0.467079
0.884672 0.612818 0.513268
0.902983 0.650965 0.561212
0.065553 0.089662 0.060029
0.066041 0.089601 0.060029
0.067445 0.089723 0.059968
0.069886 0.089448 0.059937
0.073426 0.089296 0.059846
0.081758 0.092561 0.062165
0.095460 0.098207 0.065553
0.112123 0.103853 0.071015
0.142336 0.116457 0.080812
0.186130 0.130465 0.078340
0.234501 0.142000 0.075624
0.285710 0.151522 0.072633
0.337652 0.160189 0.069429
0.388769 0.169009 0.065461
0.437873 0.181552 0.067323
0.484504 0.197757 0.074647
0.526848 0.216861 0.084535
0.564355 0.238437 0.096773
0.597742 0.261814 0.111116
0.628534 0.286625 0.127810
0.657252 0.312535 0.146883
0.684504 0.339727 0.168643
0.710719 0.367712 0.193820
0.735988 0.396582 0.222629
0.760098 0.425544 0.255375
0.783108 0.455390 0.292821
0.804837 0.485939 0.334386
0.825467 0.517174 0.378912
0.845853 0.549432 0.424445
0.865965 0.583124 0.470222
0.885344 0.618555 0.516381
0.903593 0.656306 0.564446
0.070619 0.103334 0.064057
0.071504 0.103243 0.064057
0.072847 0.103090 0.064027
0.075135 0.102571 0.064027
0.078523 0.102174 0.063539
0.084443 0.102724 0.064118
0.098238 0.109346 0.067781
0.117220 0.117617 0.072480
0.138491 0.125429 0.080110
0.175082 0.141268 0.095644
0.225772 0.158328 0.092287
0.279515 0.172335 0.088960
0.334112 0.184726 0.085267
0.386938 0.196445 0.081636
0.436591 0.208682 0.077852
0.482124 0.221683 0.075074
0.524102 0.238926 0.081544
0.562005 0.259190 0.094240
0.595666 0.280888 0.108858
0.626856 0.304143 0.126345
0.655848 0.328801 0.145846
0.683497 0.354437 0.168521
0.709987 0.381079 0.194034
0.735592 0.408453 0.223484
0.759854 0.436347 0.256901
0.783017 0.465034 0.294835
0.804807 0.494636 0.336522
0.825528 0.524834 0.381231
0.846067 0.556329 0.426917
0.866300 0.589563 0.472908
0.885740 0.624506 0.519249
0.904082 0.661830 0.567498
0.076722 0.120150 0.068452
0.077943 0.120027 0.068421
0.079225 0.119692 0.068452
0.081300 0.119051 0.068482
0.085328 0.117983 0.068116
0.089601 0.116426 0.067445
0.100832 0.121370 0.070100
0.119966 0.130373 0.074983
0.144686 0.142306 0.081941
0.171328 0.152071 0.091707
0.214847 0.171847 0.114412
0.271977 0.192325 0.110842
0.329107 0.209415 0.106600
0.383642 0.224186 0.102571
0.434668 0.238010 0.098848
0.480964 0.251743 0.096010
0.521965 0.265782 0.094148
0.557946 0.280461 0.093690
0.591424 0.299382 0.105409
0.623224 0.321263 0.123354
0.653132 0.344854 0.143923
0.681575 0.369604 0.167758
0.709102 0.395605 0.194491
0.735439 0.422156 0.225040
0.760159 0.449165 0.259556
0.783444 0.476753 0.298070
0.805203 0.504875 0.340002
0.825834 0.533867 0.384588
0.846281 0.564233 0.429755
0.866392 0.596307 0.475196
0.885801 0.630365 0.521324
0.904082 0.666896 0.569543
0.084474 0.140444 0.073945
0.085634 0.140169 0.073945
0.086793 0.139712 0.074006
0.089296 0.138582 0.073396
0.092744 0.136812 0.073243
0.096925 0.134371 0.072450
0.103822 0.133730 0.072633
0.121828 0.143618 0.077394
0.145968 0.155795 0.083925
0.176883 0.170504 0.092744
0.208652 0.183078 0.105989
0.258549 0.206424 0.133394
0.320226 0.231327 0.133883
0.378180 0.250675 0.129030
0.431342 0.267094 0.124697
0.479194 0.282383 0.121492
0.521386 0.296666 0.119448
0.557946 0.310979 0.118654
0.590661 0.325658 0.120150
0.620905 0.341314 0.123140
0.650935 0.362799 0.142458
0.679774 0.386053 0.166690
0.707546 0.410468 0.194522
0.734096 0.435523 0.225559
0.759121 0.461158 0.260594
0.782650 0.487495 0.299321
0.804685 0.514580 0.341772
0.825559 0.542718 0.386694
0.846220 0.572381 0.432258
0.866514 0.603815 0.477882
0.886076 0.637232 0.524224
0.904448 0.673213 0.572656
0.093324 0.162631 0.080568
0.093843 0.162142 0.080354
0.095308 0.161563 0.080079
0.097658 0.160037 0.079652
0.101076 0.157748 0.078981
0.105379 0.154696 0.078065
0.109682 0.150942 0.076967
0.123476 0.156344 0.079988
0.146792 0.169039 0.086275
0.176242 0.184237 0.094820
0.213107 0.202640 0.106325
0.249424 0.217288 0.122530
0.284642 0.228580 0.145113
0.347143 0.256535 0.151369
0.403815 0.277043 0.146517
0.455177 0.294408 0.142733
0.500847 0.310521 0.140230
0.540459 0.325566 0.138766
0.575677 0.340429 0.139437
0.607874 0.356023 0.142092
0.637995 0.372656 0.147189
0.666804 0.390600 0.155978
0.696223 0.414527 0.183993
0.724605 0.439551 0.215702
0.751186 0.465003 0.251102
0.775937 0.490852 0.290288
0.799008 0.517571 0.333196
0.820737 0.545220 0.379187
0.842100 0.574609 0.426001
0.863127 0.605798 0.472633
0.883360 0.639124 0.520104
0.902464 0.674922 0.569451
0.100801 0.181582 0.086000
0.101686 0.180850 0.085542
0.102907 0.180636 0.085542
0.105318 0.179385 0.085145
0.108705 0.177371 0.084535
0.113100 0.174166 0.083803
0.117494 0.170169 0.082582
0.123140 0.166567 0.081819
0.145022 0.179538 0.087831
0.172610 0.194461 0.095705
0.205875 0.211887 0.105959
0.246159 0.231846 0.119081
0.283787 0.246891 0.137575
0.336309 0.272618 0.170687
0.399268 0.303319 0.184024
0.452308 0.323339 0.178195
0.499336 0.340764 0.174319
0.540093 0.356451 0.172152
0.576043 0.371130 0.171817
0.608942 0.386236 0.174105
0.639521 0.401984 0.178897
0.668574 0.418341 0.186740
0.696620 0.435859 0.198093
0.724086 0.455665 0.217411
0.750942 0.479805 0.253758
0.775875 0.504509 0.293675
0.799100 0.530022 0.337041
0.820890 0.556603 0.383185
0.842435 0.584894 0.429877
0.863523 0.615198 0.476661
0.883879 0.647669 0.524071
0.902953 0.682765 0.573693
0.111482 0.208316 0.093965
0.112245 0.207584 0.093812
0.113466 0.207065 0.093629
0.115785 0.205539 0.093080
0.119142 0.202914 0.092195
0.123110 0.199374 0.091157
0.127565 0.194430 0.089540
0.131868 0.188418 0.087800
0.145388 0.192233 0.090059
0.171725 0.207980 0.097902
0.204227 0.226017 0.108034
0.243198 0.246677 0.120790
0.288548 0.269841 0.136751
0.329351 0.286900 0.159030
0.382116 0.313787 0.196811
0.446357 0.348821 0.220706
0.495766 0.368811 0.214755
0.538262 0.385626 0.210880
0.575219 0.400763 0.209354
0.608942 0.415534 0.210697
0.640070 0.430274 0.214450
0.669368 0.445472 0.221317
0.697597 0.461707 0.231815
0.724636 0.478706 0.245701
0.750362 0.496529 0.263798
0.775082 0.517723 0.296117
0.798459 0.542016 0.339727
0.820432 0.567468 0.386114
0.842161 0.594873 0.432837
0.863432 0.624292 0.479713
0.883909 0.655909 0.527245
0.903075 0.690333 0.577203
0.122713 0.236149 0.102693
0.123293 0.235264 0.102388
0.124544 0.234501 0.102052
0.126894 0.233005 0.101595
0.130129 0.230045 0.100679
0.134035 0.225986 0.099489
0.138338 0.220310 0.097597
0.142367 0.213382 0.095369
0.145968 0.205081 0.093050
0.170230 0.219883 0.099947
0.201266 0.238590 0.109834
0.238712 0.259464 0.122194
0.282750 0.282963 0.137636
0.332128 0.308843 0.157259
0.374426 0.327520 0.183841
0.426246 0.354681 0.225895
0.489113 0.392676 0.260105
0.533898 0.411780 0.254459
0.572534 0.427955 0.251133
0.607568 0.442725 0.250736
0.639521 0.457130 0.253452
0.669398 0.471809 0.259373
0.697871 0.486976 0.268498
0.725063 0.502861 0.281346
0.750515 0.519097 0.297887
0.774563 0.536339 0.318914
0.797360 0.554589 0.344274
0.819303 0.577996 0.387854
0.840970 0.603967 0.434119
0.862181 0.631983 0.480415
0.882719 0.662409 0.527581
0.902068 0.695766 0.577539
0.134890 0.265293 0.112428
0.135378 0.264134 0.112032
0.136385 0.263157 0.111604
0.138491 0.260838 0.110780
0.141329 0.257450 0.109712
0.144930 0.252781 0.108003
0.148836 0.246128 0.105745
0.152773 0.238682 0.103365
0.156252 0.229831 0.100404
0.167269 0.229404 0.101198
0.196750 0.248569 0.110780
0.233066 0.270085 0.122988
0.275578 0.294072 0.138186
0.323949 0.320317 0.157198
0.376471 0.348638 0.180911
0.419593 0.368902 0.212467
0.467964 0.395026 0.257298
0.527398 0.434638 0.302129
0.568048 0.452064 0.296452
0.604273 0.467414 0.293980
0.637049 0.481605 0.294682
0.667414 0.495583 0.298741
0.696254 0.509941 0.306065
0.723476 0.524681 0.317082
0.748867 0.539910 0.331884
0.772763 0.555840 0.350744
0.795468 0.572747 0.373632
0.817350 0.591272 0.400641
0.839384 0.612970 0.434638
0.861021 0.640284 0.481453
0.882017 0.670192 0.529381
0.901762 0.703273 0.580346
0.148226 0.295293 0.123049
0.148836 0.294316 0.122499
0.149691 0.293370 0.122499
0.151583 0.290929 0.121492
0.154421 0.287327 0.120089
0.157626 0.281834 0.118288
0.161135 0.275242 0.115663
0.164767 0.267155 0.112825
0.168093 0.257847 0.109651
0.171054 0.246891 0.105989
0.193851 0.259159 0.112428
0.228397 0.280858 0.124147
0.268894 0.304601 0.138705
0.315465 0.330480 0.157137
0.366217 0.358465 0.180117
0.419501 0.387762 0.208164
0.461219 0.408087 0.243137
0.505516 0.432746 0.289891
0.562036 0.473243 0.344610
0.600092 0.490120 0.340215
0.634333 0.505119 0.339208
0.665705 0.519219 0.341405
0.695125 0.533196 0.346838
0.722377 0.547234 0.356023
0.747860 0.561486 0.368841
0.771633 0.576379 0.385290
0.794095 0.592126 0.405402
0.815976 0.609522 0.429419
0.837980 0.629053 0.456977
0.860075 0.651179 0.488380
0.881498 0.678828 0.531945
0.901518 0.711177 0.583368
0.162173 0.324620 0.134768
0.162539 0.323369 0.134188
0.158572 0.312505 0.129885
0.160250 0.310460 0.129061
0.162814 0.306859 0.127657
0.166079 0.302129 0.125704
0.169558 0.296056 0.123262
0.173220 0.288487 0.120455
0.176669 0.279545 0.117250
0.179568 0.268864 0.113466
0.186374 0.262852 0.111757
0.218296 0.284031 0.122652
0.256779 0.307744 0.136751
0.301061 0.333562 0.154055
0.349920 0.361089 0.175723
0.402136 0.390143 0.202121
0.454841 0.419898 0.233402
0.494545 0.440101 0.271244
0.534386 0.462745 0.317967
0.589441 0.504479 0.381384
0.625879 0.521477 0.379004
0.659022 0.536736 0.379736
0.689662 0.551171 0.383459
0.718013 0.565362 0.390845
0.744228 0.579675 0.402014
0.768734 0.594537 0.416968
0.791775 0.610132 0.435523
0.814084 0.627070 0.457404
0.836362 0.646021 0.482795
0.858579 0.667292 0.511894
0.880491 0.691463 0.545892
0.901152 0.719203 0.586389
0.176730 0.352514 0.147097
0.176486 0.350622 0.146151
0.176486 0.348119 0.145052
0.177340 0.344640 0.143313
0.179080 0.339879 0.141329
0.181674 0.334447 0.138796
0.185183 0.328344 0.136446
0.188205 0.320287 0.132753
0.191562 0.310948 0.129183
0.194553 0.300572 0.125124
0.196384 0.288457 0.120424
0.215305 0.295262 0.124788
0.252537 0.319127 0.138613
0.295537 0.344854 0.155764
0.343481 0.372473 0.177066
0.394659 0.401190 0.203159
0.447028 0.430610 0.234073
0.497536 0.459480 0.268833
0.533776 0.478401 0.308995
0.569055 0.498604 0.354925
0.620874 0.539452 0.421271
0.655634 0.556756 0.422950
0.687068 0.571557 0.424445
0.715785 0.585718 0.429511
0.742214 0.599603 0.438117
0.766751 0.613794 0.450385
0.789792 0.628565 0.466255
0.812284 0.644709 0.485603
0.834623 0.662806 0.508598
0.856901 0.683162 0.535668
0.878843 0.706538 0.567864
0.899168 0.731960 0.604211
0.196048 0.386053 0.163546
0.195407 0.383825 0.162448
0.195346 0.381537 0.161074
0.196231 0.378393 0.159670
0.197818 0.373846 0.157473
0.199863 0.368475 0.154482
0.202853 0.362249 0.151583
0.205905 0.354284 0.147768
0.208927 0.345190 0.143587
0.211673 0.334478 0.138918
0.213657 0.322240 0.133639
0.214969 0.308965 0.128237
0.249058 0.330480 0.140810
0.291020 0.356329 0.157961
0.337713 0.383825 0.178988
0.387945 0.412268 0.204868
0.439643 0.440986 0.235142
0.490089 0.469245 0.269780
0.537011 0.496834 0.307225
0.569940 0.514366 0.348150
0.601404 0.532555 0.392187
0.649348 0.570794 0.454688
0.683558 0.589837 0.463508
0.712825 0.604303 0.466529
0.739681 0.618189 0.472816
0.764523 0.632105 0.483009
0.787686 0.646418 0.496681
0.810483 0.662104 0.513939
0.833005 0.679530 0.534905
0.855344 0.699214 0.560143
0.877379 0.721920 0.591028
0.897307 0.745174 0.623804
0.218082 0.420722 0.183536
0.217594 0.418677 0.182223
0.217288 0.416419 0.180850
0.217868 0.413336 0.179110
0.219272 0.408911 0.176394
0.221225 0.403754 0.173617
0.223606 0.397467 0.169863
0.226535 0.390234 0.166049
0.229252 0.381079 0.161318
0.231724 0.370581 0.155917
0.233555 0.358587 0.149844
0.234928 0.345525 0.143771
0.246403 0.342626 0.143435
0.287327 0.368505 0.160769
0.333013 0.395789 0.182071
0.382177 0.423560 0.207431
0.432959 0.451362 0.237156
0.482490 0.478248 0.270573
0.528862 0.504479 0.306706
0.571527 0.529808 0.344518
0.600946 0.545800 0.384344
0.628473 0.561212 0.424140
0.673274 0.597101 0.482521
0.706050 0.617273 0.497383
0.733455 0.631403 0.501610
0.758663 0.645228 0.509361
0.782193 0.659144 0.520806
0.805142 0.674281 0.535882
0.827970 0.691127 0.554864
0.850675 0.710292 0.578424
0.872740 0.731655 0.606683
0.892943 0.753475 0.636683
0.240024 0.451026 0.203799
0.239841 0.450050 0.202976
0.239994 0.448493 0.201938
0.240818 0.446082 0.200320
0.242008 0.442329 0.197696
0.244114 0.437964 0.194858
0.246342 0.431952 0.190890
0.248753 0.424903 0.186435
0.251072 0.416297 0.181094
0.252903 0.406043 0.175021
0.254612 0.394537 0.168521
0.255863 0.381750 0.161654
0.256321 0.367407 0.154116
0.282536 0.378820 0.163088
0.327276 0.405676 0.184085
0.375586 0.433326 0.209415
0.425513 0.460517 0.238865
0.475135 0.487068 0.271794
0.521660 0.512840 0.307713
0.564965 0.537957 0.345373
0.604700 0.562280 0.383337
0.632166 0.577600 0.421912
0.657313 0.591882 0.458442
0.698939 0.625788 0.513512
0.730373 0.647272 0.534630
0.755947 0.661372 0.540856
0.779812 0.675349 0.550500
0.803006 0.690242 0.563836
0.826047 0.706783 0.581262
0.848966 0.725429 0.603357
0.870726 0.745083 0.628168
0.890990 0.765682 0.655726
0.269108 0.486427 0.231327
0.268803 0.485328 0.230411
0.268681 0.484016 0.229252
0.269413 0.481697 0.227420
0.270481 0.478309 0.224857
0.272343 0.474403 0.221592
0.274235 0.469306 0.217960
0.276371 0.462776 0.213107
0.278386 0.454902 0.207095
0.280186 0.445533 0.200626
0.281712 0.434699 0.193393
0.282719 0.422675 0.185550
0.283146 0.409216 0.177096
0.282933 0.394385 0.168582
0.325872 0.419989 0.189273
0.373541 0.446937 0.214847
0.422705 0.473335 0.244114
0.471748 0.499092 0.276951
0.518151 0.524102 0.312322
0.561151 0.548425 0.349554
0.600855 0.572015 0.386938
0.637598 0.594903 0.423194
0.662837 0.609186 0.458808
0.685908 0.622461 0.492653
0.724269 0.654841 0.546288
0.753841 0.677119 0.573022
0.777920 0.691279 0.581140
0.801480 0.706264 0.593133
0.824857 0.722591 0.608972
0.847990 0.740627 0.628901
0.869230 0.758480 0.650202
0.889525 0.777890 0.675257
0.298589 0.517967 0.259861
0.298070 0.516686 0.258549
0.297887 0.515496 0.257389
0.298558 0.513664 0.255741
0.299779 0.511131 0.253635
0.301488 0.507530 0.250431
0.303380 0.503105 0.246464
0.305608 0.497963 0.242130
0.307927 0.491310 0.236606
0.309758 0.483467 0.230076
0.311467 0.474220 0.222660
0.312840 0.463600 0.214481
0.313481 0.451637 0.205539
0.313970 0.438605 0.196506
0.326909 0.436194 0.196506
0.374548 0.463020 0.222873
0.424018 0.489265 0.253178
0.472877 0.514580 0.286564
0.518791 0.538994 0.322087
0.561517 0.562493 0.358801
0.600977 0.585351 0.395422
0.637568 0.607538 0.430701
0.671870 0.629419 0.464607
0.694850 0.642634 0.498238
0.715602 0.654994 0.530358
0.746822 0.681392 0.577905
0.774929 0.704555 0.609705
0.799161 0.719997 0.620356
0.823087 0.736355 0.634546
0.846006 0.753262 0.651545
0.867460 0.770443 0.670741
0.887846 0.788876 0.693599
0.336461 0.553582 0.296788
0.336065 0.552453 0.295598
0.335821 0.551415 0.294591
0.336248 0.549737 0.292729
0.337194 0.547478 0.290532
0.338689 0.544335 0.287358
0.340307 0.540459 0.283360
0.342260 0.535729 0.278935
0.343999 0.529839 0.273075
0.345586 0.522545 0.266270
0.346990 0.514458 0.258701
0.347936 0.504997 0.249973
0.348516 0.494514 0.240696
0.348882 0.482704 0.230716
0.348608 0.469734 0.220127
0.376684 0.479408 0.232090
0.425483 0.504631 0.262394
0.473457 0.529046 0.295811
0.518944 0.552667 0.331304
0.561334 0.575616 0.367559
0.600641 0.597894 0.403510
0.637201 0.619684 0.438178
0.671412 0.640833 0.471382
0.702602 0.660883 0.503319
0.722896 0.672572 0.535058
0.741299 0.683833 0.565789
0.767819 0.706691 0.609888
0.795895 0.731014 0.644862
0.820371 0.747524 0.657343
0.842954 0.763302 0.671321
0.864591 0.779904 0.688441
0.885161 0.797757 0.709529
0.376867 0.587945 0.336858
0.376440 0.587060 0.335760
0.376654 0.586389 0.335210
0.377234 0.585107 0.333623
0.378241 0.583215 0.331670
0.379706 0.580743 0.328893
0.381353 0.577478 0.325414
0.383062 0.573297 0.320867
0.384833 0.568292 0.315251
0.386267 0.562066 0.308537
0.387579 0.554955 0.301152
0.388525 0.546746 0.292546
0.389136 0.537499 0.283116
0.389685 0.527337 0.272770
0.389868 0.516503 0.262333
0.389715 0.504295 0.250858
0.432319 0.524163 0.277165
0.479530 0.547753 0.310948
0.524376 0.570581 0.346349
0.566033 0.592920 0.382208
0.604883 0.614588 0.417426
0.641230 0.635737 0.451026
0.674830 0.655940 0.483467
0.705470 0.674891 0.514611
0.733242 0.692744 0.544884
0.750820 0.703120 0.575219
0.766903 0.713283 0.604700
0.791073 0.734066 0.644617
0.818173 0.757961 0.679866
0.840940 0.773648 0.692042
0.862821 0.789975 0.707637
0.883421 0.807492 0.727687
0.422248 0.623865 0.382269
0.422034 0.623285 0.381476
0.422187 0.622675 0.380835
0.422553 0.621515 0.379461
0.423346 0.619776 0.377447
0.424323 0.617304 0.374640
0.424781 0.613886 0.370520
0.425513 0.609644 0.365515
0.426154 0.604425 0.359564
0.426337 0.598230 0.352270
0.426642 0.591272 0.344182
0.426795 0.583459 0.335088
0.426978 0.574823 0.325444
0.427008 0.565667 0.315190
0.427436 0.555810 0.304540
0.427771 0.545373 0.293339
0.434913 0.539513 0.288579
0.481514 0.562249 0.322148
0.525475 0.584405 0.357061
0.566827 0.606104 0.392279
0.605402 0.627253 0.426703
0.641566 0.647883 0.459663
0.674952 0.667384 0.491707
0.705501 0.685695 0.522484
0.733211 0.702937 0.552575
0.758083 0.719112 0.582025
0.774044 0.728786 0.611383
0.788602 0.738003 0.637507
0.810117 0.755978 0.672053
0.835508 0.778775 0.706905
0.857847 0.795254 0.721370
0.878935 0.812741 0.740230
0.462348 0.655543 0.423163
0.462257 0.655116 0.422705
0.462562 0.654749 0.422309
0.462989 0.653834 0.421271
0.464149 0.652583 0.419837
0.465400 0.650721 0.417823
0.466468 0.648127 0.414740
0.467811 0.644923 0.411139
0.469062 0.640986 0.406439
0.470253 0.636225 0.400885
0.471626 0.630884 0.394537
0.472694 0.624720 0.387335
0.474037 0.618067 0.379309
0.475380 0.610712 0.370642
