data/fiter_cube/21023058/1023006/file.cube
# Created by Adobe Lightroom plugin Export LUT (1.17.0)
# www.johnrellis.com/lightroom/exportlut.htm
# Preset: 温暖焦糖婚礼婚纱_02 云集
# Color profile: C:\Program Files (x86)\Common Files\Adobe\Color\Profiles\Recommended\AdobeRGB1998.icc
LUT_3D_SIZE 5
DOMAIN_MIN 0.000000 0.000000 0.000000
DOMAIN_MAX 0.903226 0.903226 0.903226
0.026184 0.032380 0.022644
0.134066 0.066316 0.053498
0.441993 0.078462 0.075776
0.687770 0.290715 0.170016
0.850675 0.537682 0.429419
0.065553 0.089662 0.060029
0.112123 0.103853 0.071015
0.437873 0.181552 0.067323
0.684504 0.339727 0.168643
0.845853 0.549432 0.424445
0.122713 0.236149 0.102693
0.142367 0.213382 0.095369
0.374426 0.327520 0.183841
0.669398 0.471809 0.259373
0.840970 0.603967 0.434119
0.240024 0.451026 0.203799
0.248753 0.424903 0.186435
0.327276 0.405676 0.184085
0.632166 0.577600 0.421912
0.826047 0.706783 0.581262
0.511467 0.692287 0.472389
0.516411 0.683925 0.462318
0.536919 0.658412 0.432959
0.674189 0.700221 0.517418
0.829801 0.789242 0.693874
0.104646 0.109194 0.193790
0.191989 0.105135 0.166720
0.501366 0.161959 0.164736
0.697566 0.325048 0.179355
0.856809 0.551720 0.444526
0.099489 0.150973 0.159121
0.217014 0.207736 0.200656
0.485267 0.239536 0.150149
0.691981 0.363226 0.176516
0.854093 0.565728 0.443946
0.182467 0.328893 0.190921
0.214267 0.302434 0.172183
0.404456 0.353399 0.213870
0.678889 0.486091 0.276585
0.845151 0.610529 0.443519
0.246769 0.448737 0.204379
0.251255 0.417029 0.181765
0.343603 0.415595 0.192538
0.636530 0.580774 0.427802
0.829252 0.709804 0.585107
0.513573 0.693904 0.474617
0.518395 0.685634 0.464668
0.530632 0.653559 0.426490
0.671901 0.698177 0.514549
0.829465 0.788632 0.693538
0.440589 0.414862 0.594812
0.492805 0.412848 0.583398
0.597589 0.409033 0.539696
0.743435 0.499153 0.530449
0.860685 0.586816 0.538079
0.437201 0.462928 0.580102
0.503960 0.481300 0.583429
0.602686 0.471138 0.550072
0.740047 0.510033 0.524041
0.859220 0.593011 0.525689
0.385718 0.513664 0.528557
0.464515 0.537682 0.542535
0.617212 0.596124 0.577661
0.718624 0.561456 0.485786
0.854490 0.622370 0.487098
0.460121 0.621576 0.518608
0.505943 0.627680 0.527276
0.517845 0.575402 0.461891
0.680354 0.635370 0.537072
0.840391 0.715541 0.590204
0.580468 0.732509 0.568505
0.589715 0.728359 0.562310
0.547814 0.674556 0.460304
0.669368 0.699977 0.514885
0.835080 0.793820 0.702174
0.685451 0.663386 0.769253
0.696223 0.661280 0.765255
0.733272 0.654627 0.753628
0.779263 0.651850 0.727321
0.868528 0.750912 0.767788
0.693446 0.683833 0.768185
0.703029 0.682002 0.765347
0.736263 0.675135 0.755306
0.780972 0.670649 0.731594
0.870024 0.751736 0.766445
0.675929 0.702815 0.751522
0.693874 0.708919 0.753902
0.741146 0.721614 0.759457
0.781552 0.711330 0.738369
0.869413 0.736202 0.740749
0.640345 0.716457 0.721553
0.663691 0.723781 0.725978
0.719875 0.742672 0.737484
0.790341 0.771206 0.756954
0.862455 0.742672 0.682826
0.686366 0.796841 0.739803
0.707301 0.802884 0.746975
0.735988 0.802213 0.741360
0.702449 0.746944 0.642756
0.846799 0.809598 0.738918
0.824002 0.805570 0.875334
0.827054 0.804623 0.874327
0.839200 0.802182 0.871489
0.861906 0.797543 0.866575
0.885801 0.797787 0.854734
0.824125 0.809751 0.874449
0.827054 0.808774 0.873533
0.838651 0.806180 0.870817
0.860410 0.800717 0.865690
0.885527 0.801450 0.855100
0.814633 0.814694 0.870970
0.819730 0.815885 0.871702
0.838285 0.820523 0.871336
0.858457 0.814908 0.866575
0.887663 0.817746 0.859983
0.802853 0.825315 0.862364
0.807919 0.826749 0.862760
0.826871 0.833768 0.866239
0.860502 0.843809 0.873716
0.892393 0.845975 0.869627
0.784970 0.840024 0.852781
0.791196 0.841855 0.853819
0.816281 0.851011 0.860349
0.852293 0.863920 0.868559
0.898009 0.884398 0.882200
