data/fiter_cube/21023058/1023006/file.cube
# Created by Adobe Lightroom plugin Export LUT (1.17.0)
# www.johnrellis.com/lightroom/exportlut.htm
# Preset: 温暖焦糖婚礼婚纱_02 云集
# Color profile: C:\Program Files (x86)\Common Files\Adobe\Color\Profiles\Recommended\AdobeRGB1998.icc
LUT_3D_SIZE 8
DOMAIN_MIN 0.000000 0.000000 0.000000
DOMAIN_MAX 0.903226 0.903226 0.903226
0.026184 0.032380 0.022644
0.070283 0.054566 0.038331
0.166873 0.068116 0.057465
0.344579 0.063020 0.066804
0.529503 0.126345 0.091646
0.659602 0.255467 0.148348
0.766812 0.399786 0.260380
0.850675 0.537682 0.429419
0.048585 0.063081 0.041382
0.065736 0.066377 0.048920
0.170108 0.088716 0.056001
0.353948 0.102571 0.065614
0.537896 0.165194 0.092134
0.666773 0.283055 0.153414
0.771237 0.417243 0.269017
0.852934 0.547814 0.436286
0.070619 0.103334 0.064057
0.078523 0.102174 0.063539
0.138491 0.125429 0.080110
0.334112 0.184726 0.085267
0.524102 0.238926 0.081544
0.655848 0.328801 0.145846
0.759854 0.436347 0.256901
0.846067 0.556329 0.426917
0.100801 0.181582 0.086000
0.108705 0.177371 0.084535
0.145022 0.179538 0.087831
0.283787 0.246891 0.137575
0.499336 0.340764 0.174319
0.639521 0.401984 0.178897
0.750942 0.479805 0.253758
0.842435 0.584894 0.429877
0.148226 0.295293 0.123049
0.154421 0.287327 0.120089
0.168093 0.257847 0.109651
0.268894 0.304601 0.138705
0.461219 0.408087 0.243137
0.634333 0.505119 0.339208
0.747860 0.561486 0.368841
0.837980 0.629053 0.456977
0.218082 0.420722 0.183536
0.219272 0.408911 0.176394
0.229252 0.381079 0.161318
0.246403 0.342626 0.143435
0.432959 0.451362 0.237156
0.600946 0.545800 0.384344
0.733455 0.631403 0.501610
0.827970 0.691127 0.554864
0.336461 0.553582 0.296788
0.337194 0.547478 0.290532
0.343999 0.529839 0.273075
0.348516 0.494514 0.240696
0.425483 0.504631 0.262394
0.600641 0.597894 0.403510
0.722896 0.672572 0.535058
0.820371 0.747524 0.657343
0.511467 0.692287 0.472389
0.513176 0.689967 0.469642
0.517540 0.680690 0.458442
0.522789 0.662043 0.436072
0.541283 0.644923 0.416999
0.641779 0.683589 0.487678
0.754543 0.742977 0.600183
0.829801 0.789242 0.693874
0.063325 0.065553 0.075624
0.079408 0.065003 0.071382
0.197147 0.077607 0.075746
0.356603 0.092042 0.066438
0.541100 0.158328 0.093599
0.670954 0.281285 0.156680
0.774716 0.417029 0.273625
0.856168 0.549310 0.442664
0.060182 0.073518 0.069703
0.086671 0.087098 0.080232
0.192020 0.103517 0.074861
0.356420 0.120180 0.064424
0.542260 0.185641 0.092378
0.672450 0.300511 0.158114
0.777218 0.430976 0.279637
0.858396 0.559350 0.449653
0.082734 0.124880 0.081971
0.099489 0.128115 0.084413
0.150240 0.134768 0.088960
0.342046 0.194369 0.090455
0.532250 0.253025 0.082673
0.663905 0.344366 0.152071
0.769863 0.453712 0.273503
0.852995 0.569421 0.443122
0.113100 0.197879 0.096010
0.119631 0.188388 0.091859
0.155550 0.187289 0.091096
0.299901 0.259525 0.145388
0.518700 0.360723 0.188937
0.654658 0.422004 0.196841
0.762173 0.495827 0.271885
0.849454 0.596796 0.445991
0.152346 0.292607 0.122225
0.157961 0.285252 0.119265
0.170932 0.257298 0.109438
0.281926 0.315068 0.144564
0.473762 0.419104 0.253696
0.642451 0.514275 0.350072
0.753506 0.569299 0.379797
0.842618 0.636011 0.467140
0.223026 0.421515 0.184024
0.226505 0.413672 0.179355
0.235508 0.385473 0.163455
0.256992 0.352361 0.148684
0.442115 0.458289 0.243961
0.604791 0.549187 0.389197
0.736446 0.634821 0.505730
0.831296 0.695583 0.560906
0.345129 0.558831 0.302922
0.348272 0.554589 0.298619
0.353246 0.536217 0.279820
0.355169 0.499245 0.245121
0.433356 0.510491 0.269047
0.606622 0.603174 0.410376
0.727810 0.677638 0.541955
0.824826 0.752621 0.663783
0.517784 0.696529 0.478370
0.518608 0.693629 0.474769
0.522332 0.684138 0.463233
0.527214 0.665400 0.440650
0.535729 0.640162 0.410895
0.640314 0.682155 0.485817
0.756039 0.744381 0.602380
0.831876 0.791440 0.696986
0.126741 0.132784 0.251102
0.161837 0.130831 0.243900
0.248753 0.128878 0.216220
0.446693 0.169467 0.231907
0.575280 0.220401 0.205570
0.672450 0.307073 0.198642
0.771054 0.419287 0.269047
0.855009 0.548333 0.440253
0.133120 0.161349 0.247196
0.176822 0.172427 0.254246
0.261357 0.168093 0.231540
0.459358 0.200565 0.240909
0.576806 0.249241 0.208164
0.673274 0.323003 0.196689
0.772641 0.431159 0.273167
0.855894 0.555627 0.443977
0.121889 0.193454 0.207919
0.161074 0.212528 0.222080
0.282139 0.269871 0.262364
0.435431 0.276890 0.220432
0.559747 0.301549 0.187747
0.662898 0.356298 0.174746
0.768246 0.456428 0.271763
0.853788 0.571160 0.445045
0.161837 0.292424 0.214481
0.198428 0.309972 0.228428
0.262638 0.314275 0.226932
0.377386 0.339330 0.253025
0.537285 0.388159 0.237949
0.650935 0.423285 0.200290
0.759731 0.495155 0.268589
0.849149 0.596033 0.445197
0.229252 0.401648 0.240055
0.255161 0.409277 0.249058
0.257725 0.360235 0.206973
0.319402 0.351476 0.194949
0.480903 0.425177 0.270878
0.641352 0.513085 0.348669
0.753719 0.570153 0.381140
0.843748 0.636439 0.467567
0.276280 0.472023 0.252659
0.277531 0.461097 0.242893
0.272801 0.419257 0.205478
0.275883 0.366217 0.161715
0.455116 0.465888 0.252659
0.609888 0.552819 0.395972
0.739803 0.637903 0.508904
0.832975 0.696254 0.561425
0.343542 0.553918 0.297490
0.345769 0.548791 0.292332
0.352087 0.531243 0.274876
0.355444 0.496223 0.242435
0.442420 0.515526 0.275273
0.610712 0.605646 0.414252
0.727596 0.676661 0.541985
0.824430 0.751003 0.660975
0.518578 0.697292 0.479377
0.520867 0.695827 0.477790
0.525872 0.687221 0.467506
0.528679 0.667170 0.442908
0.537987 0.642573 0.414038
0.640223 0.682429 0.485969
0.756039 0.744320 0.602289
0.831571 0.790799 0.696651
0.328405 0.312108 0.513481
0.351904 0.308721 0.505791
0.429999 0.304723 0.490700
0.508019 0.306157 0.454871
0.626276 0.424048 0.472480
0.711666 0.411872 0.432227
0.782834 0.471962 0.421088
0.861082 0.560296 0.465644
0.339330 0.345068 0.505760
0.361303 0.343267 0.501884
0.432136 0.337591 0.490730
0.509789 0.335088 0.459052
0.628199 0.431922 0.473762
0.710353 0.424384 0.431617
0.782589 0.479774 0.420356
0.861387 0.564294 0.463416
0.319371 0.390234 0.483314
0.353399 0.401129 0.488624
0.446540 0.427100 0.501701
0.521294 0.419471 0.477516
0.629847 0.447639 0.466194
0.699092 0.452186 0.418280
0.773495 0.491127 0.399939
0.856657 0.571527 0.450172
0.278599 0.416449 0.439643
0.314855 0.429267 0.447456
0.416114 0.465858 0.469551
0.532158 0.512688 0.498146
0.611505 0.492897 0.441047
0.686610 0.492927 0.394751
0.768460 0.523461 0.377813
0.853330 0.598322 0.453346
0.313787 0.495583 0.425818
0.355200 0.510979 0.441199
0.438422 0.529381 0.459632
0.476265 0.508415 0.432105
0.574823 0.537987 0.469184
0.673182 0.562463 0.452705
0.758511 0.578241 0.410590
0.847623 0.635096 0.465278
0.387640 0.565209 0.433051
0.402594 0.564843 0.434241
0.452552 0.570306 0.444251
0.436225 0.517876 0.377569
0.499855 0.514122 0.368566
0.635096 0.584863 0.466560
0.743008 0.638666 0.508019
0.837247 0.697017 0.561273
0.455055 0.630213 0.456092
0.463203 0.629297 0.455940
0.469764 0.614710 0.437568
0.432410 0.558373 0.354681
0.442634 0.518059 0.296971
0.611414 0.604852 0.414160
0.728908 0.676967 0.544549
0.828244 0.752895 0.661769
0.538598 0.707546 0.506828
0.534936 0.702968 0.498360
0.523980 0.687190 0.468177
0.530053 0.672023 0.448951
0.539910 0.647242 0.419776
0.636072 0.681117 0.482979
0.755703 0.744503 0.602289
0.832212 0.791043 0.697810
0.527611 0.501091 0.657679
0.536828 0.499336 0.654261
0.571191 0.497810 0.646906
0.623194 0.491127 0.633661
0.664607 0.491249 0.604517
0.731868 0.586175 0.617395
0.797543 0.583825 0.603540
0.860563 0.620844 0.608515
0.533471 0.518120 0.654780
0.540124 0.514611 0.650874
0.571740 0.511742 0.644495
0.623438 0.506432 0.634089
0.665736 0.505394 0.606897
0.733425 0.596094 0.621668
0.796841 0.583734 0.600885
0.860380 0.622675 0.606134
0.523186 0.541405 0.644495
0.537407 0.545495 0.645777
0.581598 0.558160 0.647089
0.626032 0.551720 0.637629
0.669917 0.548272 0.615320
0.738125 0.617212 0.630182
0.794156 0.586297 0.592767
0.860777 0.630304 0.598535
0.505699 0.567163 0.624079
0.522087 0.573236 0.626520
0.569329 0.591394 0.633295
0.630274 0.608331 0.641840
0.673365 0.602319 0.625177
0.735164 0.615229 0.615595
0.786557 0.599023 0.573144
0.859495 0.635523 0.572534
0.474037 0.584894 0.594446
0.491127 0.589593 0.597070
0.543481 0.605982 0.606744
0.612116 0.630610 0.621424
0.679805 0.659022 0.639094
0.720272 0.628260 0.582483
0.777646 0.618524 0.538720
0.856352 0.655085 0.544305
0.470985 0.624964 0.572595
0.493660 0.632166 0.579522
0.560174 0.655940 0.602441
0.623438 0.672633 0.617700
0.619806 0.636500 0.569879
0.700343 0.667048 0.607782
0.768917 0.680385 0.592035
0.847440 0.702205 0.574243
0.550713 0.697261 0.595666
0.560113 0.698177 0.597284
0.585657 0.698817 0.599023
0.610864 0.693050 0.591180
0.565179 0.630732 0.502770
0.630426 0.635950 0.504356
0.747158 0.702815 0.602838
0.837491 0.758572 0.666041
0.614282 0.752102 0.621424
0.618616 0.751797 0.621271
0.630365 0.749752 0.618402
0.633051 0.738216 0.597162
0.586816 0.692470 0.506676
0.622889 0.678035 0.479194
0.755795 0.746395 0.603967
0.836149 0.794705 0.704005
0.652033 0.628412 0.744533
0.656336 0.628046 0.743252
0.672969 0.628626 0.740566
0.698238 0.625635 0.733974
0.734035 0.620752 0.725216
0.758999 0.622309 0.704372
0.803372 0.687831 0.715511
0.866300 0.722805 0.738827
0.660639 0.642176 0.747066
0.664729 0.641901 0.746212
0.678645 0.640375 0.742824
0.701991 0.636378 0.736172
0.735805 0.630579 0.727199
0.760220 0.630701 0.706630
0.805051 0.693507 0.718532
0.866789 0.723201 0.738277
0.659113 0.655756 0.742306
0.668482 0.660731 0.743282
0.682948 0.661219 0.741146
0.704005 0.657404 0.735470
0.735378 0.652338 0.727810
0.760555 0.651057 0.709682
0.808164 0.708156 0.725277
0.866728 0.720394 0.732082
0.647913 0.668910 0.731075
0.655421 0.671778 0.732357
0.677516 0.679255 0.735561
0.707027 0.686427 0.735348
0.733211 0.680568 0.727626
0.759731 0.677638 0.712764
0.812436 0.728725 0.734188
0.865080 0.708705 0.712856
0.634668 0.681849 0.718379
0.642237 0.684596 0.719295
0.666377 0.693660 0.722530
0.700618 0.707546 0.728176
0.738155 0.718532 0.735653
0.765560 0.713954 0.723903
0.810575 0.719234 0.716732
0.863066 0.709957 0.689082
0.613031 0.695552 0.700740
0.620661 0.697200 0.701411
0.647395 0.704891 0.705531
0.685389 0.717250 0.712642
0.727047 0.733150 0.722866
0.770291 0.750942 0.734676
0.794766 0.717433 0.677302
0.858946 0.722560 0.653132
0.584100 0.718807 0.679530
0.593378 0.719417 0.679927
0.633600 0.730343 0.690883
0.686763 0.747433 0.708003
0.728145 0.759518 0.717494
0.705287 0.716823 0.656336
0.783566 0.753567 0.704250
0.853635 0.778683 0.706874
0.679652 0.791989 0.722499
0.684260 0.792508 0.723140
0.697749 0.793362 0.723812
0.712734 0.791714 0.719326
0.722683 0.783871 0.703120
0.678523 0.735225 0.614191
0.751064 0.751675 0.636255
0.841886 0.801694 0.720119
0.753567 0.733822 0.824094
0.756435 0.734371 0.824125
0.763241 0.732998 0.821836
0.775296 0.730159 0.817716
0.793820 0.726802 0.812619
0.818479 0.721920 0.805875
0.832486 0.721553 0.789029
0.867185 0.770901 0.802457
0.751919 0.734463 0.821469
0.754543 0.734859 0.821469
0.761379 0.733577 0.819455
0.773434 0.730892 0.815610
0.791226 0.726741 0.810086
0.815213 0.720974 0.802762
0.829343 0.719936 0.785672
0.864958 0.769009 0.799588
0.757290 0.747616 0.822843
0.758907 0.747158 0.822202
0.764431 0.745083 0.819821
0.775479 0.742153 0.816220
0.791684 0.737392 0.810544
0.815000 0.731868 0.803922
0.831113 0.731472 0.789181
0.868681 0.780148 0.806119
0.748531 0.752590 0.818296
0.751369 0.753323 0.818570
0.762570 0.756832 0.819333
0.778927 0.759945 0.818265
0.794003 0.755673 0.813382
0.816312 0.750912 0.807858
0.834226 0.749660 0.795224
0.873259 0.795315 0.814176
0.738003 0.760494 0.807095
0.740658 0.761196 0.806973
0.750729 0.763577 0.808164
0.768521 0.768246 0.812100
0.792721 0.773983 0.814328
0.813199 0.769009 0.808652
0.833585 0.766232 0.797360
0.877623 0.812192 0.822110
0.724178 0.765011 0.795468
0.727779 0.766201 0.796078
0.739590 0.770413 0.798123
0.759274 0.777920 0.802396
0.784787 0.788113 0.808530
0.815976 0.797574 0.816251
0.838834 0.794308 0.807431
0.878477 0.804044 0.807492
0.710048 0.775692 0.783566
0.714290 0.777218 0.784726
0.726650 0.781033 0.787076
0.746883 0.787716 0.791470
0.773037 0.796384 0.796933
0.805661 0.808652 0.805295
0.843259 0.825162 0.817502
0.869718 0.796689 0.763729
0.695949 0.800839 0.778622
0.699519 0.801694 0.779171
0.714107 0.806851 0.783536
0.736019 0.811704 0.786557
0.777005 0.826474 0.800443
0.813596 0.838346 0.809903
0.780026 0.793240 0.735714
0.862211 0.834562 0.796689
0.824002 0.805570 0.875334
0.825315 0.805692 0.875303
0.828092 0.804257 0.873960
0.834714 0.803037 0.872465
0.844419 0.800931 0.870207
0.857786 0.798123 0.867247
0.876036 0.795651 0.864408
0.885801 0.797787 0.854734
0.823148 0.805905 0.874418
0.824430 0.806058 0.874388
0.827481 0.804837 0.873289
0.833707 0.803250 0.871580
0.843381 0.801144 0.869352
0.856718 0.798276 0.866453
0.874846 0.795377 0.863401
0.885008 0.797604 0.853941
0.823789 0.810758 0.874022
0.824765 0.810605 0.873869
0.827146 0.808896 0.872465
0.834470 0.808713 0.871824
0.843412 0.806180 0.869444
0.855955 0.802640 0.866270
0.873991 0.799832 0.863462
0.885252 0.802335 0.854948
0.817868 0.812833 0.873136
0.820798 0.814389 0.873442
0.829282 0.818479 0.873594
0.835233 0.817288 0.872404
0.844053 0.815213 0.870451
0.856382 0.812131 0.867765
0.874022 0.809476 0.865293
0.886870 0.812009 0.858213
0.811460 0.817563 0.868345
0.813504 0.818357 0.868894
0.818875 0.819516 0.869780
0.828672 0.822110 0.872038
0.843381 0.825803 0.871580
0.855253 0.822904 0.869047
0.873136 0.821073 0.867185
0.889220 0.825345 0.862852
0.803464 0.822904 0.862608
0.804776 0.823209 0.862577
0.810025 0.824765 0.863035
0.820157 0.828305 0.864866
0.834928 0.832120 0.868894
0.856291 0.839353 0.872923
0.874998 0.839963 0.872770
0.892149 0.842161 0.868711
0.794369 0.828946 0.857511
0.795865 0.829282 0.857603
0.801480 0.830869 0.858244
0.812619 0.834714 0.860380
0.828855 0.840909 0.864073
0.850462 0.850431 0.870115
0.877470 0.861906 0.879179
0.893950 0.859983 0.873686
0.784970 0.840024 0.852781
0.786648 0.840452 0.852964
0.793637 0.842649 0.854398
0.807248 0.847623 0.857939
0.825895 0.854551 0.862760
0.846464 0.861723 0.867185
0.871122 0.871611 0.873533
0.898009 0.884398 0.882200
