data/fiter_cube/25649002/1023276/file.cube
# Created by Adobe Lightroom plugin Export LUT (1.17.0)
# www.johnrellis.com/lightroom/exportlut.htm
# Preset: 高级电影质感情绪胶片_06 云集
# Color profile: C:\Program Files (x86)\Common Files\Adobe\Color\Profiles\Recommended\AdobeRGB1998.icc
LUT_3D_SIZE 32
DOMAIN_MIN 0.0 0.0 0.0
DOMAIN_MAX 1.0 1.0 1.0
0.068147 0.076265 0.088075
0.069886 0.076722 0.088289
0.072389 0.077394 0.088472
0.077394 0.078706 0.089418
0.085817 0.081361 0.090669
0.098054 0.084016 0.091768
0.114351 0.087129 0.092653
0.135561 0.090059 0.093233
0.161471 0.093263 0.093385
0.191684 0.096529 0.093263
0.226230 0.098848 0.093080
0.265415 0.100679 0.092256
0.308690 0.101228 0.090730
0.356146 0.101381 0.089204
0.404700 0.102205 0.086854
0.447669 0.105745 0.084962
0.485847 0.112703 0.083558
0.519829 0.123354 0.083040
0.550347 0.137209 0.082765
0.578943 0.154788 0.083436
0.605676 0.174685 0.085389
0.630823 0.197055 0.088594
0.653925 0.221073 0.093324
0.674891 0.245670 0.100496
0.694148 0.270726 0.109407
0.712032 0.296971 0.121553
0.729244 0.324590 0.136263
0.747219 0.354864 0.153811
0.766018 0.388251 0.176577
0.785885 0.424506 0.204685
0.806638 0.463569 0.241123
0.828000 0.503471 0.284245
0.068788 0.077211 0.088563
0.069551 0.077424 0.089113
0.073548 0.078279 0.088380
0.079042 0.079530 0.088746
0.087984 0.082002 0.090028
0.100465 0.084871 0.091096
0.117098 0.088075 0.091951
0.138186 0.091157 0.092500
0.163943 0.094484 0.092622
0.194217 0.097475 0.092775
0.228550 0.099977 0.092256
0.267521 0.101656 0.091432
0.310491 0.102419 0.090120
0.357488 0.102724 0.088319
0.404395 0.103761 0.086458
0.446418 0.107149 0.084443
0.484108 0.113680 0.082918
0.517937 0.123690 0.081910
0.548058 0.137240 0.081788
0.576684 0.153964 0.082033
0.603479 0.173617 0.083833
0.628504 0.195560 0.087282
0.651881 0.219181 0.091646
0.673030 0.243656 0.098512
0.692592 0.268833 0.106722
0.710567 0.294804 0.118868
0.727932 0.322271 0.133150
0.745876 0.352575 0.151339
0.764736 0.385687 0.173465
0.784695 0.421942 0.201083
0.805447 0.461036 0.237522
0.826841 0.500908 0.280156
0.069215 0.078523 0.089570
0.070314 0.079042 0.090333
0.071626 0.079225 0.090303
0.079896 0.081422 0.088899
0.091005 0.083497 0.089021
0.103578 0.086458 0.090333
0.120912 0.089662 0.091157
0.142306 0.092714 0.091646
0.167910 0.096010 0.092012
0.198032 0.099031 0.091829
0.232547 0.101595 0.091524
0.271824 0.103273 0.090578
0.314183 0.104219 0.088991
0.361181 0.104585 0.087312
0.407355 0.106050 0.084871
0.448432 0.109224 0.082918
0.485206 0.115846 0.081483
0.518517 0.125429 0.080323
0.548394 0.138582 0.080293
0.576745 0.155215 0.080568
0.603235 0.174624 0.082460
0.628473 0.196231 0.085145
0.651667 0.219638 0.089693
0.672694 0.243595 0.096620
0.692195 0.268559 0.105074
0.710262 0.294408 0.116854
0.727596 0.321874 0.131594
0.745418 0.351873 0.149477
0.764431 0.384955 0.171145
0.784329 0.421149 0.199069
0.805142 0.459937 0.234806
0.826383 0.499794 0.277745
0.071199 0.081605 0.092073
0.072450 0.082368 0.093324
0.073213 0.082582 0.093538
0.075319 0.082948 0.093477
0.091218 0.087556 0.090059
0.110079 0.091249 0.088930
0.130404 0.094148 0.089052
0.152132 0.097292 0.089998
0.178195 0.100557 0.089937
0.208774 0.103304 0.089876
0.243656 0.105776 0.089082
0.282322 0.107454 0.088289
0.324529 0.108217 0.086427
0.371008 0.109010 0.084199
0.414710 0.110658 0.082124
0.454139 0.114412 0.079896
0.489784 0.120821 0.078157
0.521996 0.130648 0.076692
0.550958 0.143313 0.076509
0.578180 0.159030 0.076844
0.604211 0.177584 0.078401
0.629023 0.198581 0.081086
0.652064 0.221378 0.085725
0.673213 0.245335 0.092653
0.692836 0.270359 0.101625
0.711086 0.296422 0.113680
0.728603 0.323857 0.128420
0.746609 0.353765 0.146548
0.765438 0.386633 0.168948
0.785245 0.422248 0.196353
0.805814 0.460487 0.231815
0.826749 0.499611 0.274357
0.073701 0.085420 0.094636
0.074525 0.086183 0.095857
0.075715 0.087221 0.097047
0.077821 0.088472 0.097414
0.081117 0.088319 0.096864
0.105135 0.096101 0.091951
0.136141 0.103761 0.088746
0.165347 0.107027 0.087221
0.194369 0.109499 0.086854
0.225101 0.111879 0.086305
0.260075 0.113863 0.085542
0.299535 0.115267 0.084016
0.341192 0.116304 0.082033
0.385718 0.117433 0.079530
0.427070 0.119387 0.076692
0.464820 0.123598 0.074250
0.499153 0.130007 0.072023
0.529778 0.139620 0.070924
0.557641 0.151888 0.070832
0.583948 0.167056 0.070924
0.608911 0.184848 0.072114
0.632837 0.205264 0.074861
0.655024 0.227176 0.079896
0.675654 0.250462 0.086915
0.694850 0.274540 0.096498
0.712886 0.300053 0.108431
0.730037 0.326818 0.123842
0.747890 0.356146 0.142000
0.766537 0.388312 0.164431
0.786130 0.423346 0.192050
0.806607 0.460945 0.227054
0.827451 0.499519 0.269169
0.076112 0.090791 0.097780
0.077516 0.092012 0.099123
0.079164 0.093446 0.100954
0.081575 0.095338 0.102174
0.085176 0.096529 0.101778
0.089174 0.095125 0.100618
0.122347 0.107240 0.094331
0.166384 0.118807 0.088136
0.207401 0.125460 0.084321
0.248386 0.127901 0.080964
0.286442 0.128603 0.078859
0.325017 0.129183 0.076844
0.366217 0.129946 0.074495
0.407538 0.130739 0.070985
0.445411 0.132845 0.068238
0.480812 0.137240 0.065126
0.512840 0.144045 0.062562
0.541711 0.153262 0.061341
0.567864 0.164920 0.061006
0.592859 0.179721 0.061158
0.616938 0.197024 0.062531
0.639734 0.216587 0.066285
0.676967 0.256565 0.076478
0.695064 0.278660 0.085908
0.711757 0.301366 0.097780
0.727596 0.325170 0.112093
0.743740 0.350958 0.129122
0.760678 0.379095 0.148623
0.778470 0.409888 0.172244
0.797208 0.443061 0.201480
0.816617 0.478859 0.238468
0.836393 0.514885 0.280766
0.080079 0.099367 0.102144
0.081697 0.100679 0.103670
0.083742 0.102663 0.105745
0.087282 0.106081 0.108766
0.092164 0.110201 0.110536
0.097078 0.109133 0.107881
0.101198 0.105440 0.105592
0.145724 0.122591 0.097017
0.207462 0.140017 0.086122
0.265507 0.151858 0.077821
0.314946 0.153689 0.071931
0.365209 0.153689 0.063630
0.408148 0.153719 0.058686
0.446296 0.154635 0.049836
0.479744 0.156283 0.043763
0.510033 0.160525 0.037659
0.537713 0.166629 0.032929
0.563256 0.175662 0.029664
0.587091 0.187045 0.028901
0.610193 0.201450 0.031098
0.633417 0.218845 0.035889
0.655634 0.238712 0.047272
0.676448 0.260502 0.060090
0.695705 0.283024 0.071382
0.713222 0.306157 0.086000
0.729335 0.329778 0.101900
0.745724 0.355108 0.119234
0.762448 0.382513 0.139864
0.780056 0.412238 0.163577
0.798459 0.444373 0.192508
0.817777 0.478950 0.228733
0.837217 0.514214 0.270878
0.085573 0.110658 0.107759
0.087251 0.112459 0.109346
0.089296 0.114626 0.111696
0.094820 0.119661 0.116762
0.100038 0.124544 0.119051
0.107149 0.128359 0.119539
0.112703 0.125154 0.114870
0.115999 0.118074 0.111635
0.170413 0.139864 0.100801
0.243137 0.160983 0.085634
0.317174 0.176699 0.070863
0.383673 0.185702 0.051759
0.431617 0.185306 0.027924
0.474525 0.184817 0.002075
0.504417 0.185000 0.000000
0.530602 0.186893 0.000000
0.555169 0.191714 0.000000
0.577935 0.198672 0.000000
0.599634 0.208560 0.000000
0.621027 0.221042 0.000000
0.642329 0.236393 0.000000
0.662898 0.254246 0.001007
0.682246 0.273594 0.020203
0.700252 0.294224 0.048859
0.716854 0.315465 0.070588
0.732570 0.337530 0.088258
0.748531 0.361456 0.107240
0.765011 0.387518 0.128298
0.782376 0.416022 0.152499
0.800565 0.446876 0.181399
0.819577 0.480476 0.218173
0.838834 0.514519 0.259709
0.093233 0.127047 0.115755
0.094911 0.128969 0.117372
0.097688 0.131624 0.120027
0.103944 0.137728 0.126162
0.111299 0.144228 0.130465
0.120058 0.152071 0.134066
0.127779 0.152132 0.131106
0.133333 0.145663 0.123964
0.134798 0.133944 0.119295
0.199252 0.160494 0.105989
0.285801 0.186770 0.086030
0.375128 0.207095 0.058595
0.445716 0.221897 0.001129
0.489662 0.222873 0.000000
0.524834 0.222202 0.000000
0.555108 0.222843 0.000000
0.576074 0.224735 0.000000
0.596063 0.229252 0.000000
0.615106 0.235996 0.000000
0.634577 0.246098 0.000000
0.653834 0.259220 0.000000
0.672267 0.274327 0.000000
0.689967 0.291051 0.000000
0.706630 0.309239 0.000000
0.722133 0.328222 0.032959
0.737270 0.348455 0.069245
0.752712 0.370672 0.091920
0.768795 0.395178 0.114626
0.785641 0.422095 0.140230
0.803464 0.451301 0.169528
0.822141 0.483223 0.205875
0.841001 0.515953 0.247654
0.104005 0.148684 0.126223
0.106111 0.150820 0.128176
0.108888 0.153475 0.130892
0.116152 0.160006 0.137270
0.125490 0.168460 0.144778
0.135531 0.177401 0.149020
0.149111 0.188876 0.154452
0.153994 0.180148 0.144411
0.158328 0.169680 0.135164
0.158663 0.154269 0.128908
0.233890 0.185367 0.112856
0.328923 0.214023 0.087221
0.423804 0.237461 0.032013
0.488930 0.253452 0.000000
0.538506 0.264744 0.000000
0.567864 0.264317 0.000000
0.594141 0.264958 0.000000
0.616785 0.267216 0.000000
0.633661 0.271122 0.000000
0.650385 0.277653 0.000000
0.666743 0.286717 0.000000
0.682948 0.298314 0.000000
0.698451 0.311589 0.000000
0.713222 0.326268 0.000000
0.727596 0.342504 0.000000
0.742061 0.360754 0.016144
0.757168 0.381170 0.067018
0.772885 0.404059 0.095674
0.789578 0.429450 0.123659
0.807156 0.457374 0.155489
0.825589 0.487617 0.192172
0.844327 0.519402 0.235142
0.117586 0.174868 0.139162
0.119936 0.177096 0.141146
0.123232 0.179965 0.144106
0.130861 0.186862 0.151003
0.143740 0.197421 0.162112
0.154238 0.207279 0.166995
0.169192 0.220188 0.173220
0.183627 0.227207 0.174166
0.188510 0.215488 0.161379
0.189212 0.198520 0.148806
0.185946 0.177279 0.140047
0.269993 0.211673 0.120943
0.368627 0.242008 0.091585
0.461158 0.267094 0.022187
0.526177 0.286381 0.000000
0.576226 0.305150 0.000000
0.604883 0.308019 0.000000
0.627131 0.308049 0.000000
0.647456 0.309422 0.000000
0.665187 0.312352 0.000000
0.679469 0.317693 0.000000
0.693843 0.325566 0.000000
0.707729 0.335576 0.000000
0.721248 0.347387 0.000000
0.734707 0.361028 0.000000
0.748592 0.376898 0.000000
0.762936 0.395087 0.000000
0.778164 0.415778 0.068544
0.794247 0.438849 0.103090
0.811429 0.464576 0.136843
0.829282 0.492714 0.174990
0.847654 0.522667 0.218418
0.135042 0.206485 0.155032
0.137606 0.208804 0.157259
0.141238 0.212009 0.160433
0.149477 0.218875 0.167666
0.163394 0.230259 0.179385
0.178378 0.243320 0.188693
0.195499 0.258885 0.196597
0.218173 0.277989 0.206394
0.227390 0.273045 0.197604
0.229129 0.254856 0.180392
0.223697 0.229618 0.164309
0.216281 0.202609 0.152529
0.327886 0.253056 0.134493
0.429053 0.286381 0.099062
0.515373 0.314000 0.011688
0.577386 0.336797 0.000000
0.620111 0.355444 0.000000
0.651484 0.367315 0.000000
0.668391 0.364202 0.000000
0.684504 0.363226 0.000000
0.699977 0.364050 0.000000
0.713161 0.366552 0.000000
0.724483 0.371984 0.000000
0.736233 0.380041 0.000000
0.748470 0.390661 0.000000
0.761288 0.403632 0.000000
0.774563 0.419043 0.000000
0.788785 0.436713 0.004517
0.803922 0.456916 0.080720
0.820127 0.479957 0.121889
0.837003 0.505058 0.162234
0.854673 0.532525 0.206668
0.161074 0.250431 0.177340
0.163821 0.252964 0.179873
0.168093 0.256504 0.183505
0.177554 0.264225 0.191257
0.193027 0.276463 0.203738
0.212314 0.291478 0.217899
0.230472 0.307012 0.226169
0.254093 0.325841 0.236728
0.281712 0.345708 0.247959
0.281804 0.326055 0.226230
0.281437 0.303410 0.204532
0.269688 0.269688 0.184421
0.257664 0.236271 0.169223
0.357916 0.277226 0.145480
0.456947 0.312718 0.109499
0.537957 0.342107 0.040803
0.600427 0.367193 0.000000
0.639399 0.384955 0.000000
0.671809 0.400946 0.000000
0.690089 0.401801 0.000000
0.704585 0.400031 0.000000
0.718563 0.399512 0.000000
0.732479 0.401038 0.000000
0.744625 0.405493 0.000000
0.756191 0.413153 0.000000
0.768215 0.423194 0.000000
0.780941 0.435767 0.000000
0.794461 0.450782 0.000000
0.809110 0.468544 0.000000
0.824949 0.489326 0.088655
0.841306 0.511894 0.135683
0.858701 0.537316 0.182620
0.189059 0.295262 0.200473
0.192203 0.297826 0.203189
0.196689 0.300999 0.206577
0.206210 0.308110 0.214328
0.221866 0.319280 0.226932
0.244053 0.334142 0.244663
0.263249 0.348730 0.254490
0.286107 0.365972 0.265568
0.314397 0.386572 0.279576
0.332708 0.392432 0.279210
0.330236 0.369909 0.252781
0.326848 0.343481 0.226200
0.308598 0.302800 0.201846
0.292454 0.264103 0.183200
0.390417 0.304479 0.158602
0.484596 0.340612 0.122744
0.558801 0.369818 0.068605
0.617151 0.394537 0.000000
0.656489 0.412543 0.000000
0.686641 0.427588 0.000000
0.709560 0.436774 0.000000
0.722927 0.434455 0.000000
0.736446 0.434058 0.000000
0.750301 0.435615 0.000000
0.764401 0.438911 0.000000
0.776272 0.445716 0.000000
0.788418 0.455451 0.000000
0.801419 0.467750 0.000000
0.815427 0.482918 0.000000
0.830655 0.500999 0.000000
0.846494 0.521141 0.101747
0.863554 0.544152 0.154665
0.220584 0.340734 0.225864
0.224094 0.343328 0.228702
0.228153 0.345892 0.231907
0.238071 0.352239 0.239963
0.253788 0.362036 0.252567
0.275914 0.375158 0.270420
0.298650 0.389685 0.285801
0.320165 0.405280 0.296849
0.346319 0.423926 0.310491
0.376715 0.445167 0.326757
0.381964 0.435950 0.311406
0.377173 0.411292 0.281590
0.370642 0.382238 0.250217
0.346563 0.335332 0.220615
0.326726 0.292180 0.197971
0.420386 0.331121 0.173037
0.508904 0.367620 0.138277
0.577661 0.396674 0.089967
0.632654 0.421210 0.000000
0.672602 0.439185 0.000000
0.700618 0.452949 0.000000
0.725124 0.465675 0.000000
0.740810 0.467414 0.000000
0.754269 0.467323 0.000000
0.767971 0.468971 0.000000
0.782162 0.472389 0.000000
0.796719 0.477729 0.000000
0.809354 0.487556 0.000000
0.823148 0.500450 0.000000
0.837919 0.515984 0.000000
0.853544 0.533959 0.030121
0.870390 0.554803 0.123293
0.255497 0.385046 0.253819
0.259159 0.387243 0.256779
0.263676 0.389899 0.260502
0.273777 0.395666 0.268620
0.289860 0.404700 0.281773
0.311498 0.416785 0.299504
0.337377 0.431678 0.320195
0.357733 0.446052 0.331365
0.381811 0.462654 0.344640
0.408789 0.481117 0.360052
0.435554 0.498024 0.373999
0.428626 0.476143 0.344030
0.420539 0.449256 0.310582
0.410163 0.416938 0.274388
0.381079 0.365454 0.240024
0.358251 0.318608 0.212955
0.446906 0.356329 0.187900
0.529992 0.392950 0.154635
0.595117 0.422705 0.112062
0.647486 0.447272 0.007263
0.688045 0.464851 0.000000
0.714504 0.477729 0.000000
0.738827 0.490791 0.000000
0.759609 0.500511 0.000000
0.773037 0.500755 0.000000
0.786770 0.502678 0.000000
0.801175 0.506310 0.000000
0.816342 0.511864 0.000000
0.831601 0.520012 0.000000
0.845548 0.532403 0.000000
0.860472 0.547326 0.000000
0.876585 0.565270 0.068177
0.292332 0.425635 0.283696
0.295262 0.427283 0.286229
0.299870 0.429633 0.289952
0.309361 0.434791 0.297704
0.324163 0.442481 0.309880
0.344060 0.453101 0.326574
0.368688 0.466224 0.347387
0.390021 0.479561 0.361822
0.411536 0.494209 0.374456
0.435401 0.510094 0.388830
0.461280 0.527489 0.405188
0.474159 0.530327 0.403784
0.466438 0.508354 0.372625
0.457069 0.481331 0.337224
0.444892 0.448005 0.298100
0.412482 0.393591 0.259831
0.388495 0.344793 0.228763
0.471168 0.380957 0.204410
0.549828 0.418219 0.173251
0.611810 0.448371 0.134920
0.661158 0.471778 0.079347
0.700038 0.488136 0.000000
0.727352 0.500786 0.000000
0.751797 0.514183 0.000000
0.775265 0.528069 0.000000
0.790799 0.531792 0.000000
0.804807 0.534203 0.000000
0.819638 0.538293 0.000000
0.835264 0.544091 0.000000
0.851560 0.551019 0.000000
0.867369 0.561761 0.000000
0.883085 0.577111 0.000000
0.329931 0.464240 0.314702
0.333349 0.466011 0.317540
0.352697 0.482612 0.333837
0.361791 0.487007 0.341436
0.375128 0.493355 0.352850
0.392432 0.501579 0.367987
0.414130 0.512261 0.387152
0.435950 0.523949 0.405371
0.454200 0.535851 0.416785
0.474128 0.549157 0.429999
0.495552 0.563622 0.444648
0.517632 0.578820 0.460517
0.517357 0.568597 0.442756
0.508141 0.545647 0.409155
0.497169 0.517754 0.370550
0.482643 0.483162 0.328618
0.449042 0.427649 0.286259
0.423987 0.377325 0.250248
0.500267 0.411414 0.225742
0.573693 0.448707 0.196963
0.631678 0.477882 0.162783
0.677089 0.498939 0.119173
0.713436 0.513725 0.019715
0.742794 0.526604 0.000000
0.766873 0.539818 0.000000
0.789914 0.553216 0.000000
0.809476 0.562951 0.000000
0.823484 0.565209 0.000000
0.838254 0.569116 0.000000
0.854002 0.574578 0.000000
0.870817 0.581781 0.000000
0.888975 0.590661 0.000000
0.371313 0.503380 0.349462
0.375921 0.506371 0.353368
0.381537 0.509789 0.358343
0.391089 0.515007 0.366674
0.404425 0.521630 0.378454
0.420813 0.529564 0.393194
0.440131 0.538720 0.410895
0.461860 0.549615 0.431495
0.478584 0.560357 0.443427
0.495949 0.572076 0.455512
0.514702 0.585016 0.468971
0.534081 0.598352 0.483406
0.551995 0.610040 0.496071
0.543816 0.591516 0.466560
0.534386 0.568780 0.432532
0.523156 0.541283 0.393347
0.506920 0.505974 0.350195
0.474861 0.452247 0.306340
0.450507 0.402472 0.268406
0.520928 0.435065 0.245060
0.590600 0.472114 0.218601
0.645960 0.500725 0.188876
0.688777 0.520745 0.152773
0.724025 0.535393 0.101686
0.755917 0.548852 0.000000
0.780148 0.562493 0.000000
0.803403 0.576104 0.000000
0.825895 0.589654 0.000000
0.841428 0.594018 0.000000
0.856565 0.598199 0.000000
0.872892 0.604089 0.000000
0.890440 0.611780 0.000000
0.405188 0.533959 0.378912
0.409339 0.536522 0.382635
0.414466 0.539544 0.387335
0.423041 0.543969 0.394934
0.434821 0.549737 0.405859
0.449012 0.556481 0.419196
0.465858 0.564569 0.435462
0.484840 0.574090 0.454353
0.502342 0.584222 0.469947
0.517540 0.594598 0.481025
0.533837 0.605829 0.493416
0.550835 0.617365 0.506706
0.567803 0.628931 0.520562
0.575677 0.630426 0.519585
0.567864 0.612665 0.489937
0.558740 0.590936 0.455818
0.547509 0.564019 0.416419
0.530480 0.528771 0.373205
0.499916 0.477058 0.327977
0.476936 0.428656 0.287968
0.541741 0.459510 0.266178
0.607782 0.496132 0.243442
0.659663 0.523278 0.217502
0.699977 0.542199 0.186923
0.735195 0.557458 0.146548
0.768276 0.571313 0.077577
0.794003 0.585168 0.012329
0.817350 0.598779 0.000000
0.839750 0.611872 0.000000
0.859098 0.621271 0.000000
0.874754 0.626001 0.000000
0.891752 0.632532 0.022827
0.438025 0.562646 0.408698
0.441657 0.564935 0.412116
0.446326 0.567620 0.416480
0.453651 0.571374 0.423499
0.463752 0.576379 0.433326
0.476143 0.582300 0.445655
0.490455 0.589227 0.460121
0.506950 0.597406 0.477089
0.525078 0.606744 0.496010
0.538109 0.615534 0.506065
0.552239 0.625055 0.517388
0.566918 0.634913 0.529473
0.581811 0.644953 0.542290
0.596674 0.654994 0.555627
0.596521 0.648493 0.541985
0.589319 0.632013 0.512871
0.581353 0.611841 0.479469
0.571557 0.587213 0.441230
0.554742 0.552972 0.398840
0.526513 0.504204 0.352911
0.505882 0.458839 0.312230
0.565362 0.487922 0.292424
0.627466 0.523308 0.273838
0.675563 0.549035 0.253025
0.714199 0.567651 0.228183
0.749935 0.584131 0.194919
0.783566 0.598657 0.147341
0.811368 0.611749 0.110811
0.834714 0.625147 0.108522
0.857298 0.638117 0.110018
0.879149 0.650752 0.116121
0.895964 0.657221 0.131991
0.474556 0.594507 0.443854
0.477028 0.595911 0.446326
0.479927 0.597406 0.449287
0.485481 0.600031 0.454871
0.493660 0.603815 0.463264
0.504021 0.608606 0.474098
0.516381 0.614343 0.487190
0.530510 0.621149 0.502434
0.546532 0.629175 0.520165
0.560510 0.637354 0.533867
0.572778 0.645533 0.544457
0.585626 0.654139 0.555871
0.598596 0.662745 0.567590
0.611414 0.671473 0.579522
0.624231 0.680446 0.591333
0.617731 0.667445 0.567468
0.610986 0.652064 0.538842
0.603723 0.633387 0.505913
0.595117 0.610651 0.468360
0.578546 0.577295 0.425727
0.551843 0.530663 0.379065
0.532158 0.487098 0.336675
0.585992 0.513237 0.318059
0.643091 0.545983 0.302220
0.687861 0.570123 0.285222
0.725948 0.589380 0.264897
0.761898 0.606622 0.237308
0.795499 0.621241 0.198764
0.825864 0.633875 0.156313
0.849424 0.647486 0.160678
0.872190 0.660670 0.168521
0.894133 0.673854 0.181643
0.502251 0.618830 0.472206
0.504479 0.619989 0.474586
0.506920 0.621332 0.477211
0.511925 0.623590 0.482490
0.518791 0.626673 0.489967
0.527703 0.630610 0.499641
0.538293 0.635279 0.511315
0.550591 0.640894 0.525170
0.564569 0.647608 0.541222
0.578943 0.654902 0.557916
0.589593 0.661982 0.567468
0.600702 0.669368 0.577569
0.611994 0.677058 0.587976
0.623590 0.685267 0.598627
0.635431 0.693996 0.609277
0.641901 0.696590 0.610864
0.635309 0.683436 0.588464
0.628779 0.668696 0.561639
0.622339 0.651575 0.529686
0.614954 0.630823 0.493263
0.599603 0.599420 0.451728
0.575372 0.555840 0.405249
0.557519 0.514916 0.362402
0.606836 0.538994 0.345739
0.656916 0.566644 0.330144
0.699306 0.589868 0.316716
0.737423 0.609979 0.300053
0.773434 0.627832 0.277256
0.807279 0.643061 0.246830
0.839384 0.655634 0.204898
0.864073 0.669337 0.207950
0.887022 0.683436 0.222751
0.531701 0.643854 0.504265
0.533593 0.644831 0.506401
0.535821 0.645899 0.508812
0.539727 0.647578 0.513237
0.545403 0.649928 0.519738
0.552819 0.652949 0.528161
0.561791 0.656703 0.538476
0.572168 0.661128 0.550683
0.583886 0.666377 0.564782
0.596399 0.672358 0.580041
0.606775 0.678553 0.590906
0.616205 0.685115 0.599329
0.626184 0.692317 0.608240
0.636439 0.699886 0.617304
0.646876 0.707729 0.626307
0.657649 0.715938 0.635401
0.658137 0.711910 0.627985
0.651392 0.698543 0.606897
0.644587 0.683711 0.581689
0.638270 0.667445 0.551781
0.631952 0.648310 0.516106
0.617700 0.618830 0.475959
0.596368 0.578851 0.430335
0.580224 0.540398 0.387304
0.623865 0.560876 0.371405
0.671015 0.587854 0.360662
0.711849 0.610773 0.350317
0.750149 0.631800 0.337560
0.786160 0.650263 0.320226
0.820127 0.666041 0.297765
0.852232 0.679438 0.268711
0.879759 0.692866 0.259220
0.554284 0.662715 0.530083
0.555932 0.663539 0.531975
0.557794 0.664393 0.534112
0.561181 0.665827 0.538170
0.566217 0.667811 0.544091
0.572778 0.670405 0.551843
0.580652 0.673610 0.561334
0.589746 0.677516 0.572320
0.600092 0.682368 0.584863
0.611322 0.688136 0.598474
0.622705 0.694636 0.611872
0.631312 0.701045 0.619501
0.640406 0.708003 0.627466
0.649805 0.715297 0.635584
0.659571 0.722896 0.643763
0.669642 0.730709 0.652186
0.680201 0.738766 0.661097
0.675959 0.729274 0.646571
0.669612 0.716274 0.627283
0.662837 0.701717 0.604303
0.656123 0.685634 0.576837
0.649714 0.667445 0.543175
0.636652 0.640009 0.504295
0.617731 0.602991 0.458869
0.603967 0.567742 0.416114
0.642084 0.584710 0.401617
0.685054 0.609308 0.393133
0.726070 0.633570 0.387091
0.764553 0.655512 0.378943
0.800565 0.674800 0.368505
0.834440 0.691402 0.355291
0.866453 0.706355 0.341039
0.576532 0.680812 0.556634
0.577874 0.681483 0.558251
0.579400 0.682155 0.560082
0.582269 0.683253 0.563500
0.586419 0.684962 0.568505
0.591882 0.687221 0.575067
0.598627 0.690150 0.583276
0.606592 0.693904 0.592828
0.615717 0.698482 0.603876
0.625727 0.704005 0.615900
0.636469 0.710353 0.628779
0.645624 0.716915 0.637964
0.653956 0.723476 0.645075
0.662715 0.730373 0.652583
0.671839 0.737514 0.660395
0.681361 0.744778 0.668605
0.691218 0.752224 0.677150
0.698695 0.756832 0.681788
0.692897 0.745663 0.664363
0.686915 0.733242 0.645594
0.680446 0.719295 0.624750
0.673274 0.703212 0.599176
0.666072 0.685084 0.567895
0.652705 0.658289 0.530175
0.636316 0.624567 0.486000
0.625177 0.592981 0.445014
0.658686 0.607233 0.431800
0.699184 0.630640 0.425910
0.740078 0.655695 0.423438
0.778592 0.678584 0.420935
0.814481 0.698634 0.417762
0.847990 0.716732 0.415747
0.596246 0.697902 0.580316
0.597375 0.698451 0.581628
0.598627 0.699092 0.583246
0.601190 0.700221 0.586236
0.605005 0.701961 0.590845
0.610132 0.704433 0.597009
0.616571 0.707729 0.604761
0.624201 0.711879 0.613916
0.632837 0.716884 0.624323
0.642359 0.722713 0.635584
0.652705 0.729397 0.647761
0.663386 0.736538 0.660090
0.671565 0.743069 0.667506
0.680201 0.749844 0.675196
0.689052 0.756619 0.683162
0.698054 0.763424 0.691249
0.707362 0.770352 0.699672
0.716976 0.777401 0.708339
0.719905 0.777005 0.705989
0.714290 0.766415 0.688624
0.708400 0.754543 0.669703
0.701961 0.740963 0.648920
0.694850 0.725490 0.625727
0.687129 0.707851 0.597681
0.672938 0.681727 0.563531
0.657801 0.650507 0.521416
0.649622 0.623194 0.483101
0.679377 0.635554 0.472114
0.719142 0.659113 0.468574
0.759457 0.684413 0.470222
0.797604 0.707851 0.474128
0.833036 0.728939 0.480598
0.619043 0.719173 0.607538
0.619928 0.719600 0.608545
0.620874 0.720119 0.609735
0.622980 0.721126 0.612207
0.626154 0.722683 0.616083
0.630457 0.724849 0.621149
0.635828 0.727749 0.627588
0.642176 0.731350 0.635157
0.649561 0.735744 0.643885
0.657893 0.740810 0.653773
0.667262 0.746578 0.664942
0.677516 0.752987 0.677241
0.686305 0.759121 0.686549
0.694148 0.765072 0.693690
