data/fiter_cube/25649002/1023276/file.cube
# Created by Adobe Lightroom plugin Export LUT (1.17.0)
# www.johnrellis.com/lightroom/exportlut.htm
# Preset: 高级电影质感情绪胶片_06 云集
# Color profile: C:\Program Files (x86)\Common Files\Adobe\Color\Profiles\Recommended\AdobeRGB1998.icc
LUT_3D_SIZE 5
DOMAIN_MIN 0.000000 0.000000 0.000000
DOMAIN_MAX 0.903226 0.903226 0.903226
0.068147 0.076265 0.088075
0.135561 0.090059 0.093233
0.404700 0.102205 0.086854
0.630823 0.197055 0.088594
0.766018 0.388251 0.176577
0.085573 0.110658 0.107759
0.115999 0.118074 0.111635
0.504417 0.185000 0.000000
0.662898 0.254246 0.001007
0.782376 0.416022 0.152499
0.220584 0.340734 0.225864
0.320165 0.405280 0.296849
0.326726 0.292180 0.197971
0.725124 0.465675 0.000000
0.823148 0.500450 0.000000
0.474556 0.594507 0.443854
0.530510 0.621149 0.502434
0.624231 0.680446 0.591333
0.532158 0.487098 0.336675
0.825864 0.633875 0.156313
0.636439 0.736995 0.627955
0.657496 0.748684 0.653010
0.711635 0.781552 0.714015
0.745083 0.795041 0.723323
0.689479 0.672633 0.548455
0.071260 0.084321 0.112062
0.136263 0.095186 0.124483
0.360845 0.144381 0.146120
0.600885 0.221866 0.156497
0.749081 0.397803 0.231479
0.088167 0.118593 0.121523
0.154574 0.152895 0.145022
0.461158 0.195102 0.126131
0.638575 0.268650 0.135592
0.763943 0.419501 0.213535
0.218021 0.334325 0.235935
0.331579 0.404883 0.326513
0.346593 0.312749 0.228641
0.714137 0.463508 0.021180
0.812375 0.505699 0.117922
0.472572 0.590570 0.449012
0.528771 0.617823 0.506706
0.623835 0.678340 0.599176
0.534997 0.494179 0.358404
0.824643 0.640894 0.228183
0.631373 0.733577 0.624292
0.652522 0.745174 0.649195
0.713802 0.783169 0.720027
0.749813 0.800198 0.734737
0.691066 0.676234 0.557977
0.061219 0.113741 0.222080
0.175387 0.089357 0.283421
0.403082 0.174838 0.259007
0.506706 0.297551 0.299290
0.704860 0.445502 0.374304
0.128298 0.189273 0.229282
0.184237 0.198123 0.292943
0.366796 0.268345 0.293248
0.559045 0.328618 0.304936
0.721279 0.460822 0.369665
0.197726 0.322881 0.262089
0.291630 0.375555 0.323156
0.463630 0.425727 0.351110
0.679591 0.474403 0.307591
0.775479 0.525261 0.344152
0.441230 0.567834 0.438209
0.496468 0.593652 0.489387
0.613581 0.665187 0.607324
0.572961 0.543450 0.432563
0.825956 0.661311 0.371679
0.614496 0.721065 0.612970
0.634577 0.732235 0.635584
0.694881 0.769375 0.704768
0.761196 0.813413 0.764981
0.689021 0.678279 0.573938
0.069062 0.193393 0.415412
0.188449 0.183383 0.457496
0.516777 0.138796 0.490303
0.608942 0.353674 0.430640
0.613031 0.499641 0.490333
0.192660 0.289738 0.414679
0.230320 0.275914 0.455268
0.519066 0.264164 0.503624
0.589746 0.395697 0.440040
0.622614 0.507805 0.493843
0.265293 0.420203 0.420386
0.329076 0.439460 0.442512
0.506371 0.479011 0.536034
0.534813 0.489265 0.477607
0.687495 0.548211 0.509667
0.398810 0.545892 0.451026
0.444495 0.563378 0.477546
0.566217 0.624628 0.575494
0.633722 0.622553 0.552026
0.792203 0.649042 0.517998
0.583764 0.700496 0.592401
0.603052 0.709651 0.612787
0.658656 0.743587 0.672908
0.750149 0.805905 0.771023
0.705989 0.702968 0.618158
0.262486 0.347967 0.603052
0.324193 0.340093 0.621698
0.547875 0.288396 0.677882
0.707637 0.416602 0.645594
0.744503 0.554559 0.609613
0.312169 0.411688 0.591150
0.340063 0.397070 0.611200
0.533165 0.367163 0.669490
0.701320 0.453651 0.649104
0.738186 0.565820 0.611536
0.362432 0.494606 0.544945
0.391028 0.495186 0.550835
0.491920 0.516899 0.638544
0.684749 0.548669 0.669001
0.720363 0.599908 0.620691
0.427771 0.625299 0.592615
0.450721 0.626001 0.597650
0.522515 0.631525 0.618341
0.644190 0.658015 0.697505
0.682887 0.647822 0.638697
0.541711 0.688991 0.603967
0.556573 0.692744 0.612665
0.604578 0.710872 0.645594
0.678248 0.748653 0.706203
0.753719 0.765347 0.723293
