data/fiter_cube/25649002/1023276/file.cube
# Created by Adobe Lightroom plugin Export LUT (1.17.0)
# www.johnrellis.com/lightroom/exportlut.htm
# Preset: 高级电影质感情绪胶片_06 云集
# Color profile: C:\Program Files (x86)\Common Files\Adobe\Color\Profiles\Recommended\AdobeRGB1998.icc
LUT_3D_SIZE 8
DOMAIN_MIN 0.000000 0.000000 0.000000
DOMAIN_MAX 0.903226 0.903226 0.903226
0.068147 0.076265 0.088075
0.085817 0.081361 0.090669
0.161471 0.093263 0.093385
0.308690 0.101228 0.090730
0.485847 0.112703 0.083558
0.605676 0.174685 0.085389
0.694148 0.270726 0.109407
0.766018 0.388251 0.176577
0.073701 0.085420 0.094636
0.081117 0.088319 0.096864
0.194369 0.109499 0.086854
0.341192 0.116304 0.082033
0.499153 0.130007 0.072023
0.608911 0.184848 0.072114
0.694850 0.274540 0.096498
0.766537 0.388312 0.164431
0.093233 0.127047 0.115755
0.111299 0.144228 0.130465
0.134798 0.133944 0.119295
0.445716 0.221897 0.001129
0.576074 0.224735 0.000000
0.653834 0.259220 0.000000
0.722133 0.328222 0.032959
0.785641 0.422095 0.140230
0.161074 0.250431 0.177340
0.193027 0.276463 0.203738
0.281712 0.345708 0.247959
0.257664 0.236271 0.169223
0.600427 0.367193 0.000000
0.704585 0.400031 0.000000
0.756191 0.413153 0.000000
0.809110 0.468544 0.000000
0.292332 0.425635 0.283696
0.324163 0.442481 0.309880
0.411536 0.494209 0.374456
0.466438 0.508354 0.372625
0.388495 0.344793 0.228763
0.661158 0.471778 0.079347
0.775265 0.528069 0.000000
0.835264 0.544091 0.000000
0.438025 0.562646 0.408698
0.463752 0.576379 0.433326
0.525078 0.606744 0.496010
0.581811 0.644953 0.542290
0.581353 0.611841 0.479469
0.505882 0.458839 0.312230
0.714199 0.567651 0.228183
0.834714 0.625147 0.108522
0.554284 0.662715 0.530083
0.566217 0.667811 0.544091
0.600092 0.682368 0.584863
0.640406 0.708003 0.627466
0.680201 0.738766 0.661097
0.656123 0.685634 0.576837
0.603967 0.567742 0.416114
0.764553 0.655512 0.378943
0.636439 0.736995 0.627955
0.642756 0.740322 0.635523
0.664515 0.752773 0.661433
0.701564 0.775174 0.706355
0.727901 0.793332 0.728908
0.749783 0.803983 0.738918
0.729274 0.759701 0.663752
0.689479 0.672633 0.548455
0.070253 0.079866 0.096651
0.085573 0.082399 0.099153
0.148928 0.098939 0.106630
0.296971 0.114565 0.108064
0.466011 0.129274 0.105837
0.587335 0.178927 0.108370
0.681849 0.268711 0.128328
0.756588 0.383307 0.188510
0.073548 0.086549 0.097627
0.087953 0.094881 0.104433
0.181491 0.112337 0.102419
0.331365 0.126558 0.100771
0.485420 0.142977 0.096712
0.596368 0.191684 0.099245
0.684504 0.274510 0.118624
0.757076 0.383062 0.177279
0.095613 0.129946 0.121187
0.119112 0.151400 0.143679
0.145785 0.144839 0.130770
0.430945 0.217197 0.063233
0.558679 0.221164 0.016754
0.640131 0.256870 0.039338
0.709712 0.321355 0.084169
0.775113 0.414252 0.155306
0.162600 0.248478 0.183047
0.196048 0.275090 0.211124
0.282872 0.343175 0.259312
0.253605 0.234867 0.176516
0.583581 0.355138 0.000000
0.690303 0.386267 0.000000
0.743465 0.402564 0.000000
0.799344 0.461097 0.077180
0.295232 0.424018 0.290471
0.324681 0.439216 0.314427
0.409094 0.488533 0.377691
0.459663 0.501122 0.374609
0.382849 0.341436 0.233494
0.656703 0.468788 0.101076
0.770626 0.525322 0.000000
0.829862 0.539513 0.000000
0.434180 0.557336 0.407782
0.454444 0.566735 0.426917
0.516106 0.597742 0.488594
0.576043 0.638544 0.538140
0.578210 0.608942 0.481239
0.504845 0.458991 0.317723
0.713191 0.568170 0.238193
0.831968 0.624170 0.133272
0.547356 0.656794 0.523461
0.557733 0.660700 0.535302
0.592981 0.676081 0.577142
0.636072 0.703182 0.623865
0.677363 0.735592 0.659297
0.653925 0.683619 0.576898
0.599878 0.563745 0.414771
0.761471 0.652033 0.377173
0.632227 0.733272 0.623682
0.639063 0.737026 0.631800
0.661158 0.749783 0.657984
0.698665 0.772610 0.703426
0.730282 0.795407 0.732815
0.751766 0.805936 0.742977
0.728908 0.759701 0.665126
0.687495 0.670619 0.547082
0.071107 0.086732 0.121218
0.089021 0.083192 0.134890
0.163394 0.102632 0.138125
0.252628 0.148806 0.163180
0.436255 0.168490 0.165499
0.571374 0.218570 0.173861
0.671260 0.300359 0.194949
0.747890 0.409186 0.254368
0.082948 0.103761 0.125338
0.093294 0.104891 0.140658
0.151888 0.133181 0.153109
0.287968 0.155276 0.160433
0.456855 0.178470 0.161349
0.581323 0.227481 0.167880
0.675441 0.305852 0.188205
0.750362 0.411170 0.246647
0.096681 0.137179 0.134859
0.118868 0.155489 0.154330
0.191287 0.184390 0.166812
0.414130 0.219394 0.142245
0.537346 0.239567 0.143130
0.626368 0.280888 0.149020
0.699001 0.343816 0.171115
0.765225 0.432441 0.228275
0.161837 0.251194 0.193240
0.195224 0.278386 0.222049
0.301091 0.354314 0.298405
0.307378 0.280674 0.215763
0.595850 0.380499 0.124880
0.685237 0.395117 0.093294
0.735500 0.417884 0.125795
0.791958 0.476539 0.188907
0.286961 0.416815 0.293828
0.321721 0.436042 0.322332
0.420569 0.491646 0.403906
0.479042 0.519432 0.418921
0.415534 0.375158 0.272862
0.667262 0.489693 0.171786
0.765927 0.530053 0.113558
0.826352 0.543481 0.086580
0.429664 0.553277 0.411170
0.452522 0.563806 0.432441
0.514336 0.595026 0.493355
0.576318 0.636103 0.548425
0.581872 0.613977 0.503838
0.508843 0.467689 0.341588
0.716487 0.578271 0.279088
0.832639 0.633814 0.217288
0.545647 0.655421 0.526116
0.556786 0.659754 0.538720
0.590753 0.674311 0.578241
0.635218 0.700862 0.628016
0.676326 0.733822 0.663355
0.656489 0.687984 0.592004
0.603418 0.570886 0.433173
0.767788 0.662715 0.406012
0.627466 0.730251 0.620447
0.633143 0.733028 0.627039
0.654871 0.745296 0.652613
0.693507 0.769100 0.698848
0.728756 0.793698 0.734249
0.755734 0.810025 0.752712
0.731533 0.763699 0.674891
0.689143 0.674311 0.556847
0.066438 0.101015 0.179202
0.085664 0.098970 0.197024
0.197879 0.086427 0.215518
0.319036 0.143771 0.213504
0.344732 0.229892 0.246891
0.512322 0.256046 0.251621
0.633570 0.327398 0.274968
0.721645 0.429297 0.330785
0.091646 0.131777 0.189883
0.098665 0.126131 0.206149
0.208103 0.117159 0.226596
0.309087 0.177584 0.224826
0.375616 0.235203 0.248569
0.528710 0.265141 0.251438
0.640833 0.334630 0.272984
0.725460 0.432227 0.326635
0.112032 0.180972 0.198184
0.133608 0.191928 0.210880
0.221500 0.212467 0.256413
0.315770 0.251957 0.260258
0.472023 0.272190 0.252659
0.586389 0.314183 0.255436
0.674037 0.377630 0.275853
0.744686 0.457038 0.323461
0.155337 0.252567 0.213657
0.180056 0.270817 0.229923
0.288975 0.341680 0.314946
0.384314 0.348150 0.285924
0.583795 0.395850 0.246952
0.655207 0.406928 0.243961
0.711116 0.435859 0.258488
0.772213 0.493812 0.302770
0.273686 0.406622 0.298619
0.303929 0.423224 0.322881
0.402441 0.478035 0.403174
0.501732 0.542260 0.474647
0.471351 0.433509 0.337438
0.677668 0.520317 0.275608
0.754665 0.536584 0.251469
0.810269 0.555016 0.263920
0.419379 0.546685 0.413519
0.444556 0.559625 0.436103
0.505882 0.590051 0.494118
0.578332 0.634699 0.565087
0.595361 0.630762 0.547478
0.541711 0.507103 0.391608
0.726162 0.598810 0.344121
0.834531 0.647913 0.311925
0.535393 0.648951 0.522301
0.547478 0.654108 0.535332
0.583703 0.670222 0.575799
0.632471 0.697719 0.632074
0.676753 0.733669 0.672450
0.664454 0.699397 0.619745
0.609461 0.582269 0.460578
0.775906 0.675105 0.441627
0.622339 0.727138 0.619104
0.628443 0.730465 0.626093
0.647578 0.741421 0.647761
0.681971 0.761990 0.687861
0.724910 0.790066 0.735348
0.762966 0.817502 0.769253
0.736019 0.770748 0.691585
0.690730 0.678798 0.570153
0.051240 0.130312 0.271489
0.082734 0.128786 0.289677
0.223758 0.090822 0.350195
0.414557 0.079896 0.331029
0.475380 0.218418 0.307561
0.444099 0.314641 0.330602
0.568811 0.367620 0.358343
0.684260 0.462104 0.415259
0.089906 0.162020 0.280247
0.104158 0.158602 0.297795
0.229404 0.132387 0.356054
0.418067 0.135225 0.338323
0.465492 0.245853 0.314763
0.435309 0.328038 0.338140
0.580529 0.374853 0.360510
0.689143 0.465797 0.414710
0.153933 0.230594 0.276280
0.175357 0.241642 0.291569
0.233646 0.244236 0.355749
0.421393 0.256718 0.360723
0.430060 0.320134 0.341558
0.499123 0.352972 0.350011
0.615503 0.399573 0.364691
0.704494 0.476905 0.410040
0.173495 0.310613 0.303655
0.197391 0.321721 0.315312
0.282841 0.359197 0.356054
0.388159 0.398077 0.395361
0.504753 0.404425 0.379095
0.593957 0.422004 0.368139
0.667170 0.451972 0.371069
0.735317 0.503716 0.401801
0.253849 0.394263 0.317174
0.279179 0.407446 0.331914
0.364843 0.449805 0.386572
0.489601 0.528466 0.490272
0.525170 0.492744 0.412451
0.670771 0.535393 0.382513
0.722469 0.530724 0.369390
0.778439 0.555993 0.386481
0.387060 0.522423 0.400000
0.408026 0.532097 0.417273
0.470253 0.562646 0.471260
0.552972 0.610681 0.550713
0.603204 0.643122 0.586938
0.573877 0.547021 0.447639
0.738216 0.620966 0.416693
0.821592 0.642237 0.395483
0.515251 0.635828 0.511254
0.526482 0.640345 0.522484
0.562493 0.656062 0.559899
0.612634 0.682216 0.615076
0.663996 0.720546 0.668360
0.673091 0.713008 0.649958
0.625116 0.604608 0.497475
0.787198 0.687770 0.477516
0.607477 0.716121 0.608392
0.613214 0.718929 0.614771
0.632074 0.729152 0.635706
0.664790 0.750149 0.672297
0.709438 0.778195 0.723537
0.756039 0.811856 0.768246
0.742000 0.780697 0.714687
0.691371 0.682551 0.583490
0.056916 0.179873 0.389532
0.097993 0.178561 0.403937
0.225925 0.159792 0.450050
0.452644 0.078706 0.487709
0.582971 0.201968 0.445533
0.586877 0.327459 0.407416
0.570001 0.405310 0.419837
0.624384 0.494759 0.480903
0.099702 0.207126 0.390784
0.124086 0.205509 0.403632
0.231510 0.190829 0.447028
0.450050 0.137819 0.487160
0.579431 0.235874 0.447852
0.579156 0.341863 0.409583
0.563226 0.412604 0.422827
0.630274 0.496925 0.481331
0.200809 0.294835 0.384405
0.216617 0.301610 0.401343
0.262638 0.291203 0.446632
0.453712 0.267857 0.499184
0.576623 0.336736 0.465858
0.558892 0.390967 0.423957
0.542260 0.438392 0.435920
0.651972 0.509697 0.487037
0.238773 0.368902 0.391669
0.259861 0.375525 0.398840
0.330571 0.399786 0.425666
0.439246 0.421393 0.503075
0.554894 0.451606 0.487190
0.522759 0.460670 0.456123
0.596307 0.479225 0.459968
0.686183 0.534325 0.495949
0.281559 0.444434 0.408240
0.301793 0.451637 0.416785
0.366308 0.475196 0.444953
0.457038 0.512383 0.490272
0.541314 0.535943 0.513787
0.609186 0.531945 0.490852
0.665827 0.536675 0.480110
0.729488 0.565301 0.494026
0.369390 0.517205 0.423438
0.387610 0.525109 0.434180
0.440558 0.547753 0.466072
0.520409 0.587640 0.528832
0.602747 0.643824 0.609857
0.616602 0.600519 0.525811
0.735317 0.635706 0.510369
0.790372 0.631250 0.492592
0.489418 0.619318 0.498177
0.501762 0.624903 0.509606
0.538262 0.641077 0.544518
0.590051 0.666712 0.597620
0.645258 0.702632 0.657374
0.692195 0.738857 0.697353
0.648493 0.638422 0.553368
0.806455 0.709468 0.537316
0.589807 0.704433 0.596796
0.595392 0.706935 0.602747
0.614252 0.716365 0.622889
0.644495 0.734829 0.655634
0.686305 0.761776 0.702113
0.740566 0.798917 0.760464
0.755154 0.798795 0.751553
0.702571 0.698299 0.610376
0.137819 0.249882 0.501884
0.168063 0.250065 0.512779
0.268772 0.238163 0.543633
0.462226 0.179538 0.593957
0.599023 0.227512 0.578119
0.679652 0.359594 0.544762
0.668360 0.439338 0.504265
0.674952 0.515038 0.527123
0.159976 0.270726 0.495705
0.184024 0.270848 0.506188
0.272068 0.261204 0.537072
0.453407 0.214969 0.586572
0.593500 0.249302 0.575433
0.674067 0.367651 0.541527
0.661219 0.439277 0.499733
0.669703 0.514092 0.524407
0.259220 0.361273 0.490578
0.270085 0.361639 0.502098
0.303593 0.345281 0.532036
0.446174 0.325841 0.581140
0.594263 0.338262 0.587640
0.669368 0.427497 0.553277
0.652369 0.470527 0.509941
0.661738 0.532860 0.534630
0.304540 0.420203 0.469947
0.318730 0.422919 0.473457
0.366278 0.444251 0.506462
0.439277 0.449653 0.567590
0.589044 0.449714 0.604669
0.657618 0.504021 0.570703
0.636286 0.512108 0.525139
0.644862 0.555047 0.545983
0.330541 0.496986 0.490791
0.343633 0.498726 0.493782
0.388708 0.507591 0.506859
0.457069 0.523980 0.531273
0.549706 0.543389 0.601556
0.631464 0.563287 0.581384
0.602289 0.550317 0.539940
0.655116 0.579278 0.559594
0.382544 0.554162 0.500877
0.394690 0.557366 0.505699
0.434089 0.568627 0.522576
0.491890 0.588434 0.551629
0.558373 0.615259 0.590784
0.614710 0.631250 0.613153
0.666590 0.622126 0.588891
0.722621 0.628931 0.584924
0.465858 0.613947 0.519219
0.476173 0.617975 0.525628
0.506889 0.628992 0.544732
0.552605 0.646937 0.576410
0.608759 0.672969 0.624811
0.675746 0.722530 0.696712
0.681147 0.682399 0.623957
0.801175 0.713130 0.610407
0.557580 0.689296 0.577905
0.563653 0.690944 0.582727
0.586419 0.698482 0.602350
0.617792 0.714565 0.634028
0.658167 0.740475 0.677333
0.713100 0.777157 0.737758
0.779507 0.826535 0.802213
0.721035 0.722286 0.649165
0.262486 0.347967 0.603052
0.281559 0.347021 0.609583
0.345769 0.336461 0.627527
0.470069 0.311681 0.659083
0.617914 0.287724 0.686671
0.691188 0.386603 0.652186
0.752895 0.495308 0.637995
0.744503 0.554559 0.609613
0.270329 0.363073 0.597955
0.287510 0.362646 0.604547
0.347539 0.353826 0.623377
0.465339 0.331365 0.654871
0.613733 0.306462 0.684932
0.688197 0.397589 0.651911
0.750668 0.501518 0.638239
0.741634 0.556298 0.608667
0.330510 0.431403 0.585748
0.331029 0.424659 0.592493
0.357366 0.408453 0.611872
0.459541 0.400488 0.647364
0.605158 0.373663 0.686244
0.682399 0.441444 0.656764
0.747402 0.530602 0.645899
0.735775 0.568750 0.611627
0.350286 0.469032 0.549096
0.362737 0.475410 0.558679
0.403265 0.491127 0.589166
0.451575 0.482734 0.630610
0.575006 0.473976 0.675715
0.674159 0.504936 0.669306
0.742458 0.572564 0.659113
0.727169 0.589197 0.618036
0.375982 0.530388 0.555108
0.385962 0.531792 0.557794
0.413581 0.532433 0.563653
0.457954 0.538689 0.583948
0.534905 0.555871 0.650874
0.664485 0.568353 0.690730
0.732052 0.613367 0.671443
0.712581 0.612207 0.624384
0.412360 0.604150 0.581689
0.419226 0.604089 0.582849
0.443458 0.604700 0.588159
0.483803 0.607141 0.599084
0.538415 0.612696 0.616876
0.624048 0.640803 0.687892
0.718654 0.659937 0.688563
0.692226 0.640223 0.635401
0.479072 0.654414 0.596979
0.485176 0.655573 0.599451
0.503929 0.658412 0.606836
0.535760 0.664332 0.620874
0.577142 0.674037 0.641688
0.623926 0.691096 0.671443
0.693812 0.711635 0.707912
0.706752 0.684749 0.665492
0.541711 0.688991 0.603967
0.546014 0.689906 0.606348
0.561608 0.694270 0.615869
0.588403 0.703914 0.633906
0.621881 0.719387 0.658717
0.663844 0.741848 0.693050
0.733852 0.786679 0.766049
0.753719 0.765347 0.723293
