data/fiter_cube/15997792/1023468/file.cube
# Created by Adobe Lightroom plugin Export LUT (1.17.0)
# www.johnrellis.com/lightroom/exportlut.htm
# Preset: 日系A通透明亮[云集]-9
# Color profile: C:\Program Files (x86)\Common Files\Adobe\Color\Profiles\Recommended\AdobeRGB1998.icc
LUT_3D_SIZE 32
DOMAIN_MIN 0.0 0.0 0.0
DOMAIN_MAX 1.0 1.0 1.0
0.000000 0.000000 0.000000
0.033875 0.001404 0.001160
0.066529 0.002747 0.000000
0.096925 0.007507 0.000000
0.132082 0.014710 0.000000
0.168032 0.025788 0.000000
0.204257 0.041505 0.000000
0.240696 0.058961 0.000000
0.277653 0.068299 0.000000
0.314946 0.079133 0.000000
0.353216 0.089693 0.000000
0.391882 0.101717 0.000000
0.431220 0.112673 0.000000
0.471138 0.125978 0.000000
0.511284 0.138643 0.000000
0.551904 0.150546 0.000000
0.592950 0.160678 0.000000
0.632044 0.169436 0.000000
0.669032 0.176944 0.000000
0.704860 0.184787 0.000000
0.739986 0.191836 0.000000
0.774319 0.199344 0.000000
0.807858 0.206271 0.000000
0.840299 0.213138 0.000000
0.871916 0.217563 0.000000
0.902708 0.219699 0.000000
0.932403 0.220554 0.000000
0.961028 0.220523 0.000000
0.988617 0.218814 0.000000
1.000000 0.216220 0.000000
1.000000 0.212039 0.000000
1.000000 0.207065 0.000000
0.000000 0.033417 0.007141
0.021942 0.035706 0.014893
0.062501 0.049104 0.010254
0.094331 0.053773 0.003754
0.129702 0.061128 0.000000
0.165652 0.065827 0.000000
0.202426 0.071687 0.000000
0.239017 0.079103 0.000000
0.275883 0.086854 0.000000
0.313390 0.095552 0.000000
0.351659 0.104311 0.000000
0.390387 0.113741 0.000000
0.429786 0.124758 0.000000
0.469856 0.135927 0.000000
0.510033 0.148165 0.000000
0.551110 0.157259 0.000000
0.592096 0.166293 0.000000
0.631342 0.174380 0.000000
0.668269 0.182254 0.000000
0.704189 0.189303 0.000000
0.739406 0.196231 0.000000
0.773892 0.203220 0.000000
0.807370 0.210178 0.000000
0.839963 0.216587 0.000000
0.871458 0.222782 0.000000
0.902251 0.224765 0.000000
0.932006 0.225528 0.000000
0.960693 0.225376 0.000000
0.988312 0.223819 0.000000
1.000000 0.220890 0.000000
1.000000 0.216739 0.000000
1.000000 0.211734 0.000000
0.000000 0.065583 0.016510
0.017243 0.066163 0.029664
0.050385 0.067872 0.032685
0.090394 0.077790 0.024109
0.126192 0.081453 0.015259
0.162997 0.086519 0.000610
0.199649 0.092103 0.000000
0.236545 0.098390 0.000000
0.273625 0.105837 0.000000
0.311131 0.113252 0.000000
0.349462 0.121065 0.000000
0.388403 0.129671 0.000000
0.427893 0.138918 0.000000
0.468208 0.147646 0.000000
0.508751 0.156191 0.000000
0.549920 0.164309 0.000000
0.591028 0.173312 0.000000
0.630243 0.181125 0.000000
0.667445 0.187991 0.000000
0.703395 0.195315 0.000000
0.738766 0.201480 0.000000
0.773220 0.208499 0.000000
0.806851 0.215061 0.000000
0.839506 0.221073 0.000000
0.870970 0.227543 0.000000
0.901640 0.231266 0.000000
0.931456 0.232090 0.000000
0.960235 0.231693 0.000000
0.987945 0.229984 0.000000
1.000000 0.227054 0.000000
1.000000 0.222965 0.000000
1.000000 0.217868 0.000000
0.000000 0.094911 0.036835
0.000000 0.095705 0.043610
0.045563 0.095583 0.063508
0.078798 0.098451 0.064057
0.120912 0.111452 0.054078
0.156741 0.115572 0.038788
0.194247 0.119570 0.020874
0.231540 0.124483 0.004639
0.269322 0.129488 0.000000
0.307378 0.136172 0.000000
0.345800 0.143069 0.000000
0.385199 0.149874 0.000000
0.424811 0.157534 0.000000
0.465126 0.165316 0.000000
0.505974 0.172244 0.000000
0.547234 0.180026 0.000000
0.588678 0.187198 0.000000
0.628077 0.194339 0.000000
0.665278 0.201144 0.000000
0.701472 0.207706 0.000000
0.737148 0.213199 0.000000
0.771756 0.219608 0.000000
0.805570 0.225589 0.000000
0.838315 0.231357 0.000000
0.869993 0.237095 0.000000
0.900542 0.242832 0.000000
0.930358 0.245243 0.000000
0.959289 0.244663 0.000000
0.987091 0.242649 0.000000
1.000000 0.239902 0.000000
1.000000 0.235691 0.000000
1.000000 0.230564 0.000000
0.000000 0.125551 0.060945
0.000000 0.126345 0.062379
0.000000 0.127321 0.067140
0.074739 0.128420 0.081697
0.105287 0.132540 0.078248
0.151949 0.148531 0.068391
0.185641 0.150973 0.061372
0.224155 0.154543 0.048524
0.262760 0.159060 0.026703
0.301335 0.163882 0.010193
0.340490 0.168795 0.000000
0.379980 0.175082 0.000000
0.420020 0.181338 0.000000
0.460609 0.187411 0.000000
0.501610 0.193820 0.000000
0.543053 0.200534 0.000000
0.584710 0.207492 0.000000
0.624567 0.213413 0.000000
0.662135 0.219425 0.000000
0.698726 0.224857 0.000000
0.734554 0.229953 0.000000
0.769528 0.235569 0.000000
0.803525 0.240848 0.000000
0.836484 0.246464 0.000000
0.868376 0.251530 0.000000
0.899107 0.256870 0.000000
0.928832 0.261967 0.000000
0.957702 0.263737 0.000000
0.985809 0.261173 0.000000
1.000000 0.258640 0.000000
1.000000 0.254307 0.000000
1.000000 0.249454 0.000000
0.000000 0.156558 0.076326
0.000000 0.157290 0.076112
0.000000 0.158663 0.078859
0.024750 0.160678 0.082033
0.099886 0.163577 0.094453
0.132723 0.167880 0.089937
0.182864 0.185428 0.078248
0.217929 0.186923 0.072175
0.253605 0.189181 0.065217
0.293187 0.193393 0.052918
0.332891 0.197971 0.034150
0.372930 0.202884 0.012146
0.413428 0.207950 0.000000
0.454475 0.213260 0.000000
0.495644 0.219608 0.000000
0.537438 0.225071 0.000000
0.579431 0.230747 0.000000
0.619745 0.236454 0.000000
0.657771 0.241428 0.000000
0.694759 0.246189 0.000000
0.730953 0.251133 0.000000
0.766323 0.255741 0.000000
0.800717 0.260655 0.000000
0.833982 0.265568 0.000000
0.866087 0.270390 0.000000
0.897154 0.274815 0.000000
0.927062 0.279332 0.000000
0.955962 0.283299 0.000000
0.983948 0.284642 0.000000
1.000000 0.281621 0.000000
1.000000 0.277165 0.000000
1.000000 0.272374 0.000000
0.000000 0.188357 0.091768
0.000000 0.189151 0.091859
0.000000 0.190066 0.093111
0.000000 0.192569 0.094026
0.070008 0.195438 0.098787
0.128084 0.199710 0.107149
0.161227 0.203861 0.101411
0.210666 0.220249 0.089387
0.251682 0.224247 0.083711
0.282597 0.223789 0.079561
0.323278 0.227787 0.071687
0.363836 0.232181 0.062135
0.404883 0.236667 0.049470
0.446357 0.241794 0.021973
0.488167 0.246616 0.000000
0.530114 0.252049 0.000000
0.572473 0.257420 0.000000
0.613367 0.262150 0.000000
0.652033 0.266789 0.000000
0.689601 0.270848 0.000000
0.726375 0.275120 0.000000
0.762234 0.279149 0.000000
0.796963 0.283543 0.000000
0.830716 0.287694 0.000000
0.863249 0.291691 0.000000
0.894621 0.295537 0.000000
0.924865 0.299626 0.000000
0.953979 0.303288 0.000000
0.982025 0.306737 0.000000
1.000000 0.307713 0.000000
1.000000 0.303319 0.000000
1.000000 0.298314 0.000000
0.000000 0.220279 0.108583
0.000000 0.221073 0.108370
0.000000 0.222110 0.108919
0.000000 0.224430 0.108614
0.000000 0.227939 0.104921
0.108583 0.230167 0.123720
0.158450 0.236728 0.122072
0.190982 0.240574 0.114809
0.238346 0.255711 0.102052
0.286595 0.262791 0.097169
0.316716 0.260594 0.094118
0.352697 0.262242 0.088655
0.394293 0.266453 0.080873
0.436286 0.270939 0.072175
0.478584 0.275578 0.062226
0.521111 0.280247 0.040284
0.563928 0.285252 0.006897
0.605646 0.289769 0.000000
0.644953 0.293919 0.000000
0.683253 0.297642 0.000000
0.720607 0.301244 0.000000
0.757046 0.304997 0.000000
0.792416 0.308659 0.000000
0.826627 0.312322 0.000000
0.859648 0.315587 0.000000
0.891417 0.319432 0.000000
0.922118 0.322362 0.000000
0.951568 0.325658 0.000000
0.979919 0.328832 0.000000
1.000000 0.331212 0.000000
1.000000 0.331701 0.000000
1.000000 0.326665 0.000000
0.000000 0.252750 0.125856
0.000000 0.253422 0.126223
0.000000 0.254612 0.126253
0.000000 0.256718 0.124910
0.000000 0.260288 0.120974
0.037751 0.264164 0.115511
0.140139 0.267216 0.139528
0.188937 0.274357 0.138155
0.221744 0.277714 0.129732
0.266423 0.292180 0.115206
0.323308 0.303105 0.110384
0.352483 0.298344 0.109834
0.381628 0.296483 0.106172
0.424353 0.300847 0.099611
0.466987 0.305272 0.092683
0.510185 0.309606 0.085206
0.553399 0.314397 0.074769
0.596063 0.318791 0.061982
0.636286 0.322698 0.032349
0.675471 0.325872 0.000000
0.713558 0.329442 0.000000
0.750790 0.332708 0.000000
0.786801 0.335790 0.000000
0.821653 0.339147 0.000000
0.855161 0.342199 0.000000
0.887572 0.345159 0.000000
0.918639 0.348150 0.000000
0.948577 0.350835 0.000000
0.977325 0.353338 0.000000
1.000000 0.355505 0.000000
1.000000 0.357305 0.000000
1.000000 0.356725 0.000000
0.000000 0.285496 0.143526
0.000000 0.286168 0.143496
0.000000 0.287175 0.142916
0.000000 0.289281 0.141390
0.000000 0.292699 0.137514
0.000000 0.296544 0.132296
0.099763 0.299779 0.140383
0.173007 0.304784 0.157198
0.220462 0.311925 0.154940
0.253574 0.315465 0.145266
0.295628 0.329351 0.129641
0.361334 0.344427 0.123934
0.389929 0.337591 0.126345
0.417334 0.333318 0.123812
0.453681 0.334508 0.119295
0.497353 0.339086 0.112764
0.541192 0.343786 0.104860
0.584771 0.348089 0.097292
0.626001 0.351781 0.088808
0.666041 0.355230 0.077699
0.705196 0.358434 0.064820
0.743252 0.361517 0.040406
0.780148 0.364691 0.000000
0.815610 0.367620 0.000000
0.849851 0.370336 0.000000
0.882902 0.372717 0.000000
0.914580 0.375280 0.000000
0.945006 0.377691 0.000000
0.974212 0.379919 0.000000
1.000000 0.381628 0.000000
1.000000 0.383124 0.000000
1.000000 0.383917 0.000000
0.000000 0.318334 0.160403
0.000000 0.319005 0.159945
0.000000 0.319951 0.159152
0.000000 0.321935 0.157412
0.000000 0.325078 0.153994
0.000000 0.328832 0.149416
0.000000 0.333227 0.144259
0.146883 0.335515 0.171054
0.207248 0.343084 0.176333
0.252934 0.350195 0.173342
0.286809 0.353857 0.162844
0.327428 0.365087 0.148806
0.396490 0.383398 0.140719
0.428565 0.377630 0.144045
0.455299 0.371618 0.141787
0.482429 0.367956 0.137270
0.526970 0.372778 0.131594
0.571252 0.377630 0.125154
0.613947 0.381262 0.119295
0.655360 0.384741 0.111757
0.695460 0.388067 0.104158
0.734463 0.391089 0.095247
0.772244 0.394110 0.084504
0.808621 0.396857 0.071534
0.843687 0.399512 0.051087
0.877317 0.401892 0.001556
0.909728 0.404028 0.000000
0.940734 0.406256 0.000000
0.970489 0.408148 0.000000
0.998932 0.409674 0.000000
1.000000 0.410834 0.000000
1.000000 0.411505 0.000000
0.000000 0.351141 0.176608
0.000000 0.351904 0.176059
0.000000 0.352819 0.175357
0.000000 0.354498 0.173800
0.000000 0.357671 0.170321
0.000000 0.361212 0.166567
0.000000 0.365515 0.162020
0.078798 0.370031 0.159030
0.187442 0.372747 0.195712
0.243259 0.382300 0.196597
0.287114 0.389044 0.193240
0.321141 0.392493 0.183017
0.360174 0.401312 0.170260
0.430213 0.421118 0.160922
0.468666 0.418982 0.161440
0.494484 0.411078 0.160250
0.519188 0.404791 0.155886
0.555993 0.405921 0.149905
0.599878 0.410407 0.144442
0.642603 0.414435 0.139254
0.684047 0.417823 0.133822
0.724269 0.421118 0.127810
0.763088 0.424109 0.120882
0.800473 0.426886 0.113954
0.836454 0.429450 0.105898
0.870970 0.431739 0.095766
0.904082 0.433967 0.082918
0.935790 0.436011 0.065248
0.966186 0.437781 0.009735
0.995209 0.439155 0.000000
1.000000 0.440253 0.000000
1.000000 0.440803 0.000000
0.000000 0.384192 0.192355
0.000000 0.384741 0.191989
0.000000 0.385595 0.191135
0.000000 0.387427 0.189578
0.000000 0.390295 0.186557
0.000000 0.393805 0.183017
0.000000 0.398016 0.179202
0.000000 0.402441 0.176181
0.142580 0.406256 0.192020
0.224979 0.411505 0.216770
0.280919 0.422095 0.218875
0.322576 0.428321 0.213901
0.356970 0.431861 0.203861
0.394018 0.437934 0.192233
0.464271 0.459724 0.181003
0.509972 0.461341 0.178927
0.534844 0.451362 0.178714
0.558862 0.443793 0.173617
0.583978 0.438453 0.167819
0.628260 0.443030 0.163790
0.671046 0.447150 0.159457
0.712581 0.450752 0.154665
0.752529 0.454078 0.150179
0.791104 0.457008 0.145602
0.828122 0.459693 0.140139
0.863645 0.462074 0.133883
0.897612 0.464454 0.126864
0.930144 0.466438 0.118532
0.961212 0.468238 0.107546
0.990845 0.469795 0.092683
1.000000 0.470832 0.070558
1.000000 0.471351 0.000000
0.000000 0.417121 0.207980
0.000000 0.417670 0.207553
0.000000 0.418433 0.206577
0.000000 0.420142 0.205447
0.000000 0.422858 0.202701
0.000000 0.426215 0.199710
0.000000 0.430243 0.196689
0.000000 0.434760 0.194034
0.076936 0.439673 0.192752
0.195499 0.442481 0.226108
0.263401 0.451087 0.238560
0.319677 0.462776 0.241184
0.359258 0.468116 0.234745
0.393591 0.471595 0.225193
0.428687 0.475410 0.213962
0.499458 0.499397 0.201205
0.552667 0.504814 0.195712
0.575677 0.492348 0.196567
0.597986 0.482521 0.192630
0.620478 0.475044 0.186709
0.656306 0.475532 0.182071
0.699153 0.479957 0.178531
0.740597 0.483711 0.175753
0.780453 0.487098 0.172183
0.818692 0.490089 0.168795
0.855253 0.492775 0.164920
0.890288 0.495216 0.160433
0.923705 0.497383 0.155154
0.955596 0.499336 0.149294
0.985962 0.500908 0.142245
1.000000 0.502190 0.132479
1.000000 0.502922 0.119692
0.000000 0.450050 0.223117
0.000000 0.450690 0.222782
0.000000 0.451270 0.222202
0.000000 0.452918 0.220676
0.000000 0.455482 0.218448
0.000000 0.458778 0.215946
0.000000 0.462715 0.213260
0.000000 0.467292 0.210513
0.000000 0.472236 0.209506
0.135683 0.477180 0.215183
0.244175 0.479744 0.257481
0.302586 0.491463 0.260288
0.359686 0.504265 0.263310
0.396674 0.508721 0.255711
0.431617 0.512200 0.245792
0.466835 0.515801 0.235294
0.534356 0.538994 0.221714
0.593927 0.547509 0.213230
0.615442 0.532860 0.214817
0.637232 0.521782 0.211673
0.659144 0.513176 0.206424
0.684047 0.508110 0.199619
0.727108 0.512657 0.197299
0.768399 0.516625 0.195651
0.807980 0.520043 0.193271
0.845823 0.523247 0.191043
0.882017 0.525963 0.188846
0.916503 0.528527 0.186007
0.949310 0.530663 0.182895
0.980468 0.532555 0.178775
1.000000 0.534051 0.174014
1.000000 0.535119 0.167453
0.000000 0.482948 0.238285
0.000000 0.483619 0.237613
0.000000 0.484138 0.237308
0.000000 0.485847 0.235874
0.000000 0.488258 0.234073
0.000000 0.491402 0.231510
0.000000 0.495216 0.229282
0.000000 0.499672 0.227268
0.000000 0.504692 0.225925
0.077485 0.510002 0.226383
0.195743 0.514275 0.248386
0.284459 0.520165 0.278416
0.342962 0.532799 0.281895
0.400305 0.545861 0.285252
0.434577 0.548943 0.276463
0.469337 0.552117 0.266545
0.504234 0.555169 0.256168
0.566827 0.576959 0.242710
0.627680 0.584222 0.233585
0.654902 0.573419 0.234012
0.676143 0.561273 0.231388
0.697688 0.551843 0.226658
0.719814 0.544640 0.219486
0.754818 0.545403 0.216220
0.795865 0.549645 0.215000
0.835233 0.553277 0.214542
0.872679 0.556695 0.213199
0.908354 0.559594 0.212375
0.942229 0.562127 0.211765
0.974334 0.564446 0.209964
1.000000 0.566247 0.208072
1.000000 0.567712 0.205814
0.000000 0.516045 0.253056
0.000000 0.516503 0.252720
0.000000 0.517205 0.252171
0.000000 0.518761 0.250919
0.000000 0.521050 0.249302
0.000000 0.524132 0.247227
0.000000 0.527916 0.244968
0.000000 0.532219 0.243107
0.000000 0.537163 0.241917
0.000000 0.542626 0.242100
0.134768 0.548333 0.243687
0.249882 0.551629 0.281163
0.324865 0.560418 0.299596
0.383429 0.572961 0.303868
0.437385 0.584253 0.306157
0.471260 0.586938 0.297459
0.505425 0.589685 0.288182
0.539849 0.592493 0.277989
0.598413 0.614099 0.264652
0.660151 0.620600 0.256199
0.693904 0.614282 0.253910
0.714565 0.601129 0.252262
0.735561 0.590692 0.247929
0.757443 0.582971 0.241215
0.782345 0.578363 0.234470
0.823239 0.582818 0.235019
0.862242 0.586908 0.235416
0.899260 0.590417 0.236393
0.934356 0.593530 0.237034
0.967529 0.596307 0.237797
0.998749 0.598596 0.238346
1.000000 0.600610 0.238682
0.000000 0.549157 0.267521
0.000000 0.549676 0.267155
0.000000 0.550347 0.266575
0.000000 0.551781 0.265476
0.000000 0.553918 0.264042
0.000000 0.556786 0.262272
0.000000 0.560479 0.260197
0.000000 0.564599 0.258549
0.000000 0.569390 0.257511
0.000000 0.574365 0.257969
0.080568 0.579980 0.259129
0.193423 0.585138 0.270390
0.302739 0.587610 0.314061
0.365637 0.599023 0.321782
0.423957 0.611658 0.326635
0.474250 0.621393 0.327825
0.507713 0.623987 0.319432
0.541344 0.626551 0.310491
0.575097 0.629267 0.300755
0.629236 0.650843 0.288090
0.691615 0.656794 0.279759
0.732082 0.655024 0.275059
0.752132 0.640925 0.274296
0.772793 0.629938 0.270237
0.794125 0.621363 0.264408
0.816495 0.615198 0.257084
0.850523 0.616510 0.255161
0.889128 0.620905 0.257389
0.925566 0.624750 0.259434
0.960021 0.628046 0.262242
0.992279 0.631006 0.264958
1.000000 0.633478 0.268009
0.000000 0.582422 0.281956
0.000000 0.582879 0.281437
0.000000 0.583490 0.281010
0.000000 0.584863 0.279973
0.000000 0.586847 0.278508
0.000000 0.589654 0.276799
0.000000 0.593011 0.275029
0.000000 0.596918 0.273564
0.000000 0.601373 0.272679
0.000000 0.606226 0.273014
0.000000 0.611566 0.274205
0.145510 0.617060 0.277043
0.254673 0.621027 0.304051
0.348608 0.625360 0.339666
0.407599 0.637446 0.344976
0.465461 0.649928 0.350591
0.511681 0.658137 0.350774
0.544244 0.660487 0.342809
0.577234 0.662928 0.334173
0.610224 0.665553 0.325078
0.660090 0.686488 0.313115
0.722255 0.692470 0.305516
0.769192 0.695613 0.297612
0.788632 0.680629 0.297612
0.808652 0.668971 0.294438
0.829801 0.660090 0.288945
0.852110 0.653681 0.282170
0.877867 0.650629 0.276127
0.915923 0.655329 0.280186
0.951720 0.659510 0.284703
0.985199 0.663203 0.289403
1.000000 0.666377 0.294682
0.000000 0.615686 0.295598
0.000000 0.616114 0.295293
0.000000 0.616632 0.295048
0.000000 0.617975 0.293980
0.000000 0.619806 0.292729
0.000000 0.622339 0.291081
0.000000 0.625513 0.289616
0.000000 0.629206 0.288212
0.000000 0.633265 0.287724
0.000000 0.637995 0.287663
0.000000 0.642969 0.289281
0.095308 0.648310 0.292149
0.198215 0.653834 0.297002
0.313237 0.656550 0.338750
0.392767 0.663478 0.363653
0.450782 0.675380 0.370031
0.507378 0.687648 0.376715
0.549340 0.694118 0.375647
0.580987 0.696498 0.367864
0.612909 0.698787 0.359838
0.644953 0.701137 0.351019
0.690791 0.718868 0.340856
0.751614 0.727596 0.332677
0.803159 0.734066 0.322942
0.823575 0.719966 0.323125
0.843259 0.707851 0.320439
0.864103 0.698756 0.315709
0.886290 0.692287 0.309667
0.910002 0.688228 0.303197
0.942565 0.690517 0.304723
0.977508 0.695003 0.311406
1.000000 0.699031 0.318975
0.000000 0.648829 0.309331
0.000000 0.649226 0.308934
0.000000 0.649775 0.308598
0.000000 0.650904 0.307774
0.000000 0.652796 0.306279
0.000000 0.655085 0.304997
0.000000 0.658015 0.303441
0.000000 0.661433 0.302464
0.000000 0.665370 0.301762
0.000000 0.669703 0.302129
0.000000 0.674434 0.303868
0.000000 0.679530 0.306981
0.165225 0.684871 0.311681
0.264927 0.689357 0.330480
0.371771 0.691432 0.375036
0.437964 0.700984 0.389624
0.494759 0.712642 0.397009
0.549950 0.724392 0.404852
0.587182 0.729305 0.402472
0.617609 0.731502 0.395026
0.648249 0.733730 0.387335
0.679133 0.735988 0.378973
0.721126 0.750607 0.370031
0.779812 0.761624 0.362280
0.830900 0.767819 0.352270
0.856809 0.758541 0.350805
0.876127 0.746334 0.348699
0.896788 0.737301 0.344823
0.918791 0.730831 0.339849
0.942443 0.727108 0.334447
0.969024 0.726528 0.331243
1.000000 0.731441 0.341222
0.000000 0.681971 0.322210
0.000000 0.682307 0.322118
0.000000 0.682765 0.321599
0.000000 0.683864 0.320897
0.000000 0.685573 0.319585
0.000000 0.687861 0.318273
0.000000 0.690547 0.316991
0.000000 0.693721 0.315862
0.000000 0.697444 0.315526
0.000000 0.701503 0.316075
0.000000 0.705898 0.317937
0.000000 0.710628 0.321324
0.123140 0.715694 0.326207
0.224063 0.720821 0.334203
0.330114 0.723964 0.367742
0.427802 0.726497 0.409949
0.484474 0.737514 0.418128
0.539513 0.748775 0.426612
0.592798 0.760037 0.435645
0.625208 0.763455 0.431647
0.654139 0.765560 0.424537
0.683223 0.767636 0.417060
0.712642 0.769863 0.409308
0.750576 0.781369 0.401373
0.806424 0.794675 0.394476
0.856779 0.800565 0.385016
0.888182 0.796353 0.381323
0.907134 0.784268 0.380011
0.927520 0.775418 0.376898
0.949279 0.769314 0.373114
0.972686 0.765896 0.369360
0.997711 0.765133 0.366552
0.000000 0.714961 0.334874
0.000000 0.715358 0.334478
0.000000 0.715755 0.334325
0.000000 0.716793 0.333562
0.000000 0.718257 0.332433
0.000000 0.720363 0.331121
0.000000 0.722927 0.329961
0.000000 0.725917 0.329015
0.000000 0.729335 0.328771
0.000000 0.733150 0.329534
0.000000 0.737270 0.331426
0.000000 0.741756 0.334966
0.027893 0.746456 0.340215
0.196292 0.751186 0.348455
0.283513 0.755978 0.361395
0.395453 0.757717 0.407507
0.477394 0.762478 0.439857
0.532128 0.773098 0.449165
0.585046 0.783627 0.458961
0.636072 0.794125 0.469459
0.663294 0.796323 0.463539
0.690333 0.798245 0.456977
0.717739 0.800229 0.449928
0.745418 0.802243 0.442420
0.779171 0.810971 0.435309
0.831754 0.826352 0.429816
0.881010 0.832090 0.420813
0.917357 0.833066 0.415167
0.935943 0.821317 0.414527
0.955901 0.812772 0.412573
0.977295 0.807126 0.410529
1.000000 0.804471 0.409033
0.000000 0.747829 0.347051
0.000000 0.748165 0.346777
0.000000 0.748592 0.346410
0.000000 0.749538 0.345617
0.000000 0.750973 0.344640
0.000000 0.752865 0.343359
0.000000 0.755215 0.342260
0.000000 0.757961 0.341619
0.000000 0.761166 0.341497
0.000000 0.764645 0.342443
0.000000 0.768551 0.344518
0.000000 0.772671 0.348119
0.000000 0.777005 0.353826
0.163180 0.781399 0.362371
0.260746 0.785916 0.373999
0.357092 0.789090 0.402319
0.461219 0.790158 0.450141
0.528862 0.797055 0.472969
0.580926 0.807004 0.483497
0.630762 0.816892 0.494331
0.676173 0.825772 0.503777
0.700893 0.827634 0.498054
0.726070 0.829496 0.491829
0.751583 0.831357 0.485542
0.777340 0.833280 0.478614
0.807004 0.839445 0.471992
0.855894 0.856626 0.468513
0.903593 0.862303 0.460151
0.944060 0.868223 0.452979
0.962127 0.856962 0.453223
0.981506 0.848997 0.452918
1.000000 0.844266 0.453040
0.000000 0.780606 0.358587
0.000000 0.780911 0.358343
0.000000 0.781277 0.358007
0.000000 0.782132 0.357305
0.000000 0.783474 0.356207
0.000000 0.785183 0.355169
0.000000 0.787350 0.354162
0.000000 0.789944 0.353491
0.000000 0.792844 0.353521
0.000000 0.796078 0.354681
0.000000 0.799649 0.356939
0.000000 0.803342 0.360967
0.000000 0.807279 0.366857
0.121096 0.811368 0.375555
0.239475 0.815396 0.387823
0.325200 0.819364 0.404211
0.430243 0.820859 0.446693
0.528374 0.821164 0.496345
0.580438 0.830106 0.508507
0.628992 0.839353 0.519707
0.675441 0.848539 0.531121
0.714748 0.855772 0.538598
0.737545 0.857542 0.533440
0.760800 0.859312 0.528038
0.784390 0.861143 0.522362
0.808225 0.862943 0.516228
0.834043 0.866819 0.510033
0.878782 0.885191 0.508812
0.924254 0.890806 0.501305
0.965270 0.898497 0.493629
0.985443 0.890654 0.494697
1.000000 0.883604 0.496468
0.000000 0.813138 0.369818
0.000000 0.813413 0.369574
0.000000 0.813718 0.369238
0.000000 0.814511 0.368597
0.000000 0.815793 0.367437
0.000000 0.817411 0.366369
0.000000 0.819425 0.365332
0.000000 0.821775 0.364691
0.000000 0.824399 0.364904
0.000000 0.827359 0.366094
0.000000 0.830533 0.368750
0.000000 0.833951 0.373022
0.000000 0.837491 0.379400
0.016632 0.841093 0.388434
0.216129 0.844663 0.401160
0.310430 0.848142 0.418036
0.398047 0.850950 0.444129
0.503441 0.850950 0.494606
0.583917 0.853208 0.533989
0.630976 0.861784 0.545434
0.675959 0.870268 0.557183
0.718929 0.878569 0.569177
0.752255 0.884276 0.575097
0.773159 0.885924 0.570489
0.794400 0.887572 0.565637
0.815976 0.889250 0.560601
0.837766 0.891020 0.555200
0.860258 0.893248 0.549584
0.900023 0.911650 0.550713
0.942962 0.917174 0.543816
0.981964 0.924773 0.537316
1.000000 0.922057 0.538598
0.000000 0.846098 0.379644
0.000000 0.846189 0.379583
0.000000 0.846433 0.379461
0.000000 0.846891 0.379126
0.000000 0.847990 0.378088
0.000000 0.849485 0.376867
0.000000 0.851316 0.375982
0.000000 0.853452 0.375341
0.000000 0.855894 0.375525
0.000000 0.858549 0.376959
0.000000 0.861387 0.379797
0.000000 0.864439 0.384375
0.000000 0.867552 0.391150
0.000000 0.870695 0.400793
0.190097 0.873777 0.413977
0.295964 0.876738 0.431312
0.383185 0.879362 0.454261
0.478798 0.880217 0.493935
0.573999 0.879820 0.543786
0.637018 0.884031 0.572045
0.680201 0.891691 0.584009
0.721492 0.899290 0.596368
0.760647 0.906615 0.608820
0.788327 0.910887 0.612879
0.807156 0.912413 0.608881
0.826383 0.913909 0.604578
0.845884 0.915465 0.600031
0.865629 0.916960 0.595483
0.885557 0.918517 0.590539
0.919554 0.935546 0.593866
0.959472 0.940948 0.588037
0.996094 0.948486 0.583673
0.000000 0.878874 0.388952
0.000000 0.879057 0.388739
0.000000 0.879210 0.388586
0.000000 0.879637 0.388312
0.000000 0.880278 0.387976
0.000000 0.881468 0.386938
0.000000 0.883116 0.385962
0.000000 0.885069 0.385229
0.000000 0.887266 0.385504
0.000000 0.889586 0.387091
0.000000 0.892149 0.390112
0.000000 0.894774 0.395087
0.000000 0.897459 0.402319
0.000000 0.900114 0.412604
