data/fiter_cube/15997792/1023468/file.cube
# Created by Adobe Lightroom plugin Export LUT (1.17.0)
# www.johnrellis.com/lightroom/exportlut.htm
# Preset: 日系A通透明亮[云集]-9
# Color profile: C:\Program Files (x86)\Common Files\Adobe\Color\Profiles\Recommended\AdobeRGB1998.icc
LUT_3D_SIZE 8
DOMAIN_MIN 0.000000 0.000000 0.000000
DOMAIN_MAX 0.903226 0.903226 0.903226
0.000000 0.000000 0.000000
0.132082 0.014710 0.000000
0.277653 0.068299 0.000000
0.431220 0.112673 0.000000
0.592950 0.160678 0.000000
0.739986 0.191836 0.000000
0.871916 0.217563 0.000000
0.988617 0.218814 0.000000
0.000000 0.125551 0.060945
0.105287 0.132540 0.078248
0.262760 0.159060 0.026703
0.420020 0.181338 0.000000
0.584710 0.207492 0.000000
0.734554 0.229953 0.000000
0.868376 0.251530 0.000000
0.985809 0.261173 0.000000
0.000000 0.252750 0.125856
0.000000 0.260288 0.120974
0.221744 0.277714 0.129732
0.381628 0.296483 0.106172
0.553399 0.314397 0.074769
0.713558 0.329442 0.000000
0.855161 0.342199 0.000000
0.977325 0.353338 0.000000
0.000000 0.384192 0.192355
0.000000 0.390295 0.186557
0.142580 0.406256 0.192020
0.356970 0.431861 0.203861
0.534844 0.451362 0.178714
0.671046 0.447150 0.159457
0.828122 0.459693 0.140139
0.961212 0.468238 0.107546
0.000000 0.516045 0.253056
0.000000 0.521050 0.249302
0.000000 0.537163 0.241917
0.324865 0.560418 0.299596
0.505425 0.589685 0.288182
0.693904 0.614282 0.253910
0.782345 0.578363 0.234470
0.934356 0.593530 0.237034
0.000000 0.648829 0.309331
0.000000 0.652796 0.306279
0.000000 0.665370 0.301762
0.165225 0.684871 0.311681
0.494759 0.712642 0.397009
0.648249 0.733730 0.387335
0.830900 0.767819 0.352270
0.918791 0.730831 0.339849
0.000000 0.780606 0.358587
0.000000 0.783474 0.356207
0.000000 0.792844 0.353521
0.000000 0.807279 0.366857
0.430243 0.820859 0.446693
0.675441 0.848539 0.531121
0.784390 0.861143 0.522362
0.924254 0.890806 0.501305
0.000000 0.911467 0.397589
0.000000 0.912688 0.396674
0.000000 0.918456 0.394659
0.000000 0.927153 0.412696
0.367437 0.934142 0.481849
0.700557 0.933349 0.641016
0.836759 0.954772 0.691951
0.899443 0.959991 0.683497
0.017090 0.022614 0.121309
0.135805 0.028962 0.122133
0.283604 0.000000 0.114412
0.434394 0.093904 0.109010
0.597284 0.136141 0.080140
0.743465 0.172366 0.000000
0.874510 0.203372 0.000000
0.989014 0.228397 0.000000
0.000000 0.142214 0.149844
0.117800 0.132265 0.145998
0.267460 0.145632 0.139803
0.424262 0.167330 0.124605
0.589044 0.192599 0.100465
0.737850 0.217502 0.045777
0.871000 0.240116 0.000000
0.986908 0.259342 0.000000
0.000000 0.253300 0.162600
0.000000 0.259586 0.170169
0.226719 0.274388 0.183536
0.386603 0.293004 0.170565
0.557763 0.310246 0.154757
0.716762 0.324620 0.131167
0.857542 0.337499 0.091432
0.978943 0.347784 0.000000
0.000000 0.383459 0.214878
0.000000 0.389075 0.214389
0.140658 0.404364 0.216281
0.358984 0.427863 0.239231
0.529473 0.444007 0.219333
0.674617 0.445472 0.204166
0.830472 0.457801 0.190036
0.962676 0.466163 0.166598
0.000000 0.514763 0.269017
0.000000 0.519402 0.267063
0.000000 0.534539 0.265812
0.326299 0.555322 0.319982
0.506859 0.586511 0.311009
0.690242 0.607935 0.280156
0.785183 0.577295 0.262150
0.935973 0.592401 0.264225
0.000000 0.647486 0.320836
0.000000 0.651179 0.319158
0.000000 0.663355 0.317418
0.178195 0.682368 0.329534
0.496193 0.709102 0.411048
0.650141 0.731624 0.403357
0.832151 0.766049 0.368902
0.917357 0.727993 0.354894
0.000000 0.779477 0.367346
0.000000 0.782284 0.365637
0.000000 0.791440 0.364446
0.000000 0.805753 0.378485
0.425544 0.819760 0.450080
0.677394 0.846525 0.540551
0.786526 0.860075 0.533349
0.925994 0.890105 0.511711
0.000000 0.910674 0.404517
0.000000 0.911925 0.403662
0.000000 0.917754 0.401984
0.000000 0.926360 0.420050
0.368109 0.933349 0.487373
0.701686 0.932189 0.645808
0.838010 0.954101 0.697353
0.900908 0.959686 0.689815
0.050263 0.055360 0.235813
0.134157 0.060456 0.233829
0.278172 0.060456 0.239292
0.442786 0.072175 0.265934
0.616663 0.000000 0.239628
0.755306 0.104494 0.236637
0.883299 0.157015 0.211826
0.995056 0.182956 0.155734
0.000000 0.131533 0.257511
0.121523 0.132723 0.255009
0.269718 0.142092 0.250248
0.436378 0.156466 0.277928
0.606744 0.126864 0.252750
0.749569 0.177859 0.244999
0.879637 0.207736 0.221744
0.992828 0.225315 0.171420
0.000000 0.287297 0.295720
0.000000 0.283116 0.293858
0.241245 0.262058 0.284886
0.405432 0.276493 0.284794
0.574640 0.292180 0.279759
0.728664 0.308232 0.269688
0.866087 0.322454 0.252354
0.984375 0.331456 0.217166
0.000000 0.386969 0.290013
0.000000 0.388556 0.287266
0.169223 0.395361 0.293553
0.365728 0.415076 0.318334
0.516197 0.420752 0.306126
0.687953 0.437842 0.303441
0.839536 0.450446 0.295384
0.968109 0.458320 0.277928
0.000000 0.508171 0.309148
0.000000 0.512566 0.311650
0.000000 0.525597 0.323888
0.306188 0.544762 0.352087
0.510857 0.575006 0.372381
0.676722 0.585351 0.349554
0.795468 0.573266 0.337377
0.941833 0.587945 0.338964
0.000000 0.641627 0.353796
0.000000 0.645075 0.354955
0.000000 0.656245 0.361364
0.208499 0.673945 0.377569
0.499031 0.696254 0.451606
0.656001 0.724025 0.451575
0.828946 0.753292 0.420661
0.912200 0.717342 0.398718
0.000000 0.775143 0.394629
0.000000 0.777798 0.394537
0.000000 0.786465 0.397253
0.000000 0.800137 0.412757
0.414069 0.815518 0.465156
0.681971 0.839445 0.568658
0.793149 0.856443 0.567041
0.931670 0.887541 0.543023
0.000000 0.907774 0.427436
0.000000 0.909148 0.426093
0.000000 0.915160 0.425391
0.000000 0.923674 0.442573
0.364141 0.930785 0.503838
0.686610 0.931426 0.644099
0.841428 0.951751 0.714137
0.905638 0.958679 0.710079
0.082704 0.066621 0.352972
0.151369 0.072236 0.351507
0.276677 0.090822 0.347417
0.425299 0.087800 0.348425
0.606043 0.102754 0.381353
0.769528 0.163912 0.413611
0.899168 0.013825 0.365942
1.000000 0.118441 0.334478
0.000000 0.131319 0.367803
0.136049 0.135531 0.365301
0.273533 0.153262 0.357641
0.420935 0.153109 0.354742
0.602533 0.169070 0.388067
0.767178 0.215671 0.421820
0.895232 0.156954 0.372290
1.000000 0.178714 0.339055
0.000000 0.274540 0.396216
0.000000 0.263096 0.396216
0.243229 0.254520 0.387274
0.405585 0.268894 0.376196
0.589960 0.293675 0.411139
0.751919 0.277531 0.400610
0.881621 0.303349 0.390631
0.994324 0.306065 0.358862
0.000000 0.432654 0.429053
0.000000 0.430121 0.427985
0.139193 0.419043 0.423163
0.374914 0.389105 0.410437
0.550652 0.408148 0.417273
0.712245 0.425849 0.418982
0.856352 0.440345 0.413581
0.978393 0.445808 0.394568
0.000000 0.520500 0.413001
0.000000 0.521294 0.411933
0.000000 0.522148 0.408423
0.314305 0.526268 0.416205
0.515679 0.552087 0.449195
0.649348 0.545373 0.427832
0.814603 0.566949 0.435798
0.953063 0.580835 0.434760
0.000000 0.640528 0.421729
0.000000 0.641199 0.419532
0.000000 0.643122 0.414069
0.235569 0.659083 0.435706
0.481910 0.676783 0.489296
0.663874 0.709407 0.516747
0.813931 0.723293 0.489601
0.915007 0.705104 0.468025
0.000000 0.766384 0.436500
0.000000 0.768795 0.437629
0.000000 0.776913 0.442969
0.000000 0.790219 0.457740
0.413977 0.805356 0.503166
0.682643 0.825772 0.605188
0.802182 0.849912 0.614038
0.941070 0.882506 0.584802
0.000000 0.902373 0.465949
0.000000 0.904173 0.465064
0.000000 0.910124 0.463752
0.000000 0.919127 0.473548
0.336706 0.926787 0.525109
0.650965 0.930602 0.635737
0.844205 0.947478 0.737819
0.912657 0.957092 0.740444
0.131167 0.088502 0.462104
0.181918 0.092653 0.460456
0.293065 0.111788 0.453712
0.426764 0.120790 0.449317
0.577020 0.110170 0.448981
0.747219 0.158877 0.480018
0.893004 0.255406 0.515526
1.000000 0.349401 0.547448
0.109224 0.145357 0.471992
0.170565 0.148226 0.469856
0.290715 0.161166 0.462043
0.425299 0.169924 0.455421
0.574029 0.164767 0.453132
0.745174 0.205661 0.485206
0.891722 0.289952 0.522332
1.000000 0.356481 0.543847
0.000000 0.256809 0.497658
0.009522 0.252445 0.495399
0.263096 0.257511 0.486458
0.415167 0.274754 0.473457
0.563897 0.274479 0.467628
0.738155 0.314397 0.503136
0.887266 0.385718 0.546441
1.000000 0.375525 0.528130
0.000000 0.424964 0.523430
0.000000 0.420111 0.522972
0.149691 0.398291 0.520867
0.381842 0.382483 0.506584
0.545495 0.394202 0.492287
0.726131 0.441352 0.534966
0.877836 0.466224 0.552636
0.992218 0.447517 0.520165
0.000000 0.576715 0.552819
0.000000 0.574945 0.552178
0.000000 0.567346 0.548821
0.300175 0.549859 0.541436
0.515404 0.514336 0.525872
0.691798 0.541741 0.540459
0.844205 0.564111 0.547021
0.970306 0.573999 0.539300
0.000000 0.654536 0.529870
0.000000 0.654963 0.529320
0.000000 0.655482 0.527153
0.245579 0.653834 0.521843
0.458534 0.655146 0.529229
0.667597 0.685145 0.579736
0.786740 0.675532 0.547662
0.934905 0.698329 0.560174
0.000000 0.774594 0.531579
0.000000 0.775082 0.530327
0.000000 0.776089 0.525261
0.000000 0.776242 0.514763
0.384955 0.790799 0.540093
0.658198 0.805753 0.628595
0.810483 0.839719 0.664332
0.934691 0.855924 0.631403
0.000000 0.900786 0.532830
0.000000 0.901305 0.530205
0.000000 0.902739 0.520745
0.000000 0.910887 0.522240
0.239567 0.921691 0.545403
0.609766 0.926360 0.639887
0.841672 0.940246 0.762264
0.920928 0.954986 0.776577
0.190036 0.116091 0.574426
0.229129 0.118776 0.572778
0.327916 0.129946 0.566522
0.448646 0.148440 0.556542
0.593896 0.136538 0.555932
0.720912 0.146853 0.540398
0.874846 0.237156 0.572564
0.994659 0.364355 0.613092
0.177066 0.164248 0.581201
0.219730 0.166018 0.579431
0.324132 0.173404 0.572839
0.446479 0.189761 0.560906
0.592584 0.180453 0.559930
0.718990 0.189059 0.543694
0.873686 0.268742 0.576959
0.993713 0.387213 0.618769
0.017365 0.259190 0.600885
0.150484 0.260685 0.598993
0.297093 0.266758 0.591882
0.438239 0.280705 0.578088
0.583825 0.280858 0.571069
0.712612 0.287510 0.555261
0.869718 0.356878 0.592767
0.990753 0.455787 0.637751
0.000000 0.407630 0.627375
0.000000 0.399878 0.627405
0.195834 0.381872 0.622400
0.403357 0.383948 0.607477
0.564691 0.397436 0.590723
0.700923 0.402197 0.575647
0.863340 0.470527 0.620813
0.986755 0.549493 0.668696
0.000000 0.571374 0.646540
0.000000 0.568383 0.646204
0.000000 0.556725 0.644984
0.308721 0.529870 0.641566
0.526146 0.509880 0.623133
0.683742 0.520439 0.604028
0.857206 0.587457 0.658106
0.982971 0.627161 0.685878
0.000000 0.712428 0.670130
0.000000 0.711238 0.669673
0.000000 0.706600 0.668086
0.215122 0.696620 0.664363
0.449317 0.677485 0.656794
0.656123 0.639887 0.639216
0.829191 0.676173 0.662135
0.961151 0.697261 0.668177
0.000000 0.788327 0.645136
0.000000 0.787900 0.644312
0.000000 0.788540 0.642664
0.065797 0.788388 0.638544
0.384527 0.784695 0.631281
0.607172 0.783627 0.645380
0.813199 0.819516 0.715969
0.917266 0.808743 0.670008
0.000000 0.909483 0.640314
0.000000 0.909880 0.639033
0.000000 0.911040 0.634150
0.000000 0.912322 0.624170
0.207248 0.911711 0.609064
0.533562 0.919066 0.649470
0.820157 0.927001 0.776974
0.929839 0.951354 0.819211
0.257267 0.154086 0.695186
0.288212 0.155550 0.693782
0.375525 0.161379 0.688533
0.489448 0.173068 0.678248
0.622065 0.173526 0.670924
0.758236 0.170230 0.661341
0.858518 0.208743 0.631983
0.985443 0.340093 0.665522
0.247532 0.193179 0.699519
0.280156 0.194095 0.698054
0.370367 0.197696 0.692683
0.486915 0.207248 0.682216
0.619440 0.209873 0.673640
0.756924 0.205966 0.664240
0.857267 0.238315 0.634913
0.984588 0.361273 0.669459
0.190097 0.280705 0.713466
0.234501 0.281498 0.711940
0.344671 0.284703 0.706233
0.474556 0.292332 0.695399
0.608972 0.300145 0.682582
0.751827 0.296605 0.674556
0.853025 0.319402 0.644984
0.981872 0.425299 0.683070
0.000000 0.400336 0.736355
0.065614 0.397131 0.734768
0.259770 0.386908 0.728817
0.437812 0.394781 0.717403
0.589105 0.407874 0.699245
0.741024 0.406195 0.692836
0.845335 0.423713 0.663081
0.977996 0.512993 0.705653
0.000000 0.560876 0.754849
0.000000 0.556847 0.754818
0.102937 0.540642 0.754513
0.341802 0.512078 0.750210
0.549310 0.514366 0.729641
0.710140 0.524285 0.709438
0.834379 0.532525 0.688075
0.973114 0.615045 0.737972
0.000000 0.710994 0.770993
0.000000 0.709133 0.770901
0.000000 0.702083 0.770382
0.241337 0.687160 0.768917
0.463478 0.660761 0.765164
0.670466 0.640101 0.743618
0.818082 0.647333 0.720302
0.967498 0.728908 0.782650
0.000000 0.844053 0.790646
0.000000 0.843412 0.790555
0.000000 0.840757 0.790036
0.000000 0.835386 0.788846
0.380560 0.824521 0.786038
0.601648 0.805051 0.779171
0.791684 0.767849 0.759823
0.949157 0.810666 0.790066
0.000000 0.927489 0.768795
0.000000 0.927062 0.767849
0.000000 0.925322 0.764553
0.000000 0.921874 0.758267
0.255894 0.920623 0.753384
0.525444 0.914672 0.747982
0.749966 0.912169 0.770230
0.936095 0.942443 0.864500
0.332891 0.212467 0.828031
0.357824 0.213382 0.826963
0.433722 0.216526 0.823117
0.541070 0.223270 0.815610
0.661555 0.235080 0.803952
0.802121 0.226261 0.800534
0.913725 0.251774 0.772122
0.985870 0.311742 0.729854
0.325109 0.241611 0.830655
0.350713 0.242405 0.829618
0.428504 0.244724 0.825711
0.537560 0.250492 0.818112
0.658381 0.262211 0.805844
0.799313 0.254582 0.802090
0.912535 0.276493 0.774655
0.984985 0.331273 0.732479
0.288273 0.317601 0.839658
0.318090 0.318090 0.838590
0.405188 0.320348 0.834562
0.522545 0.325322 0.826841
0.649317 0.334691 0.814298
0.788663 0.333562 0.807614
0.908141 0.347692 0.783505
0.981994 0.389593 0.741787
0.185367 0.417762 0.854765
0.221378 0.413306 0.853880
0.345312 0.415869 0.849760
0.487129 0.421271 0.841855
0.628901 0.430365 0.829068
0.768215 0.436530 0.816709
0.899596 0.441688 0.799069
0.977081 0.469429 0.757473
0.000000 0.545647 0.875395
0.000000 0.540734 0.875456
0.221653 0.532860 0.872343
0.408606 0.526116 0.863523
0.586023 0.532494 0.850523
0.736690 0.542321 0.830930
0.885435 0.541405 0.821500
0.969818 0.562707 0.779934
0.000000 0.703243 0.885832
0.000000 0.700740 0.885863
0.000000 0.691310 0.885771
0.293187 0.672938 0.885283
0.499977 0.647242 0.882414
0.694331 0.649866 0.861357
0.850675 0.653773 0.840818
0.959197 0.666377 0.809964
0.000000 0.842252 0.899107
0.000000 0.840970 0.899107
0.000000 0.836240 0.899046
0.000000 0.827146 0.898711
0.407111 0.813138 0.897551
0.620844 0.792355 0.894865
0.809628 0.774929 0.875303
0.943114 0.780056 0.848234
0.000000 0.969390 0.914794
0.000000 0.968994 0.914855
0.000000 0.967498 0.914885
0.000000 0.964141 0.914885
0.243961 0.957427 0.914427
0.533379 0.946380 0.913146
0.750027 0.929473 0.909575
0.917906 0.900511 0.893645
