data/fiter_cube/15997792/1023468/file.cube
# Created by Adobe Lightroom plugin Export LUT (1.17.0)
# www.johnrellis.com/lightroom/exportlut.htm
# Preset: 日系A通透明亮[云集]-9
# Color profile: C:\Program Files (x86)\Common Files\Adobe\Color\Profiles\Recommended\AdobeRGB1998.icc
LUT_3D_SIZE 5
DOMAIN_MIN 0.000000 0.000000 0.000000
DOMAIN_MAX 0.903226 0.903226 0.903226
0.000000 0.000000 0.000000
0.240696 0.058961 0.000000
0.511284 0.138643 0.000000
0.774319 0.199344 0.000000
0.988617 0.218814 0.000000
0.000000 0.220279 0.108583
0.190982 0.240574 0.114809
0.478584 0.275578 0.062226
0.757046 0.304997 0.000000
0.979919 0.328832 0.000000
0.000000 0.450050 0.223117
0.000000 0.467292 0.210513
0.431617 0.512200 0.245792
0.684047 0.508110 0.199619
0.949310 0.530663 0.182895
0.000000 0.681971 0.322210
0.000000 0.693721 0.315862
0.330114 0.723964 0.367742
0.683223 0.767636 0.417060
0.927520 0.775418 0.376898
0.000000 0.911467 0.397589
0.000000 0.916533 0.394324
0.114565 0.931243 0.438178
0.737697 0.939055 0.653529
0.899443 0.959991 0.683497
0.043427 0.050416 0.206180
0.242283 0.049805 0.210422
0.530053 0.000000 0.207645
0.785183 0.141115 0.189456
0.993256 0.196017 0.087648
0.000000 0.251102 0.260166
0.209445 0.229953 0.251225
0.494697 0.255497 0.244663
0.767422 0.285008 0.221988
0.985382 0.307836 0.158816
0.000000 0.445014 0.274388
0.000000 0.459236 0.285466
0.436042 0.499702 0.323888
0.696559 0.503532 0.294804
0.954528 0.525322 0.284031
0.000000 0.676936 0.355108
0.000000 0.687739 0.357427
0.318486 0.718166 0.391913
0.689784 0.761349 0.464027
0.923003 0.765652 0.420478
0.000000 0.908751 0.419989
0.000000 0.914092 0.417639
0.116854 0.928649 0.459052
0.741146 0.935424 0.669673
0.904173 0.958984 0.703853
0.105318 0.076417 0.408637
0.251286 0.096254 0.402533
0.501061 0.099489 0.399878
0.797543 0.183810 0.456153
1.000000 0.157412 0.421851
0.000000 0.223178 0.440650
0.223301 0.224582 0.431891
0.489296 0.241886 0.416693
0.791257 0.308843 0.479561
1.000000 0.281102 0.431006
0.000000 0.505638 0.492134
0.000000 0.497414 0.488563
0.444739 0.451972 0.468879
0.741451 0.490455 0.483864
0.974426 0.509819 0.469764
0.000000 0.677180 0.475532
0.000000 0.678553 0.470832
0.334478 0.691859 0.484413
0.703578 0.737789 0.568719
0.912047 0.730587 0.516930
0.000000 0.898894 0.489693
0.000000 0.904509 0.489296
0.000000 0.920775 0.506065
0.702754 0.929503 0.674006
0.916655 0.956146 0.757656
0.206271 0.124300 0.603937
0.311742 0.132509 0.598383
0.526482 0.151431 0.583764
0.756008 0.159426 0.563104
0.992432 0.359350 0.625879
0.143618 0.238895 0.622492
0.286259 0.243534 0.616297
0.518090 0.261265 0.596063
0.750423 0.266941 0.573754
0.989502 0.429053 0.643061
0.000000 0.489693 0.663233
0.000000 0.471107 0.662623
0.469184 0.447028 0.641413
0.731106 0.464515 0.609888
0.982574 0.592981 0.695796
0.000000 0.745815 0.699825
0.000000 0.742061 0.698604
0.318791 0.725216 0.692805
0.690578 0.671473 0.668391
0.958526 0.726711 0.699245
0.000000 0.911925 0.669398
0.000000 0.913054 0.665766
0.000000 0.914611 0.650568
0.592401 0.917662 0.678645
0.931914 0.949920 0.830594
0.332891 0.212467 0.828031
0.410925 0.215518 0.824399
0.600275 0.228885 0.810117
0.837766 0.224216 0.799435
0.985870 0.311742 0.729854
0.301640 0.295964 0.836820
0.388708 0.297917 0.833066
0.589776 0.307927 0.818479
0.828061 0.309392 0.804715
0.982940 0.372137 0.738857
0.006195 0.478065 0.865324
0.254215 0.471992 0.861265
0.535515 0.476539 0.846006
0.790677 0.488655 0.821225
0.973816 0.514611 0.767758
0.000000 0.739406 0.888884
0.000000 0.731960 0.888853
0.375860 0.703090 0.887755
0.722530 0.680476 0.864622
0.955840 0.693721 0.818723
0.000000 0.969390 0.914794
0.000000 0.968017 0.914885
0.000000 0.961303 0.914733
0.590509 0.942809 0.912596
0.917906 0.900511 0.893645
