data/fiter_cube/96471014/1022818/file.cube
# Created by Adobe Lightroom plugin Export LUT (1.17.0)
# www.johnrellis.com/lightroom/exportlut.htm
# Preset: 古风山上预设1
# Color profile: C:\Program Files (x86)\Common Files\Adobe\Color\Profiles\Recommended\AdobeRGB1998.icc
LUT_3D_SIZE 5
DOMAIN_MIN 0.000000 0.000000 0.000000
DOMAIN_MAX 0.903226 0.903226 0.903226
0.052338 0.064179 0.084749
0.129122 0.071901 0.094209
0.489754 0.000000 0.086183
0.853269 0.000000 0.000000
1.000000 0.293706 0.163668
0.046448 0.108888 0.115236
0.099275 0.113954 0.099214
0.494057 0.166598 0.025971
0.845487 0.241978 0.000000
1.000000 0.363256 0.126497
0.000000 0.276982 0.204440
0.047395 0.265263 0.185702
0.213321 0.230808 0.108095
0.837461 0.506432 0.000000
0.994659 0.526085 0.000000
0.000000 0.594995 0.379706
0.000000 0.578515 0.353826
0.203586 0.412604 0.246159
0.376959 0.364294 0.075959
0.953643 0.680537 0.000000
0.000000 0.864073 0.624292
0.074189 0.860868 0.617731
0.405676 0.811673 0.552941
0.419684 0.587304 0.306004
0.738491 0.672633 0.000000
0.052888 0.071504 0.129000
0.115816 0.079774 0.139376
0.449805 0.000000 0.140932
0.825315 0.002930 0.087587
0.994507 0.288457 0.147250
0.024781 0.113436 0.150179
0.106477 0.132387 0.157565
0.455085 0.140932 0.146914
0.822202 0.219883 0.078798
0.994018 0.353002 0.103090
0.000000 0.305303 0.258152
0.029572 0.297398 0.240299
0.234989 0.247959 0.142977
0.815824 0.474922 0.000000
0.990631 0.519341 0.000000
0.000000 0.621241 0.435065
0.000000 0.607172 0.412085
0.240208 0.465461 0.298863
0.402075 0.381842 0.105837
0.958007 0.684810 0.000000
0.000000 0.870939 0.655390
0.090639 0.867674 0.648890
0.441810 0.830228 0.606500
0.450019 0.621607 0.345006
0.746700 0.679591 0.000000
0.000000 0.088777 0.276371
0.132540 0.094911 0.291875
0.490578 0.000000 0.352026
0.811490 0.000000 0.342107
0.983703 0.328283 0.368780
0.000000 0.137057 0.297795
0.114412 0.157229 0.318639
0.470924 0.158572 0.365240
0.795529 0.201450 0.367437
0.983551 0.374975 0.366400
0.000000 0.314794 0.372595
0.000000 0.335332 0.380987
0.406744 0.390143 0.389471
0.790219 0.449866 0.383459
0.978790 0.516869 0.367742
0.000000 0.698543 0.615595
0.000000 0.689631 0.599023
0.365026 0.619471 0.504021
0.504265 0.455207 0.225071
0.966857 0.713924 0.405280
0.000000 0.891936 0.754147
0.158938 0.889464 0.748867
0.468391 0.863401 0.716426
0.528588 0.717311 0.497261
0.746822 0.676936 0.000000
0.000000 0.109560 0.572625
0.232914 0.095491 0.591272
0.558831 0.000000 0.629908
0.824949 0.254429 0.645655
0.955596 0.492287 0.670130
0.000000 0.185763 0.582788
0.195621 0.192294 0.599603
0.556725 0.216037 0.644099
0.811490 0.352697 0.654902
0.948882 0.527855 0.679042
0.000000 0.352911 0.588830
0.000000 0.355322 0.588983
0.474678 0.435828 0.649775
0.766201 0.525780 0.674647
0.932830 0.625879 0.708858
0.000000 0.639887 0.698024
0.000000 0.646754 0.699214
0.402930 0.670924 0.708370
0.717128 0.702083 0.705348
0.934478 0.732784 0.709102
0.000000 0.905974 0.853056
0.182406 0.905882 0.855283
0.568597 0.905364 0.865934
0.681178 0.860563 0.801358
0.778073 0.706081 0.291325
0.320165 0.169741 0.854520
0.429847 0.169436 0.857633
0.667811 0.252110 0.871550
0.831540 0.308080 0.855955
0.938445 0.588190 0.830716
0.258885 0.249516 0.848814
0.388159 0.256168 0.852628
0.646174 0.329931 0.867582
0.825132 0.386694 0.860288
0.933227 0.617670 0.835935
0.000000 0.374243 0.828763
0.000000 0.372229 0.836973
0.544549 0.468788 0.856016
0.802426 0.574121 0.872251
0.922942 0.710292 0.859953
0.000000 0.639094 0.854185
0.000000 0.634058 0.850980
0.232273 0.619440 0.844785
0.723049 0.714809 0.874235
0.911101 0.815030 0.892668
0.000000 0.852720 0.897551
0.000000 0.854612 0.897734
0.405615 0.860899 0.900114
0.694484 0.873472 0.903471
0.878508 0.888884 0.903563
