data/fiter_cube/96471014/1022818/file.cube
# Created by Adobe Lightroom plugin Export LUT (1.17.0)
# www.johnrellis.com/lightroom/exportlut.htm
# Preset: 古风山上预设1
# Color profile: C:\Program Files (x86)\Common Files\Adobe\Color\Profiles\Recommended\AdobeRGB1998.icc
LUT_3D_SIZE 8
DOMAIN_MIN 0.000000 0.000000 0.000000
DOMAIN_MAX 0.903226 0.903226 0.903226
0.052338 0.064179 0.084749
0.079896 0.067933 0.088655
0.155215 0.072267 0.095399
0.350774 0.000000 0.094911
0.632563 0.000000 0.067811
0.820401 0.000000 0.000000
0.929137 0.171206 0.054108
1.000000 0.293706 0.163668
0.054688 0.080232 0.096590
0.073487 0.083955 0.091554
0.153079 0.093111 0.089754
0.338842 0.077729 0.088411
0.615747 0.000000 0.050111
0.803006 0.053742 0.000000
0.919738 0.200992 0.000000
0.996918 0.306126 0.144778
0.036133 0.122225 0.123293
0.062928 0.124453 0.122560
0.110018 0.126528 0.101747
0.350011 0.193545 0.071626
0.623896 0.218021 0.000000
0.806790 0.264469 0.000000
0.927550 0.323796 0.000000
1.000000 0.380255 0.104891
0.000000 0.209201 0.170443
0.000000 0.208011 0.165988
0.096254 0.184726 0.153170
0.175814 0.195560 0.108400
0.563348 0.337377 0.000000
0.815305 0.431495 0.000000
0.924987 0.457679 0.000000
0.997772 0.473274 0.000000
0.000000 0.356939 0.244816
0.000000 0.352544 0.237644
0.020691 0.334051 0.214328
0.138094 0.232700 0.173373
0.250706 0.263005 0.105409
0.662074 0.441840 0.000000
0.911711 0.579370 0.000000
0.992096 0.582422 0.000000
0.000000 0.538293 0.343938
0.000000 0.542626 0.341833
0.000000 0.519097 0.312352
0.167300 0.439826 0.261234
0.199252 0.306828 0.179995
0.346807 0.340734 0.086854
0.767880 0.558007 0.000000
0.971160 0.673335 0.000000
0.000000 0.728359 0.479652
0.000000 0.726345 0.474647
0.000000 0.707424 0.447211
0.195041 0.663630 0.392523
0.273442 0.512596 0.288731
0.303441 0.411780 0.179446
0.489235 0.452522 0.000000
0.867185 0.671656 0.000000
0.000000 0.864073 0.624292
0.000000 0.863951 0.622736
0.174136 0.857877 0.614649
0.369848 0.839078 0.594263
0.455238 0.782803 0.520989
0.435828 0.639002 0.347417
0.542229 0.622980 0.186007
0.738491 0.672633 0.000000
0.053498 0.067018 0.102480
0.074617 0.069856 0.103456
0.142947 0.077729 0.108217
0.324041 0.042390 0.104952
0.603296 0.000000 0.067323
0.793881 0.000000 0.000000
0.915068 0.170108 0.002869
0.994018 0.283482 0.148287
0.047791 0.080110 0.108217
0.071809 0.086793 0.111696
0.142245 0.095888 0.111910
0.321721 0.090028 0.105196
0.596094 0.000000 0.066163
0.786404 0.098268 0.000000
0.908141 0.201816 0.000000
0.989654 0.296086 0.129091
0.031403 0.125338 0.135897
0.064088 0.129366 0.137270
0.113039 0.131136 0.116762
0.329534 0.183413 0.103975
0.594232 0.197757 0.045838
0.786648 0.251865 0.000000
0.911192 0.313329 0.000000
0.992493 0.368658 0.080171
0.000000 0.212314 0.183169
0.000000 0.212955 0.180453
0.099428 0.196109 0.167453
0.175845 0.195468 0.119631
0.537041 0.318822 0.030579
0.784512 0.399359 0.000000
0.907195 0.436652 0.000000
0.989441 0.463325 0.000000
0.000000 0.363317 0.260441
0.000000 0.357733 0.252537
0.026246 0.338262 0.228458
0.142123 0.240726 0.183200
0.251041 0.262760 0.114748
0.655634 0.434974 0.000000
0.902251 0.567437 0.000000
0.986481 0.574578 0.000000
0.000000 0.536278 0.354040
0.000000 0.532158 0.346929
0.000000 0.511376 0.319707
0.170199 0.444465 0.272557
0.201541 0.309514 0.188632
0.351476 0.343877 0.095857
0.768734 0.557733 0.000000
0.968811 0.670619 0.000000
0.000000 0.719753 0.481880
0.000000 0.714076 0.473640
0.000000 0.697658 0.448493
0.191501 0.659266 0.398840
0.277409 0.518212 0.298772
0.301579 0.410010 0.186526
0.482094 0.446326 0.000000
0.860502 0.664149 0.000000
0.000000 0.861021 0.625940
0.000000 0.861784 0.625605
0.157473 0.856138 0.618128
0.365270 0.838041 0.598688
0.472694 0.794736 0.544762
0.446632 0.650446 0.361852
0.538567 0.620294 0.193454
0.731044 0.665248 0.000000
0.049470 0.073457 0.142275
0.071382 0.076204 0.143252
0.140902 0.082734 0.157626
0.318578 0.000000 0.160922
0.598077 0.000000 0.155886
0.793576 0.000000 0.137362
0.918730 0.192294 0.103059
0.997772 0.295323 0.153536
0.038758 0.088319 0.151553
0.070222 0.094118 0.154452
0.136080 0.102449 0.163363
0.307195 0.081300 0.168856
0.586297 0.000000 0.157961
0.785794 0.035889 0.135409
0.913512 0.217624 0.098451
0.995453 0.310460 0.138033
0.002960 0.129580 0.169802
0.045899 0.136141 0.173465
0.126802 0.155550 0.179202
0.316411 0.171725 0.177615
0.591882 0.174502 0.161959
0.785824 0.229252 0.132998
0.911284 0.308080 0.094209
0.994141 0.372137 0.084047
0.000000 0.244053 0.241184
0.000000 0.247715 0.239780
0.107424 0.244755 0.224949
0.209537 0.224857 0.162692
0.598474 0.351415 0.157198
0.784878 0.386664 0.125277
0.908659 0.429175 0.087465
0.991547 0.464393 0.010254
0.000000 0.399695 0.320165
0.000000 0.398230 0.315129
0.022217 0.383459 0.292699
0.176303 0.299687 0.236851
0.291600 0.293828 0.149691
0.700435 0.468421 0.100618
0.900572 0.560204 0.074800
0.985534 0.571038 0.044343
0.000000 0.570642 0.413336
0.000000 0.567559 0.407660
0.000000 0.548577 0.381842
0.194583 0.496315 0.328099
0.223270 0.334966 0.227543
0.379706 0.363775 0.126131
0.789425 0.574212 0.000000
0.974609 0.678645 0.088685
0.000000 0.743648 0.536187
0.000000 0.739254 0.529534
0.000000 0.722255 0.504540
0.226810 0.684749 0.455116
0.315465 0.565301 0.351568
0.318547 0.428473 0.217807
0.506432 0.464363 0.051820
0.879362 0.680568 0.000000
0.000000 0.869535 0.660151
0.000000 0.868681 0.656855
0.156863 0.862669 0.648920
0.380743 0.847501 0.635523
0.483619 0.809049 0.581201
0.471382 0.679286 0.406439
0.542748 0.627344 0.225467
0.739864 0.672724 0.000000
0.006348 0.082612 0.217533
0.063691 0.085420 0.222599
0.140841 0.089967 0.231785
0.339483 0.000000 0.270756
0.596307 0.000000 0.274540
0.773251 0.000000 0.274174
0.904448 0.159609 0.271122
0.991028 0.292241 0.262486
0.000000 0.102113 0.232578
0.059083 0.104921 0.235996
0.145296 0.112093 0.244144
0.335546 0.087617 0.275883
0.588617 0.000000 0.277440
0.769284 0.000000 0.275578
0.901488 0.194064 0.270634
0.989868 0.306828 0.259556
0.000000 0.144625 0.246372
0.000000 0.148409 0.250095
0.133181 0.170657 0.268772
0.315923 0.185153 0.290929
0.564813 0.162661 0.295140
0.773312 0.211337 0.291264
0.907317 0.308812 0.287022
0.991516 0.374823 0.268101
0.000000 0.237095 0.291508
0.000000 0.244083 0.295232
0.087495 0.267460 0.305669
0.292943 0.301671 0.310674
0.564935 0.324346 0.306401
0.766079 0.365881 0.296818
0.898924 0.419196 0.285985
0.986755 0.463142 0.273472
0.000000 0.434180 0.408423
0.000000 0.442573 0.412360
0.000000 0.458564 0.414862
0.255833 0.415290 0.362249
0.375311 0.353704 0.238346
0.762264 0.530602 0.303197
0.894713 0.554772 0.298344
0.981353 0.570886 0.288060
0.000000 0.636530 0.530877
0.000000 0.640009 0.530663
0.000000 0.621637 0.503380
0.263737 0.577325 0.448493
0.297704 0.417060 0.323796
0.446906 0.411414 0.190311
0.829252 0.614191 0.231388
0.975616 0.688563 0.317021
0.000000 0.777462 0.624079
0.000000 0.775723 0.620630
0.000000 0.765011 0.603357
0.293095 0.736141 0.562463
0.407813 0.661097 0.477333
0.356939 0.468574 0.285801
0.545495 0.493996 0.126131
0.900450 0.700099 0.142641
0.000000 0.886748 0.723659
0.000000 0.886961 0.722194
0.202274 0.881346 0.713222
0.395727 0.865507 0.696010
0.515801 0.833555 0.656001
0.519066 0.732387 0.500389
0.546319 0.637476 0.282322
0.749935 0.680842 0.000000
0.000000 0.095094 0.346136
0.009583 0.096742 0.352483
0.184665 0.096712 0.369665
0.307561 0.068971 0.361212
0.625025 0.000000 0.441444
0.785519 0.000000 0.434272
0.893858 0.202914 0.437873
0.971862 0.392920 0.483131
0.000000 0.116030 0.357397
0.000000 0.118318 0.364172
0.185122 0.122683 0.380682
0.318120 0.104524 0.375555
0.618585 0.000000 0.444221
0.781369 0.013245 0.438300
0.891142 0.238529 0.442756
0.971496 0.402930 0.482490
0.000000 0.160769 0.366003
0.000000 0.166354 0.377295
0.156710 0.189731 0.396551
0.341558 0.199374 0.415442
0.594293 0.211826 0.451789
0.761532 0.229557 0.445045
0.878080 0.346899 0.467262
0.969848 0.429603 0.473060
0.000000 0.257969 0.398322
0.000000 0.261723 0.400305
0.000000 0.275242 0.408148
0.325566 0.328191 0.445960
0.558007 0.355444 0.468696
0.734920 0.379889 0.468849
0.877104 0.438453 0.472267
0.971923 0.481727 0.458839
0.000000 0.404211 0.461616
0.000000 0.410498 0.464515
0.000000 0.429267 0.471717
0.283787 0.457771 0.481697
0.517876 0.484138 0.475959
0.732296 0.512139 0.474861
0.874357 0.546136 0.470741
0.968505 0.572656 0.460517
0.000000 0.616114 0.584527
0.000000 0.622156 0.588342
0.000000 0.638514 0.598444
0.327886 0.647425 0.599695
0.434791 0.571679 0.504540
0.542901 0.487251 0.324865
0.864378 0.675776 0.479500
0.963134 0.689052 0.490791
0.000000 0.809812 0.727413
0.000000 0.811185 0.729061
0.101595 0.802274 0.716335
0.358465 0.781125 0.686183
0.470588 0.733333 0.616815
0.427680 0.538384 0.410101
0.594537 0.532860 0.219089
0.919432 0.726558 0.362646
0.000000 0.900847 0.791379
0.000000 0.900542 0.789487
0.249516 0.894224 0.782345
0.424323 0.884977 0.772183
0.535424 0.862364 0.739528
0.593500 0.802518 0.653346
0.542992 0.645411 0.368170
0.753323 0.682277 0.079316
0.000000 0.107912 0.529534
0.068208 0.105928 0.535424
0.258610 0.090791 0.551537
0.464576 0.000000 0.582727
0.598291 0.000000 0.563622
0.798337 0.194064 0.610895
0.893706 0.328344 0.608942
0.958801 0.479652 0.641932
0.000000 0.132631 0.528527
0.008820 0.132601 0.533532
0.249699 0.127565 0.551537
0.461524 0.116579 0.584161
0.590234 0.057374 0.562219
0.792050 0.232059 0.611170
0.889921 0.349157 0.611200
0.956573 0.490089 0.644129
0.000000 0.199222 0.541680
0.000000 0.202548 0.546105
0.217258 0.214450 0.565759
0.450263 0.239445 0.600122
0.584497 0.235569 0.579278
0.780270 0.344701 0.625452
0.881041 0.424933 0.628016
0.950744 0.533165 0.658869
0.000000 0.282902 0.537713
0.000000 0.282933 0.537194
0.000000 0.298222 0.562036
0.398291 0.362676 0.612116
0.591363 0.398535 0.627131
0.763455 0.478676 0.654108
0.868437 0.523949 0.656397
0.941619 0.601068 0.686061
0.000000 0.431830 0.589197
0.000000 0.435096 0.590509
0.000000 0.445167 0.594354
0.258213 0.458015 0.598566
0.552514 0.528008 0.645014
0.722988 0.567926 0.660517
0.843839 0.595727 0.664118
0.940703 0.637598 0.674281
0.000000 0.591730 0.649439
0.000000 0.597467 0.653010
0.000000 0.609216 0.657893
0.284642 0.625452 0.664118
0.501915 0.642603 0.668666
0.686000 0.664210 0.663478
0.842435 0.688930 0.670893
0.943145 0.706416 0.669398
0.000000 0.787686 0.765621
0.000000 0.791165 0.768460
0.000000 0.797391 0.773556
0.384833 0.805478 0.782681
0.577081 0.809201 0.787564
0.613764 0.735439 0.685969
0.682185 0.617304 0.410864
0.931579 0.791348 0.665034
0.000000 0.908568 0.846036
0.000000 0.908507 0.846159
0.293706 0.907347 0.848814
0.488502 0.904906 0.852140
0.593317 0.890440 0.834501
0.652247 0.859709 0.787259
0.584771 0.696651 0.538964
0.772427 0.699977 0.246067
0.146120 0.120119 0.721859
0.217044 0.116915 0.729427
0.370642 0.099977 0.741268
0.549828 0.109957 0.760220
0.691249 0.131563 0.769223
0.789883 0.224155 0.738735
0.887938 0.428504 0.743740
0.947509 0.540459 0.751583
0.105348 0.150088 0.710811
0.188724 0.149294 0.717769
0.348638 0.142061 0.729641
0.531426 0.152865 0.748379
0.677150 0.173739 0.758419
0.776181 0.235569 0.727626
0.879271 0.422126 0.734310
0.942443 0.528740 0.741665
0.000000 0.233433 0.722011
0.099733 0.235416 0.724849
0.310948 0.241825 0.733852
0.511345 0.269322 0.753323
0.672877 0.317205 0.768307
0.769009 0.347173 0.739254
0.874205 0.498726 0.752590
0.939788 0.585412 0.763119
0.000000 0.310918 0.711727
0.000000 0.311192 0.715511
0.175998 0.347936 0.732326
0.455940 0.388403 0.756283
0.661250 0.470558 0.784115
0.758663 0.486091 0.762997
0.866087 0.595178 0.779507
0.933776 0.648951 0.786130
0.000000 0.447944 0.717281
0.000000 0.445319 0.714321
0.000000 0.440192 0.709438
0.228244 0.445441 0.720333
0.573571 0.534356 0.765133
0.726528 0.581598 0.773068
0.844633 0.658015 0.788907
0.923247 0.701656 0.800931
0.000000 0.603357 0.756832
0.000000 0.604639 0.757168
0.000000 0.608850 0.757931
0.216922 0.615167 0.759609
0.448096 0.618402 0.756771
0.701198 0.697108 0.799619
0.825925 0.738125 0.812222
0.912200 0.758999 0.817960
0.000000 0.746517 0.803403
0.000000 0.749660 0.805386
0.000000 0.755123 0.807675
0.293828 0.763973 0.811704
0.505882 0.772793 0.813535
0.664332 0.785580 0.816281
0.797055 0.799527 0.813077
0.911681 0.811460 0.816587
0.000000 0.880003 0.862394
0.000000 0.881773 0.863859
0.000000 0.890898 0.872526
0.390143 0.896971 0.879850
0.591424 0.897734 0.884398
0.738338 0.901854 0.893156
0.748013 0.855558 0.830625
0.801938 0.739528 0.484352
0.320165 0.169741 0.854520
0.359136 0.169589 0.856870
0.459785 0.171817 0.858579
0.597284 0.210086 0.866667
0.735195 0.308904 0.876310
0.826566 0.302983 0.874022
0.886442 0.435157 0.836973
0.938445 0.588190 0.830716
0.299351 0.194064 0.849638
0.340124 0.195682 0.852049
0.446571 0.199741 0.855070
0.585962 0.233341 0.862455
0.726833 0.324620 0.872801
0.820432 0.324407 0.871153
0.881590 0.440711 0.834531
0.935668 0.590356 0.829313
0.227024 0.267826 0.845701
0.277562 0.270329 0.847379
0.401404 0.276036 0.849180
0.562890 0.317418 0.861784
0.710018 0.395636 0.871397
0.809506 0.412787 0.870909
0.873808 0.493080 0.838804
0.931212 0.624567 0.836728
0.000000 0.328923 0.840208
0.000000 0.349554 0.843503
0.297307 0.372259 0.847562
0.502831 0.408667 0.857542
0.676326 0.481849 0.869474
0.796658 0.537346 0.875883
0.864378 0.575891 0.850706
0.926299 0.681331 0.852018
0.000000 0.441993 0.822812
0.000000 0.440467 0.823575
0.000000 0.434058 0.827237
0.295598 0.458259 0.845029
0.594812 0.539239 0.859800
0.770687 0.635859 0.877012
0.846891 0.651759 0.861173
0.920439 0.743984 0.870542
0.000000 0.596674 0.843778
0.000000 0.594171 0.842130
0.000000 0.586938 0.838376
0.000000 0.574914 0.834165
0.354955 0.563195 0.833463
0.696284 0.679316 0.869932
0.836698 0.748043 0.885130
0.914244 0.804349 0.890043
0.000000 0.735378 0.869017
0.000000 0.734859 0.868345
0.000000 0.733944 0.867063
0.073091 0.735561 0.867094
0.404425 0.739223 0.866819
0.588495 0.745327 0.865965
0.805844 0.816495 0.894102
0.899931 0.846921 0.900267
0.000000 0.852720 0.897551
0.000000 0.852964 0.897215
0.000000 0.855131 0.897887
0.288670 0.858579 0.899290
0.501915 0.863584 0.900908
0.660731 0.871092 0.902800
0.783444 0.881163 0.905486
0.878508 0.888884 0.903563
