data/fiter_cube/96471014/1022818/file.cube
# Created by Adobe Lightroom plugin Export LUT (1.17.0)
# www.johnrellis.com/lightroom/exportlut.htm
# Preset: 古风山上预设1
# Color profile: C:\Program Files (x86)\Common Files\Adobe\Color\Profiles\Recommended\AdobeRGB1998.icc
LUT_3D_SIZE 32
DOMAIN_MIN 0.0 0.0 0.0
DOMAIN_MAX 1.0 1.0 1.0
0.052338 0.064179 0.084749
0.058167 0.064118 0.084993
0.061830 0.064942 0.085451
0.069612 0.066163 0.086976
0.079896 0.067933 0.088655
0.092744 0.069642 0.090700
0.108980 0.071046 0.092592
0.129122 0.071901 0.094209
0.155215 0.072267 0.095399
0.189334 0.069795 0.096834
0.233158 0.061280 0.097108
0.287449 0.023255 0.096895
0.350774 0.000000 0.094911
0.419440 0.000000 0.091737
0.489754 0.000000 0.086183
0.558984 0.000000 0.078920
0.632563 0.000000 0.067811
0.691402 0.000000 0.053925
0.739986 0.000000 0.029084
0.782834 0.000000 0.005737
0.820401 0.000000 0.000000
0.853269 0.000000 0.000000
0.881834 0.083742 0.000000
0.906950 0.134401 0.013916
0.929137 0.171206 0.054108
0.949187 0.202853 0.080507
0.967620 0.233280 0.105470
0.984863 0.263035 0.132662
1.000000 0.293706 0.163668
1.000000 0.326421 0.198978
1.000000 0.361791 0.239841
1.000000 0.401312 0.287846
0.053254 0.065827 0.085786
0.057221 0.066346 0.085451
0.062196 0.066590 0.085054
0.070069 0.067811 0.086000
0.080232 0.069154 0.088289
0.092683 0.071290 0.090059
0.108675 0.072694 0.091951
0.128603 0.074037 0.093568
0.154421 0.074128 0.095064
0.187900 0.072572 0.095979
0.230900 0.065858 0.096559
0.284459 0.038087 0.096132
0.346746 0.000000 0.094240
0.414710 0.000000 0.091127
0.484627 0.000000 0.085695
0.554498 0.000000 0.078309
0.626062 0.000000 0.067628
0.684443 0.000000 0.052003
0.733089 0.000000 0.026886
0.776272 0.000000 0.004303
0.814450 0.000000 0.000000
0.847990 0.000000 0.000000
0.877195 0.084016 0.000000
0.902892 0.133089 0.004974
0.925628 0.169986 0.042695
0.946166 0.201663 0.074434
0.965118 0.231418 0.100496
0.982727 0.261418 0.127901
0.999176 0.291997 0.158907
1.000000 0.324376 0.194614
1.000000 0.359411 0.234989
1.000000 0.398505 0.282506
0.052369 0.068330 0.087678
0.057038 0.068330 0.088197
0.061280 0.069612 0.086336
0.070222 0.070710 0.085542
0.080598 0.071565 0.086976
0.092927 0.073579 0.089082
0.108309 0.075135 0.091005
0.128115 0.076478 0.092653
0.153628 0.077058 0.094148
0.186679 0.075898 0.095338
0.229465 0.070680 0.095888
0.282536 0.054658 0.095399
0.344244 0.000000 0.093568
0.412055 0.000000 0.090181
0.481453 0.000000 0.084993
0.552270 0.000000 0.076997
0.622553 0.000000 0.066041
0.680354 0.000000 0.049622
0.729000 0.000000 0.022919
0.772580 0.000000 0.000000
0.811185 0.000000 0.000000
0.845212 0.000000 0.000000
0.874723 0.093233 0.000000
0.900755 0.138064 0.000000
0.923766 0.173434 0.029328
0.944518 0.203891 0.070100
0.963714 0.233341 0.096407
0.981506 0.262669 0.124727
0.998199 0.292760 0.155764
1.000000 0.324559 0.191196
1.000000 0.359197 0.231876
1.000000 0.397986 0.279332
0.053315 0.073640 0.091493
0.056825 0.074128 0.091981
0.060060 0.074159 0.092744
0.067567 0.075959 0.088685
0.079316 0.077394 0.087190
0.093294 0.079072 0.086976
0.108858 0.080446 0.089265
0.128511 0.082002 0.090883
0.153750 0.083284 0.092409
0.186374 0.083345 0.093812
0.228641 0.080507 0.094026
0.281163 0.070924 0.093507
0.342199 0.038392 0.091524
0.409186 0.000000 0.087984
0.478523 0.000000 0.082246
0.550286 0.000000 0.073793
0.618708 0.000000 0.061616
0.675502 0.000000 0.039155
0.723720 0.000000 0.011292
0.766964 0.000000 0.000000
0.805783 0.000000 0.000000
0.840146 0.050782 0.000000
0.870512 0.112520 0.000000
0.897551 0.151492 0.000000
0.921630 0.183810 0.008026
0.943267 0.213016 0.060578
0.962982 0.241245 0.090242
0.981140 0.269474 0.119997
0.997925 0.298528 0.151736
1.000000 0.329137 0.187686
1.000000 0.362402 0.228153
1.000000 0.399725 0.275517
0.054688 0.080232 0.096590
0.055421 0.080507 0.096803
0.059724 0.081147 0.097475
0.064088 0.080629 0.097444
0.073487 0.083955 0.091554
0.088655 0.085847 0.089174
0.108522 0.089815 0.087953
0.128420 0.091188 0.088228
0.153079 0.093111 0.089754
0.185214 0.094545 0.091127
0.226841 0.094209 0.091249
0.278508 0.089448 0.090608
0.338842 0.077729 0.088411
0.405341 0.047059 0.084260
0.474800 0.000000 0.078187
0.548241 0.000000 0.067933
0.615747 0.000000 0.050111
0.672602 0.000000 0.018402
0.721065 0.000000 0.000000
0.764309 0.000000 0.000000
0.803006 0.053742 0.000000
0.837369 0.106081 0.000000
0.867979 0.142306 0.000000
0.895323 0.173190 0.000000
0.919738 0.200992 0.000000
0.941741 0.227420 0.031586
0.961700 0.253300 0.078981
0.980011 0.279088 0.111208
0.996918 0.306126 0.144778
1.000000 0.335302 0.181247
1.000000 0.366979 0.222110
1.000000 0.402838 0.269474
0.054108 0.087800 0.101717
0.054841 0.088075 0.101930
0.058961 0.088746 0.102327
0.063233 0.089448 0.103182
0.068544 0.088319 0.101259
0.080751 0.092348 0.093965
0.098970 0.095827 0.091066
0.123659 0.101869 0.089693
0.153048 0.106630 0.088502
0.185672 0.109438 0.087465
0.227207 0.111513 0.087037
0.278477 0.110445 0.086366
0.338415 0.105196 0.083406
0.404700 0.093812 0.078523
0.474495 0.074525 0.070924
0.548943 0.042145 0.058015
0.614954 0.009430 0.025757
0.671473 0.024781 0.000000
0.719997 0.064424 0.000000
0.763485 0.094484 0.000000
0.802457 0.123384 0.000000
0.837247 0.151217 0.000000
0.894285 0.210452 0.000000
0.918059 0.232059 0.000000
0.939086 0.252567 0.000000
0.958038 0.272709 0.043763
0.975372 0.293339 0.089082
0.991455 0.315190 0.122530
1.000000 0.338628 0.157412
1.000000 0.364477 0.195071
1.000000 0.393774 0.237247
1.000000 0.427131 0.285283
0.051606 0.098024 0.108339
0.051606 0.098024 0.108339
0.055146 0.098665 0.108492
0.061097 0.099855 0.108797
0.067994 0.098360 0.108797
0.075410 0.098756 0.104829
0.089998 0.103151 0.096712
0.112551 0.108583 0.093263
0.144472 0.117922 0.091554
0.191440 0.129885 0.088075
0.235599 0.133394 0.085634
0.289555 0.135744 0.081849
0.351446 0.135531 0.075074
0.418585 0.131197 0.067659
0.493172 0.125277 0.052735
0.565728 0.121248 0.016968
0.629206 0.123293 0.000000
0.683436 0.131319 0.000000
0.730922 0.144472 0.000000
0.774289 0.162631 0.000000
0.813962 0.183963 0.000000
0.849851 0.206516 0.000000
0.881743 0.229313 0.000000
0.909606 0.250645 0.000000
0.933684 0.271061 0.000000
0.954345 0.290074 0.000000
0.972625 0.308843 0.064363
0.989197 0.328466 0.106081
1.000000 0.349584 0.143893
1.000000 0.373175 0.182803
1.000000 0.400031 0.225376
1.000000 0.431250 0.273503
0.046448 0.108888 0.115236
0.047608 0.109102 0.115023
0.051148 0.109651 0.115145
0.058656 0.110506 0.115053
0.066285 0.111208 0.116121
0.073182 0.106813 0.114107
0.082460 0.109621 0.107912
0.099275 0.113954 0.099214
0.125582 0.121004 0.095155
0.164401 0.134066 0.092988
0.222263 0.149905 0.088075
0.287327 0.160128 0.081453
0.348730 0.162600 0.074617
0.418372 0.164065 0.062531
0.494057 0.166598 0.025971
0.563897 0.169955 0.000000
0.625574 0.174441 0.000000
0.679011 0.182040 0.000000
0.726223 0.192782 0.000000
0.769680 0.207004 0.000000
0.809445 0.223911 0.000000
0.845487 0.241978 0.000000
0.877562 0.260472 0.000000
0.905730 0.278477 0.000000
0.930144 0.295354 0.000000
0.951202 0.311589 0.000000
0.969879 0.327764 0.000000
0.986847 0.344579 0.083467
1.000000 0.363256 0.126497
1.000000 0.384405 0.168338
1.000000 0.408911 0.212100
1.000000 0.437903 0.261448
0.036133 0.122225 0.123293
0.039887 0.122530 0.123262
0.045197 0.122774 0.123018
0.053132 0.123537 0.122927
0.062928 0.124453 0.122560
0.072053 0.121889 0.122103
0.079286 0.115267 0.119417
0.091279 0.121950 0.111025
0.110018 0.126528 0.101747
0.140352 0.135256 0.096773
0.187716 0.152407 0.093629
0.256931 0.172396 0.086641
0.350011 0.193545 0.071626
0.422736 0.198886 0.056580
0.495247 0.203555 0.012085
0.562860 0.209201 0.000000
0.623896 0.218021 0.000000
0.677241 0.229068 0.000000
0.723995 0.238468 0.000000
0.767178 0.250462 0.000000
0.806790 0.264469 0.000000
0.842771 0.279606 0.000000
0.874815 0.294865 0.000000
0.903044 0.309697 0.000000
0.927550 0.323796 0.000000
0.948882 0.336797 0.000000
0.967803 0.350225 0.000000
0.984985 0.364324 0.034119
1.000000 0.380255 0.104891
1.000000 0.398779 0.151400
1.000000 0.420600 0.197543
1.000000 0.446784 0.247562
0.024689 0.138338 0.132509
0.028809 0.138399 0.132326
0.034119 0.138643 0.132082
0.044587 0.139284 0.131655
0.058289 0.139742 0.131014
0.068910 0.140139 0.131014
0.078798 0.132723 0.128145
0.086580 0.127138 0.123720
0.101778 0.135805 0.114107
0.122072 0.139925 0.104128
0.156527 0.150149 0.097902
0.214237 0.172671 0.093446
0.298009 0.198154 0.083009
0.403632 0.225040 0.059968
0.495216 0.241764 0.000000
0.562860 0.248966 0.000000
0.624170 0.258335 0.000000
0.677455 0.268894 0.000000
0.724392 0.281041 0.000000
0.767361 0.294713 0.000000
0.805966 0.306401 0.000000
0.840696 0.318029 0.000000
0.871763 0.329778 0.000000
0.899443 0.341222 0.000000
0.923827 0.352209 0.000000
0.945403 0.362615 0.000000
0.964813 0.373602 0.000000
0.982605 0.385534 0.000000
0.999115 0.399207 0.072877
1.000000 0.415412 0.131197
1.000000 0.434943 0.181399
1.000000 0.458961 0.233921
0.008698 0.156710 0.142702
0.011444 0.156832 0.142519
0.016999 0.157015 0.142184
0.028046 0.157412 0.141451
0.047181 0.157778 0.140536
0.063142 0.158022 0.139284
0.076600 0.153780 0.138521
0.086641 0.143801 0.134096
0.095338 0.141451 0.127291
0.113466 0.150790 0.116762
0.136416 0.155520 0.106081
0.176150 0.167727 0.098360
0.244877 0.195041 0.091981
0.338994 0.224643 0.077455
0.450263 0.255650 0.029053
0.560662 0.289342 0.000000
0.621363 0.298283 0.000000
0.674250 0.307958 0.000000
0.721065 0.318090 0.000000
0.763943 0.330144 0.000000
0.802976 0.343420 0.000000
0.838163 0.356481 0.000000
0.869352 0.366155 0.000000
0.897124 0.375341 0.000000
0.921660 0.383917 0.000000
0.943328 0.391913 0.000000
0.962768 0.400092 0.000000
0.980682 0.409461 0.000000
0.997345 0.420478 0.000000
1.000000 0.433845 0.103182
1.000000 0.450660 0.160922
1.000000 0.471778 0.216220
0.000000 0.178805 0.154482
0.000000 0.178897 0.154330
0.000000 0.179080 0.153994
0.005127 0.179263 0.153048
0.025177 0.179446 0.151797
0.052491 0.179202 0.150088
0.069947 0.178561 0.148196
0.085512 0.167697 0.145418
0.094392 0.154971 0.139803
0.106477 0.157748 0.131014
0.128298 0.168673 0.119234
0.153109 0.172885 0.107576
0.209659 0.195560 0.097353
0.300023 0.231632 0.085725
0.413519 0.269566 0.057832
0.533684 0.309575 0.000000
0.638483 0.351537 0.000000
0.704585 0.373816 0.000000
0.747066 0.380621 0.000000
0.785916 0.388922 0.000000
0.821073 0.397681 0.000000
0.852720 0.406775 0.000000
0.881132 0.415534 0.000000
0.906432 0.421759 0.000000
0.928923 0.426490 0.000000
0.949126 0.431159 0.000000
0.967498 0.436225 0.000000
0.984466 0.442359 0.000000
1.000000 0.450294 0.000000
1.000000 0.460700 0.076478
1.000000 0.474372 0.146365
1.000000 0.492409 0.205936
0.000000 0.209201 0.170443
0.000000 0.209384 0.170016
0.000000 0.209079 0.169406
0.000000 0.208774 0.168093
0.000000 0.208011 0.165988
0.023377 0.206790 0.163333
0.060426 0.205295 0.160616
0.081849 0.199924 0.159335
0.096254 0.184726 0.153170
0.104524 0.169039 0.146670
0.120974 0.178622 0.135195
0.147372 0.191196 0.121706
0.175814 0.195560 0.108400
0.226993 0.210147 0.096284
0.325475 0.250706 0.081758
0.444312 0.293217 0.032837
0.563348 0.337377 0.000000
0.662867 0.381140 0.000000
0.740841 0.418769 0.000000
0.779934 0.424872 0.000000
0.815305 0.431495 0.000000
0.847349 0.438788 0.000000
0.876066 0.445808 0.000000
0.901884 0.452277 0.000000
0.924987 0.457679 0.000000
0.945495 0.460456 0.000000
0.964202 0.463661 0.000000
0.981506 0.467689 0.000000
0.997772 0.473274 0.000000
1.000000 0.481361 0.000000
1.000000 0.492500 0.112367
1.000000 0.507927 0.181643
0.000000 0.239078 0.185397
0.000000 0.239200 0.185153
0.000000 0.239048 0.184451
0.000000 0.238956 0.183139
0.000000 0.238499 0.181094
0.000000 0.237491 0.178439
0.029358 0.235874 0.174929
0.069673 0.233066 0.171023
0.093843 0.218173 0.167300
0.106874 0.199039 0.159640
0.114992 0.184695 0.150942
0.135195 0.197116 0.137484
0.164523 0.210025 0.122896
0.194308 0.213199 0.108583
0.245884 0.225681 0.094484
0.351476 0.270268 0.076020
0.473182 0.316106 0.001953
0.589410 0.363775 0.000000
0.684810 0.408789 0.000000
0.761013 0.448005 0.000000
0.809873 0.466804 0.000000
0.842374 0.472084 0.000000
0.871519 0.477302 0.000000
0.897826 0.482338 0.000000
0.921294 0.486946 0.000000
0.942535 0.491127 0.000000
0.961547 0.492683 0.000000
0.979156 0.494972 0.000000
0.995727 0.498543 0.000000
1.000000 0.504295 0.000000
1.000000 0.513054 0.056428
1.000000 0.525811 0.153414
0.000000 0.276982 0.204440
0.000000 0.277012 0.204013
0.000000 0.276493 0.203128
0.000000 0.275669 0.201389
0.000000 0.274235 0.198520
0.000000 0.271977 0.195102
0.000000 0.269139 0.190646
0.047395 0.265263 0.185702
0.086793 0.256809 0.183200
0.106813 0.234501 0.174228
0.117678 0.211795 0.165133
0.127596 0.203220 0.153964
0.150759 0.216159 0.139498
0.182956 0.228946 0.123445
0.213321 0.230808 0.108095
0.264775 0.240757 0.091768
0.376287 0.289128 0.069093
0.500053 0.338659 0.000000
0.614099 0.389715 0.000000
0.706722 0.436500 0.000000
0.780209 0.475898 0.000000
0.837461 0.506432 0.000000
0.866911 0.509758 0.000000
0.893523 0.513146 0.000000
0.917449 0.516167 0.000000
0.939178 0.519249 0.000000
0.959197 0.522393 0.000000
0.977508 0.523888 0.000000
0.994659 0.526085 0.000000
1.000000 0.530236 0.000000
1.000000 0.537041 0.000000
1.000000 0.547784 0.123018
0.000000 0.316960 0.224582
0.000000 0.316777 0.223941
0.000000 0.316503 0.223209
0.000000 0.315465 0.221256
0.000000 0.313725 0.218173
0.000000 0.311315 0.214206
0.000000 0.307866 0.209140
0.000000 0.303746 0.203677
0.067475 0.297581 0.197147
0.103304 0.278233 0.192111
0.120455 0.250919 0.180850
0.128542 0.223941 0.169986
0.141726 0.222171 0.156405
0.167056 0.234562 0.140536
0.201236 0.246952 0.123171
0.231754 0.246860 0.107118
0.281102 0.253941 0.089326
0.398505 0.306493 0.061036
0.525414 0.360937 0.000000
0.639033 0.416327 0.000000
0.729244 0.464729 0.000000
0.800412 0.504234 0.000000
0.855711 0.534508 0.000000
0.891203 0.546868 0.000000
0.915465 0.548333 0.000000
0.937407 0.549859 0.000000
0.957641 0.551629 0.000000
0.976501 0.553613 0.000000
0.993957 0.554894 0.000000
1.000000 0.556878 0.000000
1.000000 0.561212 0.000000
1.000000 0.569024 0.065095
0.000000 0.356939 0.244816
0.000000 0.356512 0.244175
0.000000 0.355993 0.243137
0.000000 0.354559 0.240818
0.000000 0.352544 0.237644
0.000000 0.349767 0.233371
0.000000 0.345769 0.227848
0.000000 0.340978 0.221653
0.020691 0.334051 0.214328
0.093843 0.323461 0.210788
0.119692 0.293950 0.198459
0.133089 0.263157 0.185733
0.138094 0.232700 0.173373
0.155856 0.240238 0.157961
0.184024 0.252689 0.140993
0.219974 0.264256 0.122438
0.250706 0.263005 0.105409
0.297490 0.267033 0.085847
0.420966 0.324132 0.041901
0.550469 0.383490 0.000000
0.662074 0.441840 0.000000
0.749844 0.490974 0.000000
0.817868 0.529747 0.000000
0.870726 0.558892 0.000000
0.911711 0.579370 0.000000
0.934081 0.579675 0.000000
0.954742 0.580163 0.000000
0.973938 0.581018 0.000000
0.992096 0.582422 0.000000
1.000000 0.583520 0.000000
1.000000 0.586084 0.000000
1.000000 0.591241 0.000000
0.000000 0.399908 0.267124
0.000000 0.399939 0.266514
0.000000 0.420874 0.276921
0.000000 0.419135 0.274510
0.000000 0.416175 0.270420
0.000000 0.411872 0.264988
0.000000 0.406561 0.258488
0.000000 0.399481 0.250523
0.000000 0.390753 0.241825
0.071229 0.379828 0.232181
0.120699 0.354955 0.224399
0.140993 0.318822 0.208713
0.149752 0.281926 0.193118
0.152712 0.251469 0.177890
0.175540 0.264042 0.160586
0.206485 0.275975 0.141543
0.245487 0.287297 0.120943
0.276646 0.284611 0.102327
0.321111 0.284855 0.079744
0.454108 0.348760 0.000000
0.585687 0.414466 0.000000
0.693385 0.474586 0.000000
0.776913 0.523217 0.000000
0.840330 0.559655 0.000000
0.889097 0.586053 0.000000
0.927245 0.604608 0.000000
0.952880 0.610376 0.000000
0.971801 0.609430 0.000000
0.989929 0.609308 0.000000
1.000000 0.610101 0.000000
1.000000 0.611353 0.000000
1.000000 0.614008 0.000000
0.000000 0.449928 0.293767
0.000000 0.452491 0.294560
0.000000 0.454902 0.295201
0.000000 0.455970 0.294285
0.000000 0.455146 0.291417
0.000000 0.451911 0.286503
0.000000 0.446815 0.280003
0.000000 0.439826 0.272038
0.000000 0.431312 0.263066
0.012573 0.420356 0.252873
0.110292 0.406073 0.246281
0.141695 0.369238 0.230259
0.156161 0.329412 0.212680
0.160616 0.289677 0.195712
0.166476 0.268925 0.178836
0.191562 0.281163 0.160372
0.224582 0.292943 0.140597
0.265080 0.304082 0.118776
0.296330 0.300603 0.098970
0.336919 0.297307 0.073976
0.475715 0.366247 0.000000
0.609033 0.437293 0.000000
0.714565 0.498909 0.000000
0.795499 0.547570 0.000000
0.856443 0.583093 0.000000
0.903197 0.608270 0.000000
0.939910 0.625849 0.000000
0.969360 0.637995 0.000000
0.987732 0.636713 0.000000
1.000000 0.636378 0.000000
1.000000 0.636957 0.000000
1.000000 0.637751 0.000000
0.000000 0.493355 0.317693
0.000000 0.495766 0.318700
0.000000 0.497993 0.319158
0.000000 0.498848 0.318212
0.000000 0.497810 0.315282
0.000000 0.494911 0.310704
0.000000 0.489815 0.304112
0.000000 0.482887 0.295842
0.000000 0.474434 0.286595
0.000000 0.463386 0.275731
0.085786 0.449989 0.263859
0.141238 0.424231 0.255161
0.162234 0.382727 0.235477
0.171176 0.339788 0.216190
0.170993 0.296666 0.197604
0.181643 0.287053 0.179477
0.209232 0.299199 0.159915
0.244388 0.311009 0.139010
0.286839 0.322210 0.115602
0.318303 0.318120 0.094423
0.355688 0.311620 0.065675
0.499580 0.385687 0.000000
0.633478 0.461524 0.000000
0.737057 0.524468 0.000000
0.814633 0.572198 0.000000
0.873045 0.606531 0.000000
0.917540 0.630274 0.000000
0.952819 0.646937 0.000000
0.981750 0.658961 0.000000
1.000000 0.662806 0.000000
1.000000 0.662043 0.000000
1.000000 0.661769 0.000000
0.000000 0.538293 0.343938
0.000000 0.540703 0.345037
0.000000 0.542748 0.345495
0.000000 0.543511 0.344579
0.000000 0.542626 0.341833
0.000000 0.539483 0.337041
0.000000 0.534417 0.330175
0.000000 0.527581 0.322026
0.000000 0.519097 0.312352
0.000000 0.508476 0.301183
0.060883 0.495094 0.288609
0.129610 0.478218 0.276768
0.167300 0.439826 0.261234
0.181552 0.395270 0.239902
0.185275 0.349157 0.218906
0.181338 0.303716 0.199313
0.199252 0.306828 0.179995
0.229862 0.319738 0.159457
0.268376 0.332464 0.136812
0.313817 0.344732 0.110994
0.346807 0.340734 0.086854
0.386969 0.335393 0.041566
0.533989 0.413458 0.000000
0.667720 0.494240 0.000000
0.767880 0.558007 0.000000
0.841337 0.604242 0.000000
0.896178 0.636316 0.000000
0.937896 0.658106 0.000000
0.971160 0.673335 0.000000
0.998657 0.684260 0.000000
1.000000 0.691341 0.000000
1.000000 0.690242 0.000000
0.000000 0.594995 0.379706
0.000000 0.595697 0.379767
0.000000 0.595911 0.379126
0.000000 0.595331 0.377478
0.000000 0.593317 0.373968
0.000000 0.589746 0.368841
0.000000 0.584710 0.361975
0.000000 0.578515 0.353826
0.000000 0.570581 0.343999
0.000000 0.560815 0.332891
0.006989 0.548547 0.320226
0.122713 0.532494 0.305119
0.177462 0.506310 0.294621
0.196170 0.460822 0.270024
0.203586 0.412604 0.246159
0.201907 0.362799 0.222934
0.195254 0.317174 0.201755
0.221042 0.330510 0.180758
0.254856 0.343786 0.158480
0.296147 0.356756 0.133547
0.343603 0.368994 0.104128
0.376959 0.364294 0.075959
0.418158 0.359075 0.000000
0.562676 0.437934 0.000000
0.693874 0.520775 0.000000
0.790646 0.584253 0.000000
0.861173 0.629297 0.000000
0.913542 0.659846 0.000000
0.953643 0.680537 0.000000
0.985321 0.694636 0.000000
1.000000 0.704402 0.000000
1.000000 0.711818 0.000000
0.000000 0.639094 0.409735
0.000000 0.639918 0.410101
0.000000 0.640314 0.409796
0.000000 0.639582 0.407904
0.000000 0.637842 0.404822
0.000000 0.634455 0.399573
0.000000 0.629694 0.392950
0.000000 0.623621 0.384588
0.000000 0.616327 0.375128
0.000000 0.606989 0.363714
0.000000 0.595819 0.350958
0.119142 0.581231 0.335882
0.168917 0.562432 0.318242
0.209781 0.524712 0.302831
0.221042 0.476722 0.275975
0.222873 0.425635 0.249882
0.216800 0.373266 0.225467
0.215030 0.340215 0.202884
0.244297 0.354528 0.180606
0.281651 0.368475 0.156588
0.325841 0.381994 0.129152
0.376226 0.395148 0.094759
0.410468 0.390326 0.057618
0.454353 0.386786 0.000000
0.589349 0.461646 0.000000
0.718654 0.546593 0.000000
0.812741 0.609918 0.000000
0.880705 0.653651 0.000000
0.930663 0.682612 0.000000
0.968292 0.701503 0.000000
0.998322 0.714839 0.000000
1.000000 0.725032 0.000000
0.000000 0.689693 0.448066
0.000000 0.690639 0.448432
0.000000 0.690730 0.447944
0.000000 0.689723 0.445991
0.000000 0.687343 0.442237
0.000000 0.683925 0.437324
0.000000 0.679072 0.430549
0.000000 0.672877 0.422034
0.000000 0.665248 0.411994
0.000000 0.656214 0.400488
0.000000 0.644831 0.386999
0.125002 0.631159 0.371496
0.177768 0.614038 0.353460
0.227787 0.589960 0.341344
0.241215 0.543481 0.311009
0.245396 0.492195 0.281346
0.241398 0.438025 0.253056
0.230564 0.382849 0.227054
0.236545 0.363806 0.203616
0.269230 0.378851 0.179751
0.309880 0.393774 0.153506
0.357366 0.408240 0.122560
0.409857 0.421790 0.081453
0.444129 0.416632 0.003052
0.488991 0.414160 0.000000
0.622400 0.491279 0.000000
0.748959 0.577783 0.000000
0.838895 0.639643 0.000000
0.902190 0.679866 0.000000
0.948211 0.705867 0.000000
0.983734 0.723720 0.000000
1.000000 0.737148 0.000000
0.000000 0.728359 0.479652
0.000000 0.729183 0.480140
0.000000 0.729366 0.479774
0.000000 0.728450 0.477943
0.000000 0.726345 0.474647
0.000000 0.723384 0.470130
0.000000 0.719142 0.463783
0.000000 0.713832 0.456123
0.000000 0.707424 0.447211
0.000000 0.699733 0.436835
0.000000 0.690028 0.424201
0.141848 0.678340 0.409796
0.195041 0.663630 0.392523
0.232334 0.645350 0.372442
0.268437 0.612299 0.354223
0.274784 0.565484 0.321050
0.273442 0.512596 0.288731
0.264805 0.456519 0.258579
0.249485 0.398566 0.230472
0.266331 0.395605 0.205814
0.303441 0.411780 0.179446
0.348272 0.427649 0.149783
0.399207 0.442939 0.113313
0.454231 0.457527 0.052827
0.489235 0.452522 0.000000
0.536584 0.452674 0.000000
0.661646 0.527245 0.000000
0.783749 0.614038 0.000000
0.867185 0.671656 0.000000
0.925475 0.708217 0.000000
0.968261 0.732143 0.000000
1.000000 0.749508 0.000000
0.000000 0.766506 0.513481
0.000000 0.767147 0.513970
0.000000 0.767453 0.514031
0.000000 0.766812 0.512718
0.000000 0.764675 0.509422
0.000000 0.761715 0.504906
0.000000 0.757839 0.499214
0.000000 0.753048 0.492134
0.000000 0.747311 0.484047
0.000000 0.740536 0.474556
0.084413 0.732235 0.463386
0.168185 0.722286 0.450080
0.219120 0.709804 0.434150
0.256870 0.694240 0.415320
0.296056 0.673579 0.399756
0.307713 0.634180 0.367285
0.308690 0.587304 0.331243
0.302586 0.533867 0.296513
0.289494 0.476112 0.263890
0.270207 0.416236 0.234287
0.301427 0.431006 0.207919
0.343297 0.448524 0.178531
0.392432 0.465675 0.144320
0.446723 0.481971 0.099031
0.503746 0.497841 0.000000
0.539239 0.493843 0.000000
0.587884 0.496529 0.000000
0.700771 0.564508 0.000000
0.815274 0.647761 0.000000
0.893034 0.701564 0.000000
0.946929 0.735012 0.000000
0.986999 0.757900 0.000000
0.000000 0.799344 0.545586
0.000000 0.799802 0.545953
0.000000 0.800046 0.546014
0.000000 0.800015 0.545434
0.000000 0.799557 0.544182
0.000000 0.797574 0.540978
0.000000 0.795224 0.537011
0.000000 0.792447 0.532616
0.000000 0.788968 0.527276
0.010071 0.784817 0.521111
0.161288 0.779294 0.513115
0.224155 0.772335 0.503532
0.270573 0.763119 0.491005
0.307256 0.751217 0.474800
0.335210 0.735744 0.454261
0.364599 0.710201 0.435065
0.364660 0.671504 0.394476
0.360723 0.626581 0.354131
0.350927 0.574792 0.314946
0.333684 0.516472 0.278660
0.320958 0.469337 0.245914
0.361151 0.489204 0.215427
0.409705 0.508507 0.180484
0.464454 0.527367 0.137392
0.521263 0.544732 0.070161
0.577935 0.561364 0.000000
0.611963 0.556664 0.000000
0.660334 0.561181 0.000000
0.758968 0.620966 0.000000
0.860533 0.695552 0.000000
0.928832 0.741482 0.000000
0.976715 0.770626 0.000000
0.000000 0.837522 0.589288
0.000000 0.837736 0.589349
0.000000 0.837736 0.589166
0.000000 0.837583 0.588434
0.000000 0.837278 0.587366
0.000000 0.836545 0.585657
0.000000 0.834043 0.582147
0.000000 0.830930 0.577813
0.001495 0.827329 0.573114
0.161257 0.822965 0.567376
0.225040 0.817624 0.560479
0.275120 0.811032 0.551690
0.316075 0.803037 0.541100
0.350072 0.792996 0.527276
