data/fiter_cube/35558087/1023153/file.cube
# Created by Adobe Lightroom plugin Export LUT (1.17.0)
# www.johnrellis.com/lightroom/exportlut.htm
# Preset: 明亮通透美食摄影_06 云集
# Color profile: C:\Program Files (x86)\Common Files\Adobe\Color\Profiles\Recommended\AdobeRGB1998.icc
LUT_3D_SIZE 32
DOMAIN_MIN 0.0 0.0 0.0
DOMAIN_MAX 1.0 1.0 1.0
0.000000 0.000000 0.000000
0.032898 0.000427 0.000183
0.063142 0.000702 0.000183
0.090425 0.000183 0.000061
0.119295 0.000000 0.000000
0.149142 0.000000 0.000000
0.180941 0.000000 0.000000
0.214206 0.000000 0.000000
0.249790 0.000000 0.000000
0.287694 0.000000 0.000000
0.328222 0.000000 0.000000
0.371038 0.000000 0.000000
0.415473 0.000000 0.000000
0.460883 0.000000 0.000000
0.506584 0.000000 0.000000
0.552239 0.000000 0.000000
0.597498 0.000000 0.000000
0.642023 0.000000 0.000000
0.684932 0.000000 0.000000
0.738277 0.000000 0.000000
0.785702 0.000000 0.000000
0.826322 0.000000 0.000000
0.860746 0.000000 0.000000
0.890440 0.000000 0.000000
0.916442 0.000000 0.000000
0.939971 0.000000 0.000000
0.962036 0.000000 0.000000
0.983032 0.000000 0.000000
1.000000 0.000000 0.000000
1.000000 0.000000 0.000000
1.000000 0.000000 0.000000
1.000000 0.000000 0.000000
0.000000 0.032013 0.001770
0.023835 0.026337 0.005890
0.061830 0.030549 0.000000
0.089631 0.029999 0.000000
0.118471 0.030060 0.000000
0.148135 0.028626 0.000000
0.179568 0.026825 0.000000
0.212436 0.024323 0.000000
0.247623 0.019928 0.000000
0.285161 0.014160 0.000000
0.325200 0.004364 0.000000
0.367468 0.000000 0.000000
0.411414 0.000000 0.000000
0.456397 0.000000 0.000000
0.501640 0.000000 0.000000
0.546960 0.000000 0.000000
0.591852 0.000000 0.000000
0.636347 0.000000 0.000000
0.679347 0.000000 0.000000
0.732326 0.000000 0.000000
0.778958 0.000000 0.000000
0.819455 0.000000 0.000000
0.854185 0.000000 0.000000
0.884398 0.000000 0.000000
0.910948 0.000000 0.000000
0.935088 0.000000 0.000000
0.957763 0.000000 0.000000
0.979309 0.000000 0.000000
1.000000 0.000000 0.000000
1.000000 0.000000 0.000000
1.000000 0.000000 0.000000
1.000000 0.000000 0.000000
0.000000 0.062928 0.004944
0.013581 0.063691 0.000000
0.053193 0.058869 0.011780
0.087831 0.061982 0.003204
0.117586 0.061433 0.000000
0.147280 0.060945 0.000000
0.178256 0.060578 0.000000
0.210788 0.060029 0.000000
0.245731 0.059205 0.000000
0.282933 0.056550 0.000000
0.322820 0.052003 0.000000
0.364935 0.044587 0.000000
0.408667 0.031281 0.000000
0.453529 0.015320 0.000000
0.498573 0.000000 0.000000
0.543816 0.000000 0.000000
0.588525 0.000000 0.000000
0.632898 0.000000 0.000000
0.676478 0.000000 0.000000
0.729244 0.000000 0.000000
0.775479 0.000000 0.000000
0.815915 0.000000 0.000000
0.850767 0.000000 0.000000
0.881193 0.000000 0.000000
0.908049 0.000000 0.000000
0.932433 0.000000 0.000000
0.955383 0.000000 0.000000
0.977234 0.000000 0.000000
0.998291 0.000000 0.000000
1.000000 0.000000 0.000000
1.000000 0.000000 0.000000
1.000000 0.000000 0.000000
0.000000 0.090700 0.008576
0.002380 0.091096 0.000519
0.031556 0.091066 0.000000
0.079194 0.083467 0.028992
0.109102 0.086549 0.028077
0.146334 0.088594 0.000000
0.177188 0.088777 0.000000
0.209628 0.089174 0.000000
0.244327 0.089479 0.000000
0.281376 0.089540 0.000000
0.320775 0.089448 0.000000
0.362585 0.088533 0.000000
0.405829 0.087373 0.000000
0.450263 0.084657 0.000000
0.495125 0.080140 0.000000
0.540093 0.074098 0.000000
0.584710 0.065156 0.000000
0.628809 0.049653 0.000000
0.674434 0.018036 0.000000
0.724819 0.000000 0.000000
0.769650 0.000000 0.000000
0.809628 0.000000 0.000000
0.844999 0.000000 0.000000
0.876524 0.000000 0.000000
0.904692 0.000000 0.000000
0.930358 0.000000 0.000000
0.954192 0.000000 0.000000
0.976562 0.000000 0.000000
0.997742 0.000000 0.000000
1.000000 0.000000 0.000000
1.000000 0.000000 0.000000
1.000000 0.000000 0.000000
0.000000 0.120150 0.015808
0.000000 0.120546 0.000000
0.013092 0.120089 0.000000
0.068788 0.119112 0.000427
0.102510 0.107759 0.048920
0.126284 0.107759 0.060822
0.174777 0.117647 0.000488
0.206943 0.118624 0.000000
0.241306 0.119570 0.000000
0.277867 0.121096 0.000000
0.316930 0.122530 0.000000
0.358282 0.123934 0.000000
0.401312 0.124514 0.000000
0.445716 0.124392 0.000000
0.490761 0.123568 0.000000
0.536156 0.121370 0.000000
0.581445 0.118257 0.000000
0.626032 0.113954 0.000000
0.674922 0.109010 0.000000
0.723598 0.102876 0.000000
0.767117 0.095064 0.000000
0.806455 0.085664 0.000000
0.841611 0.074891 0.000000
0.873320 0.061616 0.000000
0.901915 0.033692 0.000000
0.927947 0.001251 0.000000
0.952087 0.000000 0.000000
0.974640 0.000000 0.000000
0.995972 0.000000 0.000000
1.000000 0.000000 0.000000
1.000000 0.000000 0.000000
1.000000 0.000000 0.000000
0.000000 0.152316 0.026307
0.000000 0.152651 0.007630
0.000000 0.152071 0.000000
0.049989 0.150484 0.000000
0.097353 0.148898 0.000763
0.126802 0.133913 0.060334
0.144472 0.128115 0.077119
0.197787 0.145296 0.030671
0.240024 0.150637 0.000000
0.276493 0.152865 0.000000
0.315343 0.155673 0.000000
0.356603 0.157809 0.000000
0.399329 0.160006 0.000000
0.443671 0.161440 0.000000
0.488685 0.162325 0.000000
0.534203 0.162295 0.000000
0.579767 0.161410 0.000000
0.624598 0.159762 0.000000
0.676936 0.158724 0.000000
0.724453 0.156374 0.000000
0.767544 0.152377 0.000000
0.806912 0.147005 0.000000
0.880613 0.149722 0.000000
0.908415 0.143252 0.000000
0.932860 0.136538 0.000000
0.954955 0.129458 0.000000
0.975311 0.123018 0.000000
0.994568 0.116396 0.000000
1.000000 0.110719 0.000000
1.000000 0.105806 0.000000
1.000000 0.101228 0.000000
1.000000 0.098238 0.000000
0.000000 0.193179 0.039582
0.000000 0.192813 0.019196
0.000000 0.192447 0.000000
0.017517 0.190463 0.000000
0.080629 0.187472 0.000000
0.130037 0.184054 0.007416
0.157321 0.166323 0.067903
0.168185 0.153231 0.096437
0.227787 0.176730 0.062470
0.284306 0.190494 0.000000
0.324559 0.193606 0.000000
0.366735 0.197330 0.000000
0.410101 0.200259 0.000000
0.454414 0.202640 0.000000
0.499001 0.204105 0.000000
0.543450 0.204868 0.000000
0.588067 0.204929 0.000000
0.639002 0.206058 0.000000
0.690944 0.206973 0.000000
0.738766 0.206027 0.000000
0.783566 0.204105 0.000000
0.825223 0.201022 0.000000
0.862882 0.197391 0.000000
0.895964 0.192813 0.000000
0.924590 0.187686 0.000000
0.949096 0.181979 0.000000
0.970794 0.176242 0.000000
0.990723 0.170535 0.000000
1.000000 0.165011 0.000000
1.000000 0.160403 0.000000
1.000000 0.155886 0.000000
1.000000 0.152224 0.000000
0.000000 0.230503 0.054414
0.000000 0.230014 0.034546
0.000000 0.229435 0.006806
0.000000 0.227543 0.000000
0.066682 0.224002 0.000000
0.110262 0.220005 0.000000
0.158724 0.214023 0.016266
0.184909 0.195956 0.075898
0.194034 0.179294 0.110262
0.251865 0.203555 0.082551
0.314702 0.222751 0.004578
0.363928 0.230686 0.000000
0.407019 0.234501 0.000000
0.451057 0.237827 0.000000
0.495399 0.240391 0.000000
0.539818 0.242130 0.000000
0.587671 0.244602 0.000000
0.639948 0.247868 0.000000
0.689143 0.249241 0.000000
0.735225 0.248875 0.000000
0.778958 0.247684 0.000000
0.819944 0.245487 0.000000
0.857298 0.242405 0.000000
0.890410 0.238193 0.000000
0.919280 0.233249 0.000000
0.944182 0.227756 0.000000
0.966369 0.222019 0.000000
0.986755 0.216220 0.000000
1.000000 0.210788 0.000000
1.000000 0.205722 0.000000
1.000000 0.201083 0.000000
1.000000 0.196933 0.000000
0.000000 0.271244 0.063752
0.000000 0.270787 0.050721
0.000000 0.270054 0.021271
0.000000 0.268254 0.000000
0.018860 0.264408 0.000000
0.094789 0.259373 0.000000
0.143343 0.255741 0.000000
0.189059 0.247013 0.023285
0.215396 0.228580 0.084291
0.226566 0.211582 0.120546
0.277928 0.232303 0.104768
0.344518 0.255253 0.052155
0.405798 0.270085 0.000000
0.449805 0.273777 0.000000
0.493782 0.277073 0.000000
0.540917 0.281071 0.000000
0.592309 0.286076 0.000000
0.641871 0.289403 0.000000
0.688960 0.290867 0.000000
0.733700 0.290959 0.000000
0.776455 0.290166 0.000000
0.816831 0.288182 0.000000
0.853727 0.285374 0.000000
0.886656 0.281468 0.000000
0.915526 0.276493 0.000000
0.940612 0.270665 0.000000
0.963012 0.264836 0.000000
0.983673 0.258762 0.000000
1.000000 0.252934 0.000000
1.000000 0.247440 0.000000
1.000000 0.242313 0.000000
1.000000 0.237613 0.000000
0.000000 0.315343 0.070832
0.000000 0.314733 0.061433
0.000000 0.313725 0.035035
0.000000 0.311864 0.000000
0.000000 0.307866 0.000000
0.074525 0.302434 0.000000
0.122103 0.295750 0.000000
0.177096 0.293523 0.000000
0.221073 0.281621 0.032532
0.247532 0.263066 0.093141
0.259983 0.244999 0.131502
0.304509 0.260990 0.127749
0.373754 0.287327 0.081880
0.441413 0.306615 0.000000
0.496742 0.316686 0.000000
0.547539 0.323125 0.000000
0.597559 0.328374 0.000000
0.646143 0.331914 0.000000
0.691981 0.333501 0.000000
0.735195 0.333379 0.000000
0.776181 0.332341 0.000000
0.814511 0.330114 0.000000
0.849729 0.326604 0.000000
0.881468 0.322240 0.000000
0.909911 0.316899 0.000000
0.935210 0.311040 0.000000
0.958251 0.304967 0.000000
0.979644 0.298741 0.000000
0.999908 0.292729 0.000000
1.000000 0.287022 0.000000
1.000000 0.281773 0.000000
1.000000 0.276646 0.000000
0.000000 0.360571 0.078004
0.000000 0.359930 0.069154
0.000000 0.359075 0.050935
0.000000 0.357183 0.000000
0.000000 0.353735 0.000000
0.000000 0.348425 0.000000
0.106661 0.341711 0.000000
0.151797 0.334661 0.000000
0.212924 0.334264 0.000000
0.255406 0.319280 0.041382
0.282322 0.300237 0.102541
0.294194 0.279637 0.143221
0.334142 0.292546 0.153323
0.410132 0.325078 0.108980
0.484260 0.349340 0.000000
0.550561 0.364843 0.000000
0.598810 0.369238 0.000000
0.645899 0.372381 0.000000
0.690547 0.373816 0.000000
0.732937 0.373785 0.000000
0.773342 0.372747 0.000000
0.811368 0.370489 0.000000
0.846555 0.367132 0.000000
0.878325 0.362737 0.000000
0.906737 0.357244 0.000000
0.932067 0.350958 0.000000
0.955077 0.344427 0.000000
0.976501 0.337865 0.000000
0.996857 0.331395 0.000000
1.000000 0.325170 0.000000
1.000000 0.319371 0.000000
1.000000 0.313939 0.000000
0.000000 0.410193 0.085145
0.000000 0.409674 0.076905
0.000000 0.408637 0.063386
0.000000 0.406653 0.000000
0.000000 0.403723 0.000000
0.000000 0.398230 0.000000
0.077241 0.391577 0.000000
0.137453 0.383642 0.000000
0.190677 0.378027 0.000000
0.251164 0.377783 0.000000
0.292821 0.360540 0.052003
0.324315 0.345098 0.113741
0.365332 0.349859 0.169467
0.400275 0.356420 0.196811
0.484169 0.393591 0.148501
0.563165 0.419532 0.072511
0.636072 0.436561 0.000000
0.685634 0.439063 0.000000
0.726162 0.436530 0.000000
0.764736 0.433295 0.000000
0.800961 0.429206 0.000000
0.834623 0.424231 0.000000
0.865354 0.418250 0.000000
0.893400 0.411597 0.000000
0.918883 0.404273 0.000000
0.942016 0.396612 0.000000
0.963256 0.388708 0.000000
0.983124 0.380987 0.000000
1.000000 0.373449 0.000000
1.000000 0.366247 0.000000
1.000000 0.359564 0.000000
1.000000 0.353277 0.000000
0.000000 0.475105 0.094240
0.000000 0.474342 0.086091
0.000000 0.472663 0.071992
0.000000 0.469642 0.001801
0.000000 0.465156 0.000000
0.000000 0.458442 0.000000
0.000000 0.450477 0.000000
0.117739 0.441505 0.000000
0.171145 0.433173 0.000000
0.236698 0.435218 0.000000
0.301335 0.437873 0.000000
0.349523 0.425116 0.060853
0.385748 0.410712 0.130953
0.408240 0.393774 0.184024
0.432532 0.390845 0.227543
0.517357 0.430243 0.180514
0.595819 0.456703 0.115999
0.665888 0.472633 0.000000
0.720699 0.477028 0.000000
0.758663 0.473091 0.000000
0.794705 0.468330 0.000000
0.828305 0.463081 0.000000
0.859098 0.456947 0.000000
0.887297 0.449897 0.000000
0.912963 0.442329 0.000000
0.936400 0.434241 0.000000
0.958007 0.426001 0.000000
0.978271 0.417823 0.000000
0.997681 0.409827 0.000000
1.000000 0.402350 0.000000
1.000000 0.395300 0.000000
1.000000 0.388556 0.000000
0.000000 0.526970 0.102632
0.000000 0.526177 0.093874
0.000000 0.524590 0.081178
0.000000 0.521691 0.024475
0.000000 0.517662 0.000000
0.000000 0.513970 0.000000
0.000000 0.508598 0.000000
0.077607 0.502190 0.000000
0.156497 0.494972 0.000000
0.206851 0.487098 0.000000
0.283604 0.491829 0.000000
0.347570 0.490272 0.000000
0.395544 0.476020 0.070954
0.431342 0.459327 0.144411
0.453254 0.440040 0.199619
0.466529 0.426459 0.255985
0.547784 0.464393 0.212070
0.624231 0.490730 0.153323
0.691646 0.505699 0.044953
0.749386 0.511467 0.000000
0.788632 0.507866 0.000000
0.822538 0.502098 0.000000
0.853666 0.495338 0.000000
0.882200 0.488197 0.000000
0.908202 0.480323 0.000000
0.931975 0.471870 0.000000
0.953918 0.463233 0.000000
0.974487 0.454688 0.000000
0.994202 0.446326 0.000000
1.000000 0.438392 0.000000
1.000000 0.430915 0.000000
1.000000 0.423835 0.000000
0.000000 0.592065 0.112825
0.000000 0.591760 0.105013
0.000000 0.590387 0.092042
0.000000 0.587823 0.050904
0.000000 0.583734 0.000000
0.000000 0.578698 0.000000
0.000000 0.571588 0.000000
0.000000 0.563592 0.000000
0.128939 0.555291 0.000000
0.194034 0.546471 0.000000
0.254002 0.541131 0.000000
0.330053 0.545861 0.000000
0.392432 0.540063 0.000000
0.439857 0.524224 0.083192
0.474861 0.505547 0.158572
0.495827 0.483955 0.215030
0.508324 0.467781 0.271580
0.576501 0.497200 0.244266
0.652003 0.523949 0.189059
0.716884 0.538293 0.116548
0.772702 0.543481 0.000000
0.816617 0.541100 0.000000
0.847898 0.534051 0.000000
0.876860 0.526024 0.000000
0.903349 0.517662 0.000000
0.927733 0.509178 0.000000
0.950469 0.500420 0.000000
0.971954 0.491829 0.000000
0.992462 0.483467 0.000000
1.000000 0.475441 0.000000
1.000000 0.467781 0.000000
1.000000 0.460456 0.000000
0.000000 0.653681 0.124056
0.000000 0.653498 0.116335
0.000000 0.652552 0.105043
0.000000 0.650324 0.072663
0.000000 0.646723 0.000000
0.000000 0.642237 0.000000
0.000000 0.636164 0.000000
0.000000 0.628687 0.000000
0.075929 0.620111 0.000000
0.173831 0.610620 0.000000
0.231968 0.599573 0.000000
0.302434 0.596246 0.000000
0.375952 0.598199 0.000000
0.434852 0.585931 0.000000
0.480049 0.567254 0.097322
0.513237 0.546319 0.172091
0.534051 0.523949 0.229313
0.547387 0.506889 0.285985
0.604761 0.529412 0.277134
0.679622 0.557244 0.226169
0.743130 0.571649 0.164920
0.797360 0.576562 0.057069
0.843442 0.574151 0.000000
0.874388 0.566369 0.000000
0.901274 0.557397 0.000000
0.926146 0.547784 0.000000
0.949126 0.538659 0.000000
0.970764 0.529595 0.000000
0.991302 0.520653 0.000000
1.000000 0.512047 0.000000
1.000000 0.503685 0.000000
1.000000 0.495705 0.000000
0.000000 0.703273 0.135561
0.000000 0.702724 0.128176
0.000000 0.701595 0.118227
0.000000 0.699550 0.090333
0.000000 0.696376 0.000000
0.000000 0.692287 0.000000
0.000000 0.687221 0.000000
0.000000 0.680110 0.000000
0.000000 0.672114 0.000000
0.138949 0.663111 0.000000
0.212497 0.653010 0.000000
0.265537 0.641382 0.000000
0.345708 0.641444 0.000000
0.417060 0.641932 0.000000
0.473426 0.626093 0.000000
0.517388 0.606897 0.112947
0.550347 0.585687 0.186648
0.571832 0.563561 0.244694
0.586877 0.546715 0.301457
0.633143 0.561730 0.311498
0.705226 0.588922 0.264042
0.766323 0.602777 0.208927
0.817990 0.606714 0.135775
0.862058 0.603540 0.000000
0.896361 0.595300 0.000000
0.921691 0.585687 0.000000
0.945373 0.575708 0.000000
0.967620 0.565911 0.000000
0.988586 0.556695 0.000000
1.000000 0.547723 0.000000
1.000000 0.539117 0.000000
1.000000 0.530694 0.000000
0.000000 0.747402 0.148470
0.000000 0.747555 0.142153
0.000000 0.772671 0.143374
0.000000 0.770748 0.120272
0.000000 0.767758 0.067201
0.000000 0.763668 0.000000
0.000000 0.758663 0.000000
0.000000 0.751431 0.000000
0.000000 0.743221 0.000000
0.086824 0.734249 0.000000
0.193118 0.724178 0.000000
0.256626 0.712612 0.000000
0.316381 0.701747 0.000000
0.397162 0.699947 0.000000
0.465949 0.695705 0.000000
0.521355 0.678218 0.000000
0.566033 0.658930 0.139681
0.600092 0.638331 0.211795
0.623377 0.616876 0.270726
0.640528 0.600458 0.328222
0.673121 0.605249 0.357885
0.740536 0.629725 0.312718
0.797238 0.640955 0.261570
0.844846 0.642512 0.200198
0.884947 0.636561 0.104189
0.919524 0.625818 0.000000
0.943175 0.614496 0.000000
0.964843 0.603479 0.000000
0.985779 0.592828 0.000000
1.000000 0.583032 0.000000
1.000000 0.573907 0.000000
1.000000 0.565026 0.000000
0.000000 0.791501 0.164492
0.000000 0.794186 0.160433
0.000000 0.796658 0.153658
0.000000 0.797940 0.136080
0.000000 0.797635 0.098146
0.000000 0.795346 0.000000
0.000000 0.791653 0.000000
0.000000 0.786038 0.000000
0.000000 0.779080 0.000000
0.000000 0.771176 0.000000
0.154757 0.762387 0.000000
0.231388 0.752316 0.000000
0.287541 0.740383 0.000000
0.356268 0.732876 0.000000
0.431769 0.730037 0.000000
0.496895 0.722652 0.000000
0.550530 0.705715 0.000000
0.594385 0.687617 0.158206
0.629084 0.668818 0.228946
0.654414 0.649805 0.288365
0.673610 0.634974 0.345617
0.697353 0.634241 0.395453
0.762295 0.658625 0.353826
0.816495 0.669612 0.307256
0.861814 0.670527 0.252262
0.900511 0.664393 0.179538
0.934264 0.653193 0.000000
0.961395 0.640467 0.000000
0.982635 0.629633 0.000000
1.000000 0.618982 0.000000
1.000000 0.608667 0.000000
1.000000 0.599359 0.000000
0.000000 0.821530 0.176699
0.000000 0.823728 0.173404
0.000000 0.825803 0.167910
0.000000 0.826871 0.152865
0.000000 0.826658 0.122560
0.000000 0.824826 0.045563
0.000000 0.821775 0.000000
0.000000 0.817624 0.000000
0.000000 0.811673 0.000000
0.000000 0.804898 0.000000
0.099763 0.797391 0.000000
0.201663 0.788785 0.000000
0.265507 0.778500 0.000000
0.316228 0.766720 0.000000
0.393591 0.762112 0.000000
0.464881 0.758572 0.000000
0.527062 0.749081 0.000000
0.579492 0.733211 0.072511
0.623316 0.716670 0.180087
0.658900 0.699947 0.249454
0.685695 0.683040 0.309667
0.705165 0.668544 0.367132
0.722316 0.664240 0.436713
0.783902 0.687861 0.398566
0.835050 0.698085 0.355413
0.878080 0.698634 0.305180
0.915251 0.692195 0.242802
0.948272 0.680842 0.151156
0.978210 0.666041 0.000000
0.999512 0.654688 0.000000
1.000000 0.644068 0.000000
1.000000 0.633600 0.000000
0.000000 0.848539 0.189517
0.000000 0.850431 0.186618
0.000000 0.852171 0.181949
0.000000 0.853117 0.168978
0.000000 0.852995 0.144106
0.000000 0.851469 0.097322
0.000000 0.848997 0.000000
0.000000 0.845823 0.000000
0.000000 0.840818 0.000000
0.000000 0.834958 0.000000
0.000000 0.828397 0.000000
0.165255 0.820920 0.000000
0.239750 0.812192 0.000000
0.295933 0.802182 0.000000
0.349554 0.792233 0.000000
0.428351 0.789303 0.000000
0.496895 0.786313 0.000000
0.558007 0.776669 0.000000
0.611139 0.763607 0.115633
0.656703 0.750301 0.209934
0.694575 0.736904 0.280461
0.724269 0.723537 0.343511
0.745083 0.710597 0.402991
0.762264 0.707332 0.479957
0.813138 0.725704 0.459388
0.860380 0.734920 0.421057
0.900664 0.734859 0.376104
0.936034 0.728206 0.322057
0.968078 0.716213 0.249790
0.997467 0.699825 0.126650
1.000000 0.684077 0.000000
1.000000 0.672877 0.000000
0.000000 0.880430 0.209171
0.000000 0.881071 0.206119
0.000000 0.881468 0.201266
0.000000 0.881254 0.189578
0.000000 0.880400 0.168276
0.000000 0.878813 0.132601
0.000000 0.876768 0.050782
0.000000 0.874357 0.000000
0.000000 0.870939 0.000000
0.000000 0.866392 0.000000
0.000000 0.861265 0.000000
0.123629 0.855253 0.000000
0.214603 0.848142 0.000000
0.276432 0.839902 0.000000
0.327062 0.830442 0.000000
0.390661 0.823423 0.000000
0.464729 0.820188 0.000000
0.530541 0.816861 0.000000
0.590509 0.806058 0.000000
0.642939 0.793759 0.156924
0.687922 0.781125 0.242802
0.725338 0.768307 0.312291
0.754391 0.755428 0.375067
0.774929 0.743099 0.434211
0.791196 0.739345 0.510307
0.830869 0.752529 0.509392
0.875334 0.761929 0.475471
0.913817 0.762814 0.436103
0.948150 0.757168 0.388739
0.979553 0.745876 0.326726
1.000000 0.729335 0.234989
1.000000 0.708248 0.000000
0.000000 0.901305 0.222446
0.000000 0.901884 0.219913
0.000000 0.902312 0.215976
0.000000 0.902220 0.205631
0.000000 0.901549 0.187533
0.000000 0.900206 0.158236
0.000000 0.898436 0.108217
0.000000 0.896330 0.000000
0.000000 0.893797 0.000000
0.000000 0.889799 0.000000
0.000000 0.885374 0.000000
0.027863 0.880308 0.000000
0.182284 0.874388 0.000000
0.252079 0.867582 0.000000
0.306493 0.859922 0.000000
0.353216 0.851347 0.000000
0.425727 0.847105 0.000000
0.496132 0.844114 0.000000
0.559625 0.840604 0.000000
0.618860 0.829984 0.033722
0.670954 0.819059 0.194461
0.715938 0.807889 0.277104
0.753475 0.796719 0.347448
0.782956 0.785611 0.411658
0.798611 0.769528 0.462837
0.814939 0.766445 0.538293
0.845487 0.776211 0.557000
0.887572 0.786496 0.528557
0.924346 0.788846 0.495369
0.957610 0.784817 0.454719
0.988525 0.775113 0.401831
1.000000 0.759854 0.326879
0.000000 0.924895 0.242466
0.000000 0.925475 0.240665
0.000000 0.925719 0.237034
0.000000 0.925414 0.227848
0.000000 0.924620 0.211856
0.000000 0.923339 0.187533
0.000000 0.921630 0.150301
0.000000 0.919554 0.078676
0.000000 0.917266 0.000000
0.000000 0.913542 0.000000
0.000000 0.909148 0.000000
0.000000 0.904417 0.000000
0.147189 0.899046 0.000000
0.226535 0.892912 0.000000
0.284489 0.885863 0.000000
0.333349 0.878050 0.000000
0.381109 0.870054 0.000000
0.456916 0.866606 0.000000
0.523522 0.863554 0.000000
0.585443 0.859037 0.000000
0.643580 0.849485 0.113283
0.694850 0.839536 0.227359
0.738949 0.829160 0.308080
0.775357 0.818418 0.377844
0.803464 0.807553 0.440925
0.823117 0.797024 0.499397
0.839445 0.794858 0.573358
0.861479 0.801328 0.607691
0.900389 0.812314 0.585809
0.934905 0.816281 0.560113
0.966644 0.814664 0.528313
0.996826 0.807706 0.486549
0.000000 0.940551 0.254612
0.000000 0.941131 0.253178
0.000000 0.941344 0.249912
0.000000 0.941161 0.241886
0.000000 0.940490 0.227817
0.000000 0.939544 0.206882
0.000000 0.938262 0.176089
0.000000 0.936767 0.127321
0.000000 0.935119 0.000000
0.000000 0.932616 0.000000
0.000000 0.929229 0.000000
0.000000 0.925475 0.000000
0.105440 0.921263 0.000000
0.200931 0.916442 0.000000
0.263554 0.910918 0.000000
0.314916 0.904753 0.000000
0.360204 0.898039 0.000000
0.418006 0.892699 0.000000
0.489418 0.889677 0.000000
0.553429 0.886900 0.000000
0.614374 0.881437 0.000000
0.671717 0.872282 0.170016
0.722072 0.862699 0.270603
0.765164 0.852873 0.349950
0.800534 0.842893 0.420020
0.827787 0.833036 0.483680
0.846677 0.823758 0.542260
0.863340 0.823026 0.612573
0.878691 0.827665 0.660548
0.914611 0.839811 0.645960
0.946777 0.846403 0.630274
0.976440 0.848173 0.610834
0.000000 0.956359 0.269200
0.000000 0.956664 0.267582
0.000000 0.956695 0.264469
0.000000 0.956390 0.257053
0.000000 0.955749 0.244205
0.000000 0.954833 0.225589
0.000000 0.953735 0.199130
0.000000 0.952483 0.160403
0.000000 0.951171 0.091737
0.000000 0.949615 0.000000
0.000000 0.946777 0.000000
0.000000 0.943786 0.000000
0.002319 0.940429 0.000000
0.173434 0.936553 0.000000
0.241367 0.932067 0.000000
0.295079 0.927062 0.000000
0.341802 0.921569 0.000000
0.384161 0.915801 0.000000
0.451209 0.912108 0.000000
0.518761 0.909331 0.000000
0.580102 0.906584 0.000000
0.640681 0.900084 0.000000
0.696834 0.891234 0.215824
0.746059 0.882017 0.311131
0.787961 0.872648 0.390204
0.822080 0.863310 0.460700
0.848234 0.854490 0.524773
0.866270 0.846281 0.581292
0.883024 0.846677 0.646662
0.893248 0.850065 0.705715
0.926818 0.863737 0.697932
0.956756 0.872465 0.689876
0.000000 0.969665 0.280705
0.000000 0.969818 0.279088
0.000000 0.969879 0.276280
0.000000 0.969696 0.269474
0.000000 0.969390 0.258366
0.000000 0.969024 0.242649
0.000000 0.968750 0.221286
0.000000 0.968566 0.191928
0.000000 0.968475 0.148501
0.000000 0.968444 0.056886
0.000000 0.967163 0.000000
0.000000 0.965576 0.000000
0.000000 0.963622 0.000000
0.162051 0.961181 0.000000
0.231510 0.958190 0.000000
0.285283 0.954589 0.000000
0.332036 0.950591 0.000000
0.374487 0.946349 0.000000
0.417121 0.942138 0.000000
0.489631 0.939178 0.000000
0.554009 0.936248 0.000000
0.613001 0.933257 0.000000
0.674464 0.925536 0.160983
0.730404 0.916625 0.285435
0.778805 0.907500 0.378271
0.819272 0.898528 0.457923
0.851591 0.889982 0.528954
0.875578 0.882231 0.589868
0.892180 0.875608 0.641352
0.908324 0.877317 0.699977
0.915435 0.880339 0.760098
0.944091 0.893919 0.760861
0.000000 0.986389 0.303349
0.000000 0.986481 0.301823
0.000000 0.986419 0.299260
0.000000 0.986206 0.292851
0.000000 0.985870 0.282719
0.000000 0.985473 0.268559
0.000000 0.985077 0.249607
0.000000 0.984771 0.224277
0.000000 0.984436 0.189578
0.000000 0.984192 0.137331
0.000000 0.983154 0.092226
0.000000 0.981476 0.065797
0.000000 0.979553 0.000000
0.137942 0.977325 0.000000
