data/fiter_cube/35558087/1023153/file.cube
# Created by Adobe Lightroom plugin Export LUT (1.17.0)
# www.johnrellis.com/lightroom/exportlut.htm
# Preset: 明亮通透美食摄影_06 云集
# Color profile: C:\Program Files (x86)\Common Files\Adobe\Color\Profiles\Recommended\AdobeRGB1998.icc
LUT_3D_SIZE 8
DOMAIN_MIN 0.000000 0.000000 0.000000
DOMAIN_MAX 0.903226 0.903226 0.903226
0.000000 0.000000 0.000000
0.119295 0.000000 0.000000
0.249790 0.000000 0.000000
0.415473 0.000000 0.000000
0.597498 0.000000 0.000000
0.785702 0.000000 0.000000
0.916442 0.000000 0.000000
1.000000 0.000000 0.000000
0.000000 0.120150 0.015808
0.102510 0.107759 0.048920
0.241306 0.119570 0.000000
0.401312 0.124514 0.000000
0.581445 0.118257 0.000000
0.767117 0.095064 0.000000
0.901915 0.033692 0.000000
0.995972 0.000000 0.000000
0.000000 0.271244 0.063752
0.018860 0.264408 0.000000
0.215396 0.228580 0.084291
0.405798 0.270085 0.000000
0.592309 0.286076 0.000000
0.776455 0.290166 0.000000
0.915526 0.276493 0.000000
1.000000 0.252934 0.000000
0.000000 0.475105 0.094240
0.000000 0.465156 0.000000
0.171145 0.433173 0.000000
0.385748 0.410712 0.130953
0.595819 0.456703 0.115999
0.794705 0.468330 0.000000
0.912963 0.442329 0.000000
0.997681 0.409827 0.000000
0.000000 0.703273 0.135561
0.000000 0.696376 0.000000
0.000000 0.672114 0.000000
0.345708 0.641444 0.000000
0.550347 0.585687 0.186648
0.705226 0.588922 0.264042
0.896361 0.595300 0.000000
0.988586 0.556695 0.000000
0.000000 0.848539 0.189517
0.000000 0.852995 0.144106
0.000000 0.840818 0.000000
0.239750 0.812192 0.000000
0.496895 0.786313 0.000000
0.694575 0.736904 0.280461
0.813138 0.725704 0.459388
0.968078 0.716213 0.249790
0.000000 0.940551 0.254612
0.000000 0.940490 0.227817
0.000000 0.935119 0.000000
0.105440 0.921263 0.000000
0.360204 0.898039 0.000000
0.614374 0.881437 0.000000
0.800534 0.842893 0.420020
0.878691 0.827665 0.660548
0.000000 0.997711 0.313970
0.000000 0.997375 0.295171
0.000000 0.997009 0.215274
0.000000 0.994415 0.093568
0.289250 0.980316 0.000000
0.477913 0.970977 0.000000
0.721920 0.954131 0.260807
0.888243 0.922148 0.616114
0.003143 0.003632 0.122225
0.112917 0.008209 0.118196
0.237827 0.000000 0.120882
0.401221 0.000000 0.094179
0.580102 0.000000 0.070161
0.760464 0.000000 0.000000
0.896269 0.000000 0.000000
0.991333 0.000000 0.000000
0.000000 0.121736 0.124300
0.111788 0.114504 0.120180
0.238407 0.097719 0.109102
0.397375 0.068269 0.092287
0.574121 0.000000 0.064332
0.751949 0.000000 0.000000
0.885344 0.000000 0.000000
0.983490 0.000000 0.000000
0.000000 0.269017 0.143221
0.089570 0.260319 0.135531
0.220920 0.233188 0.139315
0.398138 0.255924 0.094270
0.578332 0.262455 0.029755
0.754330 0.259892 0.000000
0.890623 0.245335 0.000000
0.988525 0.226383 0.000000
0.000000 0.465919 0.178439
0.000000 0.455634 0.156954
0.166781 0.432593 0.065644
0.369268 0.392218 0.171450
0.563409 0.427131 0.146639
0.755825 0.436530 0.000000
0.886442 0.418647 0.000000
0.983246 0.393317 0.000000
0.000000 0.700282 0.225193
0.000000 0.689998 0.192569
0.000000 0.663996 0.000000
0.322454 0.619165 0.000000
0.528832 0.562249 0.214389
0.690028 0.573632 0.269627
0.882872 0.582177 0.000000
0.979767 0.546654 0.000000
0.000000 0.840024 0.264103
0.000000 0.837308 0.234379
0.000000 0.826871 0.000000
0.233433 0.800290 0.000000
0.485328 0.775387 0.000000
0.689693 0.731044 0.304021
0.809781 0.721492 0.461952
0.963775 0.708797 0.252628
0.000000 0.931701 0.309148
0.000000 0.929351 0.284276
0.000000 0.924926 0.174899
0.115480 0.914122 0.000000
0.359106 0.892729 0.000000
0.607660 0.875242 0.000000
0.792355 0.834226 0.421759
0.871946 0.818631 0.646387
0.000000 0.992828 0.358495
0.000000 0.993011 0.343633
0.000000 0.992889 0.279728
0.008331 0.991394 0.179263
0.309789 0.983673 0.081331
0.478431 0.972381 0.000000
0.720943 0.952728 0.282811
0.885527 0.919280 0.616724
0.000000 0.000000 0.288365
0.129763 0.000000 0.278508
0.244388 0.000000 0.258274
0.399542 0.000000 0.276371
0.588769 0.000000 0.273411
0.776425 0.000000 0.239322
0.908049 0.000000 0.200565
0.998016 0.000000 0.190646
0.000000 0.127749 0.294194
0.113039 0.119020 0.282444
0.241703 0.106600 0.258091
0.401038 0.035309 0.271214
0.586816 0.000000 0.257572
0.769589 0.000000 0.207218
0.900267 0.000000 0.194980
0.993835 0.000000 0.185916
0.000000 0.295903 0.304356
0.085267 0.285893 0.296544
0.242222 0.250706 0.267948
0.409155 0.205600 0.234562
0.602411 0.184329 0.222446
0.770504 0.162783 0.208377
0.897917 0.150423 0.195346
0.990875 0.148074 0.185061
0.000000 0.509300 0.335149
0.000000 0.499825 0.327672
0.229831 0.463935 0.296178
0.394598 0.415747 0.288731
0.607813 0.436225 0.253300
0.770138 0.416114 0.216983
0.895933 0.393866 0.200809
0.987793 0.370153 0.189151
0.000000 0.725826 0.374212
0.000000 0.718135 0.367346
0.195987 0.686183 0.335302
0.319615 0.640925 0.226810
0.552697 0.584558 0.326665
0.722744 0.592767 0.338994
0.885832 0.572778 0.217716
0.980682 0.536889 0.196353
0.000000 0.852476 0.391333
0.000000 0.848173 0.390265
0.198489 0.830045 0.374304
0.264530 0.807279 0.247501
0.469123 0.770871 0.210880
0.690608 0.728878 0.388769
0.817441 0.726558 0.497810
0.969299 0.703944 0.308171
0.000000 0.936736 0.425574
0.094026 0.933288 0.428229
0.243992 0.923430 0.416388
0.236637 0.915404 0.296513
0.383276 0.894102 0.218814
0.605463 0.875944 0.239231
0.799863 0.837949 0.496315
0.883116 0.830533 0.676600
0.199557 0.990326 0.463386
0.246098 0.988067 0.468788
0.301946 0.984649 0.457465
0.282200 0.986999 0.371557
0.370764 0.980774 0.304845
0.480262 0.971649 0.210575
0.725521 0.953185 0.367559
0.889860 0.920653 0.655787
0.000000 0.000000 0.506798
0.142245 0.000000 0.500053
0.284154 0.000000 0.461433
0.407294 0.000000 0.431312
0.572778 0.000000 0.448035
0.760403 0.000000 0.454810
0.891417 0.000000 0.419776
0.988464 0.000000 0.372320
0.000000 0.125978 0.522148
0.105165 0.118257 0.511711
0.280552 0.089387 0.470954
0.408423 0.014191 0.434394
0.575586 0.000000 0.449134
0.757534 0.000000 0.448493
0.888457 0.000000 0.411200
0.987243 0.000000 0.363684
0.000000 0.331151 0.549950
0.000000 0.316838 0.541405
0.255436 0.268101 0.491249
0.408118 0.233585 0.440009
0.586755 0.243290 0.453864
0.769375 0.137301 0.438758
0.902464 0.000000 0.400214
0.991943 0.000000 0.362005
0.000000 0.551354 0.567193
0.000000 0.542748 0.559960
0.258000 0.510338 0.532616
0.426032 0.440772 0.471138
0.604273 0.379980 0.421790
0.766629 0.356695 0.397345
0.892393 0.347967 0.382055
0.985290 0.343175 0.368841
0.000000 0.770748 0.575830
0.000000 0.761654 0.570672
0.296025 0.733913 0.555322
0.447333 0.676570 0.515129
0.578729 0.605219 0.477546
0.760342 0.602258 0.450660
0.885832 0.563928 0.408209
0.977905 0.531731 0.386450
0.000000 0.876738 0.560266
0.178408 0.876555 0.567346
0.344213 0.857847 0.567742
0.475410 0.824643 0.554253
0.495705 0.785580 0.430365
0.708858 0.740291 0.524071
0.838590 0.740932 0.563989
0.968017 0.700771 0.438025
0.220890 0.942657 0.560174
0.277256 0.940215 0.566155
0.401312 0.930571 0.582605
0.522484 0.912749 0.597406
0.496712 0.901305 0.480323
0.617273 0.877958 0.428290
0.809445 0.840848 0.596063
0.894347 0.838926 0.703334
0.334905 0.990173 0.577905
0.369726 0.988342 0.585382
0.458076 0.981567 0.605371
0.549157 0.972229 0.622889
0.512566 0.973083 0.526879
0.547051 0.967559 0.435370
0.733547 0.953155 0.479225
0.894865 0.921477 0.706447
0.000000 0.000000 0.719234
0.139101 0.000000 0.714382
0.311742 0.000000 0.688960
0.444129 0.000000 0.638331
0.589410 0.000000 0.624018
0.739956 0.000000 0.619593
0.873350 0.000000 0.603845
0.976226 0.000000 0.562066
0.000000 0.127413 0.725582
0.101472 0.121126 0.722133
0.304326 0.087343 0.697078
0.443397 0.000000 0.644190
0.588678 0.000000 0.624537
0.740291 0.000000 0.619684
0.874846 0.000000 0.602838
0.975708 0.000000 0.560540
0.000000 0.326146 0.743587
0.000000 0.317021 0.736080
0.280766 0.295384 0.712093
0.444831 0.254032 0.666285
0.583551 0.216037 0.623133
0.733639 0.240360 0.613886
0.873564 0.197055 0.595392
0.971954 0.132845 0.551324
0.000000 0.547784 0.764706
0.000000 0.543755 0.760830
0.322881 0.531914 0.748074
0.467323 0.482002 0.697993
0.583276 0.410620 0.628534
0.735134 0.433051 0.619745
0.873381 0.384375 0.589075
0.972442 0.338415 0.539910
0.000000 0.747982 0.766964
0.125246 0.744564 0.764187
0.348180 0.729335 0.751095
0.513146 0.697871 0.722805
0.609766 0.624598 0.655634
0.742916 0.564935 0.600336
0.870359 0.540520 0.569512
0.965270 0.526757 0.547753
0.282444 0.878050 0.726680
0.337438 0.874754 0.727352
0.466865 0.861814 0.727718
0.574548 0.837705 0.721401
0.633265 0.791379 0.679286
0.714443 0.736751 0.639429
0.858457 0.737758 0.628443
0.956481 0.700008 0.584894
0.401373 0.944915 0.706813
0.432898 0.941680 0.710231
0.519280 0.931731 0.721187
0.610681 0.917113 0.730251
0.672023 0.895476 0.716365
0.648646 0.871946 0.601343
0.813748 0.837858 0.681086
0.906279 0.839231 0.719966
0.453712 0.984527 0.694118
0.477485 0.982452 0.698848
0.543877 0.976013 0.712673
0.630915 0.968261 0.733761
0.698573 0.956695 0.740932
0.663325 0.956298 0.647272
0.746487 0.947143 0.607630
0.896300 0.918578 0.751766
0.000000 0.000000 0.850919
0.146792 0.000000 0.848203
0.308812 0.000000 0.835660
0.457496 0.000000 0.817350
0.583337 0.000000 0.778622
0.728481 0.000000 0.769284
0.860075 0.000000 0.753170
0.951476 0.262821 0.729915
0.000000 0.156313 0.848386
0.137392 0.153109 0.845335
0.304143 0.139467 0.834318
0.453651 0.102632 0.815457
0.579400 0.000000 0.776089
0.724208 0.000000 0.765438
0.857389 0.102968 0.750851
0.949432 0.293309 0.729183
0.129854 0.353735 0.859220
0.195926 0.350500 0.856291
0.327825 0.339239 0.846311
0.463996 0.312902 0.826230
0.584283 0.252567 0.786435
0.723690 0.229862 0.766537
0.856260 0.289158 0.751400
0.948577 0.378210 0.730770
0.278752 0.550103 0.873930
0.323278 0.551873 0.870024
0.437263 0.559747 0.858152
0.534661 0.544427 0.841306
0.616449 0.480964 0.807706
0.730495 0.430060 0.773983
0.856748 0.470100 0.757961
0.954284 0.466651 0.729793
0.328191 0.704829 0.869810
0.375036 0.707149 0.868498
0.494789 0.714809 0.863249
0.616632 0.721584 0.853666
0.671046 0.680293 0.819699
0.723079 0.590478 0.763973
0.844511 0.614282 0.753719
0.947906 0.579187 0.721736
0.389227 0.848508 0.864744
0.433234 0.848692 0.864775
0.532006 0.844877 0.860777
0.635431 0.836667 0.852506
0.712612 0.818662 0.835233
0.758022 0.767788 0.788724
0.850156 0.723537 0.745846
0.943603 0.710109 0.725887
0.547875 0.940551 0.842161
0.574334 0.938933 0.844175
0.640101 0.932586 0.847349
0.717952 0.924437 0.851164
0.771817 0.913146 0.847807
0.791531 0.885405 0.816526
0.826993 0.842405 0.773495
0.929107 0.840452 0.760616
0.599542 0.978058 0.813016
0.613123 0.976532 0.815091
0.655024 0.971679 0.821683
0.711879 0.964782 0.830777
0.761349 0.956603 0.834012
0.798581 0.945861 0.824491
0.776059 0.940551 0.739590
0.901274 0.917998 0.807492
0.106477 0.121126 0.920867
0.177035 0.124636 0.920165
0.306004 0.129244 0.915679
0.439643 0.125246 0.907225
0.566308 0.076387 0.891478
0.682887 0.000000 0.866667
0.821958 0.000000 0.864225
0.939422 0.211337 0.848020
0.131868 0.200168 0.920134
0.191501 0.201663 0.919310
0.312016 0.201816 0.914855
0.441321 0.194705 0.905699
0.565637 0.162325 0.889891
0.679622 0.000000 0.863767
0.818662 0.082948 0.860990
0.936339 0.238712 0.844938
0.251804 0.376349 0.922606
0.281437 0.375433 0.921386
0.363226 0.371069 0.916686
0.468421 0.359167 0.907774
0.577264 0.327520 0.892241
0.682551 0.254612 0.866423
0.819577 0.272618 0.861723
0.935943 0.357885 0.846555
0.420417 0.570794 0.924865
0.446509 0.576501 0.922789
0.504875 0.582940 0.917388
0.557855 0.564355 0.909758
0.622827 0.525139 0.896086
0.699214 0.450599 0.872679
0.821836 0.439887 0.862211
0.932799 0.497475 0.847562
0.495949 0.700954 0.926726
0.521508 0.706203 0.925658
0.593896 0.722377 0.922332
0.662593 0.730770 0.913695
0.700587 0.706264 0.900206
0.734951 0.640040 0.877592
0.821317 0.590509 0.857420
0.926360 0.628931 0.846983
0.539635 0.809506 0.923095
0.561944 0.811856 0.922484
0.625757 0.818997 0.920531
0.702632 0.827665 0.917601
0.771298 0.832883 0.913207
0.800870 0.805997 0.893797
0.827848 0.731991 0.856901
0.920806 0.750271 0.850309
0.592309 0.909331 0.920806
0.610773 0.909331 0.920653
0.662379 0.908812 0.919585
0.726833 0.907866 0.917906
0.787381 0.905241 0.914641
0.836606 0.898161 0.907439
0.858396 0.864103 0.876432
0.924010 0.829953 0.842924
0.662013 0.970062 0.899901
0.674952 0.968933 0.900450
0.716213 0.965606 0.902739
0.768612 0.960845 0.905303
0.822782 0.955810 0.908293
0.862455 0.950774 0.908873
0.877958 0.939635 0.892302
0.908415 0.919097 0.866453
0.184909 0.192508 0.968902
0.222904 0.195834 0.968505
0.316655 0.204440 0.966400
0.429999 0.215671 0.963012
0.545800 0.219608 0.957671
0.658839 0.198978 0.949981
0.773892 0.159396 0.941863
0.898619 0.233371 0.939117
0.211856 0.248539 0.968078
0.244633 0.250980 0.967681
0.330175 0.256382 0.965698
0.437659 0.263249 0.962188
0.549706 0.263188 0.956878
0.660029 0.241276 0.949157
0.772976 0.199741 0.940581
0.897551 0.261601 0.937835
0.313451 0.396002 0.966094
0.333165 0.396765 0.965637
0.391455 0.396612 0.963592
0.478187 0.398444 0.960784
0.572351 0.389258 0.955627
0.669642 0.360357 0.948089
0.773892 0.310399 0.939055
0.897307 0.356054 0.936431
0.488441 0.588006 0.961364
0.497597 0.587732 0.961059
0.524651 0.583337 0.959533
0.571313 0.575525 0.956939
0.630274 0.557702 0.952819
0.698634 0.520592 0.946624
0.779477 0.448310 0.937499
0.898650 0.482704 0.934874
0.572900 0.704952 0.959472
0.588952 0.710079 0.958831
0.632593 0.722774 0.956390
0.681544 0.731716 0.952911
0.708278 0.711849 0.949462
0.745449 0.676692 0.944060
0.798856 0.612146 0.935851
0.900816 0.613825 0.932311
0.616632 0.792538 0.956878
0.630579 0.795590 0.956359
0.673457 0.805325 0.954864
0.731472 0.818997 0.952911
0.780240 0.825986 0.949401
0.807828 0.810941 0.944427
0.835080 0.766751 0.937041
0.906432 0.739223 0.931518
0.651026 0.871489 0.953460
0.662776 0.872770 0.953155
0.699123 0.876799 0.952178
0.750790 0.883055 0.950927
0.805844 0.890074 0.949493
0.856992 0.896788 0.948119
0.882048 0.884642 0.942382
0.910124 0.837613 0.929137
0.687587 0.944457 0.950134
0.697017 0.944335 0.949981
0.727596 0.944182 0.949523
0.772854 0.943999 0.948913
0.822080 0.943847 0.948211
0.868711 0.943694 0.947509
0.909300 0.943267 0.946593
0.930083 0.932891 0.938140
