data/fiter_cube/35558087/1023153/file.cube
# Created by Adobe Lightroom plugin Export LUT (1.17.0)
# www.johnrellis.com/lightroom/exportlut.htm
# Preset: 明亮通透美食摄影_06 云集
# Color profile: C:\Program Files (x86)\Common Files\Adobe\Color\Profiles\Recommended\AdobeRGB1998.icc
LUT_3D_SIZE 5
DOMAIN_MIN 0.000000 0.000000 0.000000
DOMAIN_MAX 0.903226 0.903226 0.903226
0.000000 0.000000 0.000000
0.214206 0.000000 0.000000
0.506584 0.000000 0.000000
0.826322 0.000000 0.000000
1.000000 0.000000 0.000000
0.000000 0.230503 0.054414
0.184909 0.195956 0.075898
0.495399 0.240391 0.000000
0.819944 0.245487 0.000000
1.000000 0.210788 0.000000
0.000000 0.592065 0.112825
0.000000 0.563592 0.000000
0.474861 0.505547 0.158572
0.816617 0.541100 0.000000
0.992462 0.483467 0.000000
0.000000 0.880430 0.209171
0.000000 0.874357 0.000000
0.327062 0.830442 0.000000
0.725338 0.768307 0.312291
0.948150 0.757168 0.388739
0.000000 0.997711 0.313970
0.000000 0.997009 0.243900
0.174655 0.984649 0.000000
0.542870 0.968597 0.000000
0.888243 0.922148 0.616114
0.000000 0.002045 0.236728
0.207065 0.000000 0.218357
0.492195 0.000000 0.231327
0.803769 0.000000 0.162387
0.992554 0.000000 0.140475
0.000000 0.244907 0.251713
0.205814 0.212650 0.226780
0.494789 0.153597 0.185000
0.800961 0.105074 0.159548
0.991241 0.090211 0.138918
0.000000 0.613947 0.313451
0.142733 0.574212 0.272251
0.461860 0.489143 0.268956
0.795468 0.508843 0.170108
0.986786 0.462562 0.144076
0.000000 0.883970 0.375219
0.133425 0.872526 0.360906
0.342107 0.834104 0.174197
0.726284 0.766201 0.395483
0.949767 0.753323 0.421302
0.202213 0.992370 0.451026
0.255009 0.989624 0.434211
0.291966 0.986664 0.293126
0.547234 0.970245 0.190982
0.892393 0.923430 0.654688
0.000000 0.000000 0.625116
0.267399 0.000000 0.593133
0.495613 0.000000 0.524895
0.785702 0.000000 0.539452
0.982605 0.000000 0.472602
0.000000 0.271824 0.652674
0.224125 0.238560 0.617304
0.501213 0.178256 0.535821
0.788968 0.110170 0.531853
0.983337 0.000000 0.462959
0.000000 0.666041 0.684321
0.216251 0.642695 0.664607
0.518364 0.534691 0.568353
0.791440 0.453162 0.490913
0.976745 0.436988 0.460182
0.234745 0.902037 0.642817
0.380041 0.886564 0.647181
0.577813 0.839231 0.636408
0.741421 0.768734 0.599207
0.955596 0.736385 0.527337
0.383886 0.987091 0.631678
0.476356 0.980835 0.653254
0.629419 0.963989 0.685145
0.603937 0.960327 0.512200
0.893675 0.918517 0.724208
0.000000 0.019348 0.867704
0.267216 0.000000 0.860075
0.519005 0.000000 0.830198
0.752438 0.000000 0.793881
0.947356 0.244450 0.757259
0.108858 0.301671 0.872953
0.283818 0.294774 0.865568
0.520073 0.250492 0.833402
0.747127 0.178744 0.789731
0.941924 0.343725 0.755489
0.335271 0.621057 0.885740
0.460822 0.637079 0.880430
0.605035 0.613855 0.846769
0.741543 0.493050 0.783993
0.938903 0.543755 0.758877
0.463722 0.868986 0.883757
0.546685 0.864958 0.879545
0.700526 0.854002 0.868070
0.786007 0.794644 0.813138
0.936339 0.739590 0.754818
0.636164 0.975280 0.838956
0.675532 0.971130 0.845060
0.759701 0.960876 0.856260
0.822354 0.944549 0.844694
0.902098 0.917418 0.820829
0.184909 0.192508 0.968902
0.290379 0.201846 0.967041
0.488075 0.219547 0.960662
0.686671 0.186740 0.947692
0.898619 0.233371 0.939117
0.281376 0.354162 0.966979
0.351446 0.356878 0.965209
0.513756 0.357885 0.959045
0.691981 0.314855 0.946288
0.897795 0.330816 0.937255
0.541222 0.654292 0.959960
0.591089 0.670497 0.957244
0.645289 0.649195 0.952728
0.733455 0.584375 0.942779
0.899290 0.547814 0.933410
0.627344 0.813657 0.956207
0.669490 0.821958 0.954833
0.767269 0.842344 0.951629
0.828244 0.831266 0.943603
0.907134 0.765072 0.930724
0.687587 0.944457 0.950134
0.718105 0.944213 0.949645
0.797543 0.943908 0.948577
0.879545 0.943664 0.947356
0.930083 0.932891 0.938140
