data/fiter_cube/26597975/1022850/file.cube
# Created by Adobe Lightroom plugin Export LUT (1.17.0)
# www.johnrellis.com/lightroom/exportlut.htm
# Preset:  城市电影胶片_06 云集
# Color profile: C:\Program Files (x86)\Common Files\Adobe\Color\Profiles\Recommended\AdobeRGB1998.icc
LUT_3D_SIZE 5
DOMAIN_MIN 0.000000 0.000000 0.000000
DOMAIN_MAX 0.903226 0.903226 0.903226
0.025879 0.089357 0.110842
0.077516 0.100679 0.116518
0.152316 0.123842 0.125154
0.654902 0.298528 0.000000
1.000000 0.629877 0.000000
0.071015 0.105776 0.114809
0.085969 0.108705 0.120577
0.164034 0.134676 0.127321
0.664057 0.333654 0.000000
1.000000 0.667292 0.000000
0.120668 0.132723 0.121340
0.131411 0.132845 0.123903
0.372717 0.223056 0.108888
0.876310 0.492897 0.000000
1.000000 0.720607 0.000000
0.459663 0.353063 0.005585
0.522148 0.379950 0.000000
0.773678 0.474159 0.000000
1.000000 0.669276 0.000000
1.000000 0.760922 0.000000
1.000000 0.838926 0.000000
1.000000 0.832883 0.000000
1.000000 0.797482 0.000000
1.000000 0.786191 0.000000
1.000000 0.805936 0.238895
0.060609 0.111635 0.139345
0.070985 0.117739 0.143526
0.144076 0.132448 0.137514
0.514122 0.273716 0.078218
1.000000 0.628016 0.000000
0.067811 0.116945 0.142794
0.077028 0.122896 0.147768
0.167147 0.141787 0.136385
0.568933 0.303380 0.037690
1.000000 0.656611 0.000000
0.128573 0.151583 0.140414
0.149935 0.153506 0.139528
0.312078 0.197787 0.116945
0.788907 0.437201 0.000000
1.000000 0.715999 0.000000
0.502647 0.392035 0.000000
0.570642 0.420874 0.000000
0.761257 0.481758 0.000000
1.000000 0.666712 0.000000
1.000000 0.761044 0.000000
1.000000 0.847471 0.000000
1.000000 0.841398 0.000000
1.000000 0.822477 0.000000
1.000000 0.791928 0.000000
1.000000 0.810178 0.270573
0.078584 0.134890 0.175326
0.088655 0.142153 0.183566
0.160159 0.191989 0.233768
0.600824 0.124269 0.269413
1.000000 0.665003 0.000000
0.087770 0.143374 0.184695
0.098848 0.151614 0.194339
0.182132 0.210452 0.251286
0.638972 0.261845 0.264164
1.000000 0.689509 0.000000
0.124239 0.176303 0.214847
0.145205 0.192111 0.230381
0.284611 0.308843 0.340887
0.800870 0.504723 0.252476
1.000000 0.723140 0.000000
0.353185 0.388861 0.405310
0.350713 0.490822 0.422187
0.778958 0.627222 0.293980
1.000000 0.693904 0.000000
1.000000 0.763485 0.000000
1.000000 0.904479 0.000000
1.000000 0.894957 0.000000
1.000000 0.853941 0.000000
1.000000 0.806027 0.000000
1.000000 0.807858 0.207614
0.135439 0.248905 0.378485
0.154421 0.262181 0.395056
0.233249 0.318059 0.453681
0.465888 0.496010 0.588006
0.968048 0.959045 0.956970
0.144350 0.252598 0.376135
0.159487 0.260685 0.384222
0.234989 0.316320 0.443397
0.479744 0.507836 0.592706
0.975189 0.968078 0.966430
0.179721 0.282597 0.395056
0.192447 0.290013 0.401984
0.257359 0.340215 0.454902
0.578515 0.592584 0.651667
1.000000 0.842985 0.855711
0.321386 0.440833 0.535271
0.343297 0.454475 0.543725
0.485908 0.562158 0.628931
0.863035 0.843015 0.847959
1.000000 0.903532 0.808774
0.839597 0.843595 0.842527
0.868711 0.864958 0.861570
0.949157 0.939910 0.935485
1.000000 0.955169 0.850217
1.000000 0.852476 0.530236
0.834623 0.861906 0.945037
0.839353 0.863706 0.944274
0.866941 0.879423 0.946197
0.911315 0.909392 0.951873
0.957366 0.948760 0.964477
0.820737 0.852415 0.939727
0.826596 0.854826 0.939239
0.857176 0.871916 0.941802
0.903990 0.902556 0.947326
0.956756 0.947967 0.963409
0.831266 0.861570 0.939788
0.830350 0.859770 0.938628
0.847990 0.867308 0.938628
0.904417 0.904387 0.947753
0.962005 0.954101 0.966796
0.890105 0.906981 0.954284
0.888273 0.904845 0.952697
0.897337 0.909697 0.954742
0.927916 0.930755 0.964080
0.976440 0.971313 0.978180
0.943023 0.951476 0.970489
0.943145 0.951171 0.969879
0.951507 0.957244 0.972747
0.965057 0.967041 0.976928
0.996368 0.995636 0.996063
