data/fiter_cube/26597975/1022850/file.cube
# Created by Adobe Lightroom plugin Export LUT (1.17.0)
# www.johnrellis.com/lightroom/exportlut.htm
# Preset:  城市电影胶片_06 云集
# Color profile: C:\Program Files (x86)\Common Files\Adobe\Color\Profiles\Recommended\AdobeRGB1998.icc
LUT_3D_SIZE 8
DOMAIN_MIN 0.000000 0.000000 0.000000
DOMAIN_MAX 0.903226 0.903226 0.903226
0.025879 0.089357 0.110842
0.060426 0.094270 0.112856
0.082124 0.102632 0.117922
0.116518 0.114076 0.123171
0.208804 0.137789 0.125002
0.526299 0.244602 0.078950
0.939178 0.470680 0.000000
1.000000 0.629877 0.000000
0.051698 0.096529 0.111940
0.065248 0.098939 0.114778
0.081575 0.106142 0.119844
0.112428 0.116030 0.124453
0.196017 0.138216 0.126101
0.450050 0.221866 0.099092
0.880858 0.431220 0.000000
1.000000 0.622217 0.000000
0.075776 0.108186 0.115602
0.077485 0.107210 0.117250
0.094148 0.112490 0.122255
0.134890 0.126192 0.126406
0.238682 0.158175 0.125490
0.534539 0.282506 0.070222
0.969879 0.542901 0.000000
1.000000 0.671565 0.000000
0.099763 0.121645 0.120089
0.101656 0.121157 0.121065
0.116854 0.123201 0.124147
0.204959 0.151919 0.125673
0.443549 0.250523 0.095857
0.774746 0.418677 0.000000
1.000000 0.612818 0.000000
1.000000 0.711543 0.000000
0.155123 0.150973 0.121187
0.160372 0.151949 0.121859
0.190372 0.159396 0.123293
0.316197 0.202274 0.115694
0.574029 0.326696 0.000000
0.855650 0.485481 0.000000
1.000000 0.645106 0.000000
1.000000 0.730953 0.000000
0.345495 0.269627 0.094697
0.387579 0.295415 0.082429
0.435035 0.312261 0.069886
0.541161 0.347082 0.000000
0.807797 0.476967 0.000000
0.982391 0.616938 0.000000
1.000000 0.710933 0.000000
1.000000 0.756741 0.000000
0.793301 0.597650 0.000000
0.815244 0.609155 0.000000
0.839017 0.607874 0.000000
0.895995 0.619867 0.000000
0.981231 0.652888 0.000000
1.000000 0.713802 0.000000
1.000000 0.750759 0.000000
1.000000 0.774044 0.000000
1.000000 0.838926 0.000000
1.000000 0.836637 0.000000
1.000000 0.831754 0.000000
1.000000 0.824887 0.000000
1.000000 0.789303 0.000000
1.000000 0.783047 0.000000
1.000000 0.794034 0.000000
1.000000 0.805936 0.238895
0.044373 0.101747 0.127687
0.053895 0.104799 0.129244
0.076692 0.107698 0.125154
0.108248 0.116640 0.124880
0.185824 0.139254 0.127199
0.407324 0.211887 0.107240
0.834928 0.407080 0.000000
1.000000 0.607996 0.000000
0.049928 0.104036 0.128603
0.058930 0.106966 0.130861
0.079438 0.109712 0.126284
0.111177 0.117952 0.125093
0.186191 0.140902 0.127382
0.387335 0.208530 0.110536
0.782162 0.382086 0.000000
1.000000 0.594079 0.000000
0.072602 0.113832 0.127535
0.076081 0.113680 0.128603
0.093599 0.113008 0.122805
0.130617 0.125338 0.126040
0.222171 0.153689 0.126101
0.446235 0.243168 0.098268
0.857053 0.456458 0.000000
1.000000 0.645106 0.000000
0.098787 0.123507 0.123598
0.102296 0.123445 0.123720
0.115084 0.123690 0.123964
0.182223 0.144594 0.126101
0.323491 0.195956 0.117250
0.579522 0.313664 0.013245
0.918944 0.520104 0.000000
1.000000 0.685389 0.000000
0.161898 0.155032 0.121096
0.166934 0.155825 0.121584
0.190005 0.160372 0.122988
0.277348 0.185122 0.119905
0.466743 0.271763 0.085512
0.760067 0.422736 0.000000
0.993194 0.607111 0.000000
1.000000 0.717647 0.000000
0.327184 0.257725 0.099306
0.338323 0.262058 0.097902
0.376959 0.275120 0.092103
0.471656 0.308690 0.068147
0.748959 0.439612 0.000000
0.965209 0.599359 0.000000
1.000000 0.701381 0.000000
1.000000 0.750546 0.000000
0.715785 0.541100 0.000000
0.713893 0.534447 0.000000
0.753719 0.544549 0.000000
0.843503 0.577905 0.000000
0.954345 0.627680 0.000000
1.000000 0.697536 0.000000
1.000000 0.739040 0.000000
1.000000 0.766079 0.000000
1.000000 0.825772 0.000000
1.000000 0.826474 0.000000
1.000000 0.824002 0.000000
1.000000 0.820249 0.000000
1.000000 0.802609 0.000000
1.000000 0.786069 0.000000
1.000000 0.792905 0.000000
1.000000 0.802029 0.190524
0.063813 0.114839 0.143313
0.066529 0.116548 0.144747
0.076417 0.122683 0.149294
0.116670 0.121370 0.149813
0.216312 0.153841 0.139376
0.477058 0.258762 0.089479
0.887938 0.485878 0.000000
1.000000 0.650416 0.000000
0.066590 0.116548 0.144594
0.068788 0.118257 0.145846
0.078431 0.123873 0.150393
0.117769 0.125917 0.149325
0.212680 0.156588 0.139590
0.456275 0.249790 0.094942
0.860685 0.466468 0.000000
1.000000 0.648096 0.000000
0.072419 0.121248 0.147768
0.075349 0.123171 0.149569
0.086458 0.130373 0.155856
0.134371 0.140322 0.150820
0.265415 0.176028 0.135256
0.530419 0.288670 0.067506
0.900298 0.502220 0.000000
1.000000 0.672236 0.000000
0.088258 0.131319 0.156039
0.089265 0.138796 0.159060
0.128145 0.149233 0.153506
0.205844 0.163821 0.144778
0.377173 0.226078 0.116091
0.672175 0.368078 0.000000
0.964569 0.570886 0.000000
1.000000 0.702235 0.000000
0.185183 0.189792 0.142977
0.196597 0.192996 0.142824
0.232456 0.199496 0.140352
0.311620 0.214969 0.127718
0.541924 0.315984 0.032593
0.815274 0.464240 0.000000
1.000000 0.629877 0.000000
1.000000 0.725521 0.000000
0.367407 0.303899 0.101076
0.384222 0.311162 0.097078
0.429358 0.324498 0.082673
0.513756 0.345983 0.002167
0.745998 0.442420 0.000000
0.955047 0.593408 0.000000
1.000000 0.701198 0.000000
1.000000 0.755062 0.000000
0.784085 0.600244 0.000000
0.788754 0.598383 0.000000
0.810819 0.596857 0.000000
0.868803 0.610590 0.000000
0.946593 0.633783 0.000000
1.000000 0.703487 0.000000
1.000000 0.747982 0.000000
1.000000 0.774441 0.000000
1.000000 0.838956 0.000000
1.000000 0.835111 0.000000
1.000000 0.829923 0.000000
1.000000 0.830533 0.000000
1.000000 0.812100 0.000000
1.000000 0.792599 0.000000
1.000000 0.795773 0.000000
1.000000 0.806210 0.225528
0.072663 0.125948 0.160494
0.075319 0.128359 0.163180
0.086976 0.136324 0.171756
0.117586 0.156527 0.190463
0.195865 0.219089 0.242435
0.488319 0.215640 0.177127
0.860105 0.458534 0.000000
1.000000 0.666560 0.000000
0.076081 0.129427 0.164340
0.078553 0.131197 0.166445
0.090089 0.139101 0.174685
0.124422 0.161959 0.195987
0.214450 0.235813 0.258610
0.484871 0.230198 0.176242
0.848966 0.460700 0.000000
1.000000 0.665644 0.000000
0.082155 0.134707 0.168948
0.085359 0.136660 0.171237
0.098054 0.145937 0.181216
0.141878 0.175814 0.208591
0.291478 0.216373 0.266117
0.580468 0.318730 0.178622
0.948211 0.558038 0.000000
1.000000 0.695399 0.000000
0.100862 0.151247 0.184268
0.105562 0.154574 0.187594
0.126650 0.169894 0.202335
0.191073 0.217380 0.245975
0.358343 0.274968 0.239200
0.666377 0.390661 0.148074
0.969543 0.585443 0.000000
1.000000 0.711299 0.000000
0.150423 0.190036 0.215549
0.158938 0.195804 0.220829
0.204898 0.229709 0.252323
0.357946 0.333288 0.259281
0.578576 0.385290 0.210025
0.858396 0.515312 0.000000
1.000000 0.659663 0.000000
1.000000 0.735012 0.000000
0.283879 0.401953 0.271000
0.351385 0.452186 0.265843
0.534203 0.498360 0.198306
0.647333 0.507164 0.167147
0.808652 0.528618 0.048463
0.981048 0.634424 0.000000
1.000000 0.717159 0.000000
1.000000 0.760800 0.000000
0.826169 0.708248 0.000000
0.843931 0.713863 0.000000
0.884245 0.717586 0.000000
0.937743 0.716701 0.000000
0.989258 0.708614 0.000000
1.000000 0.727169 0.000000
1.000000 0.757443 0.000000
1.000000 0.779507 0.000000
1.000000 0.877470 0.000000
1.000000 0.875181 0.000000
1.000000 0.863188 0.000000
1.000000 0.850706 0.000000
1.000000 0.831266 0.000000
1.000000 0.805936 0.000000
1.000000 0.799527 0.000000
1.000000 0.810758 0.253544
0.086519 0.147890 0.197726
0.090181 0.151095 0.202060
0.103670 0.160861 0.213718
0.141573 0.188205 0.244816
0.217746 0.244266 0.298344
0.349737 0.370855 0.392065
0.877012 0.241215 0.391150
1.000000 0.642420 0.282658
0.090578 0.152285 0.203250
0.095247 0.156283 0.208988
0.109194 0.166232 0.220706
0.145785 0.191684 0.248417
0.223453 0.249638 0.303166
0.370489 0.392248 0.413184
0.887785 0.302983 0.394293
1.000000 0.653132 0.276738
0.101320 0.162234 0.214237
0.104952 0.165225 0.218082
0.117220 0.173220 0.226871
0.156863 0.201419 0.256931
0.243931 0.269169 0.320531
0.425238 0.446937 0.466773
0.904021 0.429480 0.384894
1.000000 0.677058 0.226505
0.117739 0.177157 0.227909
0.121706 0.179782 0.230594
0.139528 0.193027 0.245274
0.185702 0.229099 0.284550
0.311406 0.338109 0.388067
0.674434 0.664271 0.671382
0.941161 0.592493 0.396277
1.000000 0.721492 0.117586
0.158572 0.214969 0.262272
0.166049 0.221164 0.268711
0.193576 0.244266 0.291997
0.261357 0.305852 0.353429
0.429664 0.458564 0.493660
0.754116 0.587671 0.509117
0.987701 0.682155 0.339666
1.000000 0.737972 0.000000
0.242679 0.294377 0.327947
0.254582 0.305364 0.338323
0.296849 0.344549 0.373877
0.415106 0.450813 0.470771
0.692897 0.632410 0.503258
0.922637 0.689052 0.463386
1.000000 0.747707 0.276097
1.000000 0.762600 0.000000
0.579614 0.617182 0.615686
0.576287 0.643214 0.625116
0.587091 0.738216 0.623529
0.859586 0.822324 0.522606
0.962280 0.795895 0.396124
1.000000 0.767697 0.283726
1.000000 0.768765 0.000000
1.000000 0.779965 0.000000
0.943175 0.937255 0.612085
0.964019 0.938048 0.577844
1.000000 0.931090 0.461891
1.000000 0.912993 0.354681
1.000000 0.868162 0.000000
1.000000 0.824887 0.000000
1.000000 0.801175 0.000000
1.000000 0.809964 0.214878
0.132204 0.239811 0.362005
0.138064 0.243565 0.366461
0.152743 0.245151 0.361700
0.190524 0.269749 0.386938
0.269596 0.331212 0.448066
0.407507 0.441199 0.532280
0.668269 0.658595 0.673976
0.983856 0.957733 0.964050
0.127687 0.221469 0.325811
0.131319 0.222995 0.326940
0.146944 0.231113 0.334630
0.182681 0.255833 0.361975
0.260746 0.319402 0.429236
0.401221 0.434821 0.523430
0.667018 0.657923 0.672084
0.983948 0.946807 0.955932
0.144350 0.241825 0.352422
0.145602 0.239994 0.348455
0.159731 0.246220 0.352972
0.197726 0.273655 0.382605
0.281041 0.341924 0.451606
0.444129 0.475105 0.556909
0.719478 0.704524 0.709285
0.992279 0.900481 0.917906
0.165255 0.261631 0.368841
0.167269 0.260380 0.365576
0.181674 0.269413 0.375036
0.227390 0.311528 0.426398
0.342901 0.410651 0.520745
0.568109 0.583642 0.647272
0.847471 0.823087 0.819028
1.000000 0.821927 0.814481
0.194186 0.286259 0.381842
0.199466 0.290776 0.386786
0.219486 0.307836 0.405310
0.263951 0.347662 0.448249
0.363165 0.432380 0.527733
0.651850 0.653864 0.695094
0.935790 0.919432 0.915770
1.000000 0.852506 0.771389
0.260533 0.357641 0.441108
0.273350 0.371954 0.456367
0.306340 0.401770 0.484138
0.379522 0.464973 0.539025
0.525994 0.577691 0.630060
0.810056 0.791531 0.800076
0.967407 0.886442 0.841550
1.000000 0.873625 0.725032
0.495735 0.584741 0.628138
0.519860 0.602899 0.643091
0.578485 0.642603 0.673335
0.693416 0.720089 0.733547
0.843412 0.829435 0.825742
0.957916 0.916869 0.853941
1.000000 0.905730 0.817685
1.000000 0.856687 0.607965
0.863401 0.853819 0.848173
0.872526 0.861143 0.855314
0.903960 0.887205 0.881956
0.925261 0.935210 0.915984
0.976593 0.969146 0.871916
1.000000 0.933013 0.747158
1.000000 0.878538 0.617670
1.000000 0.813687 0.210025
0.273838 0.469368 0.681758
0.293889 0.483925 0.694057
0.319432 0.492714 0.695735
0.378088 0.520500 0.708370
0.460517 0.559014 0.721309
0.598840 0.638148 0.755062
0.733913 0.724361 0.789151
0.902647 0.879271 0.885344
0.242313 0.435492 0.644404
0.258061 0.447272 0.655146
0.284947 0.458320 0.660121
0.332769 0.478645 0.667628
0.413031 0.518608 0.684047
0.550896 0.599359 0.722347
0.696437 0.692378 0.762692
0.888243 0.863249 0.869749
0.280522 0.471443 0.674861
0.284581 0.471687 0.673976
0.302312 0.474037 0.670069
0.348791 0.493141 0.676051
0.424475 0.528313 0.688014
0.571374 0.616449 0.732509
0.738399 0.727993 0.787503
0.910704 0.888701 0.891752
0.340642 0.520012 0.705989
0.332952 0.510674 0.696712
0.333867 0.502007 0.685939
0.379553 0.522210 0.695399
0.465126 0.564508 0.712795
0.629297 0.663569 0.764340
0.799649 0.782498 0.825803
0.932372 0.914580 0.913725
0.352758 0.521996 0.686336
0.347845 0.515007 0.679011
0.351354 0.509300 0.670832
0.379736 0.521141 0.677607
0.447883 0.555169 0.696895
0.625208 0.663081 0.756924
0.825376 0.806485 0.838590
0.957488 0.945830 0.943145
0.427863 0.576043 0.705898
0.433265 0.578576 0.707179
0.452949 0.587701 0.711940
0.497322 0.611566 0.727108
0.561883 0.645594 0.748013
0.700221 0.727443 0.798184
0.899931 0.881926 0.895293
0.993652 0.991821 0.991363
0.595087 0.693355 0.770260
0.608698 0.701808 0.776120
0.634699 0.715297 0.783780
0.684565 0.742794 0.800259
0.748745 0.778714 0.821073
0.845579 0.844450 0.865599
0.954284 0.943847 0.945312
1.000000 0.975158 0.959503
0.824216 0.848447 0.869902
0.828733 0.851255 0.871641
0.858579 0.872709 0.888396
0.886839 0.892790 0.902586
0.921904 0.919951 0.922789
0.966888 0.961151 0.959350
0.999420 0.987091 0.966979
1.000000 0.976135 0.948425
0.834623 0.861906 0.945037
0.840848 0.865995 0.946532
0.840513 0.863951 0.943847
0.856718 0.873259 0.945251
0.877012 0.885374 0.946715
0.902983 0.902953 0.949950
0.936736 0.930694 0.959106
0.957366 0.948760 0.964477
0.818753 0.850553 0.939300
0.825498 0.854917 0.940917
0.829007 0.855558 0.939452
0.843168 0.862791 0.939727
0.866423 0.876524 0.941802
0.895842 0.896300 0.945892
0.932128 0.925750 0.955657
0.955047 0.945953 0.962188
0.812039 0.846525 0.936645
0.815763 0.848600 0.937163
0.813413 0.844907 0.933471
0.845640 0.865324 0.940490
0.865782 0.876493 0.941314
0.892943 0.893919 0.944091
0.932372 0.926146 0.955627
0.955901 0.946960 0.962463
0.826291 0.857633 0.939910
0.830930 0.860533 0.941161
0.829221 0.857847 0.939086
0.847044 0.867796 0.941253
0.871733 0.882658 0.944213
0.901457 0.902770 0.948943
0.939635 0.934264 0.960693
0.960449 0.952270 0.965850
0.839811 0.868040 0.940551
0.844724 0.871305 0.942199
0.844633 0.870207 0.941344
0.851621 0.873564 0.942931
0.868803 0.882597 0.944274
0.902892 0.905638 0.950561
0.943114 0.938659 0.963256
0.965209 0.957916 0.969177
0.869688 0.890929 0.946746
0.867552 0.889067 0.945586
0.865446 0.886564 0.943847
0.870481 0.888823 0.944732
0.884398 0.897520 0.949218
0.917235 0.921569 0.960296
0.950805 0.947967 0.969116
0.975128 0.969787 0.977325
0.916747 0.928985 0.962463
0.916686 0.928771 0.962249
0.918120 0.929442 0.962310
0.923949 0.933501 0.964263
0.927825 0.935241 0.964508
0.934508 0.938811 0.965576
0.949462 0.948638 0.968902
0.983307 0.979614 0.983642
0.943023 0.951476 0.970489
0.942626 0.950988 0.970031
0.943755 0.951598 0.970031
0.948516 0.955047 0.971710
0.954559 0.959411 0.973632
0.962432 0.965057 0.976013
0.975219 0.975128 0.981201
0.996368 0.995636 0.996063
