data/fiter_cube/26597975/1022850/file.cube
# Created by Adobe Lightroom plugin Export LUT (1.17.0)
# www.johnrellis.com/lightroom/exportlut.htm
# Preset:  城市电影胶片_06 云集
# Color profile: C:\Program Files (x86)\Common Files\Adobe\Color\Profiles\Recommended\AdobeRGB1998.icc
LUT_3D_SIZE 32
DOMAIN_MIN 0.0 0.0 0.0
DOMAIN_MAX 1.0 1.0 1.0
0.025879 0.089357 0.110842
0.028565 0.089235 0.110842
0.034485 0.090181 0.110964
0.049012 0.091859 0.111818
0.060426 0.094270 0.112856
0.066987 0.096620 0.114076
0.072480 0.098665 0.115297
0.077516 0.100679 0.116518
0.082124 0.102632 0.117922
0.087800 0.104860 0.119265
0.094850 0.107515 0.120668
0.104158 0.110597 0.122011
0.116518 0.114076 0.123171
0.132357 0.118441 0.124331
0.152316 0.123842 0.125154
0.177615 0.130190 0.125368
0.208804 0.137789 0.125002
0.246860 0.147646 0.123659
0.314031 0.167178 0.119203
0.409186 0.199649 0.107179
0.526299 0.244602 0.078950
0.654902 0.298528 0.000000
0.773434 0.356420 0.000000
0.869535 0.415198 0.000000
0.939178 0.470680 0.000000
0.990265 0.520989 0.000000
1.000000 0.565057 0.000000
1.000000 0.601129 0.000000
1.000000 0.629877 0.000000
1.000000 0.651911 0.000000
1.000000 0.668208 0.000000
1.000000 0.680568 0.000000
0.027070 0.089601 0.110811
0.030426 0.090333 0.110964
0.035889 0.091279 0.111513
0.049226 0.093019 0.112184
0.060578 0.095094 0.113222
0.066712 0.097169 0.114443
0.072236 0.099214 0.115694
0.076997 0.100984 0.116701
0.082033 0.102907 0.118105
0.087343 0.105165 0.119417
0.094209 0.107607 0.120699
0.103029 0.110536 0.122042
0.114809 0.113893 0.123232
0.129793 0.118288 0.124422
0.148928 0.123323 0.125124
0.172824 0.129397 0.125429
0.202487 0.136782 0.125399
0.238956 0.146029 0.124117
0.301488 0.163729 0.120241
0.387274 0.192416 0.110628
0.494118 0.232761 0.088808
0.616754 0.282444 0.002075
0.735775 0.337407 0.000000
0.838315 0.394751 0.000000
0.915984 0.450965 0.000000
0.973602 0.503929 0.000000
1.000000 0.551598 0.000000
1.000000 0.591608 0.000000
1.000000 0.623285 0.000000
1.000000 0.647486 0.000000
1.000000 0.665278 0.000000
1.000000 0.678370 0.000000
0.031434 0.090883 0.110933
0.033570 0.091066 0.111330
0.039246 0.092012 0.111666
0.050263 0.094057 0.112734
0.060548 0.096468 0.113771
0.066743 0.098238 0.114992
0.071931 0.100038 0.116030
0.076722 0.101778 0.117067
0.081483 0.103487 0.118257
0.086885 0.105470 0.119600
0.093782 0.107912 0.120882
0.102327 0.110872 0.122225
0.113680 0.114290 0.123415
0.128695 0.118257 0.124453
0.147219 0.123445 0.125338
0.170626 0.129305 0.125704
0.199557 0.136446 0.125368
0.235080 0.145480 0.124392
0.295781 0.162875 0.120790
0.376837 0.189548 0.112062
0.479194 0.227909 0.092653
0.598413 0.275944 0.027680
0.717250 0.329381 0.000000
0.821897 0.385901 0.000000
0.903563 0.441993 0.000000
0.964416 0.495766 0.000000
1.000000 0.545098 0.000000
1.000000 0.586877 0.000000
1.000000 0.620233 0.000000
1.000000 0.645594 0.000000
1.000000 0.664088 0.000000
1.000000 0.677577 0.000000
0.040986 0.093660 0.111543
0.043488 0.093568 0.111757
0.046937 0.093690 0.112154
0.055177 0.095460 0.113252
0.062684 0.097597 0.114290
0.067536 0.099733 0.115724
0.072145 0.101534 0.116945
0.076967 0.102998 0.117983
0.081331 0.104707 0.119173
0.086824 0.106447 0.120333
0.093477 0.108888 0.121401
0.102083 0.111574 0.122744
0.113252 0.115023 0.123751
0.127626 0.119081 0.124788
0.145998 0.123903 0.125521
0.168826 0.129702 0.125917
0.196994 0.136934 0.125612
0.231266 0.145724 0.124758
0.289799 0.162356 0.121309
0.363165 0.186709 0.113985
0.456306 0.221073 0.097993
0.567712 0.265568 0.060639
0.686427 0.317266 0.000000
0.798459 0.374517 0.000000
0.890318 0.434211 0.000000
0.958465 0.492317 0.000000
1.000000 0.545068 0.000000
1.000000 0.588464 0.000000
1.000000 0.621973 0.000000
1.000000 0.647028 0.000000
1.000000 0.665187 0.000000
1.000000 0.678340 0.000000
0.051698 0.096529 0.111940
0.053407 0.096437 0.112337
0.054261 0.096376 0.112551
0.059480 0.096864 0.113527
0.065248 0.098939 0.114778
0.069429 0.100832 0.116243
0.073426 0.102663 0.117433
0.077333 0.104219 0.118471
0.081575 0.106142 0.119844
0.086641 0.107881 0.121187
0.093019 0.110109 0.122286
0.101411 0.112825 0.123415
0.112428 0.116030 0.124453
0.126680 0.120089 0.125460
0.144625 0.124971 0.126040
0.167514 0.130953 0.126436
0.196017 0.138216 0.126101
0.232883 0.147921 0.125002
0.290501 0.164889 0.121523
0.361364 0.188724 0.114076
0.450050 0.221866 0.099092
0.556847 0.264714 0.065431
0.672969 0.314977 0.000000
0.785702 0.371588 0.000000
0.880858 0.431220 0.000000
0.952178 0.490120 0.000000
1.000000 0.543877 0.000000
1.000000 0.587915 0.000000
1.000000 0.622217 0.000000
1.000000 0.647700 0.000000
1.000000 0.666194 0.000000
1.000000 0.679591 0.000000
0.060151 0.099519 0.112703
0.060609 0.099458 0.112917
0.061067 0.099123 0.113375
0.062959 0.098909 0.113985
0.067079 0.100343 0.115267
0.072175 0.102083 0.116518
0.075990 0.103883 0.117922
0.079255 0.105440 0.119173
0.083070 0.107149 0.120333
0.088014 0.109133 0.121675
0.094148 0.111543 0.122896
0.102388 0.114443 0.124239
0.113161 0.118044 0.125399
0.127565 0.122194 0.126192
0.145754 0.127138 0.126741
0.169100 0.133211 0.126925
0.197818 0.140780 0.126528
0.238987 0.152193 0.124971
0.296422 0.169650 0.121279
0.367987 0.194461 0.113344
0.458045 0.229374 0.097108
0.567498 0.274083 0.058808
0.896330 0.454780 0.000000
0.962005 0.511955 0.000000
1.000000 0.558831 0.000000
1.000000 0.595941 0.000000
1.000000 0.624720 0.000000
1.000000 0.647120 0.000000
1.000000 0.664546 0.000000
1.000000 0.677882 0.000000
1.000000 0.688106 0.000000
1.000000 0.696742 0.000000
0.066407 0.103304 0.113832
0.066957 0.102968 0.113832
0.067292 0.102937 0.114260
0.068482 0.102510 0.115084
0.070924 0.102480 0.116091
0.075349 0.103975 0.117342
0.079622 0.105898 0.118929
0.083711 0.107790 0.120272
0.088014 0.109377 0.121462
0.093874 0.111574 0.122713
0.101320 0.114382 0.123873
0.111208 0.117708 0.125093
0.123781 0.122011 0.126131
0.139559 0.126894 0.126955
0.159060 0.132723 0.127504
0.183047 0.139712 0.127443
0.213809 0.148104 0.126528
0.265904 0.163760 0.123934
0.333043 0.186770 0.117739
0.421363 0.220859 0.104524
0.538689 0.269810 0.070985
0.679500 0.333074 0.000000
0.816281 0.406104 0.000000
0.919463 0.479286 0.000000
0.986572 0.542412 0.000000
1.000000 0.589075 0.000000
1.000000 0.622431 0.000000
1.000000 0.646906 0.000000
1.000000 0.665492 0.000000
1.000000 0.679316 0.000000
1.000000 0.689876 0.000000
1.000000 0.698573 0.000000
0.071015 0.105776 0.114809
0.071534 0.105470 0.114839
0.071839 0.105440 0.115236
0.072633 0.105074 0.115663
0.073671 0.104677 0.116701
0.076967 0.105013 0.117830
0.080964 0.106752 0.119051
0.085969 0.108705 0.120577
0.091341 0.110811 0.121859
0.096925 0.113222 0.123110
0.104982 0.115846 0.124269
0.115267 0.119448 0.125246
0.128023 0.123568 0.126253
0.144198 0.128573 0.127047
0.164034 0.134676 0.127321
0.188174 0.141848 0.127382
0.221836 0.152193 0.126467
0.272618 0.169100 0.123629
0.334508 0.192172 0.117800
0.418128 0.225406 0.104982
0.529076 0.272740 0.073976
0.664057 0.333654 0.000000
0.798459 0.403967 0.000000
0.904448 0.475441 0.000000
0.975006 0.538476 0.000000
1.000000 0.586755 0.000000
1.000000 0.621759 0.000000
1.000000 0.647822 0.000000
1.000000 0.667292 0.000000
1.000000 0.681819 0.000000
1.000000 0.692744 0.000000
1.000000 0.701534 0.000000
0.075776 0.108186 0.115602
0.075715 0.108186 0.115816
0.076051 0.107881 0.116243
0.076783 0.107546 0.116640
0.077485 0.107210 0.117250
0.079164 0.107210 0.118227
0.083131 0.108125 0.119478
0.087739 0.109895 0.120851
0.094148 0.112490 0.122255
0.101808 0.115206 0.123629
0.110445 0.118288 0.124697
0.121096 0.121859 0.125643
0.134890 0.126192 0.126406
0.151980 0.131319 0.127108
0.172427 0.137606 0.127321
0.197574 0.145113 0.127047
0.238682 0.158175 0.125490
0.288487 0.175662 0.122286
0.349187 0.199619 0.115908
0.429206 0.234195 0.102480
0.534539 0.282506 0.070222
0.664179 0.342962 0.000000
0.794797 0.411475 0.000000
0.899077 0.480995 0.000000
0.969879 0.542901 0.000000
1.000000 0.590784 0.000000
1.000000 0.625940 0.000000
1.000000 0.651942 0.000000
1.000000 0.671565 0.000000
1.000000 0.686152 0.000000
1.000000 0.697017 0.000000
1.000000 0.705653 0.000000
0.079622 0.110780 0.116762
0.080018 0.110506 0.116976
0.080415 0.110475 0.116976
0.080659 0.110170 0.117586
0.081697 0.109804 0.118196
0.082582 0.109651 0.118990
0.085847 0.109926 0.120089
0.090639 0.111604 0.121431
0.096986 0.113924 0.122499
0.105745 0.116854 0.123781
0.116609 0.120729 0.124941
0.128206 0.124361 0.125826
0.142672 0.129091 0.126497
0.160922 0.134768 0.127077
0.183322 0.141573 0.126894
0.217014 0.151980 0.126345
0.261448 0.166934 0.124056
0.314000 0.186587 0.119600
0.378241 0.213107 0.111421
0.459846 0.249638 0.094636
0.562127 0.297368 0.050874
0.678370 0.355077 0.000000
0.792691 0.419562 0.000000
0.889220 0.483772 0.000000
0.959045 0.542260 0.000000
1.000000 0.590356 0.000000
1.000000 0.627314 0.000000
1.000000 0.655299 0.000000
1.000000 0.676295 0.000000
1.000000 0.691646 0.000000
1.000000 0.702907 0.000000
1.000000 0.711635 0.000000
0.084077 0.113252 0.117708
0.084382 0.113191 0.117891
0.084749 0.112917 0.118105
0.085420 0.112825 0.118318
0.085908 0.112734 0.119112
0.087190 0.112337 0.119875
0.089021 0.112306 0.120821
0.094728 0.113588 0.121798
0.101289 0.115755 0.123018
0.110170 0.118990 0.124269
0.122133 0.123140 0.125338
0.137514 0.128084 0.126192
0.153079 0.132998 0.126558
0.172488 0.139040 0.126802
0.200626 0.147738 0.126467
0.238560 0.160037 0.125093
0.283177 0.176028 0.122225
0.335729 0.196658 0.116823
0.399908 0.224186 0.107179
0.481544 0.261418 0.088075
0.581994 0.308934 0.019745
0.694575 0.365789 0.000000
0.804532 0.429297 0.000000
0.894285 0.493446 0.000000
0.959045 0.552728 0.000000
1.000000 0.599573 0.000000
1.000000 0.635035 0.000000
1.000000 0.662135 0.000000
1.000000 0.682612 0.000000
1.000000 0.697719 0.000000
1.000000 0.708736 0.000000
1.000000 0.717433 0.000000
0.089784 0.116335 0.118746
0.089815 0.116091 0.118776
0.090089 0.116060 0.118959
0.090669 0.115969 0.119356
0.091829 0.116030 0.119905
0.093324 0.115816 0.120668
0.095033 0.115785 0.121431
0.099245 0.116518 0.122438
0.107149 0.118593 0.123629
0.116976 0.121950 0.124636
0.129976 0.126284 0.125429
0.146914 0.131746 0.126314
0.195804 0.147890 0.126101
0.234501 0.160800 0.124697
0.285954 0.179873 0.121340
0.345220 0.203952 0.114778
0.412818 0.233829 0.103700
0.489296 0.269291 0.083680
0.574578 0.309880 0.023285
0.669093 0.357214 0.000000
0.764920 0.409888 0.000000
0.851835 0.465553 0.000000
0.920439 0.520043 0.000000
0.972473 0.570703 0.000000
1.000000 0.613733 0.000000
1.000000 0.648188 0.000000
1.000000 0.675013 0.000000
1.000000 0.692439 0.000000
1.000000 0.705623 0.000000
1.000000 0.715755 0.000000
1.000000 0.723598 0.000000
1.000000 0.730648 0.000000
0.099763 0.121645 0.120089
0.100069 0.121614 0.120089
0.100313 0.121584 0.120272
0.100893 0.121279 0.120485
0.101656 0.121157 0.121065
0.102968 0.121157 0.121614
0.105074 0.121065 0.122347
0.108095 0.121218 0.123384
0.116854 0.123201 0.124147
0.129274 0.126802 0.125216
0.145602 0.132387 0.125765
0.167788 0.139528 0.126223
0.204959 0.151919 0.125673
0.260258 0.171633 0.122805
0.314611 0.193149 0.118013
0.375647 0.219486 0.109682
0.443549 0.250523 0.095857
0.517327 0.285283 0.071778
0.598383 0.324468 0.000000
0.685817 0.368841 0.000000
0.774746 0.418677 0.000000
0.855955 0.471382 0.000000
0.920562 0.523064 0.000000
0.970520 0.571191 0.000000
1.000000 0.612818 0.000000
1.000000 0.646632 0.000000
1.000000 0.673762 0.000000
1.000000 0.695918 0.000000
1.000000 0.711543 0.000000
1.000000 0.722042 0.000000
1.000000 0.730068 0.000000
1.000000 0.737209 0.000000
0.108797 0.126528 0.120821
0.109071 0.126467 0.120821
0.109346 0.126436 0.120821
0.109834 0.126375 0.121218
0.110811 0.126223 0.121584
0.112520 0.126162 0.122133
0.114900 0.126162 0.122835
0.118166 0.126253 0.123690
0.124392 0.127443 0.124575
0.138460 0.131044 0.125338
0.156283 0.136477 0.125795
0.184939 0.146181 0.125826
0.227237 0.160861 0.124514
0.281163 0.181491 0.120912
0.347143 0.209232 0.113497
0.408850 0.237125 0.102815
0.474708 0.268070 0.086244
0.545617 0.301915 0.052613
0.622919 0.339757 0.000000
0.705592 0.382727 0.000000
0.789212 0.430549 0.000000
0.865202 0.481178 0.000000
0.925872 0.530724 0.000000
0.973419 0.577081 0.000000
1.000000 0.616968 0.000000
1.000000 0.649683 0.000000
1.000000 0.676081 0.000000
1.000000 0.697688 0.000000
1.000000 0.715541 0.000000
1.000000 0.730312 0.000000
1.000000 0.738277 0.000000
1.000000 0.745296 0.000000
0.120668 0.132723 0.121340
0.121126 0.132845 0.121309
0.121340 0.132815 0.121523
0.122042 0.132692 0.121706
0.123140 0.132540 0.122072
0.124941 0.132418 0.122408
0.127687 0.132540 0.123079
0.131411 0.132845 0.123903
0.136599 0.133639 0.124636
0.149722 0.136812 0.125246
0.175967 0.144259 0.125643
0.209354 0.155795 0.124849
0.252750 0.171969 0.122683
0.307317 0.194095 0.117891
0.372717 0.223056 0.108888
0.446693 0.257969 0.093111
0.513878 0.290227 0.069856
0.581659 0.322972 0.000000
0.654353 0.359258 0.000000
0.730983 0.400153 0.000000
0.807462 0.445319 0.000000
0.876310 0.492897 0.000000
0.932250 0.539757 0.000000
0.976867 0.583581 0.000000
1.000000 0.622095 0.000000
1.000000 0.654292 0.000000
1.000000 0.680842 0.000000
1.000000 0.702663 0.000000
1.000000 0.720607 0.000000
1.000000 0.735592 0.000000
1.000000 0.748684 0.000000
1.000000 0.757626 0.000000
0.136233 0.140841 0.121492
0.136782 0.141085 0.121645
0.137209 0.141024 0.121645
0.138308 0.141176 0.121981
0.139864 0.141268 0.122286
0.142550 0.141360 0.122591
0.145968 0.141970 0.123171
0.151003 0.142458 0.123720
0.160800 0.145083 0.124453
0.174197 0.148318 0.124941
0.203525 0.157137 0.124453
0.241367 0.169345 0.123110
0.284123 0.186404 0.119814
0.336278 0.208865 0.113802
0.397833 0.237369 0.103548
0.468238 0.271214 0.085664
0.545953 0.309209 0.041901
0.617029 0.344305 0.000000
0.688960 0.381323 0.000000
0.764187 0.423133 0.000000
0.837003 0.468605 0.000000
0.900053 0.515709 0.000000
0.950469 0.560693 0.000000
0.990509 0.601923 0.000000
1.000000 0.637324 0.000000
1.000000 0.666804 0.000000
1.000000 0.690944 0.000000
1.000000 0.710719 0.000000
1.000000 0.726894 0.000000
1.000000 0.740383 0.000000
1.000000 0.752377 0.000000
1.000000 0.764706 0.000000
0.155123 0.150973 0.121187
0.155459 0.150912 0.121370
0.155947 0.150973 0.121553
0.157137 0.151095 0.121706
0.160372 0.151949 0.121859
0.165103 0.153170 0.122316
0.171511 0.154818 0.122652
0.179660 0.156802 0.122896
0.190372 0.159396 0.123293
0.203708 0.162814 0.123598
0.228519 0.170108 0.122805
0.268803 0.183688 0.120516
0.316197 0.202274 0.115694
0.369421 0.226749 0.107881
0.431617 0.256565 0.094911
0.499825 0.290013 0.072328
0.574029 0.326696 0.000000
0.651514 0.365911 0.000000
0.721950 0.403296 0.000000
0.790127 0.442603 0.000000
0.855650 0.485481 0.000000
0.912413 0.529778 0.000000
0.958740 0.572381 0.000000
0.996185 0.611383 0.000000
1.000000 0.645106 0.000000
1.000000 0.673243 0.000000
1.000000 0.696529 0.000000
1.000000 0.715480 0.000000
1.000000 0.730953 0.000000
1.000000 0.743984 0.000000
1.000000 0.755703 0.000000
1.000000 0.768124 0.072358
0.187869 0.168673 0.119997
0.189334 0.169253 0.120058
0.217075 0.184634 0.118044
0.220432 0.185702 0.117891
0.225467 0.187320 0.117800
0.231937 0.189181 0.117739
0.240452 0.191623 0.117678
0.251377 0.194827 0.117525
0.265690 0.199039 0.116915
0.283726 0.204532 0.115938
0.305638 0.211002 0.114534
0.354498 0.230747 0.107851
0.417365 0.256779 0.096071
0.482368 0.288151 0.076143
0.551080 0.322698 0.015686
0.622492 0.358740 0.000000
0.692622 0.395331 0.000000
0.759060 0.432105 0.000000
0.820279 0.469032 0.000000
0.872343 0.504570 0.000000
0.916991 0.540032 0.000000
0.957305 0.576715 0.000000
0.991211 0.611231 0.000000
1.000000 0.641505 0.000000
1.000000 0.666621 0.000000
1.000000 0.688045 0.000000
1.000000 0.706050 0.000000
1.000000 0.721706 0.000000
1.000000 0.735439 0.000000
1.000000 0.747494 0.000000
1.000000 0.758755 0.000000
1.000000 0.770840 0.096925
0.239872 0.198978 0.115389
0.246036 0.202396 0.114839
0.252873 0.206241 0.113985
0.260868 0.210239 0.113161
0.269474 0.214267 0.112459
0.278019 0.217441 0.111879
0.287358 0.220493 0.111208
0.298314 0.223758 0.110750
0.312840 0.228244 0.109468
0.330877 0.234165 0.107637
0.353155 0.241306 0.105074
0.388434 0.254551 0.099550
0.451209 0.281773 0.083711
0.522545 0.312352 0.049378
0.587762 0.345220 0.000000
0.653834 0.379187 0.000000
0.718227 0.413458 0.000000
0.779507 0.448310 0.000000
0.836240 0.483772 0.000000
0.887022 0.520012 0.000000
0.929625 0.555230 0.000000
0.967010 0.590234 0.000000
0.998657 0.623072 0.000000
1.000000 0.651789 0.000000
1.000000 0.675654 0.000000
1.000000 0.695674 0.000000
1.000000 0.712612 0.000000
1.000000 0.727230 0.000000
1.000000 0.740047 0.000000
1.000000 0.751339 0.000000
1.000000 0.762173 0.000000
1.000000 0.774105 0.124239
0.288304 0.229984 0.108217
0.295964 0.234775 0.106783
0.304265 0.239872 0.105379
0.313634 0.245121 0.103792
0.323308 0.249912 0.102388
0.332586 0.253666 0.100954
0.342016 0.256809 0.099855
0.353521 0.260594 0.098482
0.368719 0.265721 0.096193
0.387945 0.272404 0.092958
0.411780 0.280644 0.088319
0.439551 0.289677 0.082216
0.494514 0.312932 0.060792
0.566766 0.343847 0.000000
0.636988 0.375555 0.000000
0.698116 0.407813 0.000000
0.756863 0.440314 0.000000
0.811856 0.473121 0.000000
0.862272 0.506615 0.000000
0.907225 0.540795 0.000000
0.945739 0.574334 0.000000
0.979309 0.606989 0.000000
1.000000 0.637324 0.000000
1.000000 0.663600 0.000000
1.000000 0.685359 0.000000
1.000000 0.703517 0.000000
1.000000 0.718868 0.000000
1.000000 0.732204 0.000000
1.000000 0.744045 0.000000
1.000000 0.754696 0.000000
1.000000 0.765042 0.000000
1.000000 0.776822 0.139712
0.345495 0.269627 0.094697
0.354833 0.275853 0.092195
0.364935 0.282567 0.088991
0.376226 0.289464 0.085847
0.387579 0.295415 0.082429
0.397589 0.299840 0.079622
0.407599 0.303258 0.077302
0.419318 0.306859 0.074434
0.435035 0.312261 0.069886
0.454231 0.318608 0.063630
0.478187 0.326787 0.049683
0.506218 0.335821 0.022309
0.541161 0.347082 0.000000
0.612177 0.377996 0.000000
0.686427 0.409674 0.000000
0.749783 0.442451 0.000000
0.807797 0.476967 0.000000
0.860960 0.512291 0.000000
0.908019 0.548333 0.000000
0.948547 0.583856 0.000000
0.982391 0.616938 0.000000
1.000000 0.646143 0.000000
1.000000 0.671138 0.000000
1.000000 0.693172 0.000000
1.000000 0.710933 0.000000
1.000000 0.725246 0.000000
1.000000 0.737118 0.000000
1.000000 0.747402 0.000000
1.000000 0.756741 0.000000
1.000000 0.765774 0.000000
1.000000 0.775631 0.036225
1.000000 0.788632 0.247898
0.459663 0.353063 0.005585
0.466651 0.357641 0.000000
0.472786 0.361486 0.000000
0.480415 0.365484 0.000000
0.488838 0.369116 0.000000
0.497627 0.372107 0.000000
0.508324 0.375463 0.000000
0.522148 0.379950 0.000000
0.541161 0.386694 0.000000
0.564752 0.395087 0.000000
0.592950 0.404974 0.000000
0.623621 0.414923 0.000000
0.654810 0.423651 0.000000
0.706813 0.444068 0.000000
0.773678 0.474159 0.000000
0.835508 0.503685 0.000000
0.879484 0.534295 0.000000
0.918151 0.564691 0.000000
0.952087 0.594324 0.000000
0.981292 0.622278 0.000000
1.000000 0.647364 0.000000
1.000000 0.669276 0.000000
1.000000 0.687861 0.000000
1.000000 0.703792 0.000000
1.000000 0.719020 0.000000
1.000000 0.731807 0.000000
1.000000 0.742672 0.000000
1.000000 0.752193 0.000000
1.000000 0.760922 0.000000
1.000000 0.769467 0.000000
1.000000 0.779110 0.092927
1.000000 0.792142 0.264591
0.552331 0.420508 0.000000
0.560204 0.425788 0.000000
0.568109 0.430671 0.000000
0.576471 0.434943 0.000000
0.585077 0.438453 0.000000
0.592950 0.440406 0.000000
0.602380 0.442542 0.000000
0.614343 0.445472 0.000000
0.631189 0.450355 0.000000
0.652705 0.457343 0.000000
0.677882 0.465431 0.000000
0.705837 0.474311 0.000000
0.734279 0.482124 0.000000
0.763455 0.489418 0.000000
0.822538 0.517571 0.000000
0.876463 0.545464 0.000000
0.919554 0.572961 0.000000
0.951568 0.600702 0.000000
0.979553 0.627161 0.000000
1.000000 0.651331 0.000000
1.000000 0.672908 0.000000
1.000000 0.691585 0.000000
1.000000 0.707362 0.000000
1.000000 0.720546 0.000000
1.000000 0.723781 0.000000
1.000000 0.735683 0.000000
1.000000 0.746029 0.000000
1.000000 0.755062 0.000000
1.000000 0.763394 0.000000
1.000000 0.771664 0.000000
1.000000 0.781216 0.098787
1.000000 0.794278 0.269383
0.704067 0.529778 0.000000
0.713100 0.535912 0.000000
0.719722 0.539910 0.000000
0.725124 0.542046 0.000000
0.729732 0.542687 0.000000
0.733791 0.541985 0.000000
0.738888 0.540887 0.000000
0.745174 0.539788 0.000000
0.754665 0.539788 0.000000
0.767575 0.541283 0.000000
0.782803 0.543389 0.000000
0.801480 0.547234 0.000000
0.821195 0.550805 0.000000
0.840574 0.553460 0.000000
0.868254 0.562188 0.000000
0.908110 0.583032 0.000000
0.943603 0.602808 0.000000
0.970520 0.623926 0.000000
0.993805 0.646296 0.000000
1.000000 0.667933 0.000000
1.000000 0.687465 0.000000
1.000000 0.704036 0.000000
1.000000 0.717494 0.000000
1.000000 0.728206 0.000000
1.000000 0.736751 0.000000
1.000000 0.743709 0.000000
1.000000 0.752346 0.000000
1.000000 0.760067 0.000000
1.000000 0.767453 0.000000
1.000000 0.775143 0.000000
1.000000 0.784451 0.123384
1.000000 0.797604 0.284581
0.793301 0.597650 0.000000
0.801419 0.603418 0.000000
0.807034 0.607111 0.000000
0.811460 0.608942 0.000000
0.815244 0.609155 0.000000
0.819059 0.608576 0.000000
0.823850 0.607813 0.000000
0.830228 0.607446 0.000000
0.839017 0.607874 0.000000
0.850797 0.609888 0.000000
0.864134 0.612451 0.000000
0.879973 0.616358 0.000000
0.895995 0.619867 0.000000
0.911498 0.622370 0.000000
0.926116 0.623285 0.000000
0.953643 0.637201 0.000000
0.981231 0.652888 0.000000
1.000000 0.666835 0.000000
1.000000 0.683619 0.000000
1.000000 0.699519 0.000000
1.000000 0.713802 0.000000
1.000000 0.726101 0.000000
1.000000 0.736110 0.000000
1.000000 0.744228 0.000000
1.000000 0.750759 0.000000
1.000000 0.756069 0.000000
1.000000 0.760647 0.000000
1.000000 0.767330 0.000000
1.000000 0.774044 0.000000
1.000000 0.781521 0.000000
1.000000 0.791196 0.190311
1.000000 0.805264 0.335790
0.882994 0.674098 0.000000
0.887572 0.677729 0.000000
0.889921 0.679164 0.000000
0.891630 0.679072 0.000000
0.892699 0.677546 0.000000
0.894011 0.675319 0.000000
0.896330 0.673060 0.000000
0.900053 0.671168 0.000000
0.906218 0.670649 0.000000
0.914794 0.671595 0.000000
0.924834 0.673182 0.000000
0.936980 0.676051 0.000000
0.949248 0.678309 0.000000
0.961242 0.679713 0.000000
0.972107 0.679133 0.000000
0.985199 0.680415 0.000000
1.000000 0.691157 0.000000
1.000000 0.700160 0.000000
1.000000 0.709590 0.000000
1.000000 0.721462 0.000000
1.000000 0.732235 0.000000
1.000000 0.741604 0.000000
1.000000 0.749355 0.000000
1.000000 0.755734 0.000000
1.000000 0.760830 0.000000
1.000000 0.765103 0.000000
1.000000 0.768856 0.000000
1.000000 0.772244 0.000000
1.000000 0.778225 0.000000
1.000000 0.785458 0.000000
1.000000 0.795041 0.213840
1.000000 0.809171 0.354528
0.941131 0.731411 0.000000
0.943389 0.733333 0.000000
0.945129 0.734401 0.000000
0.946746 0.734585 0.000000
0.948913 0.734463 0.000000
0.952422 0.734859 0.000000
0.958282 0.736934 0.000000
0.965911 0.740017 0.000000
0.975219 0.744198 0.000000
0.985718 0.748928 0.000000
0.996551 0.753414 0.000000
1.000000 0.757229 0.000000
1.000000 0.759396 0.000000
1.000000 0.759640 0.000000
1.000000 0.757809 0.000000
1.000000 0.753994 0.000000
1.000000 0.753750 0.000000
1.000000 0.755215 0.000000
1.000000 0.755764 0.000000
1.000000 0.759701 0.000000
1.000000 0.765011 0.000000
1.000000 0.769619 0.000000
1.000000 0.773495 0.000000
1.000000 0.776791 0.000000
1.000000 0.779629 0.000000
1.000000 0.782254 0.000000
1.000000 0.784878 0.000000
1.000000 0.787655 0.000000
1.000000 0.790921 0.039704
1.000000 0.798398 0.211154
1.000000 0.809873 0.335790
1.000000 0.827085 0.463600
1.000000 0.807431 0.000000
1.000000 0.808103 0.000000
1.000000 0.807858 0.000000
1.000000 0.806851 0.000000
1.000000 0.805356 0.000000
1.000000 0.803738 0.000000
1.000000 0.802396 0.000000
1.000000 0.801205 0.000000
1.000000 0.800473 0.000000
1.000000 0.799771 0.000000
1.000000 0.798917 0.000000
1.000000 0.797696 0.000000
1.000000 0.795773 0.000000
1.000000 0.792874 0.000000
