data/filter_cube/10491141/1023209/file.cube
# Created by Adobe Lightroom plugin Export LUT (1.17.0)
# www.johnrellis.com/lightroom/exportlut.htm
# Preset: 莫兰迪丛林_08 云集
# Color profile: C:\Program Files (x86)\Common Files\Adobe\Color\Profiles\Recommended\AdobeRGB1998.icc
LUT_3D_SIZE 8
DOMAIN_MIN 0.000000 0.000000 0.000000
DOMAIN_MAX 0.903226 0.903226 0.903226
0.069123 0.076112 0.088075
0.103365 0.080751 0.087129
0.278630 0.075257 0.076661
0.538689 0.000000 0.000000
0.695949 0.000000 0.000000
0.775570 0.169131 0.000000
0.840696 0.268315 0.000000
0.904692 0.360082 0.000000
0.076265 0.089326 0.096620
0.087068 0.093263 0.099092
0.288334 0.125490 0.074037
0.544579 0.081727 0.000000
0.696040 0.128084 0.000000
0.774166 0.204379 0.000000
0.839384 0.287419 0.000000
0.903746 0.372229 0.000000
0.108278 0.164736 0.129915
0.140688 0.195102 0.156435
0.173495 0.173342 0.134585
0.561822 0.276921 0.000000
0.704768 0.295384 0.000000
0.777920 0.317998 0.000000
0.843381 0.368109 0.000000
0.906371 0.426093 0.000000
0.220523 0.352117 0.223728
0.273198 0.382483 0.262577
0.405737 0.460914 0.333989
0.359228 0.322881 0.209354
0.680110 0.431952 0.000000
0.784360 0.467323 0.000000
0.845151 0.477668 0.000000
0.905699 0.505913 0.000000
0.412940 0.531792 0.367926
0.449073 0.545678 0.397559
0.537743 0.588159 0.470497
0.593072 0.609308 0.484535
0.515373 0.456153 0.305760
0.724575 0.528954 0.156466
0.838956 0.580224 0.000000
0.904662 0.599359 0.000000
0.554101 0.639796 0.496040
0.573571 0.647883 0.516930
0.623957 0.668879 0.575097
0.669368 0.699550 0.617090
0.675898 0.683131 0.581567
0.620966 0.563470 0.411109
0.765103 0.615259 0.316320
0.890105 0.667567 0.150637
0.644862 0.712978 0.600702
0.653956 0.717617 0.611688
0.680873 0.732723 0.644465
0.716426 0.757595 0.684230
0.751064 0.784878 0.716426
0.738705 0.747677 0.655055
0.694453 0.650568 0.521263
0.810849 0.699245 0.467964
0.708248 0.781552 0.677729
0.713832 0.784543 0.685054
0.733211 0.795254 0.710567
0.765957 0.814511 0.753536
0.790982 0.831601 0.777249
0.814572 0.846159 0.795224
0.800534 0.812253 0.731930
0.770901 0.742489 0.635096
0.071504 0.081483 0.101900
0.101564 0.080659 0.106203
0.261570 0.077943 0.099672
0.525139 0.000000 0.064790
0.686152 0.000000 0.000000
0.768185 0.168460 0.000000
0.835050 0.265629 0.000000
0.900755 0.357488 0.000000
0.075959 0.091798 0.102083
0.097688 0.106813 0.116121
0.281590 0.125277 0.100069
0.537987 0.087434 0.051331
0.690303 0.129274 0.000000
0.769223 0.204685 0.000000
0.834623 0.285405 0.000000
0.899809 0.369390 0.000000
0.111727 0.170352 0.139925
0.155154 0.208194 0.181369
0.190188 0.192172 0.159731
0.561059 0.282902 0.000000
0.698024 0.293523 0.000000
0.772763 0.316960 0.000000
0.837644 0.363897 0.000000
0.902281 0.422370 0.000000
0.226078 0.353033 0.235325
0.281987 0.384985 0.277470
0.411261 0.460334 0.352392
0.365118 0.330510 0.228855
0.676905 0.433448 0.000000
0.777066 0.462531 0.000000
0.839200 0.473884 0.000000
0.901732 0.503593 0.000000
0.417426 0.531212 0.376959
0.450935 0.544152 0.404273
0.538323 0.585626 0.477638
0.593256 0.609064 0.494667
0.515740 0.458900 0.318853
0.723842 0.531914 0.182254
0.836606 0.582055 0.000000
0.901854 0.598871 0.000000
0.552911 0.637385 0.497749
0.569848 0.643946 0.515618
0.619959 0.665095 0.572351
0.667384 0.696590 0.617700
0.675868 0.683406 0.587274
0.621576 0.565667 0.420233
0.765286 0.617853 0.329625
0.888396 0.669215 0.186984
0.641871 0.709957 0.598535
0.650202 0.713832 0.608576
0.677516 0.729122 0.641566
0.714595 0.755123 0.683680
0.750027 0.783444 0.716884
0.738338 0.747707 0.657801
0.693141 0.649958 0.523766
0.809934 0.698665 0.470344
0.705806 0.779477 0.675441
0.711604 0.782650 0.682948
0.731136 0.793545 0.708553
0.764034 0.812955 0.751583
0.792081 0.832486 0.779690
0.816098 0.847623 0.798642
0.800809 0.812894 0.734340
0.770169 0.742031 0.635889
0.066804 0.093843 0.155642
0.097597 0.087190 0.180484
0.279942 0.063325 0.181613
0.493782 0.001770 0.170443
0.671382 0.097200 0.142214
0.759609 0.212528 0.115846
0.829221 0.294041 0.058686
0.897337 0.374762 0.000000
0.091371 0.127382 0.159091
0.106386 0.130526 0.187625
0.275212 0.129885 0.191623
0.510735 0.119814 0.174472
0.675410 0.164248 0.143893
0.760708 0.241184 0.112917
0.829374 0.311589 0.039429
0.897215 0.386328 0.000000
0.111147 0.181338 0.168551
0.146029 0.209812 0.194217
0.256626 0.254917 0.232059
0.552117 0.289982 0.185275
0.690944 0.310307 0.150698
0.767300 0.337682 0.111818
0.833585 0.378759 0.000000
0.899687 0.430182 0.000000
0.217166 0.348943 0.246494
0.271641 0.380468 0.287846
0.426032 0.463569 0.396399
0.405798 0.373510 0.299504
0.687617 0.467292 0.191348
0.771206 0.475410 0.151797
0.835233 0.487037 0.105562
0.899535 0.512474 0.000000
0.403479 0.522637 0.378851
0.442237 0.538079 0.409827
0.541863 0.583368 0.497475
0.609735 0.624323 0.541650
0.535515 0.485267 0.373205
0.731167 0.555200 0.270115
0.836393 0.599969 0.196628
0.898283 0.606165 0.158846
0.546868 0.632990 0.499489
0.565850 0.640284 0.519127
0.616815 0.661860 0.575097
0.667445 0.694270 0.627222
0.681147 0.690211 0.611566
0.626551 0.576440 0.452461
0.769223 0.630610 0.376379
0.887114 0.680232 0.288029
0.638849 0.707485 0.599481
0.647639 0.711574 0.609888
0.674342 0.726375 0.641535
0.713802 0.752834 0.688502
0.749722 0.782345 0.722621
0.742031 0.753323 0.673304
0.695338 0.656245 0.543450
0.814969 0.707942 0.495827
0.701381 0.776638 0.672572
0.706386 0.779294 0.678920
0.725826 0.790005 0.703975
0.759396 0.809964 0.747524
0.791501 0.831510 0.782345
0.820066 0.851377 0.808225
0.803250 0.816770 0.744991
0.771817 0.745235 0.644099
0.008759 0.125460 0.266758
0.080293 0.122133 0.294682
0.311376 0.018036 0.352636
0.537072 0.049989 0.309026
0.639826 0.181033 0.288182
0.735286 0.272221 0.276738
0.810025 0.346319 0.259831
0.883574 0.414130 0.237095
0.104280 0.182193 0.277287
0.111849 0.171969 0.303777
0.319554 0.128084 0.363470
0.532738 0.159701 0.320012
0.634485 0.245151 0.307408
0.737209 0.298924 0.281163
0.810849 0.362737 0.261509
0.884306 0.422614 0.233982
0.143618 0.261845 0.282597
0.180880 0.277592 0.300755
0.306828 0.305699 0.374456
0.511559 0.319341 0.353185
0.658839 0.349126 0.327123
0.746151 0.385016 0.300145
0.817868 0.422980 0.272679
0.888823 0.461128 0.233127
0.205142 0.349157 0.289555
0.247471 0.370733 0.311986
0.388861 0.437842 0.394263
0.488563 0.453162 0.402533
0.679072 0.497047 0.360998
0.753689 0.496956 0.332006
0.822507 0.506767 0.293553
0.892393 0.525261 0.242985
0.376745 0.506401 0.377844
0.412848 0.520714 0.404639
0.514397 0.565972 0.486519
0.616388 0.628748 0.577478
0.559686 0.519829 0.444923
0.742000 0.590295 0.387152
0.824918 0.610468 0.355566
0.890715 0.615351 0.316106
0.531273 0.623926 0.496681
0.551781 0.632258 0.516320
0.604578 0.654170 0.570397
0.664851 0.688716 0.637018
0.693050 0.705379 0.648188
0.636439 0.595178 0.500694
0.778805 0.653162 0.446174
0.885893 0.696284 0.401831
0.628870 0.700465 0.595056
0.638117 0.704860 0.605585
0.665766 0.719966 0.637354
0.706416 0.746700 0.685512
0.748653 0.780362 0.730495
0.750057 0.765042 0.700679
0.698451 0.665339 0.571344
0.823026 0.720699 0.530541
0.695399 0.772763 0.670375
0.700587 0.775662 0.676692
0.717617 0.785245 0.697719
0.748684 0.803464 0.736934
0.788815 0.828672 0.784573
0.819669 0.850858 0.812711
0.807797 0.823697 0.762814
0.773983 0.749813 0.656733
0.000000 0.185092 0.404974
0.091432 0.183108 0.424109
0.299016 0.140963 0.483864
0.543603 0.113802 0.475898
0.671901 0.256596 0.440467
0.724361 0.313146 0.401556
0.777768 0.418616 0.422644
0.858305 0.481849 0.426917
0.125002 0.239322 0.409888
0.142550 0.230991 0.428168
0.308354 0.202396 0.484596
0.544793 0.194583 0.482399
0.667323 0.296147 0.446509
0.720333 0.343053 0.411017
0.779446 0.430762 0.425727
0.859434 0.488472 0.426886
0.230106 0.331334 0.389746
0.263554 0.345434 0.406989
0.338018 0.353857 0.475044
0.542718 0.351568 0.500175
0.652033 0.393713 0.463874
0.705379 0.434607 0.447639
0.784939 0.468879 0.434455
0.863188 0.509361 0.423926
0.265904 0.433845 0.419623
0.300267 0.442847 0.430213
0.403510 0.471717 0.465156
0.538872 0.503441 0.526879
0.638666 0.509483 0.497932
0.722896 0.517876 0.473548
0.796445 0.529747 0.447700
0.872709 0.544823 0.413764
0.356970 0.498116 0.416876
0.386786 0.509087 0.431434
0.472969 0.542351 0.476997
0.585290 0.599725 0.564111
0.613062 0.580560 0.529259
0.738155 0.614374 0.505913
0.807279 0.611139 0.473579
0.879728 0.614038 0.431647
0.497230 0.602319 0.481453
0.516472 0.609827 0.497749
0.572412 0.633143 0.548547
0.640803 0.668086 0.618830
0.700374 0.716060 0.679469
0.644923 0.613733 0.549462
0.794430 0.680323 0.520714
0.880095 0.701778 0.497780
0.610803 0.688228 0.584588
0.619867 0.691981 0.594202
0.647822 0.705806 0.624628
0.687617 0.731319 0.669490
0.736995 0.767758 0.727108
0.761013 0.780972 0.735958
0.701472 0.674952 0.600610
0.835660 0.735866 0.569055
0.682979 0.763516 0.662470
0.687831 0.766171 0.668147
0.704372 0.775570 0.687770
0.733272 0.793301 0.722713
0.773404 0.818051 0.771023
0.815396 0.847196 0.814206
0.814817 0.834043 0.787167
0.775418 0.754269 0.671412
0.155520 0.270939 0.524712
0.194156 0.269535 0.536004
0.331792 0.252079 0.572656
0.565881 0.178317 0.620996
0.676478 0.311254 0.576074
0.737667 0.413031 0.542718
0.783169 0.452338 0.520775
0.835111 0.531182 0.547601
0.209751 0.312749 0.523095
0.231937 0.308507 0.533898
0.344915 0.294896 0.569390
0.564355 0.236912 0.620569
0.673701 0.345678 0.578180
0.734249 0.430549 0.545464
0.780606 0.463172 0.523430
0.832822 0.539727 0.551415
0.322606 0.411566 0.506096
0.343145 0.418524 0.520684
0.388800 0.409003 0.560906
0.552636 0.387579 0.615290
0.667659 0.441718 0.589288
0.725063 0.484535 0.557153
0.773312 0.498878 0.534081
0.831449 0.563592 0.560876
0.366217 0.482460 0.503960
0.388251 0.487465 0.509819
0.456855 0.505425 0.530816
0.540368 0.528496 0.598077
0.659327 0.546197 0.607813
0.711543 0.551141 0.575433
0.758114 0.565270 0.564782
0.841367 0.591943 0.565393
0.410864 0.559960 0.525475
0.430335 0.564446 0.531975
0.488624 0.579675 0.553674
0.565637 0.602655 0.586877
0.644495 0.624933 0.625513
0.704860 0.618402 0.600824
0.777310 0.620111 0.582025
0.855253 0.628779 0.563561
0.484260 0.600855 0.521324
0.500450 0.606348 0.529992
0.547204 0.622705 0.556603
0.607660 0.647150 0.597345
0.673030 0.687190 0.661769
0.682094 0.662989 0.623316
0.797543 0.699855 0.611810
0.868406 0.694636 0.580468
0.582879 0.675929 0.572198
0.593103 0.678370 0.580407
0.623133 0.688014 0.607050
0.663478 0.711543 0.649897
0.712856 0.746670 0.706050
0.771939 0.795834 0.770840
0.708034 0.689296 0.636469
0.856687 0.757076 0.620844
0.666621 0.751736 0.652277
0.671260 0.754238 0.657343
0.687160 0.763272 0.675288
0.714229 0.779599 0.706630
0.752041 0.803311 0.751156
0.802945 0.836484 0.808743
0.828244 0.850828 0.821744
0.778531 0.761929 0.693477
0.310918 0.378424 0.621881
0.334722 0.378393 0.629236
0.413947 0.368994 0.649653
0.552209 0.341558 0.682124
0.689876 0.356298 0.697261
0.748959 0.465522 0.654871
0.794766 0.526665 0.633143
0.845029 0.562066 0.628931
0.328099 0.400885 0.616144
0.348241 0.400732 0.623346
0.418647 0.393042 0.644190
0.547723 0.369696 0.676661
0.684779 0.377447 0.693965
0.744381 0.474586 0.652491
0.790219 0.529229 0.630182
0.841794 0.562707 0.626276
0.416205 0.486793 0.605432
0.429847 0.489052 0.614099
0.449928 0.471046 0.635889
0.547448 0.461219 0.669001
0.677913 0.457282 0.695125
0.739467 0.524743 0.660426
0.786069 0.560449 0.639063
0.840360 0.583215 0.633845
0.451148 0.531792 0.579095
0.462715 0.533165 0.581415
0.502037 0.549950 0.609339
0.554437 0.555779 0.654322
0.667475 0.550317 0.700130
0.733394 0.589288 0.675074
0.779965 0.601007 0.651270
0.836698 0.608728 0.640742
0.476600 0.594415 0.595087
0.486671 0.595178 0.597040
0.520684 0.599481 0.605554
0.572107 0.608331 0.621302
0.633356 0.627161 0.674556
0.720638 0.640620 0.685878
0.767483 0.635462 0.657008
0.826230 0.644770 0.651545
0.515526 0.645563 0.607141
0.524804 0.647181 0.610315
0.554620 0.652766 0.621332
0.597711 0.663050 0.640101
0.644831 0.677607 0.664790
0.708888 0.698329 0.707149
0.762905 0.689479 0.678462
0.839353 0.693324 0.667720
0.571679 0.673030 0.604517
0.580072 0.675502 0.609369
0.604089 0.683070 0.623774
0.637903 0.697139 0.646998
0.676783 0.718654 0.677516
0.736019 0.759915 0.739956
0.743954 0.734524 0.700771
0.859373 0.766018 0.694270
0.644709 0.741207 0.650202
0.648493 0.742916 0.653040
0.662654 0.750484 0.664607
0.686946 0.761501 0.685176
0.724208 0.782620 0.725643
0.773831 0.815244 0.782132
0.834501 0.858854 0.844114
0.782803 0.773251 0.725612
0.456336 0.494301 0.699092
0.467384 0.493355 0.703334
0.503899 0.485176 0.715694
0.578759 0.469978 0.739590
0.689570 0.440070 0.772580
0.772335 0.489174 0.769039
0.815244 0.571923 0.734005
0.856046 0.614710 0.717983
0.462135 0.506188 0.694911
0.472084 0.505455 0.699184
0.506249 0.498573 0.712032
0.576623 0.484443 0.735683
0.684779 0.457710 0.769162
0.769406 0.499245 0.767819
0.813199 0.576806 0.733700
0.854643 0.617304 0.717800
0.506981 0.558740 0.683864
0.507256 0.554162 0.688228
0.517388 0.539574 0.701656
0.577020 0.534051 0.727962
0.673243 0.515984 0.762142
0.762661 0.536797 0.768154
0.810056 0.598657 0.737881
0.852171 0.629816 0.720577
0.518303 0.586419 0.657893
0.526726 0.589776 0.663478
0.553552 0.598718 0.681971
0.579644 0.591608 0.712184
0.654902 0.585412 0.749722
0.752804 0.588830 0.772335
0.806638 0.631403 0.746944
0.848905 0.650874 0.726467
0.537560 0.627192 0.655116
0.543725 0.627649 0.656458
0.560662 0.626429 0.658930
0.588281 0.630182 0.674037
0.633112 0.639643 0.725673
0.734554 0.637629 0.777737
0.800168 0.668910 0.758480
0.843503 0.677852 0.733883
0.563073 0.678431 0.671473
0.567071 0.678065 0.671992
0.581353 0.677302 0.674556
0.605188 0.676905 0.680446
0.636927 0.677211 0.690791
0.691585 0.696162 0.752895
0.789364 0.714687 0.774289
0.836545 0.713344 0.745388
0.599847 0.720150 0.685603
0.603296 0.720729 0.687037
0.615015 0.723201 0.692500
0.635187 0.729244 0.703853
0.661799 0.737362 0.719539
0.698695 0.746487 0.739803
0.766415 0.767239 0.791135
0.820920 0.755734 0.759762
0.635950 0.745724 0.684199
0.638453 0.746242 0.685451
0.648005 0.748959 0.690791
0.667170 0.756619 0.703365
0.696040 0.769986 0.724331
0.734463 0.789212 0.754482
0.790005 0.821378 0.805509
0.812863 0.815549 0.797269
