data/filter_cube/10491141/1023209/file.cube
# Created by Adobe Lightroom plugin Export LUT (1.17.0)
# www.johnrellis.com/lightroom/exportlut.htm
# Preset: 莫兰迪丛林_08 云集
# Color profile: C:\Program Files (x86)\Common Files\Adobe\Color\Profiles\Recommended\AdobeRGB1998.icc
LUT_3D_SIZE 32
DOMAIN_MIN 0.0 0.0 0.0
DOMAIN_MAX 1.0 1.0 1.0
0.069123 0.076112 0.088075
0.072236 0.076356 0.087984
0.075624 0.076936 0.087861
0.084779 0.078218 0.087556
0.103365 0.080751 0.087129
0.132265 0.083101 0.086152
0.170840 0.084535 0.084657
0.219181 0.083162 0.081514
0.278630 0.075257 0.076661
0.347143 0.048127 0.068635
0.416571 0.000000 0.055634
0.481422 0.000000 0.023377
0.538689 0.000000 0.000000
0.587243 0.000000 0.000000
0.629297 0.000000 0.000000
0.666224 0.000000 0.000000
0.695949 0.000000 0.000000
0.720211 0.074922 0.000000
0.740444 0.112764 0.000000
0.758389 0.142306 0.000000
0.775570 0.169131 0.000000
0.792355 0.194827 0.000000
0.808713 0.219699 0.000000
0.824796 0.244297 0.000000
0.840696 0.268315 0.000000
0.856504 0.291966 0.000000
0.872404 0.315221 0.000000
0.888457 0.337957 0.000000
0.904692 0.360082 0.000000
0.921080 0.381384 0.000000
0.937499 0.401831 0.000000
0.953704 0.421241 0.000000
0.069673 0.077058 0.088838
0.070893 0.077607 0.089082
0.075654 0.078676 0.088319
0.084779 0.080323 0.087984
0.103914 0.082948 0.087526
0.133028 0.086091 0.086152
0.172335 0.088075 0.084230
0.221103 0.086976 0.081025
0.280461 0.080293 0.076020
0.348943 0.060548 0.067750
0.417731 0.000000 0.053681
0.482124 0.000000 0.020783
0.539055 0.000000 0.000000
0.587335 0.000000 0.000000
0.629267 0.000000 0.000000
0.665583 0.000000 0.000000
0.695064 0.000061 0.000000
0.719265 0.083406 0.000000
0.739498 0.117586 0.000000
0.757443 0.145663 0.000000
0.774624 0.171481 0.000000
0.791409 0.196506 0.000000
0.807767 0.221134 0.000000
0.823880 0.245121 0.000000
0.839780 0.269078 0.000000
0.855680 0.292607 0.000000
0.871611 0.315801 0.000000
0.887724 0.338354 0.000000
0.903990 0.360479 0.000000
0.920439 0.381781 0.000000
0.936889 0.402106 0.000000
0.953185 0.421454 0.000000
0.070863 0.078981 0.090059
0.071748 0.079866 0.091066
0.073396 0.080323 0.091005
0.084596 0.082979 0.088655
0.103975 0.086763 0.087800
0.133639 0.090211 0.086671
0.172763 0.092988 0.084382
0.221561 0.093050 0.081056
0.281773 0.087495 0.075868
0.350530 0.071290 0.067384
0.419806 0.015534 0.051637
0.484077 0.000000 0.017517
0.540429 0.000000 0.000000
0.588434 0.000000 0.000000
0.629938 0.000000 0.000000
0.665858 0.000000 0.000000
0.695003 0.048981 0.000000
0.719020 0.095338 0.000000
0.739193 0.125338 0.000000
0.757137 0.151766 0.000000
0.774289 0.176303 0.000000
0.791104 0.200595 0.000000
0.807431 0.224521 0.000000
0.823514 0.247959 0.000000
0.839445 0.271458 0.000000
0.855314 0.294560 0.000000
0.871275 0.317510 0.000000
0.887388 0.340002 0.000000
0.903716 0.361822 0.000000
0.920134 0.383001 0.000000
0.936614 0.403174 0.000000
0.952911 0.422461 0.000000
0.073304 0.082918 0.092988
0.074678 0.084291 0.094942
0.075776 0.085115 0.095125
0.078218 0.085389 0.094820
0.101930 0.092805 0.090150
0.134615 0.100313 0.087434
0.174441 0.104189 0.084962
0.224002 0.105776 0.081392
0.284459 0.102907 0.075593
0.353399 0.092073 0.066255
0.422248 0.071962 0.048615
0.486152 0.021057 0.011994
0.542473 0.000000 0.000000
0.590021 0.000000 0.000000
0.631678 0.000000 0.000000
0.666865 0.049165 0.000000
0.695644 0.089906 0.000000
0.719356 0.117800 0.000000
0.739223 0.142428 0.000000
0.756924 0.164828 0.000000
0.773922 0.186862 0.000000
0.790616 0.209354 0.000000
0.807004 0.232029 0.000000
0.823148 0.254612 0.000000
0.839231 0.277562 0.000000
0.855253 0.300175 0.000000
0.871336 0.322637 0.000000
0.887510 0.344732 0.000000
0.903807 0.366033 0.000000
0.920195 0.386633 0.000000
0.936553 0.406409 0.000000
0.952789 0.425238 0.000000
0.076265 0.089326 0.096620
0.077913 0.090791 0.098482
0.079500 0.092592 0.100282
0.082918 0.094362 0.100557
0.087068 0.093263 0.099092
0.122225 0.106600 0.092592
0.174563 0.120638 0.085725
0.226780 0.125765 0.080812
0.288334 0.125490 0.074037
0.357153 0.119509 0.064363
0.425574 0.107942 0.041962
0.488960 0.093660 0.003723
0.544579 0.081727 0.000000
0.591669 0.079438 0.000000
0.633021 0.089326 0.000000
0.667567 0.107790 0.000000
0.696040 0.128084 0.000000
0.719631 0.148074 0.000000
0.739528 0.167147 0.000000
0.757198 0.185306 0.000000
0.774166 0.204379 0.000000
0.790860 0.224308 0.000000
0.807218 0.244999 0.000000
0.823331 0.266056 0.000000
0.839384 0.287419 0.000000
0.855375 0.309056 0.000000
0.871366 0.330541 0.000000
0.887480 0.351659 0.000000
0.903746 0.372229 0.000000
0.920104 0.392187 0.000000
0.936431 0.411292 0.000000
0.952636 0.429603 0.000000
0.080079 0.098573 0.101259
0.082155 0.100893 0.103151
0.085206 0.103731 0.106325
0.089174 0.107576 0.108400
0.095094 0.109895 0.107851
0.099916 0.105409 0.104707
0.146670 0.123873 0.095552
0.221317 0.144472 0.081910
0.294347 0.155428 0.071046
0.363592 0.152407 0.059510
0.431525 0.146120 0.028138
0.494148 0.138277 0.000000
0.548669 0.132937 0.000000
0.595605 0.133669 0.000000
0.635645 0.140780 0.000000
0.669429 0.152712 0.000000
0.697292 0.166995 0.000000
0.720485 0.181857 0.000000
0.740108 0.196384 0.000000
0.757717 0.211368 0.000000
0.774624 0.227420 0.000000
0.791348 0.244877 0.000000
0.814115 0.272862 0.000000
0.829953 0.291844 0.000000
0.845640 0.311101 0.000000
0.861234 0.330297 0.000000
0.876860 0.349493 0.000000
0.892515 0.368292 0.000000
0.908293 0.386969 0.000000
0.924132 0.405188 0.000000
0.939940 0.422827 0.000000
0.955596 0.439582 0.000000
0.086305 0.114015 0.107698
0.088655 0.116548 0.110079
0.092287 0.120272 0.113710
0.098909 0.127077 0.119051
0.107210 0.134524 0.122286
0.115419 0.133394 0.117891
0.119173 0.123445 0.112337
0.176974 0.145724 0.099977
0.273350 0.172641 0.078065
0.368200 0.188022 0.050538
0.444129 0.190219 0.002594
0.505303 0.185519 0.000000
0.557977 0.183047 0.000000
0.604761 0.185611 0.000000
0.643244 0.191470 0.000000
0.675257 0.200259 0.000000
0.701808 0.210056 0.000000
0.723995 0.220493 0.000000
0.743038 0.231540 0.000000
0.760494 0.243351 0.000000
0.777646 0.257359 0.000000
0.794675 0.273045 0.000000
0.811490 0.290105 0.000000
0.828031 0.308019 0.000000
0.844297 0.326543 0.000000
0.860258 0.344671 0.000000
0.876036 0.362676 0.000000
0.891814 0.380285 0.000000
0.907713 0.397559 0.000000
0.923644 0.414527 0.000000
0.939544 0.430793 0.000000
0.955230 0.446693 0.000000
0.095186 0.135378 0.116762
0.097841 0.138247 0.119600
0.101869 0.142428 0.123354
0.111604 0.152163 0.132876
0.121065 0.161105 0.136873
0.134279 0.170779 0.140047
0.142519 0.162814 0.130312
0.143282 0.145846 0.122133
0.209964 0.170291 0.106722
0.321965 0.201083 0.077241
0.430671 0.220706 0.008209
0.511742 0.235355 0.000000
0.564996 0.234409 0.000000
0.609339 0.235813 0.000000
0.646235 0.239445 0.000000
0.677180 0.245029 0.000000
0.702907 0.251377 0.000000
0.724605 0.258366 0.000000
0.743313 0.265995 0.000000
0.760525 0.274907 0.000000
0.777523 0.286076 0.000000
0.794430 0.299077 0.000000
0.811063 0.313756 0.000000
0.827512 0.329351 0.000000
0.843687 0.345647 0.000000
0.859556 0.362249 0.000000
0.875273 0.378515 0.000000
0.891081 0.394659 0.000000
0.906950 0.410712 0.000000
0.922881 0.426490 0.000000
0.938811 0.441840 0.000000
0.954589 0.456641 0.000000
0.108278 0.164736 0.129915
0.111238 0.167941 0.132998
0.115969 0.172488 0.137148
0.126864 0.182742 0.147158
0.140688 0.195102 0.156435
0.156435 0.208896 0.162478
0.171023 0.212802 0.160159
0.178103 0.199100 0.146059
0.173495 0.173342 0.134585
0.247288 0.198428 0.116213
0.370397 0.231785 0.079469
0.488563 0.257939 0.000000
0.561822 0.276921 0.000000
0.614679 0.289220 0.000000
0.650050 0.290135 0.000000
0.679835 0.292485 0.000000
0.704768 0.295384 0.000000
0.725826 0.299260 0.000000
0.744076 0.303502 0.000000
0.761105 0.309392 0.000000
0.777920 0.317998 0.000000
0.794644 0.328313 0.000000
0.811093 0.340490 0.000000
0.827359 0.353979 0.000000
0.843381 0.368109 0.000000
0.859159 0.382422 0.000000
0.874846 0.397009 0.000000
0.890532 0.411536 0.000000
0.906371 0.426093 0.000000
0.922240 0.440589 0.000000
0.938140 0.454780 0.000000
0.953918 0.468605 0.000000
0.126253 0.201694 0.147311
0.129854 0.205203 0.150607
0.135042 0.209751 0.154910
0.147189 0.220279 0.165591
0.166049 0.235782 0.180056
0.183474 0.250736 0.187167
0.208225 0.270420 0.196231
0.218082 0.260899 0.183322
0.222385 0.240208 0.164492
0.209934 0.204898 0.149233
0.290532 0.229648 0.128389
0.418402 0.265812 0.085939
0.528557 0.294560 0.000000
0.600580 0.317723 0.000000
0.651606 0.339269 0.000000
0.682918 0.342290 0.000000
0.707179 0.342016 0.000000
0.727718 0.342443 0.000000
0.745480 0.343725 0.000000
0.762203 0.346868 0.000000
0.778744 0.352514 0.000000
0.795041 0.360174 0.000000
0.811154 0.369512 0.000000
0.827054 0.380285 0.000000
0.842832 0.391974 0.000000
0.858518 0.404303 0.000000
0.874144 0.417029 0.000000
0.889860 0.430030 0.000000
0.905760 0.443214 0.000000
0.921691 0.456519 0.000000
0.937621 0.469642 0.000000
0.953368 0.482460 0.000000
0.149813 0.245212 0.168276
0.153872 0.248600 0.171603
0.159762 0.253635 0.176364
0.172946 0.264378 0.187167
0.195682 0.281621 0.205020
0.217472 0.298589 0.215702
0.244083 0.318517 0.225864
0.274540 0.336675 0.234318
0.276066 0.313359 0.209628
0.276890 0.287083 0.185977
0.254459 0.241459 0.166751
0.334997 0.262058 0.143221
0.460334 0.300084 0.098116
0.561425 0.330846 0.000000
0.632227 0.357061 0.000000
0.676661 0.377111 0.000000
0.709041 0.389593 0.000000
0.728939 0.386725 0.000000
0.746334 0.384741 0.000000
0.762905 0.385168 0.000000
0.779294 0.388220 0.000000
0.795438 0.393469 0.000000
0.811368 0.400427 0.000000
0.827146 0.408850 0.000000
0.842802 0.418372 0.000000
0.858335 0.428534 0.000000
0.873838 0.439277 0.000000
0.889433 0.450507 0.000000
0.905180 0.462104 0.000000
0.921050 0.473884 0.000000
0.936950 0.485878 0.000000
0.952575 0.497536 0.000000
0.180331 0.295659 0.192935
0.184970 0.299077 0.196536
0.191318 0.303990 0.201572
0.205661 0.314214 0.212558
0.229831 0.330541 0.230838
0.258579 0.348882 0.248753
0.285954 0.367437 0.260349
0.320867 0.389899 0.275181
0.342626 0.393957 0.271824
0.340520 0.367071 0.240665
0.335576 0.334691 0.210147
0.303899 0.280003 0.185855
0.388739 0.302312 0.163607
0.508873 0.343023 0.116823
0.598871 0.375372 0.002533
0.665034 0.402045 0.000000
0.703883 0.419135 0.000000
0.733028 0.432563 0.000000
0.752255 0.433234 0.000000
0.768307 0.430884 0.000000
0.784146 0.430976 0.000000
0.799741 0.433295 0.000000
0.815091 0.437324 0.000000
0.830350 0.443122 0.000000
0.845579 0.449958 0.000000
0.860716 0.457832 0.000000
0.875853 0.466255 0.000000
0.891112 0.475349 0.000000
0.906523 0.484962 0.000000
0.922087 0.495033 0.000000
0.937682 0.505394 0.000000
0.952972 0.515465 0.000000
0.220523 0.352117 0.223728
0.225437 0.355169 0.227390
0.232456 0.359411 0.232456
0.247776 0.368444 0.243809
0.273198 0.382483 0.262577
0.308690 0.401343 0.288945
0.335760 0.418616 0.301274
0.368322 0.438483 0.316228
0.405737 0.460914 0.333989
0.411597 0.448615 0.313787
0.405951 0.419745 0.277775
0.395239 0.382605 0.240208
0.359228 0.322881 0.209354
0.423774 0.331853 0.182071
0.536980 0.373999 0.137423
0.619593 0.406897 0.069673
0.680110 0.431952 0.000000
0.718959 0.447486 0.000000
0.745449 0.458930 0.000000
0.768704 0.469459 0.000000
0.784360 0.467323 0.000000
0.799802 0.467323 0.000000
0.814969 0.469276 0.000000
0.830076 0.472786 0.000000
0.845151 0.477668 0.000000
0.860136 0.483558 0.000000
0.875212 0.490364 0.000000
0.890349 0.497841 0.000000
0.905699 0.505913 0.000000
0.921233 0.514702 0.000000
0.936797 0.523888 0.000000
0.951934 0.532769 0.000000
0.266880 0.404639 0.257847
0.272282 0.407507 0.261784
0.279454 0.411078 0.267094
0.295109 0.418921 0.278660
0.319219 0.430671 0.296849
0.351904 0.446204 0.321447
0.382055 0.462409 0.340002
0.410590 0.479316 0.354009
0.442969 0.498177 0.370520
0.475257 0.515709 0.385931
0.467842 0.491829 0.350896
0.459449 0.462135 0.311620
0.443702 0.421942 0.269841
0.404944 0.359594 0.231846
0.457099 0.361486 0.202762
0.561975 0.404059 0.160861
0.637751 0.436286 0.104585
0.692775 0.458808 0.000000
0.732082 0.472908 0.000000
0.757534 0.484077 0.000000
0.781399 0.496559 0.000000
0.800046 0.501671 0.000000
0.815122 0.501640 0.000000
0.830106 0.503258 0.000000
0.844999 0.506310 0.000000
0.859861 0.510460 0.000000
0.874815 0.515496 0.000000
0.889891 0.521416 0.000000
0.905150 0.528191 0.000000
0.920592 0.535637 0.000000
0.936095 0.543664 0.000000
0.951049 0.551324 0.000000
0.317815 0.453132 0.295384
0.322789 0.455451 0.298924
0.329107 0.458228 0.303746
0.343481 0.464546 0.314641
0.365209 0.474250 0.331182
0.393835 0.486763 0.353429
0.425635 0.501305 0.377356
0.450172 0.515404 0.390356
0.477668 0.531212 0.405615
0.507103 0.548699 0.423102
0.522942 0.552300 0.422278
0.514763 0.528496 0.385931
0.504997 0.499062 0.344549
0.486000 0.457618 0.299687
0.446754 0.394598 0.256107
0.487007 0.389807 0.224643
0.583612 0.432074 0.185611
0.653437 0.462959 0.136934
0.704128 0.483528 0.058320
0.742245 0.496742 0.000000
0.769558 0.508446 0.000000
0.793179 0.520928 0.000000
0.815274 0.533776 0.000000
0.830137 0.533867 0.000000
0.844907 0.535210 0.000000
0.859709 0.537804 0.000000
0.874632 0.541405 0.000000
0.889738 0.546044 0.000000
0.904967 0.551629 0.000000
0.920439 0.557946 0.000000
0.935882 0.564813 0.000000
0.950713 0.571405 0.000000
0.367254 0.495644 0.332280
0.371893 0.497597 0.335912
0.377417 0.499916 0.340337
0.390265 0.505150 0.350256
0.409522 0.512963 0.365515
0.434699 0.523339 0.385901
0.464271 0.535912 0.410620
0.487709 0.548577 0.426276
0.510674 0.562219 0.440284
0.535027 0.577081 0.455940
0.560143 0.592828 0.472969
0.562432 0.584131 0.456031
0.553307 0.560204 0.418616
0.542382 0.530632 0.375280
0.521386 0.488350 0.328008
0.483314 0.426459 0.280858
0.512688 0.415900 0.247257
0.601984 0.457618 0.211551
0.667445 0.487465 0.168551
0.714839 0.506950 0.113863
0.751736 0.520134 0.000000
0.781857 0.532341 0.000000
0.805264 0.544976 0.000000
0.827268 0.557702 0.000000
0.845457 0.564813 0.000000
0.860136 0.565881 0.000000
0.874907 0.568109 0.000000
0.889860 0.571435 0.000000
0.904997 0.575616 0.000000
0.920256 0.580682 0.000000
0.935332 0.586084 0.000000
0.949950 0.591547 0.000000
0.412940 0.531792 0.367926
0.416632 0.533165 0.370886
0.421759 0.535058 0.375006
0.432654 0.539208 0.383856
0.449073 0.545678 0.397559
0.470161 0.554223 0.415747
0.494850 0.564721 0.437690
0.518578 0.576440 0.457984
0.537743 0.588159 0.470497
0.558221 0.600732 0.484535
0.579248 0.613947 0.499825
0.600366 0.627283 0.516075
0.593072 0.609308 0.484535
0.584344 0.586419 0.447150
0.573175 0.557549 0.403449
0.551385 0.515648 0.355291
0.515373 0.456153 0.305760
0.535607 0.440650 0.270695
0.619135 0.481941 0.238895
0.680110 0.510430 0.201083
0.724575 0.528954 0.156466
0.760891 0.542596 0.087892
0.793698 0.554925 0.000000
0.817014 0.567681 0.000000
0.838956 0.580224 0.000000
0.859617 0.592126 0.000000
0.874815 0.594202 0.000000
0.889647 0.596277 0.000000
0.904662 0.599359 0.000000
0.919829 0.603357 0.000000
0.934630 0.607599 0.000000
0.949126 0.612116 0.000000
0.454871 0.563439 0.402197
0.458289 0.564813 0.405188
0.470558 0.572442 0.415839
0.479438 0.575830 0.423774
0.492775 0.581109 0.435859
0.509606 0.588037 0.451545
0.529656 0.596612 0.470771
0.551781 0.606531 0.492897
0.567926 0.616083 0.504906
0.584527 0.626246 0.517357
0.601740 0.636927 0.530938
0.619013 0.647883 0.545312
0.628779 0.650996 0.546990
0.621576 0.633875 0.515068
0.613397 0.612329 0.477790
0.603021 0.585138 0.434150
0.581109 0.543816 0.385260
0.547448 0.487404 0.333654
0.559625 0.467414 0.296880
0.637415 0.507591 0.269505
0.693477 0.534295 0.236667
0.735134 0.551934 0.198947
0.771389 0.566278 0.146944
0.804257 0.578973 0.024079
0.829801 0.591058 0.000000
0.851408 0.602960 0.000000
0.871855 0.614130 0.000000
0.889616 0.621271 0.000000
0.904387 0.623133 0.000000
0.919280 0.625971 0.000000
0.933776 0.629084 0.000000
0.948058 0.632654 0.000000
0.493996 0.593317 0.436805
0.497475 0.595026 0.439979
0.501976 0.597131 0.444251
0.510216 0.600580 0.452033
0.521843 0.605432 0.463294
0.536309 0.611444 0.477638
0.553216 0.618555 0.494820
0.572045 0.626734 0.514488
0.588739 0.635370 0.530571
0.602655 0.643946 0.541741
0.617334 0.653101 0.554040
0.632074 0.662470 0.567041
0.646693 0.672145 0.580285
0.648310 0.667536 0.569360
0.641627 0.651392 0.538201
0.634180 0.631220 0.501457
0.624964 0.605890 0.458686
0.604150 0.566400 0.410437
0.572961 0.512932 0.358251
0.579095 0.489754 0.320287
0.651789 0.528771 0.297307
0.704005 0.554467 0.269688
0.744289 0.572473 0.237858
0.780514 0.587884 0.194888
0.813565 0.601007 0.130343
0.841794 0.612360 0.000000
0.863462 0.624079 0.000000
0.884001 0.635065 0.000000
0.903441 0.645441 0.000000
0.918608 0.648402 0.000000
0.932891 0.650568 0.000000
0.946929 0.653346 0.000000
0.525780 0.617945 0.467079
0.528710 0.619348 0.470069
0.532403 0.621057 0.473732
0.539178 0.623865 0.480537
0.548913 0.627802 0.490578
0.561028 0.632746 0.503197
0.575341 0.638544 0.518517
0.591241 0.645350 0.536156
0.608148 0.653071 0.555444
0.619959 0.660395 0.565545
0.632319 0.668238 0.576440
0.645075 0.676722 0.587793
0.657984 0.685786 0.599329
0.671077 0.695369 0.610925
0.666163 0.683467 0.589990
0.659266 0.667353 0.560449
0.652522 0.648585 0.524590
0.644495 0.625147 0.482948
0.625299 0.587915 0.435615
0.597040 0.537835 0.383581
0.598138 0.511925 0.344549
0.665461 0.549248 0.325628
0.714046 0.573938 0.302983
0.753780 0.592920 0.276036
0.789944 0.609400 0.239994
0.823178 0.623072 0.189181
0.853727 0.633509 0.104036
0.875914 0.644984 0.085237
0.896483 0.655879 0.074800
0.915343 0.665370 0.064179
0.931762 0.671778 0.060090
0.945556 0.673823 0.070832
0.554101 0.639796 0.496040
0.556573 0.640925 0.498634
0.559655 0.642329 0.501976
0.565393 0.644648 0.508049
0.573571 0.647883 0.516930
0.583795 0.651942 0.528191
0.595789 0.656733 0.541802
0.609369 0.662348 0.557610
0.623957 0.668879 0.575097
0.636042 0.675807 0.587762
0.646723 0.683070 0.597162
0.657893 0.691066 0.607019
0.669368 0.699550 0.617090
0.681147 0.708583 0.627283
0.689448 0.713375 0.631373
0.682826 0.699245 0.608942
0.675898 0.683131 0.581567
0.669154 0.665003 0.547906
0.662440 0.643702 0.507805
0.645258 0.609155 0.462287
0.620966 0.563470 0.411109
0.618280 0.535576 0.371283
0.679805 0.570703 0.356451
0.725429 0.594965 0.338689
0.765103 0.615259 0.316320
0.801297 0.632837 0.286748
0.834653 0.647028 0.245884
0.865537 0.657771 0.186679
0.890105 0.667567 0.150637
0.909880 0.677577 0.149935
0.928069 0.686549 0.152010
0.944518 0.694728 0.158358
0.581933 0.660914 0.526482
0.583703 0.661616 0.528466
0.585870 0.662501 0.530938
0.590326 0.664240 0.536004
0.597009 0.666712 0.543633
0.605524 0.669947 0.553643
0.615686 0.674037 0.565667
0.627131 0.679072 0.579400
0.639704 0.685206 0.594629
0.652399 0.692287 0.609613
0.661769 0.699245 0.617853
0.671656 0.706813 0.626459
0.681910 0.714809 0.635279
0.692470 0.723232 0.644190
0.703395 0.731930 0.653437
0.706081 0.730098 0.648768
0.699672 0.715877 0.627802
0.692653 0.699855 0.602350
0.685512 0.681758 0.571221
0.678645 0.661189 0.532738
0.663081 0.628901 0.488533
0.641932 0.586847 0.438239
0.636255 0.557427 0.397528
0.692134 0.590051 0.385870
0.735988 0.614435 0.372045
0.775570 0.635828 0.353674
0.811765 0.654231 0.329808
0.845212 0.668910 0.296941
0.875914 0.679438 0.249546
0.902586 0.687434 0.198520
0.921752 0.697108 0.203830
0.938994 0.706050 0.213016
0.604547 0.678126 0.552728
0.606104 0.678767 0.554528
0.607965 0.679591 0.556725
0.611780 0.681117 0.561273
0.617395 0.683406 0.567895
0.624598 0.686397 0.576501
0.633173 0.690242 0.586816
0.642939 0.694972 0.598596
0.653803 0.700710 0.611810
0.665461 0.707485 0.626001
0.675044 0.714351 0.635645
0.683803 0.721401 0.643153
0.693019 0.728878 0.651087
0.702815 0.736721 0.659510
0.712947 0.744839 0.668391
0.723323 0.753170 0.677668
0.721157 0.745357 0.664851
0.714992 0.731472 0.644190
0.708186 0.715724 0.620722
0.700954 0.697993 0.592035
0.693721 0.677852 0.556512
0.678889 0.647150 0.514153
0.660883 0.609064 0.465675
0.653559 0.579156 0.424933
0.703578 0.608301 0.414862
0.746883 0.633814 0.404822
0.786496 0.656306 0.390784
0.822416 0.675074 0.371893
0.855406 0.689509 0.345037
0.885832 0.700221 0.307713
0.913634 0.707485 0.255772
0.932891 0.716670 0.256992
0.626734 0.696345 0.579034
0.628016 0.697017 0.580591
0.629572 0.697749 0.582513
0.632685 0.699123 0.586206
0.637354 0.701198 0.591821
0.643305 0.703975 0.598993
0.650538 0.707515 0.607752
0.658808 0.711879 0.617853
0.668116 0.717159 0.629175
0.678187 0.723293 0.641352
0.688380 0.730098 0.653132
0.696223 0.736416 0.660029
0.704646 0.743252 0.667445
0.713497 0.750332 0.675319
0.722683 0.757656 0.683589
0.732143 0.765133 0.692195
0.740871 0.771542 0.699367
0.735286 0.759701 0.680446
0.729397 0.746242 0.659785
0.722927 0.731014 0.637263
0.715846 0.713832 0.611017
0.708125 0.693996 0.578576
0.693477 0.664454 0.538903
0.677607 0.629358 0.492134
0.669032 0.599329 0.451667
0.716030 0.627985 0.445502
0.759213 0.654719 0.439368
0.798215 0.677333 0.428473
0.833555 0.696010 0.414557
0.866026 0.710628 0.394812
0.895537 0.721736 0.368719
0.921965 0.729946 0.336034
0.644862 0.712978 0.600702
0.645930 0.713619 0.601984
0.647333 0.714321 0.603693
0.649958 0.715633 0.606867
0.653956 0.717617 0.611688
0.659113 0.720241 0.617945
0.665370 0.723629 0.625635
0.672633 0.727749 0.634485
0.680873 0.732723 0.644465
0.690120 0.738491 0.655756
0.700252 0.744991 0.668391
0.708614 0.751308 0.677089
0.716426 0.757595 0.684230
0.724636 0.764157 0.691798
0.733181 0.770932 0.699702
0.742000 0.777829 0.707942
0.751064 0.784878 0.716426
0.755367 0.786007 0.716213
0.750149 0.774838 0.697780
0.744686 0.762173 0.677394
0.738705 0.747677 0.655055
0.731960 0.731167 0.630579
0.723751 0.711635 0.601190
0.709468 0.683589 0.565209
0.694453 0.650568 0.521263
0.687709 0.623743 0.483375
0.729732 0.648829 0.477302
0.772305 0.676204 0.474220
0.810849 0.699245 0.467964
0.845640 0.718013 0.459693
0.877073 0.732967 0.448524
0.904967 0.744930 0.435523
0.661982 0.730159 0.621149
0.662898 0.730709 0.622309
0.663996 0.731319 0.623590
0.666194 0.732509 0.626307
0.669520 0.734279 0.630396
0.673976 0.736690 0.635798
0.679377 0.739834 0.642390
0.685878 0.743618 0.650385
0.693477 0.748196 0.659754
0.701961 0.753475 0.670497
0.711452 0.759457 0.682521
0.720974 0.765835 0.694240
0.728176 0.771572 0.701015
0.735775 0.777615 0.708248
0.743679 0.783810 0.715694
0.751888 0.790127 0.723445
0.760311 0.796567 0.731441
0.768978 0.803128 0.739620
0.769345 0.799771 0.732662
0.764462 0.789334 0.714839
0.759457 0.777462 0.695003
0.754055 0.763912 0.673091
0.747982 0.748440 0.649073
0.739803 0.729641 0.622492
0.725856 0.702937 0.590051
0.711208 0.671839 0.549676
0.705318 0.647333 0.514763
0.743984 0.670222 0.508995
0.785794 0.697749 0.509026
0.823667 0.720974 0.507591
0.857542 0.739925 0.505547
0.887297 0.755612 0.503990
0.677333 0.746944 0.639521
0.678096 0.747402 0.640436
0.679042 0.747951 0.641627
0.680995 0.749081 0.644007
0.684016 0.750790 0.647791
0.688167 0.753170 0.652888
0.693385 0.756191 0.659388
0.699641 0.759945 0.667292
0.706905 0.764401 0.676600
0.715114 0.769528 0.687221
0.724178 0.775235 0.698970
0.734005 0.781521 0.711849
0.741878 0.787289 0.720455
0.749050 0.792905 0.727413
0.756466 0.798581 0.734554
0.764126 0.804379 0.741817
0.772000 0.810239 0.749264
0.780056 0.816159 0.756832
0.788327 0.822171 0.764523
0.785275 0.815274 0.752010
0.780819 0.805722 0.735164
0.776211 0.794827 0.716182
0.771237 0.782193 0.694697
0.765805 0.767758 0.670924
0.757961 0.749783 0.645075
0.744778 0.724910 0.616388
0.731044 0.696407 0.581292
0.726436 0.675288 0.551446
0.761990 0.696101 0.546502
0.802365 0.723018 0.549737
0.839139 0.746029 0.553643
0.871244 0.765194 0.558801
0.693751 0.765347 0.659571
0.694423 0.765743 0.660395
0.695247 0.766201 0.661433
0.697017 0.767117 0.663661
0.699794 0.768643 0.667201
0.703487 0.770687 0.671962
0.708186 0.773342 0.678035
0.713832 0.776577 0.685328
0.720424 0.780423 0.693935
0.727932 0.784848 0.703792
0.736233 0.789853 0.714717
0.745296 0.795407 0.726650
0.754269 0.801175 0.738003
0.760830 0.806088 0.744259
