data/filter_cube/10491141/1023209/file.cube
# Created by Adobe Lightroom plugin Export LUT (1.17.0)
# www.johnrellis.com/lightroom/exportlut.htm
# Preset: 莫兰迪丛林_08 云集
# Color profile: C:\Program Files (x86)\Common Files\Adobe\Color\Profiles\Recommended\AdobeRGB1998.icc
LUT_3D_SIZE 5
DOMAIN_MIN 0.000000 0.000000 0.000000
DOMAIN_MAX 0.903226 0.903226 0.903226
0.069123 0.076112 0.088075
0.219181 0.083162 0.081514
0.629297 0.000000 0.000000
0.792355 0.194827 0.000000
0.904692 0.360082 0.000000
0.095186 0.135378 0.116762
0.143282 0.145846 0.122133
0.646235 0.239445 0.000000
0.794430 0.299077 0.000000
0.906950 0.410712 0.000000
0.317815 0.453132 0.295384
0.450172 0.515404 0.390356
0.446754 0.394598 0.256107
0.793179 0.520928 0.000000
0.904967 0.551629 0.000000
0.581933 0.660914 0.526482
0.627131 0.679072 0.579400
0.703395 0.731930 0.653437
0.641932 0.586847 0.438239
0.875914 0.679438 0.249546
0.708248 0.781552 0.677729
0.727016 0.791745 0.702388
0.777523 0.822049 0.764736
0.811032 0.839292 0.782376
0.770901 0.742489 0.635096
0.069795 0.089754 0.136172
0.217777 0.074342 0.156130
0.604883 0.000000 0.122957
0.779141 0.215824 0.022004
0.897795 0.366430 0.000000
0.097902 0.149844 0.145754
0.200748 0.207095 0.195071
0.631189 0.245243 0.124727
0.785061 0.308995 0.000000
0.900420 0.411536 0.000000
0.313664 0.446509 0.310094
0.460365 0.513176 0.423377
0.467750 0.421607 0.316258
0.790311 0.537377 0.124208
0.900633 0.557092 0.000000
0.579553 0.657679 0.531151
0.624964 0.676020 0.582910
0.703456 0.730495 0.662196
0.645411 0.595636 0.466835
0.877379 0.686885 0.304875
0.703822 0.778622 0.674769
0.722591 0.788815 0.699001
0.778500 0.822416 0.769467
0.815213 0.843687 0.793179
0.772519 0.745632 0.643183
0.000000 0.152285 0.338018
0.228305 0.118776 0.413519
0.617914 0.163546 0.378149
0.736965 0.333593 0.354528
0.872221 0.448219 0.338811
0.176974 0.273747 0.331304
0.261540 0.289891 0.411109
0.600824 0.318395 0.403662
0.743984 0.397162 0.369177
0.876371 0.474403 0.334844
0.279637 0.429694 0.355383
0.395026 0.478492 0.413794
0.561089 0.525109 0.472023
0.762387 0.560632 0.419471
0.886107 0.572198 0.345403
0.548180 0.638514 0.518334
0.596338 0.657038 0.566155
0.692805 0.716152 0.670680
0.656031 0.620661 0.538720
0.877409 0.711299 0.465949
0.689326 0.768124 0.666285
0.706264 0.777768 0.686671
0.760555 0.810361 0.753597
0.825834 0.854917 0.820798
0.774044 0.751186 0.662654
0.192386 0.295079 0.549462
0.307408 0.285222 0.581872
0.637964 0.245670 0.637720
0.751492 0.443915 0.565332
0.839109 0.527794 0.560113
0.327153 0.411627 0.538842
0.363622 0.396063 0.573358
0.630915 0.375799 0.639307
0.742641 0.490822 0.574548
0.832273 0.555993 0.572564
0.403815 0.531701 0.532403
0.462104 0.544091 0.549035
0.594537 0.579767 0.626093
0.716976 0.583612 0.595666
0.837736 0.614557 0.590082
0.510643 0.622461 0.545159
0.550988 0.635065 0.567285
0.641566 0.671778 0.630365
0.697200 0.680690 0.642573
0.865507 0.711879 0.609705
0.661341 0.747799 0.648646
0.676905 0.756619 0.665766
0.726253 0.786587 0.722621
0.810544 0.841947 0.817411
0.779294 0.764126 0.700099
0.456336 0.494301 0.699092
0.491432 0.487770 0.711543
0.630304 0.457374 0.755184
0.775692 0.510979 0.749874
0.856046 0.614710 0.717983
0.494759 0.544762 0.688197
0.506218 0.531151 0.701839
0.622522 0.511803 0.746731
0.770779 0.542138 0.752529
0.853239 0.626429 0.720180
0.527153 0.601984 0.649012
0.544579 0.603540 0.656184
0.605982 0.614649 0.716976
0.762325 0.617243 0.771298
0.846281 0.663233 0.729641
0.572900 0.693263 0.678737
0.586206 0.692744 0.681361
0.627649 0.693507 0.693416
0.709621 0.714229 0.762997
0.833463 0.722072 0.747555
0.635950 0.745724 0.684199
0.644831 0.747982 0.688930
0.680507 0.762753 0.712917
0.745846 0.795346 0.763973
0.812863 0.815549 0.797269
