data/fiter_cube/44540723/1023239/file.cube
# Created by Adobe Lightroom plugin Export LUT (1.17.0)
# www.johnrellis.com/lightroom/exportlut.htm
# Preset: 奶油色调低饱和（弱光环境）_10 云集
# Color profile: C:\Program Files (x86)\Common Files\Adobe\Color\Profiles\Recommended\AdobeRGB1998.icc
LUT_3D_SIZE 5
DOMAIN_MIN 0.000000 0.000000 0.000000
DOMAIN_MAX 0.903226 0.903226 0.903226
0.074922 0.071351 0.069123
0.238010 0.101381 0.101747
0.597833 0.142397 0.173770
0.834043 0.346105 0.302434
0.930114 0.534752 0.479896
0.130892 0.251591 0.124727
0.220432 0.246647 0.165743
0.604028 0.326482 0.192752
0.830076 0.436988 0.317357
0.928923 0.579461 0.499458
0.300084 0.566247 0.260807
0.373846 0.556847 0.286595
0.566033 0.555474 0.370306
0.815671 0.627131 0.407965
0.919677 0.675837 0.534966
0.543023 0.753109 0.445930
0.578820 0.749538 0.462959
0.666194 0.738216 0.513603
0.766140 0.728664 0.574792
0.888884 0.779355 0.654139
0.732692 0.845884 0.643488
0.745266 0.844144 0.650690
0.778164 0.837339 0.669459
0.831479 0.835233 0.710567
0.880095 0.837125 0.753750
0.030518 0.107698 0.223056
0.234562 0.105898 0.254429
0.577813 0.193606 0.307836
0.810208 0.379400 0.407385
0.917510 0.550896 0.534813
0.115114 0.263523 0.235325
0.258732 0.285283 0.285222
0.594018 0.348119 0.334386
0.809964 0.454200 0.417395
0.915862 0.586389 0.545037
0.270634 0.573907 0.298375
0.409339 0.566461 0.373999
0.566583 0.554070 0.431708
0.809598 0.625330 0.464424
0.911711 0.682368 0.581170
0.556176 0.753414 0.491249
0.598108 0.749447 0.514855
0.677424 0.738766 0.555291
0.767758 0.730159 0.605310
0.888914 0.781003 0.670832
0.738369 0.845457 0.661219
0.750240 0.843809 0.667384
0.787320 0.840208 0.690486
0.835142 0.837125 0.724788
0.881590 0.838804 0.763272
0.000000 0.190097 0.495125
0.143679 0.168704 0.528496
0.585290 0.152682 0.545190
0.786069 0.413733 0.570581
0.902007 0.581323 0.642237
0.216648 0.383459 0.490242
0.246006 0.337804 0.525261
0.597040 0.333013 0.553979
0.786496 0.484871 0.581598
0.901091 0.614496 0.651972
0.254582 0.579187 0.499153
0.382238 0.580957 0.517876
0.620508 0.595514 0.582177
0.793942 0.638331 0.618158
0.898405 0.697475 0.675990
0.472602 0.764218 0.508293
0.544579 0.757351 0.542382
0.704341 0.743343 0.642329
0.777401 0.738582 0.675074
0.893309 0.784482 0.711269
0.706264 0.849302 0.659541
0.735531 0.846708 0.682002
0.792691 0.841642 0.723415
0.836271 0.837797 0.750057
0.881407 0.838926 0.780270
0.000000 0.314733 0.705165
0.131014 0.286961 0.715694
0.553948 0.175326 0.744472
0.792020 0.344549 0.728145
0.882597 0.619867 0.741848
0.286992 0.472541 0.696651
0.289281 0.421790 0.708400
0.561578 0.348211 0.737209
0.788205 0.440009 0.725643
0.881224 0.640681 0.743557
0.475685 0.637903 0.677302
0.537194 0.638758 0.680171
0.611994 0.610864 0.715572
0.780850 0.616022 0.722957
0.883330 0.699397 0.752590
0.510643 0.755612 0.680232
0.561730 0.751919 0.686091
0.682063 0.746639 0.707668
0.794186 0.753201 0.745663
0.891630 0.779934 0.770657
0.665949 0.857023 0.686488
0.692531 0.854765 0.698634
0.760952 0.850156 0.733944
0.841489 0.843748 0.787015
0.884703 0.842741 0.810239
0.301396 0.473426 0.826535
0.333867 0.442145 0.830320
0.531151 0.385443 0.840543
0.764736 0.215122 0.856596
0.891691 0.517388 0.833677
0.432227 0.563073 0.818082
0.427161 0.529717 0.822751
0.551537 0.471290 0.834592
0.760220 0.348547 0.851102
0.888518 0.555505 0.831510
0.618402 0.707088 0.798398
0.631220 0.701778 0.802609
0.625940 0.645686 0.818265
0.754025 0.578302 0.838010
0.884520 0.653803 0.831235
0.659541 0.786038 0.801755
0.676844 0.782803 0.801144
0.730739 0.775479 0.801877
0.773220 0.750362 0.825437
0.886290 0.763638 0.839109
0.690883 0.853483 0.800229
0.705043 0.851987 0.801968
0.753536 0.848966 0.810697
0.819791 0.845609 0.825559
0.891203 0.849973 0.853330
