data/fiter_cube/44540723/1023239/file.cube
# Created by Adobe Lightroom plugin Export LUT (1.17.0)
# www.johnrellis.com/lightroom/exportlut.htm
# Preset: 奶油色调低饱和（弱光环境）_10 云集
# Color profile: C:\Program Files (x86)\Common Files\Adobe\Color\Profiles\Recommended\AdobeRGB1998.icc
LUT_3D_SIZE 8
DOMAIN_MIN 0.000000 0.000000 0.000000
DOMAIN_MAX 0.903226 0.903226 0.903226
0.074922 0.071351 0.069123
0.138125 0.087251 0.084077
0.280095 0.104524 0.108797
0.493812 0.112367 0.146883
0.683009 0.190768 0.203037
0.811887 0.315557 0.280247
0.884459 0.428717 0.371710
0.930114 0.534752 0.479896
0.100954 0.139681 0.092409
0.132631 0.139528 0.106569
0.282689 0.165988 0.113161
0.488380 0.185153 0.152041
0.675654 0.243748 0.205783
0.802762 0.340154 0.276921
0.878141 0.438575 0.366125
0.927153 0.539544 0.475380
0.144564 0.292790 0.140475
0.173892 0.290166 0.153750
0.257511 0.286595 0.190341
0.494820 0.351476 0.191775
0.691279 0.393286 0.228092
0.806516 0.445136 0.299413
0.881987 0.514580 0.395850
0.927398 0.589227 0.501122
0.232334 0.479713 0.216709
0.258946 0.475654 0.225406
0.339361 0.470527 0.257877
0.472816 0.478523 0.309514
0.676204 0.546715 0.334142
0.815274 0.575708 0.345495
0.879240 0.601801 0.428321
0.922728 0.645686 0.522881
0.372808 0.636194 0.308293
0.392432 0.633417 0.314824
0.454810 0.626734 0.339513
0.546807 0.621088 0.381079
0.635492 0.614130 0.426032
0.757321 0.651789 0.463020
0.860288 0.682490 0.487739
0.917113 0.707942 0.551873
0.507286 0.732387 0.412970
0.525780 0.734432 0.423835
0.563806 0.729213 0.441047
0.618585 0.721950 0.471351
0.684810 0.713802 0.505058
0.744808 0.709438 0.545129
0.821408 0.736812 0.597528
0.895964 0.769406 0.635462
0.627924 0.798398 0.529656
0.636255 0.798032 0.534478
0.657710 0.794095 0.544701
0.693050 0.789029 0.565728
0.732753 0.782864 0.592981
0.780423 0.779294 0.622461
0.820127 0.778805 0.655146
0.868772 0.799405 0.702571
0.732692 0.845884 0.643488
0.736324 0.845274 0.645411
0.749630 0.843717 0.653498
0.772488 0.842039 0.669551
0.792020 0.836271 0.680232
0.823056 0.835203 0.704280
0.854795 0.835843 0.729580
0.880095 0.837125 0.753750
0.076173 0.086854 0.129305
0.136507 0.084291 0.141299
0.270268 0.125185 0.165927
0.478004 0.164767 0.214237
0.667384 0.222232 0.257511
0.794705 0.322545 0.315435
0.872282 0.428046 0.392767
0.923156 0.531548 0.489265
0.092531 0.145510 0.132296
0.145449 0.156710 0.157504
0.280034 0.186282 0.183200
0.481666 0.214908 0.217807
0.666499 0.266087 0.259678
0.790951 0.349340 0.315648
0.867735 0.439460 0.388830
0.920134 0.535576 0.484077
0.137179 0.297337 0.162295
0.192386 0.299290 0.204349
0.269627 0.297459 0.234104
0.500420 0.356939 0.236088
0.676997 0.393133 0.274022
0.792996 0.442695 0.330999
0.868894 0.505699 0.408331
0.920073 0.581598 0.504295
0.238865 0.477089 0.246464
0.272740 0.475319 0.261387
0.349981 0.471351 0.289799
0.462318 0.468513 0.328557
0.655879 0.530053 0.344762
0.796262 0.560327 0.360266
0.866545 0.589624 0.433387
0.916075 0.637720 0.523522
0.382635 0.634699 0.335882
0.400641 0.631159 0.340856
0.458625 0.622675 0.361395
0.540581 0.612970 0.395331
0.624445 0.604334 0.433448
0.750149 0.645441 0.467903
0.855222 0.677363 0.492805
0.912688 0.704097 0.556573
0.508202 0.728176 0.427008
0.520500 0.726833 0.431708
0.558648 0.722103 0.447883
0.614588 0.716213 0.478065
0.681514 0.709957 0.512383
0.743008 0.707729 0.553216
0.819669 0.735439 0.601740
0.893950 0.766964 0.636164
0.622675 0.793576 0.531334
0.628199 0.792020 0.533104
0.651209 0.788754 0.544274
0.689021 0.785000 0.567163
0.730282 0.780148 0.596002
0.777371 0.776394 0.623743
0.816068 0.775021 0.653651
0.865599 0.795743 0.698756
0.729519 0.843778 0.643397
0.733974 0.843503 0.646143
0.747768 0.842130 0.654536
0.771023 0.840696 0.670649
0.796872 0.838346 0.689448
0.824857 0.836118 0.709804
0.854276 0.835294 0.731014
0.878752 0.835843 0.753262
0.000000 0.116121 0.261601
0.083894 0.106935 0.282292
0.278813 0.114595 0.296635
0.469459 0.187991 0.322728
0.666011 0.238346 0.360113
0.789639 0.371801 0.427161
0.865782 0.471321 0.487160
0.916777 0.564904 0.558984
0.121309 0.200412 0.263767
0.131258 0.183963 0.284855
0.286564 0.185397 0.303288
0.476692 0.234012 0.329870
0.666651 0.284092 0.366155
0.786099 0.392004 0.425666
0.862730 0.480934 0.484169
0.915160 0.570520 0.556939
0.125399 0.307866 0.272190
0.177646 0.314061 0.285863
0.309911 0.332799 0.330022
0.508507 0.367315 0.354833
0.679164 0.415930 0.393652
0.788571 0.470436 0.437934
0.861875 0.532280 0.494179
0.913207 0.603082 0.565026
0.177249 0.497780 0.269078
0.234104 0.501427 0.294438
0.395453 0.498970 0.379370
0.497780 0.494942 0.413916
0.683803 0.551568 0.428809
0.792660 0.574517 0.460945
0.861692 0.608148 0.515251
0.910887 0.655116 0.582605
0.340490 0.644404 0.350683
0.390448 0.642451 0.380529
0.493050 0.635279 0.438239
0.567437 0.627588 0.468208
0.645228 0.621118 0.498909
0.761349 0.658564 0.523583
0.857267 0.685786 0.544976
0.907805 0.712856 0.605158
0.502007 0.732540 0.454505
0.530571 0.730434 0.475654
0.580316 0.724666 0.503563
0.630610 0.717952 0.525811
0.688869 0.711574 0.553857
0.745205 0.709529 0.587121
0.821927 0.739345 0.626764
0.894987 0.770809 0.659480
0.633967 0.795712 0.563958
0.647089 0.793729 0.574548
0.667292 0.789944 0.582727
0.700130 0.785367 0.599268
0.737331 0.780453 0.622187
0.781216 0.777829 0.646967
0.819760 0.778592 0.675013
0.870298 0.801633 0.716396
0.736446 0.843870 0.662776
0.738857 0.843168 0.663172
0.751217 0.841520 0.669459
0.775051 0.840848 0.685328
0.799802 0.838499 0.701778
0.826871 0.836759 0.721645
0.855985 0.836393 0.741634
0.880369 0.837583 0.762966
0.000000 0.160739 0.415686
0.000000 0.153750 0.431647
0.250797 0.115755 0.474342
0.489082 0.131319 0.467536
0.640925 0.283299 0.481819
0.772152 0.370947 0.513939
0.852384 0.472969 0.554498
0.905364 0.581811 0.618860
0.076173 0.249516 0.423346
0.072602 0.225254 0.436530
0.266728 0.190677 0.474922
0.496040 0.202396 0.472511
0.645960 0.321294 0.488075
0.771389 0.397223 0.516869
0.850706 0.488319 0.556451
0.903441 0.595239 0.624323
0.198276 0.371099 0.416175
0.244327 0.376440 0.422339
0.305730 0.355627 0.466194
0.512016 0.358434 0.484291
0.663355 0.426551 0.508049
0.778256 0.484901 0.538018
0.852201 0.567681 0.590845
0.904662 0.629053 0.635767
0.192203 0.500267 0.429206
0.241886 0.502739 0.436866
0.377691 0.508965 0.462654
0.537560 0.524620 0.512322
0.683253 0.553552 0.532769
0.778958 0.584283 0.560723
0.850095 0.623896 0.598260
0.902831 0.670497 0.644617
0.289891 0.660731 0.410925
0.333471 0.658350 0.424689
0.456092 0.652888 0.472572
0.601740 0.644678 0.552300
0.667964 0.639338 0.576410
0.776791 0.674220 0.593713
0.852842 0.695674 0.619776
0.901915 0.722011 0.660609
0.445014 0.745998 0.462684
0.483467 0.745937 0.485206
0.575708 0.736568 0.542199
0.661311 0.727565 0.596704
0.709194 0.721706 0.618189
0.756039 0.719020 0.639704
0.830381 0.748928 0.665522
0.897887 0.774960 0.689326
0.602258 0.801938 0.563470
0.620752 0.800412 0.576837
0.673365 0.795346 0.616754
0.719905 0.790555 0.647272
0.753658 0.786252 0.664088
0.790127 0.783200 0.682368
0.824186 0.782895 0.702510
0.874937 0.806699 0.735470
0.724331 0.848356 0.666041
0.732784 0.847562 0.673060
0.757626 0.844694 0.693446
0.780636 0.842374 0.707454
0.804654 0.839933 0.721370
0.829618 0.838163 0.738949
0.858061 0.837980 0.756588
0.882139 0.839597 0.776089
0.000000 0.222446 0.564965
0.000000 0.210513 0.573632
0.201205 0.191043 0.597223
0.502922 0.000000 0.634089
0.665949 0.197452 0.612909
0.757504 0.394079 0.608240
0.837369 0.499580 0.633906
0.896696 0.591424 0.672602
0.000000 0.297063 0.565820
0.000000 0.275731 0.575219
0.231266 0.246799 0.597894
0.504387 0.144991 0.632624
0.666896 0.255741 0.613733
0.756863 0.424659 0.611261
0.837278 0.516228 0.637079
0.896269 0.600671 0.674678
0.272313 0.444404 0.554681
0.300328 0.445380 0.564874
0.309850 0.392462 0.590631
0.506554 0.345953 0.626001
0.668238 0.394171 0.615076
0.754055 0.500450 0.618463
0.835691 0.562463 0.644770
0.894469 0.626123 0.678584
0.311101 0.546838 0.564111
0.347875 0.547173 0.566766
0.453620 0.550652 0.576867
0.534966 0.536187 0.614221
0.675959 0.544060 0.623316
0.763119 0.590204 0.637110
0.838071 0.626978 0.659876
0.894255 0.672602 0.692134
0.330358 0.644495 0.561242
0.365545 0.644770 0.566033
0.463508 0.644038 0.580377
0.583398 0.647456 0.606043
0.685451 0.652857 0.640375
0.773861 0.671199 0.654353
0.841398 0.692683 0.675074
0.894896 0.720455 0.702571
0.416724 0.746944 0.526329
0.444953 0.745205 0.535149
0.524712 0.738705 0.562768
0.626734 0.730892 0.608820
0.715846 0.723140 0.660822
0.761257 0.723262 0.680720
0.839902 0.754574 0.699519
0.897612 0.774014 0.721340
0.563012 0.807187 0.577844
0.578485 0.805509 0.585443
0.627253 0.800778 0.611414
0.701472 0.793942 0.658930
0.759091 0.788724 0.695766
0.793393 0.785580 0.711971
0.826352 0.784970 0.727993
0.879637 0.809720 0.752468
0.687373 0.852171 0.656214
0.696803 0.851011 0.662562
0.726101 0.847654 0.682979
0.771817 0.844968 0.717983
0.805814 0.841642 0.740627
0.831571 0.839353 0.755398
0.858396 0.838682 0.771298
0.882353 0.840024 0.788144
0.000000 0.298222 0.685634
0.000000 0.279911 0.689784
0.199405 0.263554 0.699916
0.452216 0.204471 0.719020
0.665583 0.109194 0.732418
0.773953 0.317998 0.710689
0.833585 0.501152 0.703243
0.886320 0.616876 0.730831
0.000000 0.355352 0.680293
0.000000 0.336034 0.684291
0.230472 0.306371 0.696010
0.455818 0.257908 0.714839
0.664027 0.189792 0.729549
0.771572 0.352087 0.708644
0.831724 0.517479 0.703456
0.885649 0.623255 0.731228
0.340551 0.503685 0.674250
0.339727 0.492042 0.677943
0.340368 0.440589 0.691676
0.484108 0.403601 0.710353
0.669276 0.353521 0.729335
0.770687 0.454902 0.709010
0.829252 0.574884 0.709468
0.885649 0.648157 0.735714
0.454780 0.597650 0.655543
0.471107 0.598199 0.658686
0.518975 0.600153 0.675441
0.547387 0.564508 0.702205
0.675959 0.534356 0.726223
0.773281 0.577752 0.714290
0.828672 0.648035 0.722164
0.887541 0.684627 0.743313
0.450965 0.676387 0.673732
0.473518 0.675715 0.675044
0.540826 0.673274 0.679286
0.629541 0.672175 0.686488
0.683925 0.660426 0.709682
0.770565 0.666468 0.715175
0.832181 0.694911 0.728145
0.888762 0.719844 0.746456
0.473701 0.736110 0.657496
0.495277 0.736141 0.661006
0.555474 0.733639 0.669581
0.635096 0.730282 0.683497
0.709560 0.730953 0.701686
0.776486 0.736446 0.727718
0.842435 0.752621 0.741360
0.892912 0.770504 0.759792
0.549340 0.813107 0.632166
0.567163 0.812161 0.638422
0.616480 0.807828 0.656062
0.680323 0.802518 0.682063
0.742611 0.797940 0.711757
0.802304 0.792966 0.748165
0.833341 0.791653 0.761532
0.889799 0.816251 0.778958
0.670832 0.856168 0.679103
0.678492 0.855283 0.682704
0.703365 0.852781 0.694881
0.741512 0.850156 0.715541
0.790158 0.846159 0.746883
0.833280 0.842496 0.776455
0.859983 0.841276 0.791409
0.884337 0.842313 0.805661
0.000000 0.379858 0.765896
0.062196 0.364263 0.769406
0.258000 0.345769 0.774990
0.441291 0.309392 0.784756
0.620752 0.230014 0.797177
0.766262 0.252384 0.798154
0.842191 0.427131 0.778988
0.885557 0.592279 0.775540
0.184024 0.420508 0.759274
0.190738 0.406531 0.762631
0.279118 0.376379 0.769375
0.444434 0.341894 0.779049
0.616480 0.273136 0.791623
0.761105 0.282078 0.793179
0.836851 0.436835 0.773770
0.881590 0.591272 0.770871
0.392340 0.541802 0.753933
0.391424 0.531579 0.756100
0.388647 0.489540 0.763516
0.483284 0.454383 0.774014
0.624201 0.406744 0.786557
0.762325 0.397314 0.792020
0.836606 0.510399 0.775204
0.882170 0.632410 0.777096
0.531365 0.644587 0.742489
0.539666 0.642847 0.744106
0.560876 0.633295 0.751339
0.557641 0.587518 0.765621
0.645197 0.555749 0.779843
0.767208 0.530571 0.792691
0.836851 0.602350 0.778439
0.881743 0.680232 0.783505
0.565789 0.697108 0.733852
0.576806 0.696101 0.733394
0.615045 0.694850 0.733547
0.657893 0.694972 0.744656
0.672602 0.664363 0.765591
0.761318 0.638941 0.785061
0.832090 0.671168 0.776242
0.878996 0.726009 0.788296
0.566278 0.759213 0.747707
0.578729 0.758175 0.748226
0.617304 0.754757 0.749874
0.671382 0.750454 0.753414
0.728237 0.746120 0.757748
0.768887 0.737026 0.777981
0.836423 0.743526 0.784329
0.884062 0.768399 0.797574
0.594690 0.800778 0.734218
0.606348 0.800595 0.736233
0.639155 0.798581 0.741115
0.685542 0.796323 0.749233
0.736080 0.793484 0.759121
0.789944 0.793851 0.773678
0.841093 0.798825 0.795407
0.891722 0.812406 0.807736
0.653620 0.855375 0.718624
0.660945 0.855100 0.720546
0.687922 0.855589 0.729061
0.724788 0.854643 0.741176
0.770840 0.851194 0.761196
0.817563 0.848508 0.785397
0.862852 0.845701 0.815183
0.887388 0.845701 0.827573
0.301396 0.473426 0.826535
0.303197 0.461463 0.828428
0.356756 0.437140 0.831174
0.468208 0.408270 0.836912
0.596460 0.354040 0.844511
0.731044 0.253849 0.853819
0.835660 0.359625 0.849577
0.891691 0.517388 0.833677
0.344152 0.501793 0.822721
0.345098 0.491096 0.824613
0.373877 0.460456 0.828367
0.474800 0.431983 0.833890
0.597375 0.381506 0.841733
0.729000 0.291752 0.851316
0.833310 0.376532 0.847349
0.889647 0.524468 0.831662
0.461830 0.585168 0.815030
0.460914 0.577386 0.816587
0.452064 0.542107 0.820645
0.511681 0.512413 0.829038
0.610559 0.472023 0.836973
0.727657 0.403815 0.846555
0.831235 0.445441 0.845029
0.887236 0.565179 0.830533
0.592218 0.679713 0.805112
0.592035 0.675898 0.806790
0.585321 0.656764 0.810971
0.578210 0.615595 0.820218
0.636866 0.582391 0.829862
0.730922 0.537072 0.840757
0.830442 0.539940 0.843870
0.885679 0.624475 0.831174
0.646357 0.731014 0.791104
0.651118 0.731075 0.793027
0.661402 0.727565 0.797391
0.679652 0.718868 0.806516
0.671992 0.676722 0.818997
0.734737 0.646479 0.831540
0.827817 0.626581 0.841978
0.884459 0.685481 0.832670
0.654353 0.772183 0.796750
0.659327 0.771054 0.796292
0.677516 0.767941 0.795651
0.707881 0.764096 0.795773
0.739925 0.760311 0.802609
0.753445 0.735286 0.823270
0.828000 0.718624 0.842802
0.886748 0.750973 0.838834
0.662623 0.823941 0.811337
0.667536 0.822934 0.811215
0.684840 0.819791 0.811337
0.714931 0.815457 0.812772
0.754360 0.810086 0.815213
0.799557 0.805722 0.819211
0.831662 0.797238 0.836332
0.886351 0.802518 0.841855
0.690883 0.853483 0.800229
0.694911 0.852934 0.800595
0.710018 0.851621 0.802762
0.736965 0.849973 0.807553
0.771267 0.847898 0.814237
0.809659 0.845945 0.822965
0.851316 0.845365 0.834897
0.891203 0.849973 0.853330
