data/fiter_cube/44540723/1023239/file.cube
# Created by Adobe Lightroom plugin Export LUT (1.17.0)
# www.johnrellis.com/lightroom/exportlut.htm
# Preset: 奶油色调低饱和（弱光环境）_10 云集
# Color profile: C:\Program Files (x86)\Common Files\Adobe\Color\Profiles\Recommended\AdobeRGB1998.icc
LUT_3D_SIZE 32
DOMAIN_MIN 0.0 0.0 0.0
DOMAIN_MAX 1.0 1.0 1.0
0.074922 0.071351 0.069123
0.083162 0.072480 0.070680
0.093965 0.074800 0.072267
0.113008 0.079866 0.076967
0.138125 0.087251 0.084077
0.167849 0.093019 0.090089
0.201205 0.097414 0.095460
0.238010 0.101381 0.101747
0.280095 0.104524 0.108797
0.327581 0.106264 0.116396
0.380346 0.106996 0.125307
0.436957 0.108034 0.135317
0.493812 0.112367 0.146883
0.548302 0.123964 0.159670
0.597833 0.142397 0.173770
0.642725 0.165377 0.188235
0.683009 0.190768 0.203037
0.719112 0.218570 0.218997
0.753994 0.249790 0.237613
0.785733 0.283665 0.258213
0.811887 0.315557 0.280247
0.834043 0.346105 0.302434
0.853178 0.375006 0.324987
0.869841 0.402564 0.348455
0.884459 0.428717 0.371710
0.897581 0.454505 0.396429
0.909483 0.480720 0.422827
0.920317 0.507286 0.450446
0.930114 0.534752 0.479896
0.938842 0.563104 0.511223
0.946471 0.592370 0.544060
0.953002 0.622309 0.578332
0.078187 0.079225 0.071687
0.082490 0.079500 0.073304
0.094270 0.083406 0.073610
0.113802 0.088106 0.077852
0.139193 0.094331 0.084901
0.168215 0.099763 0.090578
0.201358 0.104372 0.095857
0.237705 0.108461 0.102144
0.279149 0.111513 0.108949
0.326268 0.113649 0.116548
0.378515 0.114809 0.125277
0.434546 0.116670 0.135531
0.490852 0.121401 0.147250
0.545037 0.132509 0.159792
0.594629 0.149142 0.173312
0.639490 0.170993 0.187839
0.679835 0.195468 0.202609
0.716030 0.221927 0.218112
0.751064 0.251987 0.236332
0.782498 0.284459 0.256504
0.808682 0.315099 0.277653
0.830930 0.344793 0.299382
0.850309 0.373266 0.321508
0.867308 0.400214 0.344396
0.882200 0.426337 0.368200
0.895628 0.452125 0.392798
0.907897 0.478157 0.418677
0.918975 0.504936 0.446845
0.928985 0.532403 0.476478
0.937957 0.560754 0.507652
0.945800 0.590021 0.540612
0.952453 0.620050 0.575067
0.082307 0.090974 0.074647
0.087373 0.090730 0.076905
0.093233 0.091157 0.079622
0.112734 0.098482 0.082277
0.140261 0.104158 0.085939
0.169284 0.109194 0.090974
0.201785 0.113252 0.096773
0.237949 0.117250 0.102724
0.279057 0.120577 0.109255
0.325597 0.123049 0.117250
0.377722 0.125063 0.126070
0.433234 0.127810 0.136049
0.489357 0.132723 0.147707
0.543694 0.143313 0.160311
0.592950 0.159609 0.173892
0.637842 0.179538 0.187839
0.678187 0.202976 0.202823
0.714351 0.228305 0.218021
0.749722 0.257603 0.236484
0.780758 0.288273 0.255833
0.807004 0.318090 0.276738
0.829313 0.346960 0.298283
0.848783 0.374853 0.320287
0.865873 0.401373 0.343236
0.880980 0.427008 0.366613
0.894530 0.452430 0.390906
0.906920 0.478309 0.417151
0.918181 0.504845 0.445167
0.928344 0.532219 0.474891
0.937407 0.560479 0.506218
0.945342 0.589563 0.539086
0.952117 0.619379 0.573419
0.091951 0.111727 0.083680
0.096071 0.111574 0.085939
0.100740 0.111513 0.088685
0.110811 0.112154 0.092683
0.135775 0.122744 0.094575
0.172244 0.129305 0.092897
0.204227 0.132845 0.098024
0.240208 0.136416 0.104311
0.280827 0.139406 0.110933
0.327153 0.142153 0.118898
0.378515 0.144961 0.127535
0.433631 0.148898 0.138094
0.489082 0.155459 0.149416
0.542565 0.165560 0.161715
0.591791 0.179965 0.174777
0.636408 0.198215 0.188968
0.676509 0.219638 0.203861
0.712581 0.242435 0.218692
0.747982 0.269963 0.236820
0.778225 0.297673 0.255985
0.804166 0.325505 0.275486
0.826444 0.352636 0.296788
0.846220 0.379217 0.318791
0.863828 0.405249 0.341802
0.879484 0.430793 0.365637
0.893553 0.456336 0.390875
0.906340 0.482124 0.417517
0.917754 0.508629 0.445869
0.927977 0.535607 0.475654
0.937072 0.563195 0.506615
0.945006 0.591516 0.539086
0.951720 0.620691 0.573053
0.100954 0.139681 0.092409
0.104677 0.139559 0.094148
0.109255 0.139498 0.096345
0.118990 0.139193 0.100557
0.132631 0.139528 0.106569
0.159426 0.150515 0.108949
0.200961 0.160006 0.104799
0.242588 0.163394 0.106020
0.282689 0.165988 0.113161
0.328588 0.169375 0.121218
0.379126 0.173159 0.130251
0.433570 0.178073 0.140444
0.488380 0.185153 0.152041
0.541436 0.195010 0.164279
0.590539 0.208042 0.177279
0.635248 0.224735 0.191257
0.675654 0.243748 0.205783
0.713100 0.265324 0.221408
0.747890 0.290227 0.239292
0.777371 0.315343 0.257481
0.802762 0.340154 0.276921
0.824857 0.365026 0.297642
0.844633 0.389532 0.319463
0.862333 0.414191 0.342107
0.878141 0.438575 0.366125
0.892424 0.463020 0.391058
0.905303 0.488014 0.417609
0.916808 0.513481 0.445991
0.927153 0.539544 0.475380
0.936309 0.566461 0.506279
0.944274 0.594263 0.538872
0.951141 0.622797 0.572625
0.109773 0.172427 0.101045
0.113375 0.172457 0.102602
0.117861 0.172091 0.104616
0.126619 0.171328 0.108980
0.140780 0.170962 0.115145
0.157321 0.171115 0.122286
0.185397 0.181735 0.127535
0.231724 0.194553 0.122469
0.284398 0.200900 0.118868
0.332860 0.203922 0.124727
0.383307 0.208072 0.134127
0.436896 0.213718 0.144594
0.491096 0.220951 0.155673
0.543420 0.230076 0.167880
0.591913 0.242283 0.180606
0.636072 0.256992 0.194583
0.676143 0.273991 0.208896
0.715023 0.294621 0.225223
0.748684 0.316381 0.242741
0.777676 0.338598 0.260929
0.802823 0.360937 0.280522
0.824857 0.383673 0.301335
0.860838 0.432319 0.346624
0.876402 0.454505 0.370733
0.890135 0.476326 0.394873
0.902342 0.498146 0.419806
0.913329 0.520287 0.445563
0.923186 0.542962 0.472480
0.932097 0.566430 0.500237
0.940032 0.590936 0.529717
0.946960 0.616144 0.560327
0.952880 0.642023 0.591821
0.120058 0.213046 0.112032
0.123659 0.212619 0.113497
0.128328 0.212284 0.115663
0.137453 0.211429 0.120333
0.150362 0.210391 0.127230
0.169436 0.210056 0.134401
0.188663 0.209720 0.143435
0.218235 0.219699 0.152438
0.272038 0.236790 0.146365
0.333989 0.247623 0.142824
0.399237 0.254459 0.140871
0.452979 0.259739 0.151461
0.506157 0.266667 0.163058
0.556664 0.275456 0.175357
0.602838 0.286076 0.187716
0.644831 0.298344 0.201144
0.685084 0.314153 0.216190
0.723812 0.333318 0.233005
0.756161 0.352483 0.251011
0.784604 0.372503 0.270420
0.809812 0.393957 0.291783
0.832547 0.416205 0.314885
0.853056 0.439155 0.339788
0.870939 0.462043 0.365698
0.886442 0.484565 0.392004
0.899718 0.506279 0.418189
0.911223 0.527855 0.444709
0.921416 0.549706 0.471778
0.930571 0.572168 0.499580
0.938659 0.595483 0.528740
0.945769 0.619684 0.558953
0.951873 0.644739 0.590326
0.130892 0.251591 0.124727
0.134371 0.251225 0.125978
0.138827 0.250736 0.128145
0.147829 0.249729 0.132326
0.160769 0.248600 0.139040
0.177829 0.247562 0.147189
0.199008 0.246921 0.155734
0.220432 0.246647 0.165743
0.250034 0.255314 0.178470
0.310460 0.276677 0.172305
0.377996 0.291783 0.167971
0.448524 0.302678 0.164248
0.509361 0.310216 0.168032
0.558740 0.317571 0.179995
0.604028 0.326482 0.192752
0.645930 0.337316 0.205936
0.687892 0.352483 0.221469
0.724117 0.367895 0.237919
0.755184 0.383337 0.254643
0.782895 0.400031 0.273686
0.807645 0.417975 0.294682
0.830076 0.436988 0.317357
0.850431 0.457191 0.341680
0.868345 0.477546 0.366827
0.883940 0.497780 0.392645
0.897368 0.517815 0.418738
0.909148 0.537804 0.444770
0.919554 0.558190 0.471565
0.928923 0.579461 0.499458
0.937194 0.601709 0.528374
0.944518 0.624842 0.558465
0.950805 0.648981 0.589807
0.144564 0.292790 0.140475
0.147738 0.292607 0.141878
0.152255 0.292241 0.143709
0.160861 0.291356 0.147524
0.173892 0.290166 0.153750
0.189181 0.288579 0.161990
0.210056 0.287388 0.170077
0.233616 0.286961 0.179538
0.257511 0.286595 0.190341
0.287083 0.293309 0.206210
0.353277 0.318883 0.200656
0.424537 0.337499 0.195956
0.494820 0.351476 0.191775
0.560784 0.362371 0.188174
0.608148 0.370733 0.198703
0.652064 0.381720 0.213230
0.691279 0.393286 0.228092
0.725643 0.405127 0.243931
0.755459 0.417029 0.260655
0.782315 0.430365 0.279118
0.806516 0.445136 0.299413
0.828641 0.461219 0.321813
0.848692 0.478584 0.345769
0.866423 0.496498 0.370611
0.881987 0.514580 0.395850
0.895506 0.532464 0.421454
0.907347 0.550622 0.447272
0.917906 0.569451 0.473671
0.927398 0.589227 0.501122
0.935821 0.609918 0.529412
0.943206 0.631830 0.559411
0.949615 0.654719 0.590326
0.160647 0.336522 0.157778
0.163821 0.336187 0.159182
0.167941 0.335668 0.160555
0.176547 0.334813 0.164157
0.189151 0.333654 0.169802
0.204898 0.331945 0.177401
0.223148 0.330083 0.186038
0.247959 0.329076 0.194797
0.273869 0.328344 0.204379
0.299840 0.328161 0.215702
0.331731 0.334752 0.231113
0.397894 0.360540 0.228946
0.469734 0.381811 0.224155
0.540002 0.399603 0.221164
0.604425 0.414832 0.218997
0.657984 0.426795 0.221195
0.695888 0.435615 0.235935
0.728908 0.444282 0.251774
0.757656 0.453407 0.268559
0.783413 0.463447 0.286625
0.806577 0.474891 0.306340
0.827573 0.487495 0.327977
0.846860 0.501366 0.350408
0.864042 0.516106 0.373907
0.879362 0.531365 0.398169
0.892943 0.547265 0.423224
0.905058 0.563836 0.448646
0.915953 0.581262 0.475074
0.925719 0.599908 0.502770
0.934386 0.619654 0.531579
0.942016 0.640558 0.561456
0.948608 0.662623 0.592737
0.179141 0.380743 0.175509
0.182101 0.380407 0.176608
0.186130 0.380011 0.178073
0.194736 0.379339 0.181582
0.207370 0.378058 0.186465
0.223087 0.376623 0.193362
0.241642 0.374975 0.201999
0.264347 0.373724 0.210910
0.292027 0.372747 0.220066
0.319829 0.372015 0.230503
0.347143 0.371496 0.241581
0.382330 0.379126 0.257633
0.447211 0.405341 0.260197
0.519554 0.429450 0.255802
0.584588 0.448127 0.252995
0.642573 0.462684 0.251316
0.693233 0.474159 0.250462
0.730343 0.481758 0.259373
0.758022 0.487953 0.275669
0.782986 0.495186 0.293645
0.805570 0.503960 0.313176
0.826322 0.514153 0.334112
0.845396 0.525780 0.356817
0.862486 0.538323 0.379858
0.877684 0.551476 0.403662
0.891234 0.565148 0.427924
0.903319 0.579736 0.452918
0.914183 0.595331 0.478737
0.924010 0.612207 0.505760
0.932799 0.630274 0.533928
0.940581 0.649714 0.563470
0.947326 0.670436 0.594415
0.201450 0.426795 0.194400
0.204440 0.426612 0.195224
0.208408 0.426215 0.196719
0.216739 0.425483 0.199741
0.229496 0.424445 0.204685
0.245396 0.423041 0.210758
0.264042 0.421607 0.218692
0.284581 0.419684 0.227970
0.311833 0.418585 0.236942
0.341375 0.417823 0.246494
0.372869 0.419257 0.258427
0.403510 0.420661 0.271305
0.463447 0.447242 0.300084
0.523308 0.471046 0.307561
0.589868 0.494881 0.303685
0.648188 0.512139 0.301213
0.698482 0.524956 0.300114
0.740200 0.533501 0.300114
0.774838 0.539300 0.301854
0.797391 0.543236 0.318517
0.817380 0.548425 0.337804
0.835874 0.555230 0.358312
0.852750 0.563165 0.379187
0.868009 0.572442 0.401282
0.881834 0.582574 0.423621
0.894316 0.593591 0.446876
0.905547 0.605646 0.470375
0.915648 0.618738 0.494759
0.924834 0.633112 0.520165
0.933135 0.649012 0.547204
0.940490 0.666194 0.575250
0.947021 0.684718 0.604578
0.232334 0.479713 0.216709
0.235294 0.479438 0.217441
0.239017 0.478553 0.218479
0.247013 0.477394 0.221225
0.258946 0.475654 0.225406
0.274113 0.473243 0.230655
0.292485 0.471260 0.237949
0.313909 0.470130 0.247013
0.339361 0.470527 0.257877
0.372229 0.471687 0.268345
0.406439 0.473732 0.280797
0.440253 0.476051 0.294530
0.472816 0.478523 0.309514
0.507622 0.484993 0.326665
0.561242 0.506767 0.338811
0.622919 0.530022 0.335912
0.676204 0.546715 0.334142
0.720882 0.558007 0.333227
0.758053 0.565576 0.334234
0.789639 0.571160 0.336950
0.815274 0.575708 0.345495
0.833555 0.580499 0.364965
0.850248 0.586419 0.385199
0.865415 0.593591 0.406561
0.879240 0.601801 0.428321
0.891722 0.610986 0.450782
0.903075 0.621271 0.473793
0.913359 0.632837 0.497841
0.922728 0.645686 0.522881
0.931243 0.660182 0.549371
0.938781 0.676112 0.577447
0.945556 0.693355 0.606409
0.262577 0.522057 0.236759
0.265507 0.522026 0.237644
0.269139 0.521721 0.238804
0.277104 0.521202 0.241550
0.288945 0.519982 0.245518
0.304295 0.518700 0.251011
0.322881 0.517357 0.258091
0.343847 0.516136 0.266606
0.366949 0.515129 0.276677
0.395575 0.515068 0.287449
0.428504 0.515831 0.298894
0.461616 0.517021 0.311650
0.493263 0.518181 0.325414
0.522301 0.519219 0.339879
0.550530 0.521935 0.355566
0.596185 0.540063 0.370947
0.651942 0.561425 0.368048
0.699672 0.576593 0.366155
0.739742 0.586908 0.366186
0.773709 0.594385 0.368353
0.803037 0.600214 0.372290
0.829129 0.605554 0.378149
0.848203 0.610132 0.393011
0.863401 0.615595 0.413458
0.877195 0.622065 0.434791
0.889647 0.629694 0.456916
0.901091 0.638392 0.479194
0.911467 0.648402 0.502586
0.920928 0.659876 0.527520
0.929534 0.672877 0.553643
0.937285 0.687495 0.581262
0.944182 0.703456 0.610071
0.300084 0.566247 0.260807
0.302708 0.566094 0.261509
0.305852 0.565515 0.262455
0.312718 0.564446 0.264652
0.323583 0.562737 0.268193
0.337316 0.560754 0.272679
0.354284 0.558770 0.278843
0.373846 0.556847 0.286595
0.395575 0.555535 0.296025
0.419165 0.554467 0.307042
0.449866 0.554437 0.317845
0.481788 0.554803 0.329808
0.512200 0.555322 0.342809
0.540520 0.555627 0.356420
0.566033 0.555474 0.370306
0.588220 0.554803 0.383734
0.627131 0.569848 0.402075
0.677760 0.589776 0.399298
0.720577 0.603693 0.398535
0.757198 0.613581 0.399786
0.788266 0.620935 0.403082
0.815671 0.627131 0.407965
0.839902 0.632532 0.414069
0.861326 0.637415 0.421424
0.875181 0.642390 0.441932
0.887785 0.648768 0.463813
0.899382 0.656336 0.486275
0.910002 0.665278 0.509850
0.919677 0.675837 0.534966
0.928435 0.688014 0.561639
0.936309 0.701656 0.589532
0.943359 0.716487 0.618128
0.337163 0.604181 0.284794
0.339788 0.604120 0.285649
0.342931 0.603815 0.286625
0.349401 0.602838 0.288670
0.359472 0.601495 0.291966
0.372869 0.599908 0.296513
0.388708 0.598230 0.302464
0.407233 0.596643 0.309850
0.427863 0.595056 0.318791
0.449866 0.593561 0.328985
0.473976 0.592096 0.340154
0.502861 0.591302 0.350927
0.530541 0.590265 0.362188
0.556756 0.589014 0.373785
0.580835 0.587610 0.385962
0.602533 0.586084 0.398291
0.622034 0.584588 0.410834
0.653895 0.596063 0.431525
0.700465 0.615198 0.430060
0.740078 0.628931 0.431250
0.773678 0.638972 0.434455
0.802731 0.646723 0.439246
0.828397 0.653376 0.445289
0.851011 0.659083 0.452338
0.870909 0.664240 0.460670
0.886931 0.669429 0.474159
0.898466 0.675685 0.496223
0.908995 0.683375 0.519554
0.918608 0.692470 0.544091
0.927306 0.703059 0.569818
0.935088 0.715084 0.596948
0.942199 0.728176 0.624201
0.372808 0.636194 0.308293
0.374823 0.636011 0.308873
0.377630 0.635492 0.309789
0.383551 0.634730 0.311833
0.392432 0.633417 0.314824
0.404547 0.631800 0.319097
0.419104 0.630213 0.324437
0.436011 0.628443 0.331365
0.454810 0.626734 0.339513
0.474952 0.625055 0.348821
0.495979 0.623529 0.359899
0.520439 0.622309 0.370642
0.546807 0.621088 0.381079
0.571832 0.619684 0.392035
0.595117 0.618128 0.403326
0.616236 0.616083 0.414527
0.635492 0.614130 0.426032
0.653040 0.612451 0.437781
0.679316 0.621057 0.460090
0.721340 0.638758 0.460731
0.757321 0.651789 0.463020
0.788022 0.661524 0.467323
0.815213 0.669551 0.472755
0.839170 0.676417 0.479561
0.860288 0.682490 0.487739
0.878996 0.688045 0.497017
0.895567 0.693629 0.507652
0.907469 0.700008 0.527581
0.917113 0.707942 0.551873
0.925933 0.717372 0.577356
0.933837 0.728145 0.603845
0.941070 0.740078 0.630762
0.408698 0.665400 0.333440
0.411200 0.665461 0.334478
0.431281 0.678096 0.348669
0.436530 0.677211 0.350225
0.444404 0.675868 0.352972
0.454414 0.674067 0.356298
0.466865 0.671962 0.361181
0.481209 0.669673 0.366735
0.497383 0.667506 0.374090
0.514946 0.665400 0.382696
0.533196 0.663294 0.392401
0.551812 0.661189 0.402930
0.574884 0.658961 0.412207
0.597528 0.656641 0.421790
0.618769 0.654292 0.431586
0.638575 0.651698 0.441505
0.656825 0.649165 0.451728
0.673548 0.646754 0.461982
0.688838 0.644678 0.472724
0.711391 0.651514 0.493233
0.745418 0.665583 0.497871
0.777218 0.677302 0.500938
0.805173 0.686763 0.505730
0.829770 0.694484 0.511620
0.851347 0.700893 0.518425
0.870359 0.706600 0.526452
0.887327 0.711879 0.535668
0.902464 0.717372 0.546502
0.915740 0.723354 0.560235
0.924498 0.731472 0.585016
0.932525 0.740932 0.610742
0.939849 0.751492 0.636774
0.447639 0.693507 0.362799
0.451575 0.694820 0.365179
0.455940 0.696040 0.367803
0.462715 0.696681 0.371191
0.471229 0.696620 0.374945
0.481117 0.695644 0.379065
0.492378 0.694026 0.383337
0.505150 0.692073 0.388739
0.519799 0.690150 0.395605
0.535485 0.688167 0.403357
0.552148 0.686183 0.412085
0.569299 0.684108 0.421851
0.587366 0.681880 0.431647
0.608545 0.679561 0.440162
0.628748 0.677119 0.449165
0.647730 0.674525 0.458198
0.665553 0.671992 0.467475
0.682063 0.669642 0.477028
0.697505 0.667628 0.487098
0.711910 0.666041 0.497627
0.732509 0.672297 0.517540
0.761471 0.684535 0.526390
0.791196 0.696407 0.530846
0.817380 0.706050 0.536492
0.840299 0.713985 0.543297
0.860502 0.720882 0.551293
0.878416 0.727047 0.560571
0.894316 0.733181 0.571679
0.908568 0.739437 0.584253
0.921294 0.746090 0.598627
0.931334 0.753750 0.618158
0.938720 0.763180 0.643610
0.478035 0.713985 0.387610
0.481514 0.714961 0.389868
0.485512 0.716060 0.392493
0.491371 0.716548 0.395392
0.498756 0.716457 0.398962
0.507439 0.715572 0.402716
0.517571 0.714137 0.406836
0.528985 0.712459 0.411810
0.542016 0.710719 0.417975
0.556207 0.708888 0.424964
0.571405 0.707088 0.433143
0.587030 0.705226 0.442206
0.602594 0.703029 0.451392
0.620630 0.700832 0.460243
0.639612 0.698451 0.468360
0.657649 0.696040 0.476631
0.674678 0.693538 0.485176
0.690791 0.691218 0.494057
0.706020 0.689174 0.503349
0.720394 0.687678 0.513481
0.733700 0.686549 0.524041
0.752499 0.692378 0.542962
0.777096 0.703059 0.555505
0.804776 0.715023 0.560937
0.829129 0.724636 0.567437
0.850462 0.732784 0.575219
0.869261 0.739925 0.584222
0.886015 0.746670 0.594781
0.900999 0.753262 0.606775
0.914397 0.760067 0.620325
0.926360 0.767117 0.635187
0.937041 0.774563 0.651362
0.507286 0.732387 0.412970
0.510369 0.733272 0.415259
0.514000 0.734096 0.417639
0.519158 0.734554 0.420478
0.525780 0.734432 0.423835
0.533410 0.733608 0.427253
0.542260 0.732418 0.431128
0.552270 0.730861 0.435554
0.563806 0.729213 0.441047
0.576562 0.727504 0.447395
0.590112 0.725826 0.454719
0.604364 0.723964 0.462806
0.618585 0.721950 0.471351
0.632807 0.719844 0.480507
0.650568 0.717769 0.488411
0.667964 0.715694 0.496376
0.684810 0.713802 0.505058
0.700954 0.712154 0.514061
0.716365 0.710842 0.523980
0.731075 0.709926 0.534295
0.744808 0.709438 0.545129
0.757626 0.709316 0.556603
0.774807 0.714992 0.574914
0.795895 0.724849 0.590631
0.821408 0.736812 0.597528
0.843687 0.746548 0.605219
0.863249 0.754849 0.614099
0.880552 0.762356 0.624170
0.895964 0.769406 0.635462
0.909667 0.776333 0.648096
0.921965 0.783291 0.661830
0.932769 0.790463 0.676600
0.543023 0.753109 0.445930
0.544823 0.753414 0.447150
0.546899 0.753567 0.448432
0.550530 0.753384 0.450141
0.555688 0.752865 0.452491
0.562005 0.751949 0.455299
0.569726 0.750790 0.458717
0.578820 0.749538 0.462959
0.589227 0.748226 0.468177
0.600824 0.746853 0.474281
0.613367 0.745449 0.481331
0.626368 0.743923 0.488991
0.639368 0.742153 0.496956
0.652399 0.740230 0.505455
0.666194 0.738216 0.513603
0.682277 0.736294 0.520989
0.697841 0.734401 0.528679
0.712947 0.732662 0.536950
0.727321 0.731289 0.545800
0.741146 0.730098 0.555138
0.754086 0.729213 0.564843
0.766140 0.728664 0.574792
0.777340 0.728389 0.585138
0.792325 0.733120 0.601068
0.810086 0.741695 0.618189
0.833616 0.753292 0.625483
0.854368 0.763058 0.633814
0.872648 0.771572 0.643305
0.888884 0.779355 0.654139
0.903349 0.786740 0.666133
0.916167 0.794034 0.679347
0.927367 0.801297 0.693324
0.570336 0.768551 0.472023
0.572045 0.768856 0.473243
0.574090 0.769009 0.474434
0.577325 0.768917 0.476173
0.581811 0.768460 0.478401
0.587243 0.767605 0.480781
0.593835 0.766537 0.483650
0.601709 0.765286 0.487404
0.610925 0.764004 0.492134
0.621180 0.762692 0.497505
0.632380 0.761349 0.503807
0.644099 0.759945 0.510857
0.656001 0.758358 0.518212
0.668147 0.756649 0.526085
0.680049 0.754940 0.534386
0.693904 0.753201 0.541894
0.708705 0.751614 0.549310
0.723018 0.750179 0.557366
0.736934 0.748959 0.565911
0.750240 0.747982 0.574762
0.762936 0.747311 0.584283
0.774868 0.746914 0.594079
0.785977 0.746853 0.603937
0.796201 0.746975 0.613794
0.807401 0.748928 0.623835
0.822629 0.756558 0.642329
0.844663 0.768093 0.650294
0.864164 0.777920 0.659327
0.881346 0.786679 0.669612
0.896635 0.794797 0.681209
0.910124 0.802609 0.694026
0.921843 0.810361 0.708186
0.602869 0.785641 0.504295
0.604608 0.785946 0.505516
0.606165 0.786038 0.506554
0.608728 0.785794 0.507713
0.612268 0.785183 0.509453
0.616571 0.784298 0.511131
0.622004 0.783169 0.513481
0.628473 0.781827 0.516381
0.635981 0.780392 0.519860
0.644526 0.778927 0.524224
0.653742 0.777340 0.529229
0.663752 0.775784 0.535119
0.674220 0.774166 0.541436
0.684749 0.772396 0.548241
0.695216 0.770474 0.555169
0.705623 0.768551 0.562402
0.718715 0.766720 0.568719
0.731868 0.765164 0.575799
0.744930 0.763943 0.583581
0.757687 0.763119 0.592035
0.770047 0.762661 0.601160
0.781704 0.762356 0.610285
0.792477 0.762173 0.619257
0.802365 0.762020 0.628168
0.811307 0.761959 0.636622
0.822568 0.765011 0.648249
0.836088 0.772213 0.667506
0.856443 0.783413 0.675807
0.874449 0.793179 0.685359
0.890410 0.802060 0.696498
0.904326 0.810300 0.708766
0.916564 0.818540 0.722744
0.627924 0.798398 0.529656
0.629419 0.798642 0.530846
0.630915 0.798764 0.531884
0.633204 0.798550 0.533043
0.636255 0.798032 0.534478
0.640192 0.797269 0.536156
0.645075 0.796353 0.538476
0.650904 0.795254 0.541192
0.657710 0.794095 0.544701
0.665553 0.792874 0.548974
0.674098 0.791623 0.553948
0.683375 0.790341 0.559655
0.693050 0.789029 0.565728
0.702785 0.787594 0.572229
0.712551 0.786007 0.578851
0.722286 0.784421 0.585931
0.732753 0.782864 0.592981
0.744900 0.781552 0.599420
0.756954 0.780514 0.606561
0.768887 0.779782 0.614313
0.780423 0.779294 0.622461
0.791409 0.779019 0.630762
0.801724 0.778866 0.639033
0.811276 0.778775 0.647150
0.820127 0.778805 0.655146
0.828244 0.778897 0.662959
0.837827 0.781216 0.672877
0.850309 0.788449 0.692561
0.868772 0.799405 0.702571
0.885191 0.809049 0.713130
0.899596 0.817960 0.725124
0.912261 0.826688 0.738766
0.654627 0.811185 0.557580
0.655818 0.811337 0.558587
0.656886 0.811307 0.559167
0.658656 0.811002 0.560021
0.661006 0.810483 0.561059
0.664302 0.809720 0.562493
0.668391 0.808835 0.564233
0.673426 0.807858 0.566705
0.679438 0.806760 0.569879
0.686366 0.805753 0.573846
0.694087 0.804623 0.578454
0.702449 0.803616 0.583734
0.711238 0.802487 0.589593
0.720119 0.801297 0.595605
0.729000 0.799954 0.601678
0.737850 0.798550 0.608057
0.746609 0.797177 0.614679
0.756893 0.795956 0.620996
0.768032 0.795010 0.627375
0.779019 0.794369 0.634394
0.789792 0.793942 0.641749
0.800168 0.793729 0.649409
0.809995 0.793576 0.656947
0.819211 0.793576 0.664546
0.827787 0.793668 0.671901
0.835813 0.793790 0.679225
0.843320 0.794125 0.686580
0.851591 0.795926 0.695369
0.863462 0.803342 0.714534
0.879240 0.813321 0.726558
0.894255 0.823056 0.738186
0.907469 0.832303 0.751400
0.679164 0.822446 0.583948
0.680079 0.822507 0.584588
0.681056 0.822477 0.585290
0.682551 0.822263 0.585992
0.684962 0.821897 0.587274
0.688289 0.821469 0.589136
0.692775 0.821042 0.591882
0.698146 0.820584 0.595270
0.704494 0.820188 0.599420
0.711696 0.819791 0.604395
0.719448 0.819394 0.609735
0.727657 0.818936 0.615625
0.735988 0.818357 0.621576
0.744381 0.817655 0.627710
0.752560 0.816831 0.633722
0.760494 0.815793 0.639490
0.768399 0.814755 0.645563
0.776272 0.813748 0.651881
0.786130 0.813016 0.657588
0.795926 0.812467 0.663630
0.805570 0.812100 0.670069
0.814908 0.811887 0.676692
0.823850 0.811765 0.683375
0.832303 0.811765 0.690120
0.840299 0.811856 0.696895
0.847837 0.812070 0.703670
0.854887 0.812345 0.710475
0.861387 0.812711 0.717189
0.868193 0.814054 0.724910
0.878996 0.821164 0.742733
0.892088 0.830320 0.756588
0.905394 0.839933 0.769009
0.710170 0.835813 0.618250
0.710842 0.835843 0.618769
0.711452 0.835752 0.619104
0.712581 0.835508 0.619562
0.714351 0.835080 0.620386
0.716823 0.834623 0.621607
0.720180 0.834104 0.623499
0.724208 0.833524 0.625818
0.729152 0.832975 0.628840
0.734768 0.832395 0.632471
0.740841 0.831754 0.636408
0.747372 0.831144 0.640803
0.754269 0.830442 0.645594
