data/fiter_cube/72007313/1022714/file.cube
# Created by Adobe Lightroom plugin Export LUT (1.17.0)
# www.johnrellis.com/lightroom/exportlut.htm
# Preset: 高级电影暗青色_03 云集
# Color profile: C:\Program Files (x86)\Common Files\Adobe\Color\Profiles\Recommended\AdobeRGB1998.icc
LUT_3D_SIZE 5
DOMAIN_MIN 0.000000 0.000000 0.000000
DOMAIN_MAX 0.903226 0.903226 0.903226
0.056153 0.065675 0.062409
0.152010 0.063630 0.077241
0.410101 0.000000 0.097566
0.674250 0.000000 0.152377
0.850706 0.220188 0.268833
0.081849 0.148379 0.104372
0.158541 0.159274 0.108553
0.435218 0.122164 0.111635
0.676417 0.130465 0.166567
0.856291 0.328191 0.291417
0.168246 0.380560 0.235782
0.259312 0.368872 0.256779
0.450996 0.419440 0.237186
0.694118 0.444099 0.215610
0.856291 0.518669 0.349248
0.341772 0.602380 0.414343
0.419471 0.601160 0.436957
0.537865 0.586267 0.491005
0.660456 0.625940 0.433509
0.868894 0.698665 0.466194
0.546899 0.780850 0.622858
0.580682 0.780667 0.631525
0.659022 0.771939 0.658167
0.737026 0.787472 0.694209
0.858976 0.836545 0.677913
0.047150 0.072267 0.104799
0.136080 0.081422 0.106935
0.409400 0.000000 0.102174
0.661067 0.000000 0.152682
0.841764 0.229129 0.264286
0.065827 0.154452 0.149752
0.175631 0.170260 0.148470
0.435187 0.161440 0.125856
0.666590 0.176272 0.165866
0.844083 0.322515 0.281651
0.153811 0.384039 0.261997
0.267704 0.381201 0.281712
0.443244 0.411933 0.267552
0.684718 0.440681 0.209537
0.853147 0.517357 0.346166
0.336431 0.603815 0.430426
0.416968 0.602777 0.449897
0.543786 0.587915 0.507683
0.658839 0.625971 0.455604
0.868528 0.697627 0.464851
0.536614 0.781796 0.628107
0.571283 0.781491 0.635370
0.662226 0.781827 0.669306
0.741054 0.791836 0.706722
0.862150 0.839231 0.680903
0.037812 0.094209 0.213352
0.153780 0.107362 0.229374
0.377905 0.133944 0.249729
0.660273 0.076814 0.241367
0.847562 0.243809 0.270054
0.085786 0.168002 0.247654
0.185489 0.188388 0.268772
0.412451 0.216403 0.287022
0.662745 0.228458 0.268589
0.850492 0.322026 0.286015
0.111513 0.380835 0.359380
0.224918 0.406012 0.373388
0.476692 0.437232 0.374029
0.675288 0.452979 0.345312
0.857877 0.506462 0.345525
0.277714 0.611719 0.486397
0.368200 0.608240 0.488685
0.547723 0.602899 0.533715
0.662348 0.634241 0.519249
0.871672 0.691707 0.473304
0.499153 0.783108 0.650294
0.535180 0.784634 0.654749
0.637293 0.789212 0.677272
0.739742 0.790127 0.730220
0.858793 0.837583 0.699031
0.000000 0.132906 0.361273
0.161868 0.145998 0.380865
0.418463 0.182925 0.429847
0.615747 0.268833 0.436957
0.832914 0.296849 0.445014
0.083009 0.193729 0.385260
0.189303 0.209659 0.402655
0.440131 0.266331 0.453407
0.621485 0.329839 0.456580
0.833127 0.347265 0.455879
0.122164 0.341558 0.434028
0.210819 0.357885 0.442390
0.464637 0.435889 0.503960
0.638483 0.471412 0.510735
0.840543 0.501976 0.512871
0.241123 0.586969 0.559350
0.315648 0.596246 0.566827
0.497292 0.620539 0.589380
0.672511 0.644953 0.598535
0.865782 0.665217 0.573358
0.417975 0.794583 0.711360
0.462531 0.794736 0.711421
0.574060 0.799802 0.714260
0.726314 0.808103 0.748470
0.862913 0.844968 0.744717
0.000000 0.185214 0.554986
0.196353 0.195071 0.568627
0.473121 0.244694 0.612848
0.648737 0.338842 0.624140
0.783017 0.469215 0.637842
0.000000 0.224277 0.556420
0.191531 0.237034 0.570001
0.467231 0.295445 0.614130
0.650935 0.387640 0.633997
0.784237 0.493416 0.645869
0.000000 0.322118 0.537804
0.040375 0.328923 0.554162
0.411322 0.394659 0.612055
0.659754 0.510369 0.668849
0.798795 0.564294 0.679377
0.082643 0.549920 0.635004
0.177310 0.548516 0.633570
0.343786 0.543725 0.631312
0.632410 0.614862 0.701472
0.828367 0.669886 0.735805
0.358221 0.765774 0.759945
0.392920 0.766995 0.761227
0.494331 0.777707 0.771389
0.639704 0.812375 0.801480
0.873136 0.859709 0.837675
