data/fiter_cube/72007313/1022714/file.cube
# Created by Adobe Lightroom plugin Export LUT (1.17.0)
# www.johnrellis.com/lightroom/exportlut.htm
# Preset: 高级电影暗青色_03 云集
# Color profile: C:\Program Files (x86)\Common Files\Adobe\Color\Profiles\Recommended\AdobeRGB1998.icc
LUT_3D_SIZE 32
DOMAIN_MIN 0.0 0.0 0.0
DOMAIN_MAX 1.0 1.0 1.0
0.056153 0.065675 0.062409
0.056153 0.065675 0.062409
0.056153 0.065675 0.062409
0.068208 0.066041 0.063813
0.087190 0.067292 0.067109
0.105287 0.068086 0.070588
0.127047 0.067414 0.073915
0.152010 0.063630 0.077241
0.180575 0.052888 0.079500
0.212161 0.023529 0.082216
0.246891 0.000000 0.084474
0.284428 0.000000 0.086946
0.325200 0.000000 0.090181
0.367651 0.000000 0.093629
0.410101 0.000000 0.097566
0.451820 0.000000 0.101961
0.493507 0.000000 0.107149
0.539696 0.000000 0.114229
0.579889 0.000000 0.121736
0.615290 0.000000 0.130922
0.646540 0.000000 0.141054
0.674250 0.000000 0.152377
0.699763 0.000000 0.164614
0.724758 0.000000 0.177737
0.749233 0.000000 0.192233
0.773739 0.000000 0.207950
0.798672 0.115175 0.225742
0.824216 0.171878 0.246067
0.850706 0.220188 0.268833
0.878447 0.265873 0.294987
0.907561 0.309758 0.324315
0.937682 0.351812 0.356970
0.056153 0.065675 0.062409
0.056153 0.065675 0.062409
0.056153 0.065675 0.062409
0.068208 0.066041 0.063813
0.086946 0.066926 0.066773
0.105043 0.067720 0.070619
0.126375 0.067201 0.073945
0.151125 0.064088 0.076936
0.179202 0.054414 0.079530
0.210819 0.024811 0.082002
0.245151 0.000000 0.084291
0.283055 0.000000 0.087160
0.323766 0.000000 0.090333
0.365911 0.000000 0.093812
0.407904 0.000000 0.097780
0.449653 0.000000 0.102174
0.491432 0.000000 0.107332
0.536339 0.000000 0.114015
0.575891 0.000000 0.121431
0.611261 0.000000 0.130068
0.642664 0.000000 0.139834
0.670619 0.000000 0.150881
0.696162 0.000000 0.163058
0.721157 0.000000 0.176394
0.745815 0.000000 0.190494
0.770504 0.000000 0.206363
0.795590 0.112917 0.223789
0.821317 0.169863 0.243900
0.847959 0.218479 0.266850
0.875792 0.264256 0.293034
0.904997 0.308171 0.322210
0.935271 0.350317 0.354589
0.056153 0.065675 0.062409
0.056153 0.065675 0.062409
0.056153 0.065675 0.062409
0.068696 0.065980 0.063813
0.086885 0.066926 0.067170
0.104768 0.067811 0.070649
0.125917 0.067384 0.073976
0.150210 0.064057 0.076997
0.178164 0.054688 0.079591
0.209659 0.029206 0.081971
0.244785 0.000000 0.084657
0.282689 0.000000 0.087739
0.323400 0.000000 0.090883
0.365240 0.000000 0.094545
0.407294 0.000000 0.098207
0.448829 0.000000 0.102632
0.491157 0.000000 0.107637
0.534905 0.000000 0.114443
0.574090 0.000000 0.121492
0.609308 0.000000 0.130007
0.640772 0.000000 0.139925
0.668879 0.000000 0.150942
0.694453 0.000000 0.162753
0.719448 0.000000 0.175875
0.744137 0.000000 0.190158
0.768826 0.000000 0.205783
0.794003 0.117617 0.223270
0.819821 0.172732 0.243412
0.846555 0.220493 0.266270
0.874418 0.265812 0.292241
0.903685 0.309392 0.321294
0.933959 0.351141 0.353979
0.059876 0.073701 0.066194
0.060243 0.074006 0.066560
0.060090 0.074403 0.066896
0.070069 0.076356 0.067628
0.088197 0.076081 0.069825
0.105959 0.075715 0.072786
0.127169 0.074861 0.075776
0.151797 0.071687 0.078340
0.179873 0.066102 0.080812
0.211643 0.053742 0.083345
0.246464 0.021637 0.086152
0.284276 0.000000 0.089143
0.324254 0.000000 0.092195
0.365881 0.000000 0.095735
0.407599 0.000000 0.099367
0.448859 0.000000 0.103670
0.491951 0.000000 0.109133
0.534142 0.000000 0.115541
0.572107 0.000000 0.122225
0.606714 0.000000 0.130587
0.637903 0.000000 0.139742
0.665919 0.000000 0.150637
0.691707 0.000000 0.162570
0.717189 0.000000 0.175631
0.742489 0.000000 0.190158
0.767819 0.064149 0.206241
0.793515 0.133547 0.224063
0.819608 0.184878 0.244602
0.846372 0.230625 0.267491
0.874205 0.273930 0.293339
0.903166 0.315953 0.322362
0.933135 0.356390 0.354376
0.068330 0.090089 0.076478
0.068727 0.090028 0.076783
0.068666 0.090333 0.076753
0.074098 0.088991 0.079713
0.086213 0.093477 0.078950
0.109255 0.094087 0.077119
0.130800 0.091188 0.079072
0.155215 0.087984 0.080995
0.183017 0.083223 0.083040
0.214328 0.075990 0.085481
0.248722 0.065064 0.087892
0.286229 0.034363 0.090730
0.325963 0.000000 0.093660
0.367224 0.000000 0.097353
0.408728 0.000000 0.101076
0.449897 0.000000 0.105440
0.494240 0.000000 0.111147
0.535393 0.000000 0.117403
0.572808 0.000000 0.124514
0.606714 0.000000 0.132174
0.637293 0.000000 0.141512
0.665126 0.000000 0.152102
0.690639 0.000000 0.163912
0.716030 0.000000 0.177157
0.741390 0.000000 0.191501
0.766842 0.104402 0.207492
0.792508 0.156344 0.225284
0.818601 0.200992 0.245701
0.845274 0.243565 0.268528
0.873014 0.285161 0.294652
0.901946 0.325353 0.323552
0.931914 0.364599 0.355657
0.074189 0.105470 0.084565
0.074067 0.105715 0.084840
0.074067 0.105715 0.084840
0.079255 0.104585 0.086549
0.088136 0.104616 0.089754
0.105226 0.111330 0.087709
0.136385 0.114076 0.083223
0.161257 0.109651 0.084260
0.188907 0.105257 0.085939
0.219852 0.099397 0.088014
0.254124 0.091646 0.090547
0.291203 0.080415 0.093233
0.330571 0.062379 0.096468
0.371374 0.007782 0.099733
0.412512 0.000000 0.103670
0.455360 0.000000 0.108186
0.498512 0.000000 0.114076
0.538537 0.000000 0.120089
0.575158 0.000000 0.127169
0.608576 0.000000 0.135195
0.638941 0.000000 0.144533
0.666499 0.000000 0.154879
0.713985 0.038300 0.178988
0.738521 0.106142 0.193179
0.762631 0.146700 0.208347
0.786679 0.183902 0.224918
0.810849 0.219547 0.243137
0.835477 0.255009 0.264042
0.860960 0.290562 0.287144
0.887663 0.326085 0.313085
0.915373 0.361212 0.341894
0.943786 0.394873 0.373358
0.078981 0.126162 0.094087
0.079561 0.125917 0.093599
0.079683 0.125704 0.093355
0.086213 0.124422 0.095430
0.097047 0.121767 0.101411
0.107729 0.126864 0.100587
0.131197 0.134920 0.098177
0.171511 0.140566 0.090364
0.201328 0.134585 0.089052
0.233097 0.128939 0.091493
0.267735 0.122621 0.093782
0.305364 0.114076 0.096956
0.344549 0.103273 0.100099
0.384894 0.088319 0.103731
0.426062 0.068208 0.107668
0.470649 0.022187 0.112856
0.512291 0.000000 0.118837
0.550866 0.000000 0.125154
0.586236 0.000000 0.132204
0.619043 0.000000 0.141024
0.649409 0.000000 0.151217
0.677516 0.056184 0.163485
0.704860 0.102968 0.176883
0.731807 0.140810 0.192050
0.758083 0.175723 0.208469
0.783352 0.209110 0.225742
0.808194 0.241978 0.244724
0.833036 0.274754 0.265385
0.858640 0.307836 0.288762
0.885191 0.341283 0.314488
0.912840 0.374334 0.343389
0.941283 0.406409 0.374731
0.081849 0.148379 0.104372
0.082338 0.148165 0.104158
0.083925 0.147890 0.104158
0.092683 0.146426 0.105318
0.104829 0.142641 0.110353
0.115602 0.142428 0.114748
0.130404 0.150362 0.111543
0.158541 0.159274 0.108553
0.204471 0.167666 0.099214
0.240146 0.162051 0.095552
0.275517 0.155367 0.096620
0.312596 0.148653 0.099397
0.351232 0.140780 0.103151
0.391394 0.131716 0.106935
0.435218 0.122164 0.111635
0.476814 0.111513 0.116945
0.516228 0.101045 0.122408
0.553094 0.092714 0.128725
0.587304 0.089662 0.135561
0.619165 0.095735 0.144106
0.648829 0.110384 0.154452
0.676417 0.130465 0.166567
0.703212 0.155093 0.179812
0.729885 0.181674 0.194461
0.755917 0.209659 0.210544
0.781064 0.238315 0.228397
0.805844 0.267247 0.247196
0.830716 0.297337 0.267918
0.856291 0.328191 0.291417
0.882902 0.359319 0.317327
0.910674 0.390509 0.345922
0.939178 0.420844 0.377539
0.084413 0.173648 0.116426
0.086580 0.173373 0.116609
0.091218 0.173129 0.117372
0.100923 0.172457 0.119265
0.114076 0.168887 0.123049
0.127535 0.164218 0.129335
0.138552 0.168582 0.127657
0.157717 0.177401 0.123934
0.189883 0.187320 0.120394
0.240146 0.197848 0.110933
0.282506 0.194186 0.104341
0.322148 0.186099 0.101686
0.362188 0.180484 0.105898
0.404425 0.174746 0.110567
0.445350 0.168673 0.115602
0.484627 0.162295 0.120638
0.522087 0.156710 0.126528
0.557519 0.153628 0.132601
0.590356 0.153536 0.139712
0.621118 0.158328 0.148135
0.649928 0.168124 0.158572
0.676783 0.182315 0.170321
0.703151 0.200687 0.183658
0.729305 0.222049 0.198489
0.754971 0.245823 0.214817
0.779934 0.270451 0.232273
0.804593 0.296452 0.251164
0.829313 0.323644 0.272221
0.854795 0.351843 0.295476
0.881285 0.380499 0.321447
0.908934 0.409369 0.350317
0.937407 0.437629 0.381384
0.091554 0.201511 0.131197
0.095613 0.201328 0.131838
0.100557 0.201205 0.132815
0.111574 0.200748 0.135561
0.124117 0.197757 0.137667
0.139590 0.193423 0.143954
0.152712 0.189639 0.150179
0.165866 0.197971 0.143465
0.188754 0.207187 0.138125
0.224186 0.217746 0.134463
0.279820 0.231327 0.124636
0.330632 0.231266 0.115084
0.373999 0.225132 0.111391
0.415473 0.219059 0.113741
0.455024 0.214206 0.119081
0.493355 0.209995 0.125002
0.530053 0.206729 0.130922
0.564416 0.205325 0.137362
0.595972 0.206638 0.144625
0.625086 0.210605 0.153567
0.652491 0.218112 0.163577
0.677913 0.228885 0.175204
0.703090 0.242771 0.188205
0.728206 0.260136 0.202670
0.753140 0.279789 0.218753
0.777768 0.301579 0.236118
0.802396 0.325109 0.255253
0.827390 0.350225 0.276524
0.853147 0.376562 0.300267
0.880034 0.403540 0.326543
0.907958 0.430549 0.355871
0.936736 0.457374 0.387915
0.101961 0.230625 0.147707
0.105653 0.230655 0.148562
0.111055 0.230564 0.149538
0.122072 0.230198 0.152193
0.134676 0.228519 0.154055
0.151644 0.224399 0.159823
0.168154 0.219852 0.167636
0.180697 0.221225 0.169100
0.197665 0.230716 0.161715
0.225437 0.241794 0.154879
0.265812 0.254490 0.151614
0.325444 0.270573 0.141176
0.380468 0.273136 0.128298
0.423102 0.267308 0.123903
0.464454 0.260838 0.122286
0.501305 0.257176 0.128145
0.536492 0.254337 0.135103
0.569360 0.253178 0.141970
0.599573 0.253971 0.149294
0.627680 0.257115 0.158572
0.654017 0.263249 0.168978
0.678859 0.271977 0.180850
0.703670 0.283970 0.194034
0.728481 0.299016 0.208286
0.753109 0.316472 0.224582
0.777401 0.335576 0.241825
0.801694 0.356481 0.261112
0.826383 0.379004 0.282322
0.851896 0.402777 0.306371
0.878630 0.427222 0.332830
0.906523 0.452155 0.362005
0.935271 0.477150 0.394141
0.114412 0.262608 0.166110
0.118166 0.262608 0.166842
0.123629 0.262394 0.167819
0.134340 0.262333 0.170352
0.148257 0.261509 0.172976
0.165377 0.258671 0.177920
0.184268 0.255253 0.185916
0.201663 0.250950 0.195499
0.215518 0.259037 0.191653
0.236637 0.269871 0.183780
0.267399 0.280888 0.174533
0.310491 0.293797 0.170230
0.394232 0.329931 0.167239
0.451759 0.335363 0.151431
0.495247 0.331365 0.145113
0.534356 0.325780 0.140963
0.567559 0.321996 0.145663
0.596216 0.319768 0.153689
0.622278 0.318944 0.162356
0.646906 0.320500 0.172274
0.670161 0.324163 0.183139
0.693202 0.330907 0.195224
0.716365 0.340337 0.208804
0.739651 0.352483 0.223178
0.762966 0.366857 0.239567
0.786252 0.383093 0.257145
0.809598 0.400824 0.276707
0.833463 0.419745 0.298070
0.858183 0.439826 0.321782
0.884245 0.460670 0.347936
0.911345 0.482277 0.376806
0.939422 0.504448 0.408392
0.132662 0.305974 0.191043
0.136629 0.305943 0.191745
0.141726 0.305943 0.192782
0.153231 0.305577 0.195346
0.169436 0.305211 0.199802
0.184024 0.302159 0.201572
0.204532 0.298100 0.208774
0.224216 0.293584 0.217838
0.241093 0.292088 0.224949
0.257908 0.303624 0.218021
0.283909 0.316106 0.209873
0.319768 0.329076 0.200504
0.367041 0.343908 0.195163
0.431525 0.364752 0.184878
0.488350 0.373114 0.169619
0.532464 0.372778 0.160983
0.568322 0.368811 0.157717
0.598901 0.364416 0.158114
0.624079 0.362310 0.167147
0.647791 0.362310 0.177218
0.670405 0.364538 0.188571
0.693019 0.369390 0.201144
0.715663 0.377111 0.214786
0.738552 0.387457 0.229648
0.761563 0.399756 0.245823
0.784543 0.413825 0.263554
0.807736 0.429603 0.283238
0.831479 0.446509 0.304906
0.856199 0.464668 0.328588
0.882292 0.484047 0.355077
0.909514 0.504173 0.384253
0.937804 0.524865 0.415686
0.150027 0.343694 0.213230
0.153658 0.343786 0.214115
0.158877 0.343328 0.214755
0.169375 0.342992 0.216953
0.185489 0.342260 0.220798
0.199527 0.340093 0.221927
0.220615 0.335760 0.228519
0.241947 0.331182 0.236912
0.262181 0.326604 0.247257
0.278019 0.331151 0.248508
0.298039 0.343145 0.241093
0.326696 0.355871 0.232517
0.363653 0.368444 0.222416
0.409918 0.382238 0.215671
0.470985 0.402411 0.205142
0.523919 0.411383 0.190188
0.566125 0.412482 0.179019
0.597101 0.408637 0.175662
0.625360 0.404486 0.174166
0.648981 0.402808 0.183444
0.671107 0.403815 0.195346
0.693385 0.407477 0.207889
0.715785 0.413642 0.221744
0.738399 0.422431 0.237308
0.761105 0.433051 0.253666
0.783932 0.445411 0.271763
0.806973 0.459174 0.291630
0.830655 0.474372 0.313420
0.855375 0.490822 0.337377
0.881437 0.508598 0.364172
0.908721 0.527276 0.393500
0.937163 0.546685 0.425208
0.168246 0.380560 0.235782
0.171939 0.380591 0.236484
0.176791 0.380163 0.237156
0.186618 0.379614 0.239017
0.202365 0.378698 0.242405
0.218845 0.377111 0.245090
0.237339 0.373144 0.248966
0.259312 0.368872 0.256779
0.281224 0.364355 0.266575
0.301579 0.360235 0.278447
0.317388 0.370642 0.273198
0.340032 0.382910 0.265446
0.369879 0.395270 0.256229
0.406653 0.406897 0.245090
0.450996 0.419440 0.237186
0.507347 0.438056 0.226658
0.555932 0.447364 0.211734
0.595056 0.449256 0.198795
0.622705 0.445899 0.196841
0.648707 0.442908 0.196445
0.672328 0.441749 0.202365
0.694118 0.444099 0.215610
0.716121 0.448768 0.229862
0.738430 0.455970 0.245548
0.760952 0.465095 0.262486
0.783780 0.476143 0.281071
0.807034 0.488838 0.301762
0.831113 0.503014 0.324132
0.856291 0.518669 0.349248
0.882902 0.535515 0.376867
0.910643 0.553307 0.406989
0.939452 0.571771 0.439368
0.187869 0.416297 0.258518
0.191684 0.416571 0.259342
0.196262 0.416480 0.260349
0.206241 0.416175 0.262211
0.221775 0.415656 0.265537
0.241642 0.415229 0.270970
0.256840 0.412573 0.271977
0.279667 0.408942 0.279820
0.302800 0.404883 0.289342
0.324743 0.400793 0.300389
0.342748 0.400427 0.307652
0.359442 0.411353 0.299718
0.382422 0.422217 0.290684
0.411658 0.432624 0.280217
0.446540 0.442176 0.267765
0.487526 0.452918 0.258488
0.539147 0.470405 0.248569
0.582849 0.479225 0.234958
0.620081 0.482521 0.221347
0.646265 0.480690 0.220798
0.671443 0.479713 0.222232
0.696590 0.480629 0.225345
0.718441 0.484352 0.240360
0.740627 0.490364 0.256443
0.762997 0.498390 0.274296
0.785733 0.508141 0.293614
0.808988 0.519554 0.314366
0.833005 0.532464 0.337316
0.858061 0.546593 0.362829
0.884398 0.561883 0.390448
0.911894 0.577935 0.420111
0.940307 0.594873 0.451911
0.208774 0.449714 0.281285
0.211612 0.449714 0.281926
0.216007 0.449592 0.282628
0.225711 0.449317 0.284489
0.240421 0.448920 0.287572
0.259586 0.448554 0.292699
0.274571 0.447120 0.293339
0.297246 0.443702 0.300664
0.320562 0.440009 0.309453
0.343297 0.436103 0.319951
0.364538 0.432166 0.332158
0.380285 0.437110 0.332647
0.398291 0.447486 0.324468
0.421851 0.457496 0.314916
0.450446 0.466773 0.303655
0.483406 0.475166 0.290959
0.521416 0.484718 0.281163
0.567620 0.500267 0.272007
0.607172 0.508629 0.260105
0.641474 0.512413 0.248753
0.668147 0.512688 0.247379
0.693172 0.513664 0.249729
0.718257 0.516381 0.254185
0.741482 0.521202 0.267063
0.763668 0.528161 0.285130
0.786282 0.536889 0.304784
0.809567 0.547356 0.326207
0.833585 0.559228 0.349950
0.858793 0.572412 0.375341
0.885313 0.586633 0.403235
0.912902 0.601862 0.433417
0.941375 0.617762 0.465278
0.231052 0.482887 0.305241
0.234745 0.483223 0.306279
0.250584 0.498085 0.318700
0.259770 0.497688 0.320256
0.273777 0.497108 0.323247
0.292241 0.496315 0.327672
0.310918 0.495064 0.331456
0.328557 0.491615 0.334051
0.351904 0.487556 0.342199
0.374853 0.483589 0.351965
0.396551 0.479316 0.363073
0.415961 0.475105 0.375555
0.429236 0.483406 0.367987
0.447303 0.492103 0.358740
0.469764 0.500206 0.347936
0.496651 0.507774 0.335973
0.526909 0.514672 0.322545
0.560266 0.522332 0.312657
0.599725 0.534417 0.303838
0.634730 0.541772 0.293950
0.666743 0.546227 0.283787
0.694484 0.548943 0.281010
0.719173 0.551507 0.284825
0.743954 0.555535 0.290471
0.767849 0.560510 0.300664
0.789517 0.567437 0.319829
0.811795 0.575830 0.340581
0.835142 0.585962 0.363592
0.859892 0.597650 0.389136
0.886198 0.610834 0.417090
0.913787 0.625086 0.446998
0.941985 0.639734 0.477974
0.258091 0.518212 0.333104
0.262425 0.520073 0.335210
0.268467 0.521843 0.337530
0.278660 0.523247 0.340673
0.292912 0.524132 0.344518
0.310948 0.524163 0.349279
0.332158 0.523613 0.355535
0.346105 0.521416 0.355505
0.368963 0.517876 0.363226
0.391730 0.514244 0.372229
0.413825 0.510369 0.382605
0.434089 0.506523 0.394232
0.449866 0.506065 0.400397
0.463508 0.514153 0.391913
0.481361 0.521721 0.382391
0.502861 0.528649 0.371466
0.527886 0.535058 0.359411
0.555596 0.541009 0.346349
0.585809 0.547662 0.337499
0.621271 0.558373 0.330236
0.654261 0.566186 0.322118
0.686397 0.572961 0.314275
0.715663 0.578424 0.311284
0.740505 0.582788 0.317327
0.765377 0.588098 0.324590
0.790585 0.594354 0.334295
0.813199 0.602075 0.354406
0.836484 0.611444 0.377844
0.861326 0.622370 0.403418
0.887633 0.634607 0.431250
0.915068 0.648096 0.461128
0.943175 0.661707 0.491218
0.282078 0.546502 0.357305
0.286503 0.548119 0.359319
0.291814 0.549645 0.361608
0.301396 0.550805 0.364538
0.315038 0.551537 0.368292
0.331853 0.551354 0.372595
0.351843 0.550835 0.378332
0.367437 0.549737 0.380041
0.387457 0.546868 0.385473
0.409857 0.543511 0.393957
0.431922 0.540093 0.403845
0.452552 0.536645 0.414801
0.470558 0.532860 0.426520
0.483314 0.536156 0.425940
0.496925 0.543053 0.417578
0.513756 0.549432 0.407782
0.533806 0.555444 0.397070
0.557000 0.561151 0.385443
0.582635 0.566552 0.372930
0.610163 0.572503 0.365332
0.642267 0.582269 0.359686
0.674708 0.591516 0.353094
0.706905 0.600214 0.347509
0.737514 0.607935 0.344366
0.762387 0.613581 0.351934
0.787503 0.620050 0.361273
0.813169 0.627314 0.372808
0.837949 0.635859 0.392004
0.862608 0.645991 0.417731
0.888762 0.657557 0.445624
0.915953 0.670039 0.474769
0.944030 0.682856 0.503716
0.307927 0.572900 0.382422
0.311955 0.574273 0.384405
0.317357 0.575586 0.386572
0.326299 0.576501 0.389441
0.338872 0.576989 0.392920
0.354437 0.576837 0.397162
0.373175 0.576257 0.402319
0.392767 0.575433 0.407904
0.407233 0.573327 0.409125
0.428870 0.570275 0.417090
0.449928 0.567254 0.426184
0.470130 0.563958 0.436286
0.488350 0.560540 0.447333
0.504295 0.557183 0.459236
0.514580 0.563439 0.452369
0.527855 0.569665 0.444221
0.544274 0.575799 0.435370
0.563775 0.581781 0.425879
0.585901 0.587701 0.415625
0.610285 0.593500 0.405402
0.636042 0.599725 0.399542
0.667506 0.610834 0.396094
0.699825 0.621820 0.391608
0.732296 0.632685 0.389044
0.764462 0.642664 0.386816
0.790066 0.649958 0.396551
0.816037 0.657740 0.408423
0.843046 0.666285 0.422797
0.870542 0.675776 0.441566
0.896483 0.686488 0.468971
0.923369 0.697719 0.496468
0.951019 0.709712 0.524102
0.341772 0.602380 0.414343
0.345251 0.602899 0.415564
0.349126 0.603204 0.416815
0.356573 0.603357 0.418769
0.367498 0.603174 0.421515
0.382025 0.602625 0.425147
0.399390 0.601892 0.430182
0.419471 0.601160 0.436957
0.432044 0.600153 0.437354
0.452491 0.597650 0.445014
0.472755 0.595148 0.453925
0.492164 0.592493 0.463691
0.509972 0.589593 0.474098
0.525811 0.586603 0.485176
0.537865 0.586267 0.491005
0.547539 0.591943 0.483986
0.559930 0.597436 0.476051
0.575128 0.602960 0.467659
0.593072 0.608392 0.458625
0.613428 0.613916 0.448920
0.636011 0.619440 0.438605
0.660456 0.625940 0.433509
0.690455 0.637232 0.430976
0.721523 0.648310 0.426947
0.753658 0.660060 0.425818
0.785855 0.671077 0.425605
0.813321 0.679957 0.435157
0.840452 0.688960 0.449500
0.868894 0.698665 0.466194
0.898039 0.708675 0.484321
0.925078 0.719509 0.510246
0.952636 0.731258 0.537163
0.370855 0.624537 0.440986
0.373816 0.624994 0.442115
0.377600 0.625299 0.443366
0.384619 0.625422 0.445350
0.394781 0.625147 0.448066
0.408026 0.624506 0.451453
0.423682 0.623804 0.456092
0.442023 0.622919 0.462257
0.458442 0.621973 0.466835
0.473030 0.620233 0.470253
0.491890 0.617884 0.478431
0.510033 0.615534 0.487465
0.526909 0.612970 0.496986
0.542412 0.610407 0.507164
0.556054 0.607935 0.517754
0.565484 0.610529 0.518120
0.575189 0.616052 0.511650
0.587457 0.621698 0.504845
0.602411 0.627466 0.497475
0.619806 0.633356 0.489540
0.639490 0.639307 0.481056
0.661280 0.645350 0.471839
0.685176 0.652918 0.469062
0.714473 0.664851 0.467781
0.741787 0.673091 0.460456
0.774105 0.686000 0.461311
0.806912 0.698268 0.463539
0.836790 0.708797 0.473426
0.865171 0.718776 0.488899
0.894560 0.729183 0.506065
0.924681 0.740200 0.525231
0.953674 0.751980 0.549065
0.406531 0.649928 0.473213
0.409522 0.650416 0.474495
0.412665 0.650690 0.475624
0.418708 0.650568 0.477272
0.427588 0.650141 0.479561
0.439124 0.649348 0.482551
0.453162 0.648371 0.486549
0.469337 0.647242 0.491981
0.487282 0.646113 0.499001
0.496895 0.644739 0.498756
0.513329 0.642206 0.505425
0.529564 0.639765 0.512993
0.545037 0.637324 0.521141
0.559411 0.634730 0.529839
0.572290 0.632013 0.538811
0.583612 0.629419 0.548302
0.590997 0.634028 0.543175
0.600549 0.639338 0.537011
0.612787 0.645075 0.530694
0.627649 0.651179 0.524285
0.644862 0.657465 0.517571
0.664088 0.663813 0.510185
0.684871 0.669947 0.502098
0.707851 0.677760 0.500847
0.735805 0.689357 0.499428
0.764706 0.700404 0.496315
0.797574 0.714351 0.499062
0.831235 0.727504 0.502708
0.863066 0.739040 0.511894
0.892485 0.749783 0.527977
0.922759 0.761135 0.546197
0.953368 0.773251 0.566339
0.435340 0.671626 0.500298
0.437751 0.672175 0.501549
0.441016 0.672450 0.502647
0.446387 0.672328 0.504234
0.454627 0.671901 0.506401
0.464912 0.671260 0.509209
0.477485 0.670497 0.513054
0.491829 0.669673 0.517937
0.507866 0.668940 0.524102
0.520073 0.668177 0.526940
0.532860 0.666529 0.530663
0.548333 0.664546 0.537743
0.563195 0.662623 0.545403
0.577173 0.660548 0.553460
0.590021 0.658412 0.561822
0.601709 0.656275 0.570611
0.611109 0.656184 0.576043
0.619074 0.661555 0.570977
0.629358 0.667353 0.565850
0.641993 0.673457 0.560540
0.656855 0.679805 0.555077
0.673671 0.686305 0.549187
0.692287 0.692653 0.542504
0.712367 0.698939 0.535302
0.734676 0.707179 0.535821
0.761898 0.718715 0.535119
0.790219 0.729641 0.532433
0.824033 0.744472 0.536522
0.858976 0.758633 0.542168
0.893370 0.771725 0.551324
0.923827 0.783566 0.568780
0.954498 0.796353 0.589502
0.465614 0.695766 0.530114
0.467811 0.696132 0.531060
0.470314 0.696193 0.531884
0.474800 0.695979 0.533074
0.481453 0.695430 0.534661
0.490272 0.694759 0.536950
0.500999 0.693996 0.540002
0.513603 0.693233 0.544030
0.527794 0.692653 0.549096
0.542504 0.692287 0.554986
0.551141 0.691432 0.555016
0.565667 0.689937 0.561517
0.579980 0.688319 0.568475
0.593652 0.686641 0.575891
0.606409 0.684779 0.583551
0.618250 0.682948 0.591760
0.629084 0.681117 0.600397
0.637354 0.683558 0.601801
0.646082 0.689265 0.597314
0.656886 0.695369 0.592828
0.669917 0.701808 0.588159
0.684901 0.708370 0.583215
0.701595 0.714961 0.577905
0.719875 0.721492 0.572015
0.739498 0.727810 0.565545
0.761318 0.736049 0.567376
0.787900 0.747219 0.567010
0.815915 0.757809 0.564935
0.850401 0.773068 0.570245
0.886412 0.788296 0.578302
0.922667 0.802976 0.588617
0.953491 0.816556 0.609491
0.492317 0.719966 0.558404
0.493965 0.720211 0.559106
0.496223 0.720272 0.559747
0.500145 0.720211 0.560845
0.506279 0.719936 0.562402
0.514458 0.719814 0.564843
0.524773 0.719875 0.568139
0.536553 0.720241 0.572473
0.550011 0.720821 0.577783
0.564508 0.721767 0.584039
0.575006 0.722591 0.586297
0.587884 0.722438 0.591333
0.602533 0.721950 0.598810
0.616724 0.721157 0.606653
0.630182 0.720027 0.614801
0.642573 0.718654 0.623133
0.654078 0.717281 0.631983
0.664698 0.716060 0.641413
0.672450 0.721096 0.639155
0.681819 0.727321 0.635248
0.693080 0.733822 0.631159
0.706233 0.740383 0.626734
0.721065 0.746914 0.621729
0.737545 0.753414 0.616419
0.755673 0.759823 0.610498
0.775296 0.766293 0.605493
0.797147 0.774258 0.608148
0.823606 0.784726 0.608179
0.851530 0.794736 0.606806
0.886015 0.809903 0.614130
0.922179 0.825895 0.625666
0.957458 0.841520 0.640375
0.524132 0.752346 0.594141
0.525414 0.752529 0.594598
0.526909 0.752468 0.594995
0.530236 0.752224 0.595636
0.535302 0.751888 0.596704
0.542016 0.751583 0.598291
0.550469 0.751339 0.600488
0.560296 0.751339 0.603418
0.571832 0.751553 0.607355
0.584833 0.751919 0.612329
0.597742 0.752377 0.617243
0.606592 0.752316 0.618158
0.620630 0.751369 0.624933
0.634363 0.750332 0.632166
