data/fiter_cube/72007313/1022714/file.cube
# Created by Adobe Lightroom plugin Export LUT (1.17.0)
# www.johnrellis.com/lightroom/exportlut.htm
# Preset: 高级电影暗青色_03 云集
# Color profile: C:\Program Files (x86)\Common Files\Adobe\Color\Profiles\Recommended\AdobeRGB1998.icc
LUT_3D_SIZE 8
DOMAIN_MIN 0.000000 0.000000 0.000000
DOMAIN_MAX 0.903226 0.903226 0.903226
0.056153 0.065675 0.062409
0.087190 0.067292 0.067109
0.180575 0.052888 0.079500
0.325200 0.000000 0.090181
0.493507 0.000000 0.107149
0.646540 0.000000 0.141054
0.749233 0.000000 0.192233
0.850706 0.220188 0.268833
0.068330 0.090089 0.076478
0.086213 0.093477 0.078950
0.183017 0.083223 0.083040
0.325963 0.000000 0.093660
0.494240 0.000000 0.111147
0.637293 0.000000 0.141512
0.741390 0.000000 0.191501
0.845274 0.243565 0.268528
0.084413 0.173648 0.116426
0.114076 0.168887 0.123049
0.189883 0.187320 0.120394
0.362188 0.180484 0.105898
0.522087 0.156710 0.126528
0.649928 0.168124 0.158572
0.754971 0.245823 0.214817
0.854795 0.351843 0.295476
0.132662 0.305974 0.191043
0.169436 0.305211 0.199802
0.241093 0.292088 0.224949
0.367041 0.343908 0.195163
0.568322 0.368811 0.157717
0.670405 0.364538 0.188571
0.761563 0.399756 0.245823
0.856199 0.464668 0.328588
0.208774 0.449714 0.281285
0.240421 0.448920 0.287572
0.320562 0.440009 0.309453
0.398291 0.447486 0.324468
0.521416 0.484718 0.281163
0.668147 0.512688 0.247379
0.763668 0.528161 0.285130
0.858793 0.572412 0.375341
0.307927 0.572900 0.382422
0.338872 0.576989 0.392920
0.407233 0.573327 0.409125
0.488350 0.560540 0.447333
0.544274 0.575799 0.435370
0.636042 0.599725 0.399542
0.764462 0.642664 0.386816
0.870542 0.675776 0.441566
0.435340 0.671626 0.500298
0.454627 0.671901 0.506401
0.507866 0.668940 0.524102
0.563195 0.662623 0.545403
0.611109 0.656184 0.576043
0.656855 0.679805 0.555077
0.734676 0.707179 0.535821
0.858976 0.758633 0.542168
0.546899 0.780850 0.622858
0.557000 0.780575 0.624994
0.591699 0.781033 0.635401
0.640070 0.782712 0.653437
0.684749 0.770657 0.675319
0.726314 0.780240 0.696834
0.779660 0.809110 0.683894
0.858976 0.836545 0.677913
0.053315 0.067445 0.076967
0.084657 0.069337 0.072999
0.174563 0.063325 0.079774
0.319707 0.000000 0.092683
0.487526 0.000000 0.109316
0.630610 0.000000 0.138399
0.736294 0.000000 0.186557
0.840391 0.212253 0.261051
0.059632 0.091554 0.088746
0.090883 0.095918 0.086824
0.184024 0.098451 0.084932
0.325872 0.066560 0.096040
0.490608 0.000000 0.112795
0.628351 0.000000 0.140597
0.731258 0.040253 0.187106
0.834897 0.234287 0.260380
0.080079 0.176120 0.128206
0.121340 0.174960 0.136446
0.193271 0.189151 0.129671
0.357733 0.187808 0.105470
0.510552 0.168490 0.125216
0.638422 0.175296 0.154879
0.739467 0.234989 0.205447
0.842344 0.337377 0.283482
0.131868 0.301579 0.198001
0.170962 0.302220 0.206912
0.243900 0.290013 0.233463
0.352575 0.330480 0.198795
0.542870 0.350072 0.150729
0.652522 0.348760 0.177737
0.745449 0.381964 0.232486
0.844144 0.450660 0.315068
0.209934 0.447791 0.288243
0.240269 0.446204 0.293034
0.319188 0.437140 0.312596
0.391455 0.438575 0.325628
0.508904 0.472938 0.282811
0.658930 0.503441 0.239017
0.755856 0.519799 0.276524
0.851621 0.564660 0.366064
0.303136 0.567926 0.383093
0.328283 0.567834 0.388373
0.397620 0.565576 0.404273
0.481453 0.554467 0.442969
0.539818 0.570947 0.435828
0.633082 0.597070 0.403479
0.760983 0.638972 0.382300
0.865629 0.670680 0.434760
0.423621 0.664851 0.494270
0.440284 0.663172 0.497444
0.496437 0.661189 0.515862
0.556695 0.657282 0.540459
0.607874 0.652003 0.574548
0.652430 0.675166 0.553491
0.728664 0.700404 0.528588
0.851804 0.751369 0.533471
0.539422 0.775906 0.618952
0.550439 0.776455 0.621851
0.585901 0.777401 0.632349
0.635645 0.780026 0.650721
0.689052 0.776638 0.682094
0.728481 0.782467 0.701625
0.778164 0.807736 0.684657
0.855680 0.833188 0.674006
0.045075 0.073976 0.116793
0.082033 0.077302 0.116426
0.163638 0.087037 0.123079
0.328069 0.000000 0.118502
0.501518 0.000000 0.114199
0.640223 0.000000 0.146426
0.743862 0.104768 0.195712
0.846983 0.241917 0.269383
0.067109 0.100221 0.129397
0.096468 0.105013 0.133425
0.178897 0.112886 0.137819
0.332708 0.090517 0.128939
0.502251 0.000000 0.119173
0.637781 0.034272 0.148318
0.740475 0.149264 0.197024
0.844297 0.265629 0.271550
0.068482 0.181918 0.176333
0.107118 0.191775 0.180636
0.212650 0.202609 0.175509
0.363592 0.202976 0.161166
0.523278 0.202090 0.147890
0.646845 0.218173 0.161746
0.744411 0.265965 0.211856
0.845426 0.350225 0.288518
0.105776 0.320592 0.238499
0.156893 0.322240 0.241245
0.264744 0.315801 0.264744
0.372961 0.347784 0.244755
0.550469 0.362371 0.193637
0.659785 0.369726 0.184054
0.752163 0.401801 0.240604
0.849729 0.461158 0.322728
0.190707 0.455573 0.313298
0.229923 0.456062 0.318242
0.330419 0.455085 0.339422
0.410986 0.451637 0.363317
0.522911 0.486854 0.325780
0.661799 0.510552 0.267765
0.759426 0.527428 0.281865
0.854978 0.568902 0.370916
0.293248 0.572656 0.402533
0.322820 0.572595 0.407599
0.406073 0.570764 0.427436
0.487282 0.560693 0.457740
0.543175 0.572198 0.458167
0.631403 0.597101 0.428870
0.760220 0.638209 0.382605
0.868528 0.672847 0.438148
0.418494 0.669306 0.508476
0.436927 0.668116 0.511772
0.492744 0.665064 0.525963
0.556817 0.661311 0.548974
0.610163 0.654322 0.582879
0.653956 0.676875 0.567559
0.731716 0.704952 0.547448
0.859617 0.757809 0.540612
0.529534 0.778103 0.625818
0.538842 0.777279 0.626612
0.574487 0.777218 0.634577
0.633997 0.782589 0.658656
0.686854 0.779202 0.684840
0.730068 0.783658 0.710750
0.779477 0.809995 0.695033
0.858976 0.835935 0.677089
0.045563 0.085267 0.175753
0.084688 0.089662 0.181155
0.172732 0.101045 0.192355
0.297948 0.114443 0.201572
0.490608 0.000000 0.190219
0.635584 0.000000 0.187869
0.741451 0.130098 0.195987
0.845243 0.236454 0.267643
0.069032 0.113680 0.195712
0.100954 0.118166 0.199405
0.188235 0.131258 0.208774
0.311742 0.141787 0.215396
0.498177 0.042512 0.200870
0.635676 0.098787 0.196353
0.740475 0.172824 0.198947
0.844480 0.260472 0.270817
0.083314 0.180026 0.227878
0.116762 0.187716 0.231662
0.219303 0.213901 0.249088
0.352911 0.219516 0.252354
0.517723 0.221378 0.242252
0.646509 0.247715 0.230961
0.752651 0.292241 0.220249
0.851896 0.351934 0.293462
0.091676 0.314916 0.299504
0.130495 0.326146 0.305821
0.244724 0.345495 0.312535
0.394690 0.361242 0.306828
0.541131 0.365789 0.285344
0.652277 0.381353 0.273869
0.752743 0.410163 0.258732
0.853910 0.459480 0.325200
0.140139 0.473945 0.373449
0.189822 0.472847 0.371862
0.312688 0.472328 0.376287
0.435706 0.465797 0.415137
0.538476 0.502159 0.383948
0.662806 0.516533 0.342565
0.760952 0.534569 0.328740
0.860472 0.569421 0.375372
0.268070 0.584680 0.443397
0.304112 0.587396 0.448768
0.394171 0.584283 0.457954
0.499519 0.579309 0.488075
0.557244 0.583001 0.503044
0.638239 0.607019 0.475349
0.760739 0.642908 0.439582
0.873014 0.673274 0.442267
0.396857 0.674556 0.530205
0.418158 0.674464 0.533440
0.480385 0.673579 0.545220
0.559533 0.674006 0.570825
0.617609 0.667994 0.599176
0.660060 0.684291 0.594263
0.735195 0.710414 0.573541
0.865995 0.761013 0.549981
0.516106 0.785153 0.644373
0.526818 0.785580 0.645930
0.559777 0.785672 0.649836
0.617182 0.787137 0.663874
0.681025 0.786313 0.690120
0.732845 0.785428 0.726619
0.780240 0.812741 0.711269
0.861692 0.839750 0.693751
0.027710 0.104097 0.252262
0.084565 0.108217 0.257939
0.185794 0.121401 0.275212
0.288640 0.141207 0.274754
0.455818 0.160830 0.301030
0.620356 0.100465 0.292638
0.735714 0.173404 0.293645
0.849699 0.253605 0.280766
0.066560 0.129305 0.266880
0.102296 0.134096 0.272404
0.199100 0.148714 0.288334
0.301884 0.169100 0.288731
0.463508 0.187228 0.311192
0.623590 0.147219 0.300999
0.736355 0.215030 0.304326
0.849912 0.277592 0.285893
0.093477 0.193027 0.288518
0.127718 0.201511 0.299107
0.224186 0.222812 0.320562
0.338170 0.250523 0.328954
0.486519 0.262699 0.341497
0.630213 0.244602 0.323308
0.736324 0.301915 0.325628
0.848905 0.342992 0.300633
0.111330 0.291295 0.342596
0.145266 0.298100 0.345953
0.240970 0.322087 0.358801
0.391089 0.369116 0.390326
0.525719 0.370245 0.385290
0.639765 0.390295 0.376837
0.742000 0.412940 0.362127
0.854948 0.434424 0.325200
0.142885 0.445350 0.419043
0.177615 0.454017 0.424842
0.277867 0.474678 0.437568
0.426673 0.489540 0.446509
0.546319 0.506584 0.441627
0.650538 0.508598 0.420722
0.749111 0.524315 0.408789
0.859709 0.549615 0.387366
0.199313 0.588586 0.496773
0.238987 0.588251 0.495827
0.342443 0.585809 0.493629
0.471351 0.583612 0.503746
0.557671 0.580102 0.535912
0.638819 0.610010 0.516075
0.758694 0.639582 0.491646
0.870603 0.664302 0.480476
0.355169 0.679133 0.563348
0.376562 0.678126 0.563592
0.443214 0.676143 0.567346
0.530236 0.675990 0.580591
0.607904 0.676875 0.605615
0.658961 0.685145 0.620172
0.735927 0.712856 0.598718
0.868070 0.758022 0.575677
0.481758 0.785092 0.662928
0.493141 0.784726 0.663172
0.528923 0.784482 0.664759
0.587182 0.790433 0.674678
0.660334 0.793332 0.694270
0.728176 0.790585 0.731411
0.776516 0.812192 0.729305
0.859861 0.839506 0.710353
0.000000 0.127687 0.341131
0.082155 0.131777 0.346990
0.192874 0.144839 0.365789
0.354498 0.169528 0.401373
0.450782 0.198123 0.388525
0.591180 0.244602 0.411475
0.717098 0.251621 0.414710
0.841337 0.270115 0.407996
0.056367 0.148379 0.348211
0.100343 0.152529 0.353246
0.202731 0.166812 0.372198
0.358648 0.194339 0.405676
0.453986 0.222293 0.394537
0.592126 0.264073 0.416632
0.716884 0.271580 0.419104
0.840970 0.287663 0.410986
0.099397 0.210513 0.371435
0.130831 0.215671 0.379370
0.227085 0.233524 0.397833
0.379095 0.271733 0.430976
0.477302 0.301427 0.426246
0.603571 0.331670 0.441962
0.721706 0.338842 0.440620
0.842008 0.368444 0.439734
0.114656 0.291234 0.397803
0.144533 0.296422 0.399969
0.234287 0.319036 0.415717
0.396216 0.372076 0.464118
0.513359 0.414435 0.478218
0.622827 0.429328 0.484291
0.733150 0.431220 0.475654
0.847257 0.465278 0.477821
0.149325 0.415625 0.458961
0.180270 0.420752 0.461921
0.268894 0.437903 0.471992
0.393927 0.466896 0.490791
0.534813 0.514305 0.523552
0.635492 0.518944 0.521721
0.736782 0.530846 0.515343
0.852171 0.542565 0.496040
0.217563 0.559899 0.531029
0.246342 0.564813 0.534997
0.324163 0.580041 0.547326
0.437385 0.594171 0.559503
0.558709 0.601617 0.570275
0.648371 0.619501 0.570764
0.753140 0.630671 0.557366
0.866667 0.646174 0.543664
0.306828 0.684596 0.613886
0.328832 0.686427 0.616022
0.396612 0.688624 0.618830
0.494331 0.687709 0.620081
0.587854 0.690242 0.628901
0.664576 0.691310 0.661372
0.743191 0.722347 0.639246
0.876707 0.756649 0.619348
0.434791 0.792874 0.700465
0.447669 0.792386 0.700008
0.488289 0.791928 0.699519
0.548089 0.794583 0.701411
0.623285 0.798337 0.707698
0.709560 0.803159 0.733242
0.774594 0.814359 0.758145
0.862669 0.844175 0.737209
0.000000 0.153323 0.438941
0.079561 0.157534 0.445991
0.204685 0.169650 0.464881
0.366705 0.192111 0.498695
0.514977 0.228367 0.524590
0.593652 0.283940 0.506645
0.686152 0.356146 0.520134
0.810880 0.377783 0.543114
0.000855 0.169192 0.440009
0.093721 0.173404 0.446418
0.208682 0.186252 0.465034
0.365332 0.210819 0.497261
0.512932 0.248600 0.523766
0.589837 0.297704 0.505760
0.681788 0.362097 0.517815
0.805692 0.380346 0.538903
0.068513 0.221073 0.456855
0.114351 0.225193 0.462013
0.222782 0.241459 0.479408
0.375494 0.274601 0.511192
0.526329 0.324254 0.541802
0.597589 0.363012 0.525261
0.688777 0.413672 0.538140
0.813169 0.428717 0.558221
0.070283 0.288640 0.455207
0.112093 0.293736 0.461982
0.215610 0.314549 0.489174
0.373877 0.356756 0.527428
0.543206 0.427283 0.569482
0.609888 0.455970 0.558312
0.700343 0.485542 0.570520
0.823026 0.487465 0.581201
0.105959 0.396704 0.504906
0.137881 0.398688 0.505364
0.218784 0.407202 0.508934
0.325109 0.422370 0.517235
0.516655 0.491157 0.574762
0.614923 0.536400 0.588861
0.709010 0.546838 0.597253
0.834867 0.544335 0.598993
0.180423 0.531182 0.566644
0.206241 0.533349 0.567864
0.280308 0.540429 0.572320
0.382971 0.552026 0.580987
0.501640 0.569848 0.594385
0.634516 0.619379 0.638575
0.734279 0.621180 0.635798
0.851804 0.633600 0.636316
0.297276 0.653010 0.632624
0.316838 0.654963 0.634577
0.375555 0.660029 0.639612
0.455756 0.673579 0.653346
0.544396 0.689418 0.669062
0.649226 0.706844 0.685725
0.750210 0.728725 0.691096
0.872313 0.737514 0.676295
0.386633 0.784085 0.732082
0.398779 0.785183 0.733150
0.439338 0.791501 0.739223
0.495308 0.800900 0.746761
0.574426 0.806973 0.748714
0.673457 0.813535 0.755428
0.774838 0.818967 0.793790
0.867460 0.851560 0.776455
0.000000 0.185214 0.554986
0.100862 0.188663 0.559960
0.231235 0.198337 0.572992
0.389166 0.221408 0.597650
0.551873 0.282170 0.629755
0.642695 0.326085 0.637964
0.703090 0.399847 0.620783
0.783017 0.469215 0.637842
0.000000 0.197360 0.553887
0.101015 0.200900 0.558709
0.230137 0.211582 0.572229
0.386084 0.235935 0.596246
0.548608 0.296300 0.628473
0.641077 0.340826 0.638025
0.700740 0.408698 0.620600
0.781369 0.473945 0.637720
0.000000 0.234714 0.555627
0.080903 0.238895 0.559869
0.219669 0.252293 0.572503
0.380438 0.284154 0.599512
0.543206 0.345617 0.631525
0.641749 0.394965 0.645563
0.701106 0.448829 0.630640
0.784237 0.500023 0.647852
0.000000 0.286900 0.545830
0.000000 0.291478 0.552483
0.172854 0.307866 0.573053
0.349767 0.342992 0.599939
0.526696 0.407355 0.634974
0.645899 0.474006 0.662959
0.705348 0.508263 0.651606
0.793088 0.541161 0.667659
0.000000 0.378729 0.561486
0.000000 0.379126 0.561761
0.083925 0.376257 0.559228
0.248020 0.386816 0.582788
0.474861 0.453956 0.629389
0.646571 0.546746 0.683314
0.709590 0.567803 0.676844
0.806912 0.591852 0.694423
0.000000 0.512688 0.616571
0.061311 0.511925 0.615839
0.167697 0.509972 0.614069
0.266209 0.506157 0.611963
0.376532 0.501274 0.609674
0.600397 0.582086 0.681483
0.723476 0.643244 0.720302
0.824277 0.653498 0.727535
0.222538 0.651484 0.690272
0.239628 0.651301 0.690089
0.291783 0.650782 0.689876
0.369940 0.650782 0.690791
0.464607 0.651850 0.693050
0.564233 0.656123 0.699825
0.735561 0.725978 0.770077
0.845518 0.730343 0.767849
0.358221 0.765774 0.759945
0.368566 0.765927 0.760098
0.404211 0.767788 0.761959
0.461036 0.773312 0.767330
0.529808 0.784176 0.777096
0.613519 0.806851 0.796841
0.734737 0.833433 0.819791
0.873136 0.859709 0.837675
