data/fiter_cube/63078869/1022678/file.cube
# Created by Adobe Lightroom plugin Export LUT (1.17.0)
# www.johnrellis.com/lightroom/exportlut.htm
# Preset: 暗调胶片街拍_07 云集
# Color profile: C:\Program Files (x86)\Common Files\Adobe\Color\Profiles\Recommended\AdobeRGB1998.icc
LUT_3D_SIZE 5
DOMAIN_MIN 0.000000 0.000000 0.000000
DOMAIN_MAX 0.903226 0.903226 0.903226
0.016815 0.046937 0.050721
0.074037 0.061555 0.054902
0.134920 0.080507 0.058045
0.299443 0.124514 0.026764
0.604211 0.163882 0.000000
0.030457 0.074952 0.073487
0.068391 0.081575 0.063966
0.133181 0.093904 0.061982
0.296239 0.138766 0.030640
0.625483 0.186221 0.000000
0.052461 0.098970 0.096193
0.053468 0.096773 0.096376
0.128603 0.133516 0.079072
0.327642 0.192721 0.009583
0.632013 0.245579 0.000000
0.067384 0.131807 0.121309
0.067445 0.128145 0.120638
0.075502 0.142641 0.112245
0.263615 0.231907 0.066590
0.671656 0.335454 0.000000
0.083162 0.185000 0.157076
0.081636 0.175998 0.153079
0.075654 0.146639 0.136873
0.154665 0.240269 0.128450
0.619501 0.431617 0.000000
0.027314 0.079591 0.088258
0.059327 0.080751 0.092592
0.120363 0.090669 0.090822
0.252750 0.116640 0.082948
0.560296 0.151003 0.000000
0.039094 0.086671 0.086763
0.061219 0.092348 0.094850
0.123690 0.101534 0.091646
0.257755 0.129854 0.081910
0.571618 0.171725 0.000000
0.059968 0.108217 0.102693
0.065156 0.110140 0.109712
0.117952 0.132418 0.099428
0.285924 0.176455 0.075013
0.611475 0.235996 0.000000
0.075746 0.145266 0.132570
0.077150 0.142214 0.133516
0.077943 0.147341 0.124605
0.257328 0.231296 0.093507
0.664881 0.330816 0.000000
0.093172 0.203250 0.170474
0.090852 0.192844 0.165774
0.083711 0.161929 0.149477
0.153567 0.246494 0.140871
0.626123 0.436713 0.000000
0.037964 0.118654 0.137362
0.061952 0.119020 0.141299
0.104280 0.115145 0.148013
0.241032 0.088960 0.143130
0.533440 0.106294 0.125002
0.049653 0.127474 0.139010
0.067781 0.129244 0.143709
0.106050 0.125185 0.150057
0.237736 0.116823 0.139803
0.548241 0.132204 0.121614
0.063355 0.136416 0.130190
0.074617 0.139040 0.135195
0.113039 0.155520 0.154726
0.261692 0.172915 0.142519
0.587945 0.208469 0.109133
0.084352 0.176852 0.145602
0.092470 0.177462 0.154543
0.107637 0.173800 0.170016
0.252415 0.243107 0.157931
0.645350 0.317754 0.086397
0.108583 0.252140 0.192935
0.116823 0.251041 0.199466
0.118410 0.221134 0.195254
0.130831 0.239750 0.171664
0.609949 0.435065 0.093050
0.009247 0.207340 0.243198
0.070314 0.208957 0.248936
0.113619 0.180728 0.246494
0.204746 0.168490 0.244968
0.516350 0.075105 0.296727
0.035462 0.214878 0.241428
0.076051 0.214755 0.245060
0.117098 0.191684 0.246036
0.203159 0.176974 0.243473
0.514580 0.083131 0.286137
0.044770 0.231876 0.235080
0.078096 0.231937 0.237583
0.138155 0.231907 0.247990
0.206210 0.206210 0.244450
0.538811 0.117189 0.244358
0.087037 0.242893 0.213382
0.101869 0.242679 0.215579
0.146639 0.251865 0.230411
0.241642 0.281743 0.261326
0.612482 0.301854 0.242161
0.148043 0.364935 0.228153
0.159792 0.364630 0.237552
0.196994 0.359991 0.265782
0.186709 0.284367 0.256077
0.601709 0.456062 0.250126
0.177737 0.414954 0.408789
0.214054 0.414710 0.411322
0.287694 0.399176 0.413153
0.325444 0.315221 0.398199
0.494057 0.290837 0.401862
0.171481 0.417517 0.404242
0.206760 0.417304 0.406836
0.290776 0.408515 0.412055
0.322789 0.324498 0.396887
0.493202 0.299413 0.400977
0.151492 0.439155 0.398535
0.180270 0.437354 0.400397
0.285344 0.436805 0.409827
0.338262 0.373327 0.404913
0.503868 0.335180 0.404150
0.155978 0.490822 0.397467
0.181155 0.488197 0.398138
0.265110 0.488106 0.406928
0.430396 0.495705 0.431861
0.535302 0.412146 0.414954
0.209934 0.506249 0.364202
0.227146 0.506004 0.365698
0.294896 0.513603 0.375982
0.405676 0.519432 0.393744
0.575860 0.536370 0.425757
