data/fiter_cube/63078869/1022678/file.cube
# Created by Adobe Lightroom plugin Export LUT (1.17.0)
# www.johnrellis.com/lightroom/exportlut.htm
# Preset: 暗调胶片街拍_07 云集
# Color profile: C:\Program Files (x86)\Common Files\Adobe\Color\Profiles\Recommended\AdobeRGB1998.icc
LUT_3D_SIZE 8
DOMAIN_MIN 0.000000 0.000000 0.000000
DOMAIN_MAX 0.903226 0.903226 0.903226
0.016815 0.046937 0.050721
0.053529 0.054383 0.052583
0.080201 0.063966 0.055756
0.112795 0.073579 0.057862
0.161685 0.088594 0.056550
0.264469 0.116396 0.039124
0.416236 0.145266 0.000000
0.604211 0.163882 0.000000
0.021271 0.061677 0.062257
0.048798 0.066835 0.055970
0.078614 0.068544 0.058350
0.109133 0.077455 0.059754
0.155947 0.091005 0.058961
0.244907 0.115602 0.045380
0.388861 0.145724 0.000000
0.586175 0.168399 0.000000
0.033814 0.078981 0.077577
0.036072 0.078462 0.078584
0.073304 0.086366 0.066529
0.111574 0.091920 0.063966
0.164706 0.107088 0.061585
0.258671 0.133974 0.044800
0.431800 0.170748 0.000000
0.621576 0.192233 0.000000
0.047944 0.092775 0.090700
0.048310 0.091859 0.090761
0.052064 0.096590 0.087221
0.104921 0.114382 0.076905
0.192477 0.141390 0.062043
0.295079 0.170016 0.031495
0.453529 0.203952 0.000000
0.630274 0.225925 0.000000
0.058412 0.106661 0.102144
0.058320 0.106142 0.102663
0.059541 0.104067 0.102815
0.075654 0.121309 0.096529
0.152102 0.152041 0.079622
0.279850 0.196597 0.036164
0.456306 0.239719 0.000000
0.640223 0.268315 0.000000
0.065370 0.125093 0.116396
0.065766 0.125612 0.117342
0.066041 0.121553 0.116304
0.065034 0.128481 0.110445
0.108614 0.154513 0.103883
0.232853 0.211185 0.072572
0.454749 0.288212 0.000000
0.669642 0.322087 0.000000
0.073457 0.149996 0.134066
0.073457 0.148867 0.134005
0.072602 0.142306 0.131136
0.071077 0.132692 0.126436
0.082582 0.160464 0.119478
0.165621 0.206851 0.109346
0.378790 0.303685 0.000000
0.636408 0.375189 0.000000
0.083162 0.185000 0.157076
0.082887 0.182254 0.155917
0.081270 0.173373 0.151858
0.078859 0.159274 0.144900
0.074189 0.163729 0.135256
0.124941 0.220127 0.130770
0.299046 0.313268 0.107546
0.619501 0.431617 0.000000
0.020813 0.064698 0.070832
0.038514 0.064790 0.074220
0.072816 0.072663 0.074495
0.103243 0.081514 0.075898
0.150393 0.091798 0.073579
0.230991 0.111391 0.067445
0.368475 0.137514 0.025055
0.564202 0.158541 0.000000
0.023682 0.069215 0.069306
0.040192 0.073976 0.075624
0.072023 0.077913 0.076478
0.102846 0.084230 0.076326
0.149722 0.094850 0.073976
0.224765 0.113344 0.067842
0.351690 0.138888 0.031220
0.544213 0.162173 0.000000
0.040131 0.082612 0.081086
0.045197 0.084230 0.085756
0.069703 0.090120 0.080690
0.105348 0.094820 0.077180
0.153506 0.106386 0.074128
0.232547 0.127077 0.066682
0.373449 0.157717 0.017029
0.574640 0.184115 0.000000
0.052644 0.095491 0.093904
0.053162 0.095460 0.094667
0.055085 0.098146 0.092622
0.098817 0.112825 0.084565
0.165896 0.129030 0.073213
0.247196 0.151644 0.064363
0.389075 0.185519 0.000000
0.585443 0.215702 0.000000
0.061097 0.110597 0.106172
0.061463 0.109651 0.106020
0.061830 0.106996 0.105776
0.073732 0.120119 0.099916
0.141421 0.145663 0.086091
0.254856 0.183902 0.061921
0.420722 0.226993 0.000000
0.613672 0.260136 0.000000
0.067048 0.127291 0.118776
0.067475 0.126040 0.118685
0.067140 0.122438 0.117617
0.066011 0.127138 0.112886
0.105715 0.152529 0.107179
0.226017 0.207370 0.080995
0.439307 0.281102 0.000000
0.653773 0.316167 0.000000
0.074586 0.149905 0.134585
0.074037 0.147677 0.133577
0.073274 0.142245 0.131655
0.072358 0.133822 0.127779
0.081727 0.158999 0.121431
0.159976 0.202579 0.112459
0.356542 0.291081 0.024628
0.612543 0.364660 0.000000
0.084596 0.185885 0.158083
0.084382 0.183658 0.157198
0.083131 0.175357 0.153719
0.080446 0.161501 0.146822
0.076814 0.166354 0.139620
0.125185 0.222782 0.134371
0.294469 0.311131 0.112032
0.608545 0.426307 0.000000
0.031769 0.084840 0.094087
0.041627 0.085573 0.096040
0.064271 0.085176 0.098634
0.100710 0.084596 0.096376
0.150698 0.098024 0.096101
0.232059 0.113375 0.092836
0.375891 0.134218 0.075868
0.575097 0.147707 0.000000
0.037293 0.088319 0.094575
0.045991 0.089113 0.096284
0.064302 0.088899 0.099092
0.098665 0.090517 0.096773
0.147494 0.100771 0.096010
0.225711 0.115572 0.092012
0.364324 0.137301 0.076020
0.566186 0.153689 0.000000
0.043854 0.092012 0.091859
0.051423 0.093294 0.094362
0.066255 0.098848 0.100984
0.101442 0.102846 0.099184
0.154025 0.112520 0.096681
0.234287 0.129519 0.091066
0.374334 0.154421 0.072786
0.573541 0.175235 0.000000
0.056855 0.103914 0.097749
0.060334 0.105745 0.102174
0.066499 0.108095 0.110079
0.099092 0.121401 0.104921
0.165621 0.133944 0.095521
0.250614 0.154543 0.089174
0.398260 0.185519 0.064973
0.594018 0.210727 0.000000
0.064942 0.119905 0.111666
0.067445 0.121248 0.115267
0.071595 0.121584 0.119997
0.076417 0.128725 0.116121
0.144778 0.154574 0.106600
0.261387 0.187778 0.086061
0.420294 0.225528 0.042939
0.614893 0.256138 0.000000
0.072541 0.138399 0.126833
0.075105 0.139376 0.129427
0.076417 0.136538 0.130526
0.074891 0.131777 0.127382
0.104433 0.157626 0.121340
0.219821 0.207401 0.103426
0.431586 0.277195 0.020905
0.654017 0.314092 0.000000
0.083253 0.166110 0.146975
0.084840 0.165530 0.148226
0.083101 0.158053 0.144930
0.080568 0.146853 0.139437
0.083040 0.162203 0.132204
0.159091 0.207889 0.126772
0.365209 0.298863 0.076844
0.632410 0.372107 0.000000
0.095430 0.205844 0.172580
0.094301 0.201816 0.170596
0.092073 0.191440 0.165774
0.088930 0.176913 0.159030
0.083406 0.165347 0.148257
0.121248 0.223911 0.144900
0.295293 0.318212 0.128267
0.615717 0.431739 0.000000
0.036835 0.104921 0.119600
0.047852 0.105898 0.121798
0.061677 0.102510 0.124392
0.087221 0.103578 0.127840
0.141176 0.101106 0.132815
0.216281 0.100252 0.119966
0.342168 0.120363 0.115541
0.543420 0.122042 0.090181
0.044678 0.109194 0.121584
0.051575 0.109804 0.123018
0.063569 0.106538 0.125765
0.088411 0.107301 0.129549
0.142855 0.103090 0.131075
0.212741 0.110475 0.121187
0.338689 0.125429 0.114809
0.541375 0.129030 0.088685
0.047242 0.115084 0.120943
0.054810 0.115633 0.122194
0.069215 0.117494 0.126772
0.089784 0.117342 0.131685
0.145754 0.116060 0.127077
0.225711 0.130404 0.124971
0.375250 0.147280 0.117098
0.573175 0.155184 0.084291
0.058747 0.119173 0.115785
0.062470 0.120089 0.117464
0.073701 0.125154 0.124453
0.094667 0.134463 0.135286
0.152224 0.138766 0.128267
0.234165 0.152621 0.123903
0.380133 0.175967 0.112642
0.586542 0.195224 0.076295
0.070008 0.137575 0.119173
0.072572 0.138186 0.122377
0.081544 0.141512 0.133852
0.090517 0.142916 0.144564
0.145724 0.167727 0.139223
0.263310 0.191470 0.122103
0.418006 0.222629 0.106691
0.614160 0.246891 0.059937
0.078065 0.157931 0.136110
0.082094 0.161288 0.140841
0.090242 0.162722 0.150057
0.095399 0.158389 0.154635
0.107210 0.172488 0.148592
0.225895 0.220554 0.138643
0.444312 0.280919 0.101442
0.652155 0.309331 0.005249
0.088655 0.186923 0.156649
0.091646 0.187625 0.159487
0.099702 0.188998 0.167605
0.101076 0.178897 0.166964
0.094667 0.170443 0.156466
0.159670 0.221775 0.153292
0.372107 0.308537 0.123049
0.642664 0.374273 0.000000
0.105165 0.238285 0.188479
0.107729 0.237705 0.190188
0.113802 0.233036 0.194034
0.108858 0.212222 0.185672
0.097383 0.180240 0.166873
0.114168 0.223667 0.161410
0.289555 0.326207 0.155764
0.620844 0.438178 0.005524
0.034089 0.135805 0.158968
0.047517 0.136477 0.160830
0.068177 0.135836 0.164523
0.087343 0.126894 0.165957
0.124727 0.127993 0.170657
0.199039 0.124086 0.183841
0.337774 0.052308 0.170413
0.527337 0.013001 0.157229
0.042237 0.139345 0.159945
0.052613 0.140536 0.162295
0.071199 0.141207 0.167330
0.088136 0.130465 0.166934
0.124941 0.130861 0.170748
0.201297 0.126070 0.183200
0.338994 0.062226 0.165743
0.526848 0.081209 0.158022
0.050660 0.148409 0.162020
0.059632 0.149325 0.163943
0.075685 0.149477 0.167239
0.090761 0.141238 0.168704
0.125368 0.139773 0.171084
0.203494 0.131838 0.176303
0.333349 0.112001 0.160250
0.525383 0.127352 0.154726
0.051972 0.157748 0.160891
0.059846 0.157748 0.161685
0.076692 0.159335 0.165591
0.100526 0.161746 0.173007
0.130465 0.158724 0.176608
0.214023 0.153384 0.167697
0.348058 0.165774 0.163821
0.554986 0.166598 0.146700
0.068635 0.157900 0.147890
0.072847 0.158785 0.149599
0.084718 0.161532 0.154665
0.105501 0.170535 0.166812
0.136294 0.181491 0.178164
0.231754 0.188449 0.167117
0.379126 0.207156 0.159152
0.587396 0.223697 0.139406
0.083436 0.179568 0.144228
0.086824 0.180850 0.146365
0.095552 0.182406 0.155581
0.110536 0.185977 0.172763
0.117067 0.178744 0.178836
0.214908 0.227481 0.179110
0.438697 0.274846 0.157321
0.637110 0.297276 0.137270
0.097322 0.218143 0.168032
0.099916 0.217807 0.170382
0.108522 0.217929 0.179080
0.123262 0.218448 0.193240
0.123842 0.201419 0.191775
0.147433 0.227481 0.183963
0.361273 0.312108 0.172854
0.642878 0.369818 0.129152
0.115297 0.275975 0.201419
0.117433 0.274632 0.203098
0.125429 0.270573 0.208774
0.140352 0.268894 0.220798
0.130587 0.233280 0.207492
0.113588 0.212802 0.183688
0.260105 0.322911 0.188510
0.610437 0.439460 0.139467
0.013581 0.197879 0.232639
0.035492 0.198611 0.234562
0.076783 0.194949 0.235264
0.097627 0.178470 0.233310
0.133516 0.159701 0.224491
0.186343 0.160311 0.229740
0.309270 0.158816 0.261814
0.534936 0.000000 0.272435
0.026459 0.193759 0.224857
0.045869 0.193515 0.225742
0.078126 0.192874 0.229282
0.099428 0.179599 0.228305
0.131167 0.160800 0.221134
0.183810 0.161837 0.227268
0.307439 0.159792 0.259342
0.532830 0.000000 0.267704
0.044648 0.206699 0.229282
0.059327 0.205509 0.229068
0.084169 0.204135 0.231510
0.112215 0.197879 0.233616
0.134890 0.173892 0.225589
0.187533 0.173312 0.230350
0.318120 0.167086 0.258885
0.540276 0.000000 0.256168
0.049195 0.217624 0.227085
0.061707 0.216403 0.226688
0.086824 0.216892 0.230106
0.123201 0.221805 0.241032
0.146792 0.202945 0.239414
0.201755 0.198154 0.241306
0.348211 0.181125 0.258030
0.558160 0.061952 0.231144
0.057710 0.222538 0.216678
0.064973 0.223545 0.218265
0.085603 0.226932 0.223392
0.116915 0.230106 0.230808
0.155764 0.230533 0.239597
0.203281 0.219913 0.240696
0.353613 0.202121 0.229923
0.560357 0.211856 0.226078
0.081453 0.217258 0.194430
0.086458 0.219699 0.197177
0.101289 0.222446 0.201755
0.124697 0.226902 0.209659
0.156771 0.238712 0.224613
0.213870 0.257359 0.242252
0.403662 0.273655 0.232547
0.617029 0.285313 0.222965
0.108705 0.267826 0.199069
0.113893 0.270939 0.201602
0.128481 0.275425 0.206851
0.150820 0.280491 0.219944
0.174655 0.277928 0.241062
0.171572 0.245975 0.237034
0.366583 0.336645 0.242557
0.661463 0.377386 0.227512
0.139223 0.345495 0.222965
0.142214 0.344152 0.225132
0.152560 0.340703 0.233097
0.170901 0.337774 0.247440
0.189517 0.324163 0.260807
0.169650 0.269047 0.242435
0.221195 0.319982 0.231083
0.605676 0.452186 0.227909
0.031006 0.281254 0.314153
0.064637 0.283970 0.317510
0.108583 0.283726 0.321386
0.146242 0.271977 0.321263
0.162905 0.232242 0.313207
0.214206 0.202029 0.297185
0.292668 0.203677 0.305730
0.476448 0.223117 0.349767
0.034028 0.276097 0.307164
0.063264 0.278355 0.310155
0.104219 0.278508 0.314305
0.141115 0.267491 0.313909
0.156466 0.229313 0.306371
0.205356 0.199741 0.289891
0.279820 0.200870 0.297917
0.461006 0.216770 0.342535
0.059632 0.291661 0.311986
0.072999 0.291386 0.312688
0.109102 0.289738 0.315068
0.152651 0.284154 0.318181
0.163882 0.245121 0.309880
0.209781 0.213443 0.294194
0.290227 0.214939 0.303655
0.483803 0.229129 0.347997
0.065095 0.310948 0.314366
0.076631 0.308690 0.313512
0.109987 0.306096 0.314855
0.159762 0.306493 0.321477
0.197971 0.287755 0.319585
0.222965 0.242527 0.306065
0.308232 0.240665 0.313146
0.510765 0.243351 0.350164
0.054200 0.318639 0.304326
0.068208 0.316777 0.303746
0.100740 0.314397 0.304662
0.144350 0.314977 0.310491
0.200473 0.313573 0.318730
0.225406 0.273747 0.310246
0.309239 0.264103 0.312383
0.534905 0.254276 0.341955
0.069795 0.325780 0.291936
0.078950 0.326818 0.293217
0.105501 0.329656 0.297154
0.143923 0.336889 0.306065
0.194430 0.341466 0.315923
0.266758 0.342199 0.328344
0.339330 0.317266 0.326024
0.570642 0.279881 0.317418
0.106355 0.327642 0.269810
0.113222 0.329808 0.271824
0.132509 0.332616 0.275700
0.163821 0.337835 0.282811
0.204196 0.340856 0.291020
0.264134 0.355718 0.308537
0.360266 0.376867 0.327123
0.623133 0.390112 0.320958
0.153414 0.398169 0.271580
0.158785 0.399664 0.272923
0.183780 0.412329 0.281437
0.218662 0.423041 0.290043
0.265965 0.432074 0.302708
0.299229 0.418311 0.323857
0.253117 0.333837 0.300237
0.597345 0.482338 0.323644
0.177737 0.414954 0.408789
0.191562 0.416693 0.410651
0.225040 0.414405 0.412055
0.269993 0.408850 0.414343
0.294255 0.379706 0.410559
0.311376 0.326390 0.401373
0.375158 0.282322 0.389593
0.494057 0.290837 0.401862
0.171298 0.411627 0.404761
0.184817 0.413367 0.406714
0.219608 0.412390 0.408942
0.265171 0.406897 0.411170
0.292973 0.380468 0.407691
0.306889 0.326360 0.398932
0.369329 0.281590 0.386816
0.489784 0.290867 0.399878
0.166537 0.416785 0.401831
0.178378 0.417426 0.403021
0.209751 0.414191 0.403876
0.275334 0.421118 0.413306
0.306554 0.397772 0.409308
0.309606 0.339361 0.399908
0.369970 0.291997 0.387274
0.491676 0.301396 0.400244
0.156039 0.431159 0.400610
0.169375 0.432654 0.402350
0.204227 0.431037 0.404089
0.265263 0.433387 0.410712
0.325414 0.426642 0.415015
0.327153 0.371771 0.407752
0.380407 0.316960 0.393133
0.500725 0.322850 0.403357
0.148562 0.449012 0.396429
0.160311 0.450843 0.398291
0.188815 0.449104 0.400275
0.236698 0.448676 0.405890
0.318151 0.449256 0.414191
0.370672 0.426398 0.414374
0.397101 0.360510 0.403235
0.510552 0.352148 0.406378
0.146517 0.475624 0.393835
0.153445 0.474037 0.393591
0.179355 0.471351 0.394476
0.224765 0.470893 0.398932
0.291722 0.473182 0.408637
0.402441 0.483528 0.426917
0.433326 0.430457 0.420783
0.533013 0.400641 0.414405
0.175204 0.498634 0.386358
0.181552 0.498695 0.386969
0.204288 0.500359 0.389776
0.247807 0.507591 0.397498
0.312322 0.519677 0.410834
0.388952 0.521874 0.422705
0.488350 0.513848 0.434394
0.548882 0.458167 0.419165
0.209934 0.506249 0.364202
0.214603 0.505821 0.364508
0.233524 0.506554 0.366552
0.270787 0.511101 0.372290
0.322210 0.515618 0.380224
0.387243 0.518975 0.390753
0.471748 0.525811 0.407233
0.575860 0.536370 0.425757
