data/fiter_cube/63078869/1022678/file.cube
# Created by Adobe Lightroom plugin Export LUT (1.17.0)
# www.johnrellis.com/lightroom/exportlut.htm
# Preset: 暗调胶片街拍_07 云集
# Color profile: C:\Program Files (x86)\Common Files\Adobe\Color\Profiles\Recommended\AdobeRGB1998.icc
LUT_3D_SIZE 32
DOMAIN_MIN 0.0 0.0 0.0
DOMAIN_MAX 1.0 1.0 1.0
0.016815 0.046937 0.050721
0.022095 0.047181 0.050599
0.025238 0.049378 0.051972
0.037751 0.052216 0.052308
0.053529 0.054383 0.052583
0.062501 0.057618 0.052827
0.068086 0.059907 0.053864
0.074037 0.061555 0.054902
0.080201 0.063966 0.055756
0.086885 0.065980 0.056580
0.094575 0.068391 0.057221
0.103334 0.071107 0.057618
0.112795 0.073579 0.057862
0.123140 0.077302 0.058473
0.134920 0.080507 0.058045
0.147524 0.084504 0.057954
0.161685 0.088594 0.056550
0.180209 0.094148 0.055360
0.205203 0.101137 0.051972
0.233066 0.108705 0.047578
0.264469 0.116396 0.039124
0.299443 0.124514 0.026764
0.336370 0.131899 0.010254
0.375372 0.138796 0.000000
0.416236 0.145266 0.000000
0.459541 0.150942 0.000000
0.506157 0.156283 0.000000
0.554986 0.160372 0.000000
0.604211 0.163882 0.000000
0.650446 0.166384 0.000000
0.691127 0.168276 0.000000
0.725460 0.169436 0.000000
0.017426 0.048585 0.052186
0.021149 0.049897 0.052003
0.026246 0.051026 0.051820
0.038941 0.052949 0.052216
0.053285 0.056184 0.052461
0.062257 0.059052 0.053498
0.067872 0.060883 0.054566
0.073426 0.062593 0.055604
0.079744 0.064546 0.055726
0.086427 0.066499 0.057343
0.093874 0.068544 0.058045
0.102388 0.071321 0.058473
0.111727 0.073884 0.057923
0.121981 0.077272 0.058595
0.133394 0.080598 0.058839
0.145663 0.084443 0.058228
0.159487 0.088716 0.056855
0.177737 0.093629 0.055116
0.200961 0.100160 0.052277
0.227115 0.107546 0.048554
0.257084 0.115175 0.040192
0.290318 0.122805 0.030335
0.326085 0.130190 0.015076
0.364324 0.137362 0.000000
0.404730 0.144076 0.000000
0.447913 0.150027 0.000000
0.494789 0.155520 0.000000
0.544396 0.160220 0.000000
0.594781 0.163760 0.000000
0.642786 0.166629 0.000000
0.685237 0.168460 0.000000
0.720851 0.169558 0.000000
0.018830 0.051850 0.054353
0.018830 0.051850 0.054353
0.025757 0.053742 0.051606
0.038239 0.055665 0.052827
0.052735 0.058778 0.053071
0.061982 0.060487 0.054108
0.067811 0.061341 0.054475
0.073304 0.063081 0.056336
0.079225 0.065095 0.056458
0.086061 0.066590 0.057374
0.093202 0.069123 0.058015
0.101747 0.071839 0.058412
0.110872 0.074098 0.058686
0.121248 0.077485 0.058625
0.132326 0.080934 0.058869
0.144686 0.084749 0.058289
0.158267 0.088838 0.057038
0.176333 0.094118 0.056062
0.198856 0.100435 0.052644
0.224186 0.107485 0.049226
0.253239 0.114839 0.041718
0.285801 0.122408 0.032410
0.321141 0.129915 0.017548
0.358923 0.137148 0.000000
0.399023 0.143709 0.000000
0.442145 0.149966 0.000000
0.488930 0.155459 0.000000
0.538842 0.160403 0.000000
0.590082 0.164340 0.000000
0.638819 0.167178 0.000000
0.682063 0.169009 0.000000
0.718379 0.170474 0.000000
0.019257 0.056947 0.058717
0.020020 0.057679 0.059541
0.021485 0.058991 0.058564
0.036469 0.060914 0.053895
0.052857 0.061585 0.053437
0.061646 0.062440 0.054627
0.067445 0.063752 0.054932
0.073030 0.065431 0.056001
0.079011 0.066377 0.057069
0.085817 0.068299 0.057893
0.093019 0.070436 0.058625
0.101045 0.072786 0.058900
0.110140 0.075807 0.059449
0.120150 0.078492 0.059449
0.131350 0.081849 0.059266
0.143404 0.085451 0.059327
0.156985 0.089540 0.058656
0.174899 0.094881 0.056092
0.196048 0.100923 0.053864
0.219730 0.107301 0.050294
0.247196 0.114443 0.045075
0.278355 0.122011 0.034485
0.313115 0.129519 0.020386
0.351415 0.136843 0.003235
0.393103 0.144259 0.000000
0.438178 0.150881 0.000000
0.486854 0.156802 0.000000
0.537957 0.161929 0.000000
0.589776 0.166140 0.000000
0.638270 0.168765 0.000000
0.680995 0.170748 0.000000
0.716884 0.172366 0.000000
0.021271 0.061677 0.062257
0.022614 0.061616 0.062257
0.022400 0.061616 0.062715
0.026398 0.064698 0.060243
0.048798 0.066835 0.055970
0.060945 0.066560 0.054810
0.066926 0.066468 0.056153
0.072175 0.067659 0.057282
0.078614 0.068544 0.058350
0.084840 0.070619 0.058381
0.092042 0.072541 0.059327
0.100160 0.074891 0.059602
0.109133 0.077455 0.059754
0.119203 0.080507 0.059724
0.130312 0.083467 0.059571
0.142489 0.086946 0.059632
0.155947 0.091005 0.058961
0.174746 0.096620 0.057313
0.195254 0.102480 0.054383
0.218326 0.109041 0.050904
0.244907 0.115602 0.045380
0.275120 0.123201 0.036286
0.309545 0.130800 0.021363
0.347265 0.138552 0.005554
0.388861 0.145724 0.000000
0.434241 0.152529 0.000000
0.483070 0.158877 0.000000
0.534386 0.164218 0.000000
0.586175 0.168399 0.000000
0.635126 0.171572 0.000000
0.678401 0.173648 0.000000
0.714809 0.174929 0.000000
0.024445 0.065919 0.065705
0.024445 0.065919 0.065705
0.024414 0.065492 0.066102
0.024384 0.067231 0.064790
0.035981 0.070405 0.062654
0.058473 0.071778 0.058778
0.066041 0.071138 0.057832
0.072023 0.070985 0.058350
0.078035 0.072236 0.059022
0.084321 0.073365 0.059541
0.091615 0.075288 0.059937
0.099794 0.077150 0.060670
0.108766 0.080018 0.060792
0.118929 0.082551 0.060822
0.129854 0.085847 0.060182
0.142214 0.089479 0.060212
0.156588 0.093721 0.059419
0.175265 0.099123 0.058167
0.195712 0.105104 0.055177
0.218967 0.111360 0.051667
0.245792 0.118746 0.045838
0.276799 0.126131 0.035340
0.374853 0.147951 0.000000
0.417609 0.155154 0.000000
0.461341 0.160983 0.000000
0.506126 0.166262 0.000000
0.551446 0.170748 0.000000
0.596277 0.174319 0.000000
0.638453 0.176974 0.000000
0.676722 0.178897 0.000000
0.709499 0.180179 0.000000
0.737606 0.180819 0.000000
0.027863 0.071015 0.069886
0.027649 0.070985 0.070283
0.027802 0.070619 0.070314
0.028748 0.070527 0.071046
0.030274 0.073610 0.068086
0.048402 0.076478 0.065309
0.063966 0.076997 0.061128
0.072145 0.076967 0.060029
0.079591 0.076844 0.060212
0.086336 0.078096 0.061128
0.094179 0.079744 0.061067
0.102663 0.082033 0.061280
0.112154 0.084535 0.061402
0.122438 0.087098 0.061372
0.133822 0.090272 0.061128
0.145968 0.093935 0.061097
0.162905 0.098695 0.059968
0.182650 0.104707 0.058564
0.204807 0.111086 0.054810
0.230869 0.118379 0.050752
0.262852 0.126833 0.042481
0.301213 0.135958 0.028901
0.345617 0.145571 0.007935
0.394018 0.154665 0.000000
0.444373 0.162722 0.000000
0.493690 0.169162 0.000000
0.541833 0.174319 0.000000
0.588190 0.178134 0.000000
0.631952 0.181308 0.000000
0.671015 0.183322 0.000000
0.704829 0.184756 0.000000
0.733639 0.185580 0.000000
0.030457 0.074952 0.073487
0.030243 0.074952 0.073854
0.031403 0.074891 0.074220
0.031189 0.074891 0.074556
0.031525 0.076020 0.073060
0.036927 0.078676 0.070649
0.055543 0.080507 0.068330
0.068391 0.081575 0.063966
0.077272 0.082002 0.062348
0.085267 0.082399 0.062013
0.093538 0.083528 0.062409
0.102052 0.085725 0.062623
0.111360 0.088106 0.062715
0.122011 0.090517 0.062257
0.133181 0.093904 0.061982
0.145998 0.097536 0.061463
0.163394 0.102480 0.060243
0.182223 0.108003 0.058991
0.203281 0.114321 0.056550
0.228550 0.121309 0.051911
0.259251 0.129793 0.044526
0.296239 0.138766 0.030640
0.339178 0.148501 0.010620
0.386358 0.157687 0.000000
0.435859 0.166110 0.000000
0.484993 0.172824 0.000000
0.533288 0.178470 0.000000
0.580529 0.182895 0.000000
0.625483 0.186221 0.000000
0.665797 0.188693 0.000000
0.700679 0.190311 0.000000
0.730373 0.191043 0.000000
0.033814 0.078981 0.077577
0.033814 0.078981 0.077577
0.033814 0.078981 0.077577
0.034913 0.078523 0.078248
0.036072 0.078462 0.078584
0.035279 0.081056 0.075746
0.045869 0.083253 0.073701
0.061250 0.084230 0.071626
0.073304 0.086366 0.066529
0.083375 0.087770 0.064454
0.092348 0.088472 0.064027
0.102358 0.089662 0.063416
0.111574 0.091920 0.063966
0.122103 0.094820 0.063844
0.133333 0.097749 0.063172
0.148104 0.102266 0.062348
0.164706 0.107088 0.061585
0.183108 0.112428 0.059907
0.203708 0.118349 0.056764
0.228458 0.125429 0.052918
0.258671 0.133974 0.044800
0.294987 0.142916 0.031067
0.336858 0.152895 0.011353
0.383154 0.162356 0.000000
0.431800 0.170748 0.000000
0.480568 0.177981 0.000000
0.528985 0.183871 0.000000
0.576349 0.188724 0.000000
0.621576 0.192233 0.000000
0.662348 0.194827 0.000000
0.697627 0.196475 0.000000
0.727657 0.197391 0.000000
0.037568 0.082399 0.081117
0.038911 0.082338 0.081117
0.039094 0.082002 0.081147
0.038880 0.082002 0.081453
0.040192 0.081605 0.081788
0.038758 0.082704 0.081086
0.041810 0.084932 0.078645
0.053864 0.087495 0.076631
0.065736 0.088350 0.075013
0.078523 0.091371 0.069306
0.089876 0.093538 0.066712
0.099886 0.094697 0.066194
0.111421 0.096468 0.065064
0.122225 0.099153 0.064546
0.135195 0.103059 0.063996
0.150637 0.107576 0.063081
0.167544 0.112642 0.061738
0.186007 0.118013 0.060395
0.206943 0.124239 0.058137
0.231601 0.131411 0.053223
0.260929 0.139315 0.045472
0.295384 0.148318 0.031067
0.334478 0.157443 0.012970
0.377935 0.166720 0.000000
0.424323 0.175204 0.000000
0.472236 0.182742 0.000000
0.521080 0.189120 0.000000
0.570123 0.194583 0.000000
0.617212 0.198764 0.000000
0.659632 0.201846 0.000000
0.696223 0.203616 0.000000
0.727077 0.204593 0.000000
0.040711 0.085145 0.083955
0.041871 0.085084 0.084260
0.041871 0.085084 0.084260
0.041627 0.085084 0.084565
0.043153 0.084688 0.084565
0.042939 0.084688 0.084871
0.042329 0.086671 0.082277
0.048798 0.089479 0.081056
0.060700 0.091737 0.079408
0.070741 0.092744 0.077790
0.084688 0.096956 0.071778
0.097230 0.099977 0.068727
0.108553 0.101991 0.067597
0.122591 0.104707 0.065736
0.137575 0.108675 0.064698
0.152346 0.113252 0.063752
0.169039 0.118227 0.062379
0.187320 0.123537 0.060548
0.207706 0.129549 0.058991
0.232151 0.136629 0.053529
0.261173 0.144930 0.045502
0.295232 0.153841 0.031098
0.334264 0.163363 0.012512
0.377356 0.172702 0.000000
0.423407 0.181430 0.000000
0.470649 0.189059 0.000000
0.518853 0.195865 0.000000
0.567254 0.201389 0.000000
0.614130 0.206119 0.000000
0.656764 0.209323 0.000000
0.693782 0.211398 0.000000
0.724971 0.212253 0.000000
0.044495 0.088594 0.086854
0.044495 0.088594 0.086854
0.044465 0.088289 0.087160
0.044465 0.088289 0.087160
0.045777 0.087892 0.087465
0.045716 0.087587 0.087800
0.045686 0.088869 0.086824
0.046998 0.091249 0.084871
0.055451 0.094026 0.083314
0.066133 0.096803 0.081361
0.076387 0.098116 0.080049
0.091432 0.103334 0.074342
0.113863 0.112886 0.071168
0.131014 0.118074 0.069123
0.151186 0.123354 0.066194
0.173129 0.129274 0.063386
0.193027 0.135378 0.061097
0.214389 0.141573 0.058717
0.238193 0.148257 0.053681
0.265812 0.155886 0.044862
0.297459 0.164248 0.031098
0.333410 0.172885 0.011902
0.372656 0.181643 0.000000
0.415015 0.189853 0.000000
0.459571 0.197391 0.000000
0.505058 0.204227 0.000000
0.550225 0.209995 0.000000
0.594385 0.214511 0.000000
0.635615 0.217960 0.000000
0.672969 0.220401 0.000000
0.705287 0.221744 0.000000
0.733333 0.222416 0.000000
0.047944 0.092775 0.090700
0.048219 0.092470 0.090425
0.048219 0.092470 0.090425
0.048188 0.092164 0.090730
0.048310 0.091859 0.090761
0.048554 0.091249 0.090791
0.049561 0.090883 0.091096
0.047669 0.093690 0.088685
0.052064 0.096590 0.087221
0.061677 0.099519 0.085695
0.072328 0.102907 0.083955
0.085389 0.105928 0.082704
0.104921 0.114382 0.076905
0.125673 0.122560 0.072389
0.145022 0.128725 0.069978
0.167300 0.134890 0.066102
0.192477 0.141390 0.062043
0.214145 0.147738 0.059083
0.237522 0.154543 0.053468
0.264317 0.161807 0.044923
0.295079 0.170016 0.031495
0.330022 0.178744 0.012604
0.368322 0.187472 0.000000
0.409857 0.196048 0.000000
0.453529 0.203952 0.000000
0.498512 0.211093 0.000000
0.543694 0.217136 0.000000
0.588220 0.222110 0.000000
0.630274 0.225925 0.000000
0.668727 0.228794 0.000000
0.702052 0.230381 0.000000
0.730922 0.231174 0.000000
0.050782 0.095888 0.093355
0.050904 0.095613 0.093385
0.050904 0.095613 0.093385
0.051057 0.095338 0.093416
0.051179 0.095033 0.093446
0.051423 0.094453 0.093477
0.051514 0.093874 0.093782
0.050477 0.095094 0.092927
0.050507 0.097932 0.090486
0.058564 0.101015 0.089326
0.067536 0.105287 0.087892
0.079652 0.109865 0.086580
0.094575 0.114076 0.084535
0.116548 0.123934 0.078096
0.139193 0.132815 0.072511
0.160098 0.139559 0.069642
0.183719 0.146242 0.065248
0.210391 0.153323 0.060365
0.236973 0.160647 0.053162
0.263279 0.168154 0.045441
0.293858 0.176394 0.030762
0.328344 0.185367 0.011749
0.366400 0.194461 0.000000
0.407599 0.203128 0.000000
0.451148 0.211429 0.000000
0.496040 0.218967 0.000000
0.541253 0.225467 0.000000
0.585931 0.230808 0.000000
0.628351 0.234928 0.000000
0.667170 0.238010 0.000000
0.700923 0.239689 0.000000
0.730129 0.240452 0.000000
0.052461 0.098970 0.096193
0.052461 0.098970 0.096193
0.052461 0.098970 0.096193
0.052583 0.098695 0.096223
0.052857 0.098421 0.095979
0.053132 0.097871 0.096040
0.053193 0.097322 0.096345
0.053468 0.096773 0.096376
0.052186 0.099855 0.094331
0.056214 0.103334 0.092927
0.063874 0.107485 0.091890
0.074037 0.112215 0.090669
0.087556 0.116609 0.089052
0.104677 0.122377 0.086152
0.128603 0.133516 0.079072
0.153079 0.143404 0.072663
0.175784 0.150637 0.068482
0.200839 0.158114 0.063691
0.230411 0.166384 0.057618
0.263615 0.175235 0.042542
0.293675 0.183627 0.027710
0.327642 0.192721 0.009583
0.364996 0.201816 0.000000
0.405951 0.210910 0.000000
0.449317 0.219425 0.000000
0.494911 0.227512 0.000000
0.541588 0.234714 0.000000
0.588098 0.240787 0.000000
0.632013 0.245579 0.000000
0.671656 0.248875 0.000000
0.705592 0.250736 0.000000
0.734707 0.251469 0.000000
0.054780 0.102693 0.098878
0.055634 0.102632 0.099123
0.054780 0.102693 0.098878
0.055024 0.102174 0.098909
0.055146 0.101900 0.098939
0.056123 0.101595 0.099214
0.056214 0.101045 0.099489
0.057191 0.100740 0.099763
0.056641 0.102602 0.099123
0.055482 0.105989 0.096590
0.061280 0.109987 0.095888
0.069276 0.114595 0.094514
0.081392 0.119570 0.092683
0.095918 0.123598 0.091035
0.114656 0.130709 0.087312
0.140047 0.142611 0.079316
0.166476 0.153323 0.071992
0.190921 0.161837 0.067414
0.219547 0.170840 0.061677
0.253910 0.181003 0.049622
0.295048 0.192264 0.024750
0.331731 0.202213 0.003021
0.370031 0.211856 0.000000
0.411688 0.221347 0.000000
0.455879 0.230411 0.000000
0.502037 0.238926 0.000000
0.548913 0.246098 0.000000
0.595056 0.252445 0.000000
0.637934 0.257145 0.000000
0.675990 0.260197 0.000000
0.708400 0.261723 0.000000
0.736355 0.262333 0.000000
0.058412 0.106661 0.102144
0.058412 0.106661 0.102144
0.058228 0.106661 0.102358
0.058350 0.106416 0.102388
0.058320 0.106142 0.102663
0.058564 0.105653 0.102693
0.059266 0.105104 0.102724
0.059419 0.104585 0.102754
0.059541 0.104067 0.102815
0.058656 0.107668 0.100862
0.060182 0.111818 0.098970
0.065919 0.116365 0.097719
0.075654 0.121309 0.096529
0.088991 0.126741 0.094575
0.104219 0.130434 0.093233
0.124971 0.139162 0.088350
0.152102 0.152041 0.079622
0.181094 0.164279 0.070771
0.208652 0.173953 0.065461
0.240879 0.184573 0.056672
0.279850 0.196597 0.036164
0.325536 0.209201 0.005402
0.370275 0.220371 0.000000
0.411994 0.230198 0.000000
0.456306 0.239719 0.000000
0.503014 0.248692 0.000000
0.550469 0.256626 0.000000
0.597070 0.263157 0.000000
0.640223 0.268315 0.000000
0.678157 0.271427 0.000000
0.710506 0.273106 0.000000
0.738399 0.273442 0.000000
0.059968 0.111177 0.105898
0.059968 0.111177 0.105898
0.061433 0.113954 0.108095
0.061555 0.113497 0.108156
0.061250 0.113069 0.107973
0.061372 0.112612 0.108003
0.061555 0.111879 0.108064
0.061921 0.110933 0.107912
0.061738 0.110048 0.107759
0.061524 0.111696 0.106966
0.060731 0.115938 0.104097
0.064759 0.120821 0.103090
0.072847 0.125917 0.101717
0.084779 0.131868 0.099886
0.100374 0.138033 0.097536
0.117311 0.141817 0.095796
0.141970 0.153170 0.089479
0.173342 0.168246 0.079377
0.207645 0.182803 0.067933
0.240146 0.194644 0.059724
0.278447 0.207248 0.039643
0.323705 0.220737 0.007660
0.375219 0.233982 0.000000
0.428351 0.245701 0.000000
0.470680 0.254246 0.000000
0.514153 0.262181 0.000000
0.558190 0.269078 0.000000
0.601862 0.275181 0.000000
0.643091 0.279759 0.000000
0.680262 0.283024 0.000000
0.712123 0.284428 0.000000
0.739559 0.284703 0.000000
0.061952 0.116518 0.110079
0.062287 0.116915 0.110262
0.062593 0.117098 0.110658
0.062898 0.117281 0.111055
0.062959 0.117067 0.111086
0.063081 0.116609 0.111116
0.062837 0.115969 0.110964
0.062776 0.114870 0.110628
0.063203 0.113741 0.110506
0.063081 0.112856 0.110170
0.062409 0.116976 0.108492
0.062837 0.121920 0.105776
0.068910 0.126955 0.104738
0.078401 0.132387 0.103304
0.091676 0.138491 0.101381
0.108705 0.145205 0.098634
0.126375 0.148501 0.097108
0.153292 0.162112 0.089693
0.187686 0.178836 0.078065
0.225101 0.195163 0.064942
0.261906 0.208774 0.050904
0.305669 0.223514 0.020935
0.355810 0.238499 0.000000
0.411902 0.252598 0.000000
0.470954 0.264836 0.000000
0.517510 0.273503 0.000000
0.562036 0.280858 0.000000
0.605615 0.287175 0.000000
0.646479 0.291844 0.000000
0.682979 0.294926 0.000000
0.714199 0.296208 0.000000
0.741329 0.296544 0.000000
0.063996 0.120760 0.113313
0.063844 0.120974 0.113497
0.063996 0.121584 0.113832
0.064454 0.121553 0.114046
0.064454 0.121340 0.114290
0.064637 0.120668 0.114321
0.064546 0.119844 0.113985
0.064485 0.118807 0.113680
0.064424 0.117525 0.113558
0.064546 0.116213 0.113069
0.064271 0.118013 0.112276
0.063203 0.122591 0.109712
0.066255 0.127687 0.107637
0.073487 0.133272 0.106508
0.084840 0.139254 0.104707
0.099580 0.145937 0.102632
0.117861 0.153079 0.099519
0.136751 0.156252 0.098390
0.167117 0.172732 0.089357
0.205112 0.191501 0.076387
0.247532 0.210208 0.059510
0.289189 0.225772 0.034485
0.338293 0.242313 0.000000
0.393408 0.258274 0.000000
0.452369 0.272618 0.000000
0.513603 0.284581 0.000000
0.565820 0.292882 0.000000
0.608728 0.299199 0.000000
0.648920 0.303899 0.000000
0.684657 0.306798 0.000000
0.715389 0.308080 0.000000
0.742336 0.308232 0.000000
0.065370 0.125093 0.116396
0.065583 0.125460 0.116762
0.065309 0.125856 0.117128
0.065705 0.125826 0.117342
0.065766 0.125612 0.117342
0.065949 0.125002 0.117403
0.065919 0.123995 0.117098
0.065919 0.122774 0.116793
0.066041 0.121553 0.116304
0.065766 0.119905 0.115816
0.065797 0.118868 0.115297
0.064942 0.123354 0.113893
0.065034 0.128481 0.110445
0.070161 0.134005 0.109377
0.079164 0.140017 0.108125
0.091951 0.146944 0.106386
0.108614 0.154513 0.103883
0.128237 0.161990 0.101289
0.151492 0.168429 0.099458
0.187686 0.188357 0.088808
0.232853 0.211185 0.072572
0.284550 0.234043 0.041230
0.334752 0.252506 0.000000
0.392523 0.271214 0.000000
0.454749 0.288212 0.000000
0.518608 0.302403 0.000000
0.580529 0.312779 0.000000
0.633173 0.318761 0.000000
0.669642 0.322087 0.000000
0.701228 0.323644 0.000000
0.728511 0.323857 0.000000
0.753719 0.323552 0.000000
0.067384 0.131807 0.121309
0.067750 0.131960 0.121462
0.067659 0.131960 0.121675
0.067872 0.131563 0.121523
0.067475 0.131228 0.121553
0.067933 0.130251 0.121248
0.067903 0.129274 0.120943
0.067445 0.128145 0.120638
0.067659 0.126589 0.120211
0.067475 0.125032 0.119570
0.067781 0.123384 0.118929
0.067048 0.125093 0.118166
0.066255 0.130343 0.115694
0.068482 0.136233 0.113222
0.075502 0.142641 0.112245
0.086366 0.149660 0.110597
0.101320 0.157473 0.108675
0.120668 0.166293 0.105837
0.142794 0.174502 0.103182
0.170291 0.183658 0.100008
0.212161 0.206638 0.087373
0.263615 0.231907 0.066590
0.320562 0.256229 0.010437
0.373449 0.274571 0.000000
0.434607 0.293278 0.000000
0.498939 0.309941 0.000000
0.563317 0.323125 0.000000
0.622187 0.331914 0.000000
0.671656 0.335454 0.000000
0.703853 0.336584 0.000000
0.730465 0.336584 0.000000
0.755398 0.336309 0.000000
0.069337 0.136904 0.124971
0.069184 0.137087 0.125154
0.069612 0.137057 0.125338
0.069306 0.136721 0.125185
0.069551 0.136172 0.125063
0.069520 0.135256 0.124758
0.069154 0.134188 0.124300
0.069368 0.132692 0.123873
0.069184 0.131228 0.123232
0.069032 0.129519 0.122621
0.069032 0.127596 0.121859
0.068574 0.125887 0.120821
0.067750 0.131044 0.119814
0.067079 0.136965 0.116274
0.072114 0.143313 0.115114
0.081147 0.150484 0.113985
0.094026 0.158511 0.112581
0.111635 0.167727 0.110109
0.133455 0.177981 0.107332
0.158206 0.187198 0.104494
0.191012 0.199802 0.099947
0.239689 0.226505 0.084565
0.298985 0.255039 0.055451
0.363439 0.281498 0.000000
0.409094 0.294224 0.000000
0.473213 0.313146 0.000000
0.539605 0.329595 0.000000
0.602472 0.341558 0.000000
0.656550 0.348150 0.000000
0.699733 0.349615 0.000000
0.730617 0.349004 0.000000
0.755703 0.348913 0.000000
0.071748 0.144259 0.130434
0.072023 0.144594 0.130587
0.072023 0.144594 0.130587
0.071748 0.144259 0.130434
0.071778 0.143252 0.130190
0.071443 0.142245 0.129763
0.071382 0.140719 0.129000
0.071321 0.138979 0.128420
0.070985 0.137057 0.127535
0.070741 0.134920 0.126619
0.070558 0.132753 0.125521
0.070405 0.130343 0.124422
0.069398 0.131777 0.123384
0.068757 0.137606 0.121126
0.069551 0.143954 0.117922
0.076478 0.150912 0.117098
0.087160 0.158724 0.115602
0.102480 0.167422 0.113771
0.121828 0.177615 0.111238
0.146212 0.189303 0.108003
0.174105 0.199588 0.105104
0.212436 0.216007 0.098573
0.267155 0.245457 0.079683
0.331243 0.275151 0.028534
0.398505 0.301427 0.000000
0.455482 0.318700 0.000000
0.522026 0.337194 0.000000
0.586603 0.351720 0.000000
0.643488 0.360876 0.000000
0.689906 0.364569 0.000000
0.726467 0.364111 0.000000
0.757259 0.362127 0.000000
0.073457 0.149996 0.134066
0.073335 0.150179 0.134218
0.073701 0.150149 0.134401
0.073487 0.149660 0.134279
0.073457 0.148867 0.134005
0.073274 0.147585 0.133425
0.073152 0.146120 0.132876
0.072908 0.144137 0.132021
0.072602 0.142306 0.131136
0.072389 0.140078 0.130282
0.071931 0.137667 0.129091
0.071901 0.135164 0.127871
0.071077 0.132692 0.126436
0.070436 0.138430 0.125582
0.069245 0.145205 0.122316
0.073518 0.152468 0.120333
0.082582 0.160464 0.119478
0.095613 0.169863 0.118105
0.113832 0.180545 0.116060
0.136660 0.192721 0.113405
0.165621 0.206851 0.109346
0.197848 0.218479 0.106294
0.244541 0.239689 0.096681
0.307591 0.272221 0.071290
0.378790 0.303685 0.000000
0.450996 0.330205 0.000000
0.509728 0.346319 0.000000
0.576684 0.363561 0.000000
0.636408 0.375189 0.000000
0.685145 0.380713 0.000000
0.723049 0.381537 0.000000
0.755062 0.380346 0.000000
0.075349 0.156832 0.138918
0.075349 0.156832 0.138918
0.075349 0.156832 0.138918
0.075715 0.156191 0.138643
0.075105 0.155001 0.138125
0.074922 0.153780 0.137575
0.074983 0.152071 0.136904
0.074403 0.150027 0.135927
0.074311 0.147799 0.134951
0.073793 0.145510 0.133944
0.073457 0.143038 0.132631
0.073243 0.140169 0.131319
0.072602 0.137423 0.129824
0.072114 0.138735 0.128786
0.070863 0.145602 0.127108
0.070832 0.153231 0.123354
0.078126 0.161471 0.122530
0.089448 0.170993 0.121614
0.105409 0.181857 0.120058
0.126528 0.194400 0.117769
0.153353 0.208896 0.114595
0.186954 0.225223 0.109773
0.224277 0.238285 0.106538
0.279393 0.264317 0.092531
0.350042 0.299107 0.056428
0.426825 0.331121 0.000000
0.502251 0.357031 0.000000
0.559289 0.371160 0.000000
0.621698 0.385412 0.000000
0.674342 0.393774 0.000000
0.714931 0.396399 0.000000
0.748165 0.396307 0.000000
0.077180 0.163607 0.143252
0.077180 0.163607 0.143252
0.077211 0.163455 0.143252
0.077180 0.162722 0.143008
0.076905 0.161746 0.142641
0.076814 0.160403 0.142123
0.076692 0.159091 0.141604
0.076753 0.157443 0.140963
0.076448 0.155612 0.140322
0.076356 0.153475 0.139376
0.075929 0.151156 0.138460
0.075837 0.148287 0.137057
0.074983 0.145235 0.135500
0.074495 0.141573 0.133455
0.073823 0.148867 0.133120
0.072908 0.157382 0.130739
0.076143 0.166995 0.128054
0.086397 0.177554 0.127596
0.101564 0.190066 0.126619
0.122255 0.204227 0.125093
0.149660 0.220645 0.122286
0.184115 0.239170 0.117830
0.226627 0.259342 0.111421
0.274205 0.275608 0.106569
0.344488 0.308080 0.084260
0.427192 0.345525 0.000000
0.510277 0.376593 0.000000
0.583551 0.398291 0.000000
0.632563 0.406683 0.000000
0.680903 0.413794 0.000000
0.720027 0.416358 0.000000
0.752743 0.416419 0.000000
0.080964 0.175692 0.151339
0.081025 0.175570 0.151369
0.080781 0.175296 0.151247
0.080537 0.174533 0.150729
0.080446 0.173342 0.150240
0.080262 0.171572 0.149538
0.079896 0.169558 0.148531
0.079683 0.167208 0.147372
0.079011 0.164828 0.146395
0.078584 0.161990 0.145113
0.077974 0.158938 0.143526
0.077546 0.155337 0.141787
0.076783 0.151675 0.139864
0.076326 0.147555 0.137453
