data/fiter_cube/52608991/1023030/file.cube
# Created by Adobe Lightroom plugin Export LUT (1.17.0)
# www.johnrellis.com/lightroom/exportlut.htm
# Preset: 大神蓝橙街拍_10 云集
# Color profile: C:\Program Files (x86)\Common Files\Adobe\Color\Profiles\Recommended\AdobeRGB1998.icc
LUT_3D_SIZE 5
DOMAIN_MIN 0.000000 0.000000 0.000000
DOMAIN_MAX 0.903226 0.903226 0.903226
0.113527 0.124514 0.130343
0.236149 0.137240 0.132479
0.511925 0.217350 0.123873
0.870298 0.341253 0.087068
1.000000 0.401312 0.161440
0.130709 0.164950 0.140536
0.231418 0.190829 0.130312
0.491371 0.271702 0.129885
0.855344 0.384100 0.093355
1.000000 0.437110 0.180453
0.189883 0.261753 0.184176
0.254063 0.250767 0.181277
0.558129 0.398718 0.057618
0.855650 0.508171 0.125399
0.995605 0.521080 0.207858
0.281254 0.411933 0.238865
0.355047 0.379644 0.247959
0.549310 0.466133 0.166232
0.860044 0.591455 0.000000
0.992462 0.623407 0.232731
0.421027 0.639155 0.298497
0.505760 0.600763 0.304570
0.641382 0.576349 0.272740
0.885069 0.694942 0.000000
1.000000 0.697566 0.084932
0.081270 0.160922 0.242496
0.197696 0.162448 0.224399
0.460883 0.233158 0.183566
0.807553 0.365820 0.110079
0.986114 0.414282 0.149691
0.093263 0.175051 0.247135
0.202457 0.218265 0.225406
0.467201 0.284520 0.201266
0.805356 0.398291 0.123507
0.986267 0.442237 0.160616
0.090211 0.304509 0.305150
0.242374 0.301823 0.245304
0.496284 0.377417 0.194644
0.812100 0.495003 0.163027
0.987152 0.528466 0.202243
0.190799 0.478218 0.331090
0.331029 0.452613 0.293187
0.537469 0.473915 0.251957
0.846830 0.592737 0.093996
0.989166 0.623682 0.217258
0.283757 0.698787 0.334722
0.451179 0.656703 0.336980
0.649775 0.595514 0.335485
0.887358 0.707515 0.114687
1.000000 0.702602 0.073732
0.000000 0.308080 0.548608
0.000000 0.325689 0.530938
0.421118 0.258885 0.436713
0.778531 0.325139 0.365209
0.975189 0.444770 0.320531
0.000000 0.323064 0.544244
0.113222 0.346075 0.524834
0.422583 0.306462 0.435218
0.771878 0.378607 0.375097
0.976623 0.469917 0.324834
0.000000 0.344274 0.539025
0.158602 0.365667 0.518669
0.431922 0.438697 0.432471
0.779507 0.516350 0.414282
0.975555 0.550469 0.348028
0.000000 0.397375 0.570397
0.123964 0.416938 0.564874
0.477455 0.550652 0.439826
0.812436 0.625147 0.392035
0.972412 0.655116 0.387457
0.000000 0.758389 0.711025
0.000000 0.786191 0.670558
0.554284 0.710750 0.454871
0.842588 0.719020 0.380377
0.995148 0.717433 0.275486
0.000000 0.454994 0.816373
0.000000 0.488838 0.815793
0.445197 0.528985 0.782834
0.694972 0.400397 0.673976
0.929168 0.577417 0.628138
0.000000 0.469856 0.812833
0.000000 0.499763 0.808927
0.470558 0.564141 0.778012
0.687373 0.429999 0.664973
0.924559 0.586999 0.623407
0.000000 0.485878 0.803128
0.000000 0.513542 0.797024
0.507500 0.620630 0.772061
0.681147 0.525444 0.652094
0.926879 0.648310 0.633967
0.000000 0.516350 0.803311
0.140475 0.537377 0.793820
0.487068 0.620966 0.766629
0.712795 0.695674 0.667201
0.935668 0.741238 0.655787
0.000000 0.546075 0.820951
0.000000 0.562280 0.814755
0.384192 0.629938 0.810239
0.726436 0.780484 0.648981
0.954864 0.798550 0.614221
0.000000 0.547875 0.920104
0.100740 0.577295 0.917937
0.630243 0.730068 0.906279
0.763363 0.750912 0.884611
0.870207 0.667170 0.844450
0.000000 0.545556 0.918700
0.112093 0.578698 0.916442
0.631525 0.734707 0.905272
0.769162 0.761868 0.883207
0.870359 0.679866 0.843595
0.000000 0.544732 0.918181
0.000000 0.562402 0.916655
0.573327 0.708522 0.905608
0.794644 0.802090 0.886015
0.873320 0.722225 0.843778
0.000000 0.555871 0.918853
0.000000 0.578546 0.916564
0.485359 0.677821 0.909270
0.801755 0.831174 0.898039
0.880949 0.789822 0.847349
0.000000 0.579278 0.920226
0.000000 0.599878 0.918578
0.499702 0.695857 0.913573
0.776211 0.822385 0.900450
0.889799 0.873136 0.850645
