data/fiter_cube/52608991/1023030/file.cube
# Created by Adobe Lightroom plugin Export LUT (1.17.0)
# www.johnrellis.com/lightroom/exportlut.htm
# Preset: 大神蓝橙街拍_10 云集
# Color profile: C:\Program Files (x86)\Common Files\Adobe\Color\Profiles\Recommended\AdobeRGB1998.icc
LUT_3D_SIZE 8
DOMAIN_MIN 0.000000 0.000000 0.000000
DOMAIN_MAX 0.903226 0.903226 0.903226
0.113527 0.124514 0.130343
0.157748 0.120790 0.130648
0.266789 0.144747 0.132692
0.420386 0.188449 0.128847
0.627680 0.254734 0.112001
0.837095 0.328405 0.085969
0.939086 0.369574 0.106935
1.000000 0.401312 0.161440
0.114290 0.135836 0.132387
0.153109 0.143709 0.131716
0.253727 0.164920 0.134920
0.397162 0.203281 0.131563
0.597192 0.264561 0.116426
0.798215 0.329564 0.090028
0.919249 0.371923 0.100191
0.995026 0.404242 0.154299
0.137636 0.176577 0.145846
0.168521 0.173037 0.145815
0.259831 0.208865 0.128389
0.401404 0.262181 0.138033
0.611536 0.326085 0.119203
0.809079 0.383978 0.095796
0.938933 0.423072 0.121553
1.000000 0.444831 0.180453
0.172610 0.233433 0.172244
0.202274 0.222080 0.176303
0.262119 0.242100 0.149020
0.438331 0.323125 0.102235
0.679774 0.425299 0.098329
0.839048 0.472389 0.114473
0.938506 0.485664 0.143801
1.000000 0.493568 0.198520
0.208316 0.292790 0.196445
0.235935 0.282383 0.199405
0.293584 0.285863 0.195315
0.421057 0.353185 0.132052
0.649226 0.456062 0.000000
0.816312 0.514031 0.025513
0.922942 0.549615 0.164065
0.992828 0.553033 0.222995
0.261112 0.379400 0.228031
0.295781 0.377722 0.234104
0.348089 0.344610 0.242618
0.455604 0.406989 0.196719
0.639643 0.499123 0.000000
0.826078 0.569085 0.000000
0.930816 0.594659 0.080079
0.992889 0.616999 0.248966
0.330388 0.493629 0.261845
0.361303 0.484840 0.264958
0.418158 0.442756 0.270176
0.501213 0.461372 0.249699
0.653193 0.544640 0.154635
0.839322 0.631861 0.000000
0.933501 0.641199 0.000000
0.991821 0.646509 0.173770
0.421027 0.639155 0.298497
0.450843 0.626947 0.300114
0.526146 0.589868 0.307347
0.606653 0.561761 0.313878
0.719051 0.622309 0.231022
0.857115 0.686152 0.000000
0.963195 0.713405 0.000000
1.000000 0.697566 0.084932
0.107454 0.128389 0.166110
0.140078 0.132204 0.161379
0.240421 0.157565 0.145235
0.380041 0.207736 0.134463
0.576684 0.268132 0.119326
0.775296 0.328985 0.093294
0.906950 0.369940 0.096468
0.987335 0.398657 0.145144
0.105837 0.136629 0.167727
0.142092 0.155215 0.161746
0.237339 0.176455 0.153964
0.374975 0.219211 0.138003
0.565148 0.278080 0.121645
0.757259 0.334905 0.096895
0.890898 0.373327 0.094270
0.977478 0.400946 0.137819
0.107820 0.190707 0.195773
0.162234 0.193790 0.175906
0.249638 0.212863 0.155550
0.379400 0.260136 0.149111
0.565545 0.321538 0.126009
0.761715 0.378088 0.100801
0.901152 0.414191 0.105623
0.985626 0.436835 0.157931
0.144350 0.248600 0.201938
0.188327 0.242405 0.192813
0.257847 0.247257 0.179019
0.403967 0.307286 0.139406
0.592370 0.382177 0.113924
0.769497 0.444099 0.111543
0.899504 0.469825 0.122133
0.981720 0.483253 0.174105
0.178042 0.314824 0.211551
0.222477 0.302708 0.213687
0.289738 0.287938 0.216678
0.398749 0.342473 0.163821
0.598230 0.427558 0.089357
0.777462 0.494301 0.015259
0.902770 0.539086 0.145754
0.981659 0.546532 0.206424
0.231571 0.392035 0.238254
0.269413 0.381720 0.240513
0.336217 0.348272 0.247532
0.432136 0.393042 0.215518
0.609461 0.481758 0.095399
0.811887 0.562524 0.000000
0.921660 0.590387 0.054810
0.985931 0.610681 0.232395
0.292271 0.490822 0.265354
0.324590 0.475502 0.265629
0.394903 0.437629 0.270970
0.475685 0.443793 0.260349
0.630793 0.531273 0.181521
0.819486 0.620050 0.000000
0.918486 0.632136 0.000000
0.981201 0.637934 0.148745
0.380377 0.636927 0.300511
0.417731 0.627558 0.302953
0.505241 0.591547 0.310002
0.585351 0.546807 0.322057
0.735531 0.639643 0.258061
0.860502 0.692195 0.066651
0.959686 0.712215 0.000000
1.000000 0.694606 0.048188
0.040955 0.177829 0.281498
0.093904 0.183200 0.276188
0.222507 0.174990 0.250401
0.376898 0.199466 0.219150
0.588891 0.274754 0.201694
0.784024 0.354101 0.169894
0.914763 0.409979 0.109468
0.992401 0.425177 0.159640
0.063569 0.180728 0.277256
0.119417 0.193332 0.270787
0.221408 0.192966 0.248081
0.367498 0.218753 0.222660
0.568414 0.284672 0.205386
0.766842 0.358343 0.170382
0.903868 0.413336 0.108888
0.987488 0.429664 0.156771
0.085573 0.192477 0.279484
0.132631 0.204868 0.273289
0.226688 0.243015 0.249851
0.372045 0.274815 0.240848
0.581018 0.336645 0.222202
0.772152 0.398505 0.182559
0.903838 0.443427 0.125399
0.985779 0.456306 0.165896
0.101320 0.215854 0.294987
0.132021 0.229953 0.300420
0.248875 0.290929 0.260136
0.404486 0.334051 0.238407
0.601007 0.406073 0.237552
0.781399 0.462959 0.207309
0.907561 0.495338 0.157351
0.985657 0.502495 0.187350
0.063386 0.354864 0.350988
0.129610 0.369512 0.340429
0.283177 0.355474 0.278508
0.407630 0.373388 0.256413
0.609674 0.451514 0.210513
0.781796 0.509941 0.197726
0.903807 0.550225 0.182284
0.982300 0.559777 0.214908
0.135988 0.449287 0.360906
0.187137 0.448157 0.339849
0.318975 0.422065 0.293980
0.423590 0.403632 0.284428
0.586145 0.481910 0.215122
0.794400 0.562768 0.159640
0.912993 0.594171 0.154330
0.986755 0.615259 0.225620
0.194675 0.561883 0.371679
0.234897 0.555291 0.346563
0.369116 0.512688 0.312413
0.462776 0.446021 0.314946
0.616815 0.535088 0.258061
0.806668 0.621820 0.097414
0.920500 0.642206 0.050355
0.988006 0.647730 0.152316
0.256229 0.696925 0.378210
0.286931 0.687861 0.347478
0.447395 0.645045 0.340093
0.585199 0.591455 0.353491
0.715084 0.635950 0.318547
0.852750 0.698695 0.208957
0.958495 0.718746 0.000000
1.000000 0.699825 0.012207
0.000000 0.254276 0.445136
0.000000 0.261509 0.444831
0.167208 0.249088 0.414252
0.339086 0.225528 0.363775
0.549859 0.240085 0.330175
0.749966 0.318944 0.299565
0.891630 0.392340 0.272496
0.980743 0.434485 0.224094
0.000000 0.264195 0.450477
0.000000 0.272160 0.446204
0.184726 0.273228 0.416785
0.344213 0.243229 0.367590
0.547814 0.257298 0.328618
0.742367 0.332738 0.301701
0.886076 0.399756 0.272740
0.978698 0.439490 0.221988
0.000000 0.270512 0.440833
0.000000 0.278477 0.434638
0.209659 0.307469 0.411292
0.347173 0.291447 0.367315
0.552148 0.326574 0.341650
0.760525 0.395941 0.327123
0.906065 0.452766 0.303899
0.986358 0.473213 0.242893
0.000000 0.284337 0.440742
0.057771 0.290318 0.433143
0.219242 0.321935 0.416907
0.360845 0.373022 0.373083
0.557855 0.415473 0.365881
0.754391 0.463996 0.345098
0.895415 0.500328 0.313085
0.982727 0.516106 0.261570
0.018341 0.301884 0.435645
0.112825 0.308141 0.430152
0.216281 0.344457 0.436408
0.390906 0.436286 0.384436
0.593591 0.485206 0.358282
0.773709 0.544671 0.366461
0.899687 0.576471 0.349889
0.980713 0.576135 0.296117
0.000000 0.370977 0.515190
0.000000 0.417762 0.522301
0.186740 0.523156 0.503593
0.420294 0.502434 0.391028
0.590417 0.524254 0.358679
0.789975 0.591119 0.325200
0.906554 0.621118 0.335363
0.982513 0.634913 0.322606
0.000000 0.619409 0.582696
0.000000 0.641108 0.580652
0.224063 0.634058 0.505211
0.457404 0.583307 0.397284
0.611749 0.561120 0.374823
0.791745 0.639521 0.297887
0.915251 0.661830 0.276341
0.984710 0.664088 0.275517
0.000000 0.773342 0.613245
0.000000 0.770474 0.591455
0.294011 0.752651 0.507134
0.521996 0.697780 0.417517
0.674556 0.625971 0.407538
0.833463 0.709377 0.341741
0.949676 0.732326 0.172885
1.000000 0.711238 0.189944
0.000000 0.359350 0.645716
0.000000 0.366461 0.645258
0.000000 0.385992 0.628138
0.315953 0.337438 0.581292
0.505028 0.292790 0.508385
0.713130 0.315068 0.462379
0.869841 0.397467 0.429450
0.966339 0.472419 0.417456
0.000000 0.366217 0.645167
0.000000 0.375616 0.647364
0.005249 0.402930 0.632502
0.321935 0.355657 0.582269
0.503044 0.306065 0.506004
0.712978 0.330388 0.462074
0.869841 0.411719 0.433265
0.966003 0.478950 0.417914
0.000000 0.377264 0.639704
0.000000 0.385840 0.637690
0.137179 0.415229 0.628107
0.341009 0.410071 0.580041
0.496040 0.347265 0.497444
0.699062 0.369329 0.453040
0.863676 0.446967 0.436622
0.962463 0.493538 0.410803
0.000000 0.389654 0.639307
0.000000 0.396216 0.634485
0.173342 0.424048 0.619562
0.380987 0.475502 0.585931
0.505425 0.421424 0.499947
0.708736 0.456123 0.466682
0.868040 0.513359 0.454871
0.966644 0.530632 0.409766
0.000000 0.404273 0.634638
0.000000 0.410925 0.630732
0.190311 0.432898 0.611200
0.372686 0.473579 0.572656
0.511955 0.511345 0.497322
0.717128 0.554040 0.490791
0.869963 0.585962 0.472297
0.965484 0.590906 0.427710
0.000000 0.406317 0.605432
0.000000 0.410895 0.600488
0.191318 0.424201 0.577173
0.330297 0.462226 0.560571
0.510979 0.551080 0.480262
0.738918 0.611444 0.469306
0.880369 0.664668 0.502373
0.964996 0.676448 0.484291
0.000000 0.459083 0.667048
0.000000 0.463386 0.664912
0.072358 0.481727 0.660853
0.286534 0.637690 0.638758
0.547906 0.632532 0.488930
0.743801 0.653437 0.451972
0.890532 0.687037 0.431403
0.967102 0.695003 0.436133
0.000000 0.620874 0.751736
0.000000 0.645747 0.747524
0.000000 0.725551 0.732998
0.316258 0.797299 0.666255
0.595239 0.727901 0.500847
0.779965 0.705653 0.468788
0.916350 0.745480 0.382635
0.988525 0.733547 0.369726
0.000000 0.446143 0.801877
0.000000 0.456367 0.803464
0.000000 0.493446 0.798734
0.351598 0.513024 0.779019
0.499458 0.452064 0.724941
0.667475 0.379431 0.649165
0.840879 0.454047 0.601282
0.938506 0.573724 0.603265
0.000000 0.447578 0.793118
0.000000 0.455756 0.792264
0.000000 0.489631 0.787716
0.346502 0.513848 0.768368
0.492775 0.455024 0.715084
0.659297 0.385046 0.641169
0.836728 0.458259 0.597498
0.937011 0.574182 0.600031
0.000000 0.467842 0.799069
0.000000 0.475044 0.796323
0.101411 0.507042 0.789181
0.407172 0.567346 0.774197
0.517601 0.509148 0.718868
0.663020 0.427832 0.641871
0.836912 0.497444 0.601434
0.937163 0.596674 0.605615
0.000000 0.479225 0.796567
0.000000 0.486519 0.792752
0.179629 0.520470 0.785672
0.447150 0.595941 0.778317
0.585687 0.609155 0.737026
0.684474 0.511131 0.656428
0.844480 0.569757 0.618585
0.940887 0.638483 0.619654
0.000000 0.484260 0.783444
0.000000 0.492348 0.781796
0.185519 0.522606 0.774838
0.416510 0.580774 0.760586
0.595850 0.649165 0.730770
0.671687 0.571099 0.639124
0.836484 0.619348 0.612848
0.941039 0.659083 0.604669
0.000000 0.493324 0.771695
0.000000 0.502525 0.772427
0.194827 0.528038 0.764462
0.393774 0.573602 0.746792
0.553979 0.626154 0.711055
0.678798 0.663600 0.636561
0.847166 0.709194 0.645228
0.945006 0.721035 0.624964
0.000000 0.518517 0.783322
0.000000 0.525994 0.782956
0.195193 0.546288 0.773465
0.371374 0.581384 0.753262
0.514122 0.626459 0.724849
0.686183 0.710872 0.626612
0.859495 0.744991 0.617762
0.944335 0.771939 0.639765
0.000000 0.540032 0.806455
0.000000 0.544366 0.805142
0.000000 0.560998 0.801907
0.256016 0.594202 0.799130
0.443427 0.748043 0.774960
0.693416 0.765377 0.611719
0.869871 0.776638 0.579736
0.963684 0.784665 0.568261
0.000000 0.495277 0.872862
0.000000 0.505211 0.873472
0.000000 0.545953 0.870634
0.445686 0.624353 0.863371
0.594598 0.642145 0.841276
0.649165 0.570825 0.805020
0.781277 0.499184 0.755093
0.907195 0.610346 0.720455
0.000000 0.495674 0.868315
0.000000 0.505852 0.868803
0.000000 0.544579 0.866209
0.439277 0.623529 0.858457
0.584771 0.637903 0.836149
0.640711 0.566735 0.798154
0.771969 0.492226 0.745724
0.902495 0.600671 0.711818
0.000000 0.509728 0.870451
0.000000 0.519005 0.869657
0.155245 0.556207 0.865873
0.459358 0.634882 0.858152
0.610956 0.667872 0.837522
0.658717 0.605066 0.799893
0.777981 0.529625 0.749477
0.905364 0.633295 0.721309
0.000000 0.522759 0.871916
0.000000 0.530846 0.870024
0.194308 0.565576 0.865812
0.469276 0.641840 0.858610
0.655604 0.717006 0.843687
0.697078 0.671473 0.807340
0.787564 0.588312 0.755550
0.907469 0.671992 0.729641
0.000000 0.528801 0.865965
0.000000 0.536187 0.864286
0.188418 0.566461 0.860014
0.431403 0.628382 0.853696
0.637171 0.715145 0.841733
0.726101 0.727718 0.809110
0.784848 0.635950 0.748714
0.907256 0.708400 0.732052
0.000000 0.539940 0.862425
0.000000 0.547662 0.861601
0.214145 0.576928 0.858488
0.432349 0.633997 0.852689
0.617975 0.709438 0.842039
0.760281 0.780209 0.825742
0.797299 0.713375 0.755337
0.911040 0.757931 0.742061
0.000000 0.556695 0.862211
0.000000 0.564691 0.862028
0.243290 0.591394 0.858854
0.432959 0.641566 0.852354
0.601221 0.705806 0.838834
0.730404 0.763394 0.815671
0.802274 0.782498 0.753780
0.917418 0.813687 0.759792
0.000000 0.568780 0.871550
0.000000 0.574456 0.870695
0.193759 0.600549 0.870817
0.388739 0.643061 0.864469
0.554467 0.698390 0.849363
0.680964 0.750423 0.826658
0.801358 0.814450 0.738949
0.929961 0.841672 0.741299
0.000000 0.547875 0.920104
0.000000 0.548363 0.920195
0.224308 0.592920 0.916838
0.526024 0.686152 0.910521
0.692256 0.750820 0.901305
0.758389 0.759731 0.888243
0.781918 0.707179 0.868772
0.870207 0.667170 0.844450
0.000000 0.545739 0.918700
0.000000 0.548241 0.918730
0.222538 0.592340 0.915740
0.518547 0.682521 0.909270
0.689937 0.750759 0.900175
0.757870 0.760708 0.886961
0.780026 0.707240 0.866880
0.868833 0.667475 0.842771
0.000000 0.544518 0.917937
0.000000 0.549523 0.917632
0.210391 0.590631 0.914244
0.514855 0.681849 0.909300
0.698787 0.762356 0.900420
0.767697 0.774380 0.886687
0.786404 0.724117 0.866911
0.870054 0.683192 0.843046
0.000000 0.545312 0.918547
0.000000 0.545464 0.918608
0.146059 0.584375 0.915740
0.484230 0.670832 0.909972
0.701472 0.771664 0.901823
0.783261 0.796719 0.890196
0.801968 0.756893 0.870420
0.872648 0.708705 0.844053
0.000000 0.544274 0.917754
0.000000 0.548516 0.917876
0.000000 0.575921 0.915984
0.373388 0.634394 0.912505
0.654353 0.748135 0.902983
0.792325 0.817350 0.894102
0.819455 0.793759 0.874815
0.874968 0.739254 0.844327
0.000000 0.550530 0.917205
0.000000 0.556603 0.916411
0.000000 0.580987 0.914061
0.357702 0.633082 0.910338
0.585260 0.717311 0.904662
0.777127 0.816251 0.898650
0.850126 0.843107 0.886381
0.880644 0.780819 0.847776
0.000000 0.564080 0.918334
0.000000 0.570123 0.917632
0.040925 0.593133 0.915496
0.369665 0.643519 0.912016
0.585718 0.722621 0.906126
0.752743 0.805325 0.900359
0.861662 0.868925 0.895842
0.883513 0.821622 0.847562
0.000000 0.579278 0.920226
0.000000 0.584802 0.919615
0.129732 0.607965 0.918181
0.391333 0.659266 0.915709
0.600366 0.736843 0.910704
0.747982 0.807492 0.902586
0.843198 0.858824 0.892393
0.889799 0.873136 0.850645
