data/fiter_cube/52608991/1023030/file.cube
# Created by Adobe Lightroom plugin Export LUT (1.17.0)
# www.johnrellis.com/lightroom/exportlut.htm
# Preset: 大神蓝橙街拍_10 云集
# Color profile: C:\Program Files (x86)\Common Files\Adobe\Color\Profiles\Recommended\AdobeRGB1998.icc
LUT_3D_SIZE 32
DOMAIN_MIN 0.0 0.0 0.0
DOMAIN_MAX 1.0 1.0 1.0
0.113527 0.124514 0.130343
0.113527 0.124514 0.130343
0.114565 0.124361 0.130312
0.133120 0.121675 0.130251
0.157748 0.120790 0.130648
0.182315 0.125063 0.131380
0.208316 0.130648 0.131930
0.236149 0.137240 0.132479
0.266789 0.144747 0.132692
0.300328 0.153658 0.132601
0.337316 0.163516 0.131777
0.377447 0.175479 0.130648
0.420386 0.188449 0.128847
0.465522 0.202457 0.126772
0.511925 0.217350 0.123873
0.559564 0.232822 0.119631
0.627680 0.254734 0.112001
0.694514 0.276677 0.103059
0.750057 0.296117 0.094942
0.797299 0.313237 0.089326
0.837095 0.328405 0.085969
0.870298 0.341253 0.087068
0.897215 0.352087 0.091096
0.919738 0.361547 0.098177
0.939086 0.369574 0.106935
0.956481 0.377325 0.117037
0.972900 0.384833 0.129671
0.988556 0.392737 0.144259
1.000000 0.401312 0.161440
1.000000 0.410834 0.181704
1.000000 0.421698 0.205325
1.000000 0.434882 0.233036
0.113527 0.124514 0.130343
0.113527 0.124514 0.130343
0.115053 0.124483 0.130312
0.133333 0.121645 0.130251
0.156619 0.124331 0.130922
0.180941 0.128389 0.131685
0.206394 0.133455 0.132326
0.233738 0.139590 0.132570
0.263645 0.146792 0.133028
0.296574 0.155489 0.132692
0.332647 0.165011 0.132174
0.371984 0.176089 0.131075
0.413764 0.188937 0.129305
0.457923 0.202792 0.127291
0.503349 0.217319 0.124331
0.550195 0.232334 0.120455
0.616175 0.253300 0.113375
0.680140 0.274296 0.105226
0.734798 0.292973 0.097230
0.782986 0.310063 0.090547
0.824186 0.324926 0.086641
0.858915 0.338018 0.086213
0.887327 0.349248 0.089174
0.911223 0.358740 0.095521
0.931731 0.367071 0.103182
0.950164 0.374823 0.113405
0.967529 0.382635 0.125216
0.983978 0.390753 0.139620
0.999695 0.399237 0.156863
1.000000 0.408698 0.176669
1.000000 0.419501 0.200076
1.000000 0.432349 0.227359
0.113527 0.124514 0.130343
0.113527 0.124514 0.130343
0.115511 0.124422 0.130465
0.132570 0.125032 0.130709
0.155367 0.128573 0.131350
0.179294 0.132204 0.132143
0.204318 0.136965 0.132479
0.231144 0.142794 0.132937
0.260746 0.149874 0.133425
0.293309 0.157870 0.133211
0.328954 0.167422 0.132387
0.367926 0.178378 0.131380
0.409400 0.190738 0.129885
0.453132 0.204501 0.127810
0.498116 0.218723 0.125032
0.544701 0.233219 0.121187
0.609644 0.254032 0.114290
0.671870 0.274144 0.106569
0.725917 0.292546 0.098451
0.774655 0.309331 0.092042
0.816983 0.324498 0.087587
0.852689 0.337652 0.086305
0.882017 0.348913 0.088411
0.906615 0.358373 0.094087
0.927733 0.366827 0.101656
0.946654 0.374609 0.111269
0.964508 0.382269 0.123445
0.981445 0.390326 0.137819
0.997620 0.398901 0.154604
1.000000 0.408331 0.174533
1.000000 0.419013 0.197604
1.000000 0.431647 0.224796
0.113680 0.127077 0.131014
0.113710 0.128420 0.130892
0.118532 0.128695 0.131289
0.131960 0.132509 0.131350
0.154147 0.136660 0.132479
0.177859 0.140322 0.132906
0.202701 0.144503 0.133425
0.229343 0.149783 0.133944
0.258396 0.156283 0.133974
0.290501 0.164157 0.133608
0.325566 0.173220 0.133028
0.363897 0.183902 0.132113
0.404486 0.196170 0.130556
0.447517 0.209262 0.128481
0.492226 0.222904 0.125887
0.538170 0.237247 0.122255
0.602686 0.257694 0.115450
0.661952 0.276829 0.108217
0.714046 0.293919 0.100893
0.762081 0.309972 0.094087
0.804562 0.324712 0.088777
0.841459 0.337560 0.086824
0.872801 0.349157 0.088136
0.899718 0.359258 0.092775
0.923156 0.368231 0.100435
0.943969 0.376501 0.110445
0.963104 0.384558 0.123140
0.980682 0.392920 0.137789
0.997070 0.401434 0.154940
1.000000 0.410468 0.174807
1.000000 0.420752 0.197269
1.000000 0.432715 0.223545
0.114290 0.135836 0.132387
0.114565 0.136721 0.132662
0.122896 0.135500 0.134096
0.132479 0.137575 0.131075
0.153109 0.143709 0.131716
0.174624 0.149874 0.134737
0.198917 0.154147 0.134920
0.225162 0.158694 0.134981
0.253727 0.164920 0.134920
0.284977 0.172488 0.134615
0.319615 0.181186 0.133791
0.356939 0.191348 0.132845
0.397162 0.203281 0.131563
0.439796 0.216068 0.129824
0.484657 0.229496 0.126925
0.531487 0.243900 0.123201
0.597192 0.264561 0.116426
0.655848 0.283238 0.109285
0.707912 0.299870 0.101961
0.755856 0.315496 0.095491
0.798215 0.329564 0.090028
0.835294 0.342138 0.087617
0.867247 0.353124 0.088716
0.895018 0.363226 0.092470
0.919249 0.371923 0.100191
0.940887 0.380102 0.110018
0.960479 0.388190 0.122377
0.978424 0.396033 0.137331
0.995026 0.404242 0.154299
1.000000 0.413062 0.173617
1.000000 0.423041 0.196048
1.000000 0.434607 0.221958
0.115084 0.144625 0.134524
0.119295 0.144259 0.134798
0.127230 0.142947 0.136416
0.136782 0.144106 0.135561
0.152285 0.149264 0.129610
0.175540 0.156588 0.131807
0.198489 0.164065 0.135317
0.222843 0.170230 0.136599
0.251164 0.176120 0.136202
0.282322 0.183536 0.135714
0.316411 0.192264 0.135073
0.353704 0.202457 0.134066
0.393439 0.213748 0.132876
0.436042 0.226200 0.130800
0.480873 0.239414 0.128084
0.532097 0.255161 0.123812
0.595575 0.275090 0.117220
0.653193 0.293126 0.110140
0.705440 0.309514 0.103273
0.754147 0.324956 0.096315
0.797330 0.338903 0.091066
0.835325 0.351171 0.088624
0.923308 0.388495 0.105623
0.943145 0.395789 0.115419
0.960204 0.402136 0.126711
0.975494 0.408026 0.139040
0.989441 0.414130 0.152468
1.000000 0.420356 0.167849
1.000000 0.427344 0.185000
1.000000 0.435370 0.205173
1.000000 0.444831 0.227695
1.000000 0.456214 0.253605
0.121859 0.156008 0.137209
0.128328 0.154971 0.138460
0.135744 0.153597 0.139895
0.145113 0.153140 0.140810
0.157656 0.158572 0.135317
0.180056 0.166537 0.127901
0.206180 0.174899 0.131197
0.233280 0.184268 0.134676
0.259983 0.193606 0.137667
0.292576 0.202426 0.137758
0.328801 0.212192 0.136751
0.368231 0.222751 0.135744
0.409583 0.234409 0.133822
0.452857 0.246830 0.131258
0.497566 0.259556 0.128023
0.555993 0.277379 0.122896
0.620172 0.297795 0.115602
0.677180 0.315221 0.108095
0.729763 0.331640 0.100465
0.778988 0.347082 0.094636
0.824063 0.361639 0.091127
0.864317 0.375036 0.092103
0.898558 0.386938 0.098573
0.926909 0.397070 0.108644
0.950011 0.405676 0.121675
0.968597 0.412634 0.135561
0.984344 0.418891 0.149905
0.998352 0.424994 0.165255
1.000000 0.431586 0.182650
1.000000 0.439094 0.201877
1.000000 0.447852 0.224216
1.000000 0.458412 0.249485
0.130709 0.164950 0.140536
0.136446 0.163760 0.141329
0.142489 0.162173 0.142458
0.151400 0.159731 0.144808
0.162051 0.165408 0.140139
0.176913 0.170901 0.133364
0.203342 0.180972 0.127016
0.231418 0.190829 0.130312
0.261112 0.201480 0.133211
0.290715 0.212253 0.136202
0.324041 0.225071 0.139223
0.363012 0.235813 0.137881
0.403967 0.247318 0.135836
0.446998 0.259281 0.133181
0.491371 0.271702 0.129885
0.553643 0.291783 0.124422
0.613519 0.310399 0.117464
0.668116 0.326665 0.110536
0.719539 0.342107 0.103700
0.768917 0.357061 0.097047
0.814389 0.371069 0.093263
0.855344 0.384100 0.093355
0.890379 0.395422 0.098970
0.919524 0.404974 0.108522
0.943450 0.412970 0.120729
0.962829 0.419593 0.134096
0.979309 0.425391 0.147799
0.994018 0.430945 0.163210
1.000000 0.437110 0.180453
1.000000 0.444099 0.199832
1.000000 0.452369 0.221958
1.000000 0.462379 0.247044
0.137636 0.176577 0.145846
0.143099 0.175204 0.146487
0.149233 0.173678 0.147372
0.158907 0.170565 0.149538
0.168521 0.173037 0.145815
0.181735 0.178836 0.138888
0.198734 0.184939 0.131228
0.229465 0.197665 0.125154
0.259831 0.208865 0.128389
0.293248 0.221561 0.130739
0.325750 0.233890 0.134096
0.361883 0.248081 0.137331
0.401404 0.262181 0.138033
0.444434 0.274174 0.135317
0.495338 0.289738 0.131685
0.554711 0.308721 0.125856
0.611536 0.326085 0.119203
0.664393 0.341436 0.112612
0.714656 0.356115 0.105867
0.763699 0.370550 0.099306
0.809079 0.383978 0.095796
0.850034 0.396094 0.095918
0.885222 0.406775 0.100771
0.914672 0.415747 0.110018
0.938933 0.423072 0.121553
0.958740 0.429023 0.134401
0.975677 0.434180 0.148257
0.990723 0.439246 0.163668
1.000000 0.444831 0.180453
1.000000 0.451057 0.199374
1.000000 0.458595 0.220981
1.000000 0.467872 0.245762
0.145937 0.188693 0.151919
0.150484 0.187503 0.152529
0.156130 0.185885 0.153414
0.165743 0.182834 0.155215
0.175235 0.181643 0.154910
0.187259 0.187350 0.147707
0.202792 0.193606 0.138308
0.222538 0.200412 0.128237
0.257450 0.215885 0.123018
0.290379 0.228489 0.125673
0.326940 0.242802 0.127932
0.362036 0.256321 0.130922
0.400214 0.271519 0.133730
0.441413 0.287785 0.136538
0.499397 0.308721 0.133639
0.557763 0.327642 0.128054
0.614649 0.345037 0.121126
0.667720 0.360235 0.114290
0.717739 0.374670 0.107668
0.765072 0.387976 0.101320
0.808072 0.399939 0.098238
0.846433 0.410315 0.098573
0.879667 0.419318 0.102663
0.907958 0.426703 0.110780
0.932006 0.433021 0.121309
0.952392 0.438239 0.133761
0.970245 0.442969 0.147585
0.986358 0.447944 0.162844
1.000000 0.453315 0.180514
1.000000 0.459449 0.199924
1.000000 0.466865 0.222202
1.000000 0.475959 0.247501
0.152804 0.200870 0.157778
0.157290 0.199741 0.158358
0.162875 0.198093 0.159091
0.172396 0.195102 0.160647
0.182650 0.190860 0.163119
0.193515 0.196109 0.157107
0.208225 0.202853 0.148653
0.226200 0.209781 0.137819
0.253025 0.220981 0.124361
0.289097 0.236515 0.119966
0.324834 0.250614 0.121614
0.364355 0.266606 0.123812
0.401770 0.280949 0.126711
0.449744 0.301061 0.128420
0.503227 0.323583 0.129854
0.557763 0.345739 0.130526
0.612909 0.362310 0.123842
0.664454 0.377234 0.117189
0.713497 0.390753 0.110506
0.760403 0.403510 0.104738
0.803342 0.415137 0.101350
0.841947 0.424933 0.101961
0.875608 0.433417 0.105898
0.904234 0.440375 0.113741
0.928466 0.445991 0.124331
0.948974 0.450446 0.136446
0.966857 0.454505 0.149569
0.983093 0.458564 0.164675
0.998108 0.463233 0.181308
1.000000 0.468666 0.200748
1.000000 0.475410 0.222599
1.000000 0.483864 0.247807
0.160800 0.214145 0.163943
0.165103 0.212985 0.164370
0.170535 0.211337 0.165072
0.179751 0.208560 0.166445
0.190738 0.204379 0.168673
0.200595 0.205234 0.166690
0.214603 0.212406 0.158907
0.231815 0.220005 0.149142
0.252781 0.228367 0.136629
0.287846 0.244694 0.119692
0.324926 0.259953 0.115328
0.363897 0.275578 0.116243
0.449256 0.318944 0.111818
0.512566 0.346746 0.110475
0.575647 0.373388 0.109773
0.634363 0.397284 0.110170
0.687221 0.418097 0.113893
0.734707 0.433845 0.114961
0.776394 0.442969 0.110628
0.814084 0.450629 0.109041
0.847684 0.457221 0.110079
0.877348 0.462562 0.114412
0.902953 0.466590 0.121889
0.925475 0.469978 0.131136
0.945098 0.472755 0.142367
0.962341 0.475166 0.154513
0.977661 0.477363 0.167941
0.991638 0.479866 0.182132
1.000000 0.483009 0.198642
1.000000 0.487343 0.217258
1.000000 0.493050 0.238560
1.000000 0.500725 0.263462
0.172610 0.233433 0.172244
0.176913 0.232151 0.172671
0.181857 0.230472 0.173220
0.191318 0.226993 0.174350
0.202274 0.222080 0.176303
0.211673 0.217350 0.177493
0.224796 0.224674 0.170108
0.241550 0.232792 0.160739
0.262119 0.242100 0.149020
0.287297 0.252445 0.134218
0.334020 0.276310 0.111757
0.376226 0.293645 0.106691
0.438331 0.323125 0.102235
0.507378 0.354986 0.098573
0.569635 0.381567 0.095796
0.627802 0.405127 0.095430
0.679774 0.425299 0.098329
0.726162 0.442756 0.104158
0.767575 0.458076 0.113405
0.805142 0.466255 0.113375
0.839048 0.472389 0.114473
0.869261 0.477089 0.118166
0.895384 0.480720 0.124697
0.918395 0.483558 0.133272
0.938506 0.485664 0.143801
0.956207 0.487343 0.155367
0.972076 0.489021 0.168246
0.986603 0.490944 0.182589
1.000000 0.493568 0.198520
1.000000 0.497353 0.217350
1.000000 0.502495 0.238468
1.000000 0.509697 0.263523
0.180850 0.247166 0.178225
0.184939 0.245884 0.178500
0.189700 0.244236 0.178927
0.198550 0.241001 0.180148
0.209812 0.235874 0.181704
0.220493 0.230014 0.183902
0.231571 0.233249 0.179599
0.247288 0.241672 0.171176
0.266789 0.251286 0.160708
0.290745 0.262089 0.147219
0.319280 0.274205 0.129793
0.381353 0.307958 0.104005
0.437537 0.333715 0.093690
0.500053 0.362249 0.085176
0.566369 0.391638 0.078828
0.622217 0.413916 0.076967
0.672084 0.432715 0.078920
0.717586 0.449287 0.085115
0.759243 0.464240 0.094942
0.796902 0.477974 0.107881
0.831327 0.488197 0.119051
0.862242 0.492897 0.122408
0.889067 0.496162 0.128634
0.912779 0.498543 0.136782
0.933410 0.500175 0.147036
0.951629 0.501366 0.158358
0.967926 0.502495 0.170962
0.982879 0.503838 0.184878
0.996857 0.506004 0.201266
1.000000 0.509239 0.219760
1.000000 0.513909 0.241154
1.000000 0.520714 0.266300
0.189883 0.261753 0.184176
0.193545 0.260838 0.184543
0.198032 0.259281 0.184939
0.207004 0.255680 0.185946
0.218143 0.250797 0.187320
0.229160 0.244511 0.189395
0.239017 0.242252 0.188846
0.254063 0.250767 0.181277
0.272740 0.260685 0.171572
0.295384 0.271885 0.159548
0.328069 0.288518 0.144533
0.371710 0.310613 0.122011
0.438392 0.346014 0.091157
0.496407 0.371710 0.074861
0.558129 0.398718 0.057618
0.618250 0.423804 0.042695
0.667659 0.442237 0.045502
0.711879 0.457771 0.058808
0.753017 0.472175 0.070771
0.790646 0.485206 0.086763
0.824949 0.497200 0.105074
0.855650 0.508171 0.125399
0.882841 0.511833 0.132967
0.906950 0.513939 0.140963
0.928344 0.515190 0.150912
0.947387 0.516228 0.162203
0.964721 0.517296 0.175357
0.980682 0.518791 0.190707
0.995605 0.521080 0.207858
1.000000 0.524590 0.227817
1.000000 0.529595 0.251072
1.000000 0.536706 0.278019
0.199100 0.277195 0.190341
0.202762 0.276463 0.190890
0.207187 0.274846 0.191196
0.216159 0.271611 0.192111
0.227420 0.266972 0.193668
0.239292 0.261204 0.195712
0.249668 0.254459 0.198062
0.263310 0.261753 0.191928
0.282719 0.273075 0.183291
0.308782 0.287846 0.173037
0.339879 0.304448 0.158968
0.376562 0.322759 0.139651
0.429084 0.349889 0.108248
0.493629 0.382086 0.072358
0.549248 0.405432 0.036805
0.605676 0.428565 0.000000
0.659510 0.449714 0.000000
0.705470 0.466194 0.000000
0.747799 0.480873 0.010590
0.786893 0.494270 0.053315
0.822416 0.506401 0.080354
0.854063 0.517327 0.105623
0.881468 0.526970 0.130556
0.905699 0.532464 0.148257
0.927337 0.533471 0.158633
0.946746 0.534173 0.170138
0.964233 0.534722 0.183810
0.980285 0.535882 0.199161
0.995087 0.537621 0.216739
1.000000 0.540398 0.236484
1.000000 0.544579 0.259068
1.000000 0.550805 0.285283
0.208316 0.292790 0.196445
0.211795 0.291661 0.196689
0.215976 0.290227 0.197086
0.224552 0.287022 0.198001
0.235935 0.282383 0.199405
0.248112 0.276585 0.201175
0.259953 0.270726 0.203861
0.273533 0.273228 0.202579
0.293584 0.285863 0.195315
0.317937 0.300053 0.185489
0.347265 0.316167 0.172641
0.381598 0.333989 0.155612
0.421057 0.353185 0.132052
0.483406 0.386236 0.088319
0.544488 0.414832 0.025696
0.597803 0.436194 0.000000
0.649226 0.456062 0.000000
0.698573 0.474464 0.000000
0.741848 0.489448 0.000000
0.780667 0.502281 0.000000
0.816312 0.514031 0.025513
0.848356 0.524468 0.078065
0.876493 0.533715 0.108034
0.901213 0.542260 0.137331
0.922942 0.549615 0.164065
0.942901 0.550103 0.175601
0.961028 0.550622 0.189395
0.977600 0.551507 0.205081
0.992828 0.553033 0.222995
1.000000 0.555535 0.243473
1.000000 0.559594 0.266758
1.000000 0.565637 0.293797
0.218906 0.309880 0.203067
0.222385 0.309606 0.203738
0.234470 0.319677 0.208743
0.244327 0.317388 0.209964
0.257603 0.313878 0.211978
0.272007 0.309087 0.214664
0.286229 0.303014 0.217624
0.298009 0.297459 0.219944
0.319310 0.311254 0.212558
0.344884 0.326879 0.202976
0.375128 0.344213 0.190341
0.410315 0.363226 0.173526
0.449897 0.383093 0.150668
0.494179 0.403876 0.117525
0.568872 0.444160 0.000000
0.624506 0.467079 0.000000
0.673304 0.484596 0.000000
0.719295 0.500450 0.000000
0.761074 0.514061 0.000000
0.797024 0.524529 0.000000
0.828794 0.533440 0.000000
0.858091 0.541772 0.013703
0.884123 0.549157 0.085115
0.906889 0.555779 0.120912
0.926482 0.561852 0.151766
0.943847 0.567956 0.181704
0.960204 0.568811 0.198856
0.975830 0.568353 0.213138
0.990753 0.568963 0.230228
1.000000 0.570947 0.250675
1.000000 0.574487 0.274083
1.000000 0.580072 0.301061
0.235569 0.337194 0.213535
0.240299 0.338231 0.214603
0.246403 0.339055 0.215946
0.256809 0.338262 0.217685
0.270512 0.335302 0.219821
0.285374 0.330266 0.222232
0.299504 0.323583 0.224887
0.311894 0.315618 0.227787
0.328252 0.321752 0.223636
0.352087 0.336522 0.214542
0.380285 0.353185 0.202945
0.413153 0.371435 0.187900
0.450111 0.390600 0.167666
0.491005 0.410437 0.140383
0.537102 0.431830 0.097902
0.615015 0.474098 0.000000
0.662348 0.490730 0.000000
0.707515 0.506035 0.000000
0.750057 0.519951 0.000000
0.788296 0.531701 0.000000
0.821866 0.541192 0.000000
0.852293 0.549645 0.000000
0.879454 0.557031 0.018830
0.903258 0.563531 0.092592
0.923735 0.569329 0.130190
0.941894 0.575036 0.163485
0.958160 0.581231 0.195773
0.973541 0.585016 0.220920
0.988647 0.585321 0.238254
1.000000 0.586908 0.258549
1.000000 0.590082 0.282414
1.000000 0.595331 0.309667
0.248417 0.358648 0.221103
0.253422 0.359899 0.222354
0.259403 0.360876 0.223697
0.269810 0.359808 0.225284
0.283299 0.356725 0.227176
0.297948 0.351049 0.229252
0.312200 0.343603 0.231418
0.324834 0.335088 0.234165
0.337102 0.331731 0.233921
0.359686 0.346227 0.225406
0.386603 0.362524 0.214817
0.417700 0.380316 0.201114
0.452705 0.399084 0.182986
0.491554 0.418708 0.159304
0.533745 0.438727 0.125978
0.587304 0.464790 0.061646
0.656916 0.500511 0.000000
0.701442 0.515221 0.000000
0.743709 0.528893 0.000000
0.782467 0.540703 0.000000
0.817044 0.550469 0.000000
0.848142 0.558862 0.000000
0.876066 0.566155 0.000000
0.900481 0.572381 0.039155
0.921538 0.577661 0.103517
0.940063 0.582727 0.142702
0.956634 0.588128 0.177859
0.971771 0.594568 0.212619
0.985931 0.601312 0.245670
1.000000 0.602502 0.266117
1.000000 0.605219 0.289647
1.000000 0.610071 0.317174
0.261112 0.379400 0.228031
0.265904 0.380987 0.229282
0.272068 0.381994 0.230625
0.282322 0.381140 0.232212
0.295781 0.377722 0.234104
0.310155 0.371923 0.235996
0.324437 0.363989 0.237797
0.337407 0.354772 0.240055
0.348089 0.344610 0.242618
0.367315 0.355413 0.235782
0.392767 0.371191 0.225925
0.422278 0.388556 0.213230
0.455604 0.406989 0.196719
0.492744 0.426520 0.175845
0.533745 0.446937 0.147616
0.578027 0.467781 0.105104
0.639643 0.499123 0.000000
0.704189 0.530632 0.000000
0.749050 0.545708 0.000000
0.789731 0.558526 0.000000
0.826078 0.569085 0.000000
0.857725 0.577417 0.000000
0.885191 0.583948 0.000000
0.909758 0.589807 0.000000
0.930816 0.594659 0.080079
0.949065 0.599115 0.130739
0.965179 0.603906 0.171633
0.979706 0.609644 0.210086
0.992889 0.616999 0.248966
1.000000 0.626551 0.290105
1.000000 0.630213 0.316960
1.000000 0.635340 0.345953
0.281254 0.411933 0.238865
0.285222 0.412268 0.239628
0.290501 0.411749 0.240391
0.299840 0.409186 0.241306
0.312413 0.404608 0.242679
0.326757 0.397620 0.244205
0.341161 0.389258 0.245945
0.355047 0.379644 0.247959
0.367041 0.369421 0.250553
0.382025 0.370581 0.248112
0.407904 0.387121 0.239109
0.437812 0.405432 0.227359
0.471412 0.424781 0.212131
0.508598 0.445075 0.192416
0.549310 0.466133 0.166232
0.592554 0.487190 0.130037
0.637140 0.507439 0.067201
0.703212 0.541650 0.000000
0.758114 0.565667 0.000000
0.796384 0.576379 0.000000
0.830320 0.584955 0.000000
0.860044 0.591455 0.000000
0.885466 0.596185 0.000000
0.907683 0.599817 0.000000
0.928710 0.603876 0.000000
0.947295 0.607721 0.100008
0.963928 0.611933 0.148775
0.978912 0.616938 0.190951
0.992462 0.623407 0.232731
1.000000 0.631891 0.275120
1.000000 0.643091 0.320073
1.000000 0.651148 0.356023
0.294957 0.434546 0.245518
0.298924 0.434974 0.246311
0.304051 0.434760 0.247166
0.313420 0.432319 0.248203
0.326085 0.427344 0.249210
0.340185 0.420111 0.250523
0.354650 0.411292 0.252079
0.368322 0.401190 0.253788
0.380926 0.390234 0.256046
0.390723 0.380224 0.257664
0.415808 0.396551 0.249210
0.444556 0.414588 0.238499
0.477150 0.433936 0.224369
0.513664 0.454597 0.206638
0.553643 0.476204 0.183261
0.596246 0.497810 0.151583
0.640192 0.518853 0.105379
0.685176 0.538933 0.000000
0.753964 0.575280 0.000000
0.799374 0.592187 0.000000
0.833585 0.600488 0.000000
0.863615 0.606744 0.000000
0.889403 0.611200 0.000000
0.911650 0.614282 0.000000
0.923949 0.611627 0.000000
0.943084 0.614923 0.028656
0.960449 0.618585 0.117525
0.976013 0.622950 0.166567
0.990143 0.628443 0.210819
1.000000 0.635920 0.254978
1.000000 0.645960 0.301366
1.000000 0.660151 0.352728
0.316625 0.470222 0.256229
0.321172 0.470985 0.257115
0.326238 0.470314 0.257694
0.335424 0.467140 0.258518
0.347631 0.461128 0.259373
0.361639 0.452888 0.260319
0.376043 0.442756 0.261418
0.389776 0.431128 0.262669
0.402045 0.418372 0.264317
0.411963 0.405280 0.266300
0.429358 0.410590 0.260960
0.456794 0.427955 0.250462
0.487922 0.446815 0.237034
0.522362 0.466560 0.219974
0.559442 0.486732 0.198489
0.598444 0.506645 0.170565
0.639002 0.526177 0.132509
0.680934 0.545312 0.066285
0.729061 0.567468 0.000000
0.792294 0.600275 0.000000
0.830259 0.611505 0.000000
0.860960 0.617884 0.000000
0.886900 0.621912 0.000000
0.908751 0.624109 0.000000
0.927123 0.625116 0.000000
0.942992 0.625605 0.000000
0.960052 0.628229 0.080568
0.975402 0.631403 0.142031
0.989471 0.635767 0.190066
1.000000 0.641962 0.236545
1.000000 0.650813 0.284550
1.000000 0.663661 0.337224
0.330388 0.493629 0.261845
0.335027 0.494453 0.262760
0.340063 0.493996 0.263401
0.349126 0.490791 0.264164
0.361303 0.484840 0.264958
0.375372 0.476722 0.265934
0.390204 0.466682 0.267033
0.404761 0.455238 0.268498
0.418158 0.442756 0.270176
0.429725 0.429603 0.272435
0.441505 0.423255 0.271763
0.469612 0.441566 0.261936
0.501213 0.461372 0.249699
0.536156 0.482216 0.233829
0.573785 0.503532 0.213809
0.612787 0.524376 0.188327
0.653193 0.544640 0.154635
0.694850 0.564385 0.103975
0.736843 0.583062 0.000000
0.786160 0.606073 0.000000
0.839322 0.631861 0.000000
0.868833 0.636835 0.000000
0.894011 0.639796 0.000000
0.915373 0.641016 0.000000
0.933501 0.641199 0.000000
0.948913 0.640833 0.000000
0.962402 0.640406 0.000000
0.977783 0.642908 0.117372
0.991821 0.646509 0.173770
1.000000 0.651789 0.223941
1.000000 0.659754 0.274754
1.000000 0.671687 0.329747
0.348699 0.523827 0.269139
0.352941 0.524102 0.269841
0.357549 0.523064 0.270359
0.366125 0.519249 0.270878
0.377844 0.512474 0.271275
0.391791 0.503655 0.272038
0.406439 0.493233 0.272953
0.421241 0.481239 0.274296
0.435401 0.468330 0.276036
0.447883 0.454963 0.278050
0.457649 0.440711 0.280583
0.482033 0.454658 0.273045
0.513878 0.475135 0.261540
0.549157 0.496864 0.246769
0.586084 0.518395 0.228183
0.624353 0.539422 0.204685
0.663630 0.559716 0.174563
0.703975 0.579492 0.132387
0.744442 0.597986 0.047089
0.783047 0.613947 0.000000
0.830930 0.635981 0.000000
0.873198 0.653590 0.000000
0.897917 0.655756 0.000000
0.919097 0.656275 0.000000
0.937133 0.655726 0.000000
0.952514 0.654597 0.000000
0.965942 0.653437 0.000000
0.977508 0.652522 0.075227
0.991394 0.654994 0.147707
1.000000 0.659205 0.202823
1.000000 0.665980 0.256321
1.000000 0.676356 0.312718
0.365148 0.551720 0.275029
0.369055 0.551507 0.275578
0.373663 0.550469 0.276036
0.382300 0.546807 0.276524
0.394903 0.541070 0.277379
0.410132 0.533593 0.278538
0.427497 0.525505 0.280430
0.445716 0.516564 0.282902
0.464332 0.506523 0.285863
0.481727 0.495918 0.289525
0.497139 0.484291 0.293400
0.518151 0.487770 0.292058
0.554864 0.512505 0.281834
0.593591 0.537438 0.268406
0.633051 0.561334 0.250767
0.672236 0.583551 0.228214
0.711543 0.604395 0.199222
0.749447 0.622827 0.161379
0.785916 0.638880 0.104341
0.820249 0.652247 0.000000
0.851804 0.662409 0.000000
0.891905 0.678950 0.000000
0.921508 0.686946 0.000000
0.940154 0.684962 0.000000
0.956115 0.682307 0.000000
0.969848 0.679408 0.000000
0.981781 0.676783 0.000000
0.992157 0.674586 0.070558
1.000000 0.673213 0.143404
1.000000 0.675959 0.202579
1.000000 0.681849 0.260197
1.000000 0.691524 0.319951
0.399756 0.605615 0.290349
0.403601 0.605035 0.290715
0.407996 0.603265 0.290898
0.416571 0.599145 0.291264
0.429389 0.592462 0.291722
0.444770 0.584222 0.292485
0.462257 0.574578 0.293828
0.480690 0.563714 0.295598
0.499184 0.551934 0.297887
0.516655 0.539055 0.300877
0.531792 0.524987 0.304051
0.543420 0.511498 0.306889
0.577844 0.534661 0.296605
0.614221 0.558160 0.283452
