data/fiter_cube/44540723/1023237/file.cube
# Created by Adobe Lightroom plugin Export LUT (1.17.0)
# www.johnrellis.com/lightroom/exportlut.htm
# Preset: 奶油色调低饱和（弱光环境）_08 云集
# Color profile: C:\Program Files (x86)\Common Files\Adobe\Color\Profiles\Recommended\AdobeRGB1998.icc
LUT_3D_SIZE 32
DOMAIN_MIN 0.0 0.0 0.0
DOMAIN_MAX 1.0 1.0 1.0
0.076783 0.070222 0.068788
0.095613 0.073640 0.072663
0.113008 0.078767 0.077729
0.155642 0.089662 0.089631
0.221103 0.097566 0.102296
0.295506 0.101595 0.116426
0.378332 0.101442 0.132815
0.464576 0.101900 0.151308
0.546715 0.112703 0.171756
0.619196 0.140108 0.193942
0.681453 0.178195 0.218967
0.733577 0.222202 0.245975
0.774411 0.266850 0.274540
0.805997 0.310765 0.305119
0.830594 0.352148 0.336980
0.850828 0.390082 0.368566
0.867430 0.424903 0.399512
0.881071 0.457343 0.430030
0.892363 0.487282 0.459388
0.904051 0.521691 0.494057
0.913420 0.552880 0.525872
0.920867 0.580865 0.555016
0.926879 0.605829 0.581353
0.931792 0.628443 0.605402
0.936156 0.648310 0.626764
0.940063 0.666407 0.646296
0.943694 0.683284 0.664576
0.947112 0.699092 0.681849
0.950286 0.714199 0.698390
0.953155 0.728817 0.714534
0.955688 0.742916 0.730220
0.957885 0.756252 0.745144
0.084962 0.089052 0.076143
0.093996 0.089784 0.081910
0.113008 0.096223 0.084321
0.158236 0.105623 0.092988
0.223362 0.115816 0.105470
0.296696 0.121431 0.119600
0.378759 0.123445 0.135775
0.463386 0.126040 0.153689
0.544793 0.136507 0.173648
0.616938 0.160159 0.195926
0.678889 0.194369 0.220493
0.730953 0.234073 0.246983
0.771939 0.276005 0.275242
0.803769 0.317601 0.305821
0.828611 0.356756 0.336736
0.848966 0.393683 0.368322
0.865721 0.427405 0.398962
0.879576 0.458839 0.429267
0.891112 0.488014 0.458167
0.902861 0.521477 0.492042
0.912230 0.551690 0.523247
0.919768 0.579126 0.552056
0.925872 0.603815 0.578302
0.930968 0.626246 0.602319
0.935424 0.646235 0.623865
0.939422 0.664576 0.643763
0.943175 0.681575 0.662226
0.946654 0.697658 0.679805
0.949920 0.712825 0.696529
0.952850 0.727657 0.712917
0.955444 0.741878 0.728786
0.957702 0.755245 0.743801
0.094789 0.108400 0.087465
0.102052 0.107912 0.093111
0.111147 0.110140 0.097261
0.155856 0.129580 0.101930
0.226505 0.138552 0.109682
0.299413 0.145296 0.124117
0.379767 0.148440 0.139467
0.463355 0.153109 0.157473
0.543786 0.163424 0.176761
0.615351 0.184054 0.198947
0.676997 0.214511 0.222751
0.729183 0.250797 0.248875
0.770199 0.289158 0.277317
0.802152 0.328099 0.307652
0.827054 0.365393 0.338933
0.847654 0.400031 0.369635
0.864500 0.432532 0.400153
0.878508 0.462806 0.429877
0.890288 0.491707 0.459266
0.902007 0.523857 0.492256
0.911406 0.553185 0.522972
0.919066 0.579889 0.551293
0.925231 0.604273 0.577386
0.930388 0.626307 0.601312
0.934905 0.646265 0.622950
0.939025 0.664363 0.642695
0.942779 0.681392 0.661341
0.946319 0.697475 0.679072
0.949645 0.712612 0.695827
0.952636 0.727474 0.712337
0.955261 0.741634 0.728206
0.957549 0.755062 0.743282
0.110903 0.158358 0.106752
0.119417 0.157717 0.112917
0.129244 0.157046 0.120974
0.150668 0.162356 0.130312
0.212802 0.189670 0.135531
0.306706 0.191531 0.133272
0.385473 0.196078 0.148623
0.467475 0.201663 0.165927
0.545708 0.211673 0.184787
0.615747 0.229221 0.206302
0.676295 0.254337 0.229496
0.727626 0.284520 0.255497
0.768307 0.317754 0.283726
0.800107 0.351659 0.313481
0.825101 0.383886 0.343511
0.845701 0.415290 0.373968
0.862730 0.444953 0.404028
0.876860 0.472816 0.432990
0.889128 0.500572 0.462318
0.900511 0.529992 0.493965
0.909880 0.557244 0.523278
0.917571 0.582605 0.550896
0.923949 0.606195 0.576745
0.929351 0.628138 0.600916
0.934112 0.648035 0.622980
0.938415 0.666316 0.643153
0.942321 0.683345 0.662074
0.945953 0.699367 0.679927
0.949340 0.714382 0.696712
0.952331 0.728878 0.712978
0.955016 0.742733 0.728603
0.957305 0.755764 0.743374
0.129824 0.226993 0.133608
0.138918 0.225772 0.139742
0.150210 0.224308 0.148287
0.171298 0.223270 0.162203
0.202060 0.227573 0.174105
0.268345 0.254490 0.179751
0.373236 0.265751 0.173800
0.471321 0.262791 0.178103
0.547295 0.270939 0.195834
0.615076 0.285771 0.216831
0.674464 0.305241 0.239567
0.725002 0.329595 0.265232
0.765438 0.356390 0.292668
0.797238 0.383734 0.321599
0.822507 0.411017 0.351415
0.843351 0.437964 0.381170
0.860746 0.463996 0.410803
0.875090 0.489052 0.439216
0.887999 0.515435 0.469276
0.899229 0.541894 0.499153
0.908507 0.566644 0.527306
0.916228 0.590143 0.553948
0.922698 0.612207 0.579004
0.928222 0.633021 0.602686
0.933135 0.652155 0.624384
0.937560 0.669795 0.644465
0.941619 0.686366 0.663233
0.945312 0.701778 0.680751
0.948760 0.716396 0.697322
0.951843 0.730556 0.713436
0.954589 0.744137 0.728969
0.956939 0.756985 0.743771
0.152285 0.299443 0.165255
0.161868 0.298466 0.171176
0.173251 0.296513 0.178408
0.194491 0.292546 0.193881
0.224887 0.291905 0.208194
0.261082 0.294347 0.220066
0.328832 0.319219 0.229404
0.439338 0.341527 0.221134
0.544671 0.342901 0.218418
0.618097 0.349218 0.232944
0.675532 0.364385 0.255192
0.724666 0.382635 0.279973
0.763943 0.402625 0.306950
0.795407 0.423529 0.334691
0.820462 0.444862 0.363592
0.841398 0.466987 0.392523
0.858793 0.488899 0.421118
0.873320 0.510399 0.448615
0.886809 0.534905 0.479011
0.897948 0.558129 0.507408
0.907256 0.580591 0.534539
0.915068 0.602106 0.560479
0.926238 0.643305 0.608331
0.931273 0.661067 0.629511
0.935668 0.677028 0.648493
0.939696 0.691646 0.665736
0.943359 0.705318 0.681758
0.946715 0.718257 0.696895
0.949798 0.730861 0.711635
0.952544 0.743191 0.725978
0.955016 0.754940 0.739742
0.957092 0.766049 0.752773
0.185061 0.381323 0.203616
0.194095 0.379950 0.208652
0.205722 0.378149 0.215061
0.228855 0.374395 0.229343
0.258610 0.368658 0.249912
0.297459 0.368658 0.260472
0.338170 0.369238 0.272160
0.402258 0.389685 0.285740
0.513390 0.421057 0.277745
0.609155 0.432044 0.276646
0.687556 0.433753 0.281010
0.733303 0.445930 0.305333
0.769741 0.459113 0.331334
0.798978 0.473243 0.358068
0.822599 0.488319 0.385290
0.842405 0.504540 0.412055
0.859129 0.521355 0.438544
0.874418 0.541375 0.467445
0.887541 0.562371 0.496529
0.898589 0.583093 0.524315
0.907958 0.604242 0.551934
0.916014 0.625177 0.578759
0.922820 0.645441 0.604242
0.928679 0.664027 0.627497
0.933745 0.680842 0.648219
0.938170 0.695613 0.666255
0.942107 0.709041 0.682551
0.945647 0.721553 0.697688
0.948852 0.733761 0.712398
0.951720 0.745571 0.726528
0.954284 0.756924 0.740108
0.956512 0.767697 0.752987
0.223697 0.452430 0.240818
0.232181 0.451179 0.245029
0.243259 0.449439 0.250553
0.265629 0.445777 0.262181
0.295476 0.440192 0.280064
0.329992 0.435248 0.298192
0.370611 0.434394 0.308721
0.411109 0.434363 0.320897
0.463386 0.447028 0.339300
0.567498 0.484108 0.332921
0.652857 0.500023 0.333410
0.721767 0.504570 0.337560
0.768124 0.506584 0.351934
0.796536 0.515496 0.377050
0.819883 0.525963 0.402686
0.839628 0.537469 0.427619
0.857115 0.551781 0.453956
0.872557 0.568261 0.481483
0.885252 0.584802 0.507744
0.896117 0.601953 0.533745
0.905516 0.619867 0.559594
0.913634 0.638148 0.584955
0.920623 0.656031 0.609064
0.926696 0.672663 0.631128
0.932006 0.687861 0.650874
0.936584 0.701564 0.668452
0.940703 0.714015 0.684199
0.944457 0.725826 0.699062
0.947814 0.737484 0.713558
0.950805 0.748775 0.727535
0.953460 0.759731 0.741024
0.955810 0.770138 0.753780
0.273472 0.518029 0.281834
0.281071 0.516930 0.285161
0.291173 0.515496 0.290013
0.311406 0.512230 0.300084
0.339422 0.507469 0.315496
0.370977 0.501213 0.335241
0.407263 0.497719 0.349645
0.445655 0.496101 0.359869
0.483070 0.495155 0.371740
0.527245 0.504021 0.389319
0.615534 0.539818 0.390173
0.690608 0.557366 0.391333
0.748226 0.562737 0.396277
0.791714 0.560876 0.403662
0.817990 0.564416 0.423255
0.838163 0.573327 0.447700
0.856046 0.584741 0.473610
0.870787 0.596735 0.498024
0.883116 0.609369 0.522026
0.893858 0.623163 0.545830
0.903258 0.638025 0.569818
0.911437 0.653529 0.593530
0.918608 0.668849 0.615900
0.924834 0.683436 0.636591
0.930297 0.696986 0.655451
0.935088 0.709224 0.672114
0.939361 0.720638 0.687373
0.943206 0.731624 0.701808
0.946715 0.742428 0.715816
0.949828 0.753048 0.729488
0.952575 0.763424 0.742611
0.955016 0.773281 0.755093
0.329808 0.574853 0.324926
0.336400 0.573907 0.327916
0.344732 0.572473 0.331701
0.362188 0.569635 0.340246
0.387091 0.565454 0.353704
0.415900 0.560052 0.370703
0.446265 0.553796 0.391730
0.480690 0.551232 0.400855
0.514794 0.549676 0.411017
0.546838 0.548730 0.422065
0.582544 0.553979 0.437385
0.656275 0.586328 0.443732
0.720180 0.603388 0.445563
0.768460 0.608820 0.450629
0.807156 0.610224 0.459846
0.838193 0.610101 0.471565
0.855253 0.617639 0.494575
0.869505 0.626154 0.517205
0.881559 0.635584 0.539025
0.892027 0.646174 0.560784
0.901213 0.657862 0.582422
0.909300 0.670192 0.603632
0.916411 0.682521 0.623590
0.922698 0.694545 0.642298
0.928283 0.706081 0.659541
0.933257 0.716945 0.675441
0.937743 0.727382 0.690181
0.941802 0.737667 0.704463
0.945464 0.747951 0.718410
0.948760 0.758083 0.731960
0.951659 0.768002 0.745022
0.954223 0.777462 0.757412
0.386450 0.621973 0.367834
0.391760 0.621241 0.370489
0.399023 0.620233 0.373907
0.413764 0.617914 0.381384
0.435157 0.614527 0.392767
0.460334 0.610101 0.407599
0.487861 0.605158 0.426062
0.515862 0.600793 0.442878
0.545830 0.598688 0.451087
0.575189 0.597192 0.460487
0.602808 0.596277 0.470741
0.631220 0.598627 0.483192
0.692256 0.627100 0.494514
0.746822 0.643977 0.498878
0.788327 0.650690 0.505455
0.821561 0.652888 0.513512
0.848631 0.652186 0.521904
0.867430 0.653498 0.535363
0.879240 0.659998 0.554986
0.889677 0.667811 0.574640
0.898833 0.677058 0.594690
0.907042 0.686885 0.613916
0.914336 0.697108 0.632441
0.920775 0.707271 0.649866
0.926513 0.717128 0.665980
0.931640 0.726528 0.680781
0.936248 0.735683 0.694697
0.940398 0.744930 0.708339
0.944182 0.754269 0.721706
0.947631 0.763577 0.734737
0.950652 0.772793 0.747433
0.953307 0.781674 0.759487
0.442359 0.662867 0.411505
0.446540 0.662226 0.413581
0.452644 0.661341 0.416663
0.464424 0.659449 0.422858
0.482155 0.656733 0.432532
0.503349 0.653285 0.445197
0.526940 0.649226 0.460822
0.551171 0.644831 0.478706
0.576623 0.641840 0.490700
0.602441 0.640070 0.498329
0.628016 0.639033 0.507439
0.654108 0.640345 0.519158
0.693996 0.656336 0.548302
0.739345 0.678035 0.563561
0.781277 0.691554 0.567834
0.814847 0.697871 0.573327
0.841764 0.699916 0.579400
0.863584 0.699519 0.585962
0.881498 0.697963 0.592981
0.892485 0.701198 0.606989
0.900877 0.706996 0.623133
0.908385 0.713619 0.638819
0.915129 0.720516 0.653742
0.921172 0.727840 0.668086
0.926635 0.735103 0.681636
0.931579 0.742489 0.694484
0.936004 0.749935 0.706844
0.940032 0.757534 0.719020
0.943694 0.765316 0.730953
0.947051 0.773220 0.742733
0.950042 0.781125 0.754208
0.952636 0.788968 0.765347
0.501183 0.700465 0.460060
0.504448 0.699947 0.461799
0.508659 0.699001 0.463996
0.517723 0.697139 0.468727
0.531151 0.694423 0.476173
0.547631 0.691005 0.485908
0.566766 0.687282 0.498451
0.587488 0.683375 0.513390
0.609155 0.679957 0.530968
0.634333 0.680323 0.541222
0.659236 0.681239 0.551781
0.683131 0.682612 0.563317
0.705196 0.684352 0.575250
0.724880 0.686000 0.586725
0.759731 0.702693 0.602655
0.796139 0.715938 0.606470
0.825345 0.722286 0.610681
0.848875 0.724514 0.615229
0.868254 0.724697 0.620569
0.884703 0.724025 0.626581
0.898314 0.723659 0.634119
0.905943 0.728389 0.648096
0.912779 0.733700 0.661738
0.918975 0.739406 0.674739
0.924590 0.745357 0.687221
0.929686 0.751553 0.699214
0.934264 0.758053 0.711025
0.938415 0.764767 0.722744
0.942229 0.771786 0.734218
0.945739 0.779019 0.745663
0.948852 0.786313 0.756863
0.951629 0.793606 0.767727
0.544549 0.724910 0.497902
0.547326 0.724453 0.499458
0.550591 0.723751 0.501091
0.557885 0.722286 0.505180
0.568566 0.720058 0.511223
0.583520 0.718013 0.520653
0.600916 0.715724 0.532464
0.619806 0.713283 0.546380
0.639582 0.710903 0.562219
0.659663 0.709377 0.577264
0.680110 0.709285 0.585595
0.700160 0.709743 0.594873
0.718959 0.710353 0.604211
0.736110 0.711025 0.613367
0.751308 0.711513 0.621973
0.777340 0.723445 0.635401
0.808652 0.735622 0.637903
0.834104 0.741756 0.640925
0.855100 0.744472 0.644770
0.872892 0.745449 0.649561
0.888090 0.745632 0.655268
0.901152 0.745480 0.661463
0.910674 0.747005 0.670344
0.917021 0.751400 0.682307
0.922759 0.756252 0.693935
0.927947 0.761471 0.705318
0.932647 0.766934 0.716426
0.936919 0.772824 0.727504
0.940856 0.779049 0.738521
0.944457 0.785580 0.749538
0.947723 0.792233 0.760342
0.950591 0.798947 0.770932
0.589349 0.747860 0.538201
0.591638 0.747646 0.539635
0.594263 0.747036 0.540978
0.600183 0.745968 0.544579
0.609094 0.744228 0.549859
0.620417 0.742092 0.556970
0.634058 0.739773 0.566247
0.649287 0.737362 0.577447
0.665797 0.735073 0.590600
0.682673 0.733120 0.605432
0.699519 0.732235 0.615686
0.716335 0.732357 0.622950
0.732418 0.732601 0.630396
0.747494 0.732876 0.637751
0.761013 0.732876 0.644587
0.772946 0.732570 0.650599
0.791226 0.739895 0.662593
0.819699 0.752163 0.664118
0.842283 0.758267 0.666651
0.861418 0.761563 0.670314
0.877684 0.763210 0.674830
0.891691 0.763943 0.679957
0.903746 0.764126 0.685451
0.914305 0.764126 0.691279
0.920958 0.767147 0.701015
0.926268 0.771481 0.711849
0.931121 0.776333 0.722652
0.935576 0.781643 0.733455
0.939696 0.787289 0.744228
0.943420 0.793301 0.755093
0.946807 0.799466 0.765652
0.949706 0.805661 0.775967
0.628626 0.766995 0.574609
0.630640 0.766873 0.576043
0.632776 0.766476 0.577325
0.637629 0.765530 0.580224
0.644831 0.764157 0.584741
0.654261 0.762478 0.590936
0.665431 0.760678 0.598779
0.678096 0.758755 0.608087
0.691676 0.756802 0.618799
0.705562 0.754971 0.630610
0.719326 0.753231 0.643122
0.732753 0.752621 0.648859
0.745754 0.752102 0.654078
0.758236 0.751614 0.659236
0.769833 0.751003 0.664179
0.780545 0.750362 0.668971
0.790402 0.749752 0.673579
0.805386 0.755184 0.683192
0.829709 0.766415 0.686397
0.850340 0.773007 0.689418
0.867918 0.776974 0.693416
0.882933 0.779232 0.698054
0.895781 0.780514 0.703029
0.906981 0.781247 0.708400
0.916747 0.781704 0.713924
0.925017 0.782498 0.720150
0.929931 0.786496 0.730282
0.934447 0.791012 0.740444
0.938598 0.795895 0.750668
0.942382 0.801022 0.760678
0.945769 0.806363 0.770626
0.948730 0.811795 0.780240
0.660945 0.782071 0.605371
0.662196 0.781888 0.606165
0.663966 0.781491 0.607233
0.667597 0.780728 0.609491
0.673365 0.779629 0.613184
0.680842 0.778225 0.618158
0.689845 0.776638 0.624353
0.700099 0.774929 0.631891
0.711238 0.773251 0.640497
0.722957 0.771633 0.650202
0.734737 0.770047 0.660578
0.746242 0.768856 0.669764
0.757504 0.768368 0.674067
0.768338 0.767788 0.678248
0.778653 0.767117 0.682307
0.788205 0.766323 0.686091
0.797177 0.765469 0.689815
0.805661 0.764797 0.693660
0.818265 0.769039 0.701778
0.839048 0.779202 0.706477
0.857786 0.785916 0.709743
0.873777 0.790127 0.713649
0.887510 0.792752 0.718135
0.899443 0.794461 0.723018
0.909850 0.795590 0.728084
0.919005 0.796414 0.733394
0.927092 0.797238 0.739010
0.933165 0.799496 0.746548
0.937377 0.803769 0.756222
0.941253 0.808316 0.765896
0.944732 0.813077 0.775387
0.947784 0.817960 0.784665
0.688838 0.795254 0.632471
0.690211 0.795193 0.633417
0.703700 0.800626 0.646296
0.706477 0.800015 0.648066
0.710658 0.799069 0.650690
0.716030 0.797787 0.654200
0.722591 0.796323 0.658656
0.730159 0.794736 0.664057
0.738643 0.793118 0.670497
0.747829 0.791562 0.677852
0.757137 0.790036 0.685786
0.766445 0.788510 0.694270
0.775357 0.787381 0.699580
0.784176 0.786496 0.702571
0.792630 0.785550 0.705440
0.800748 0.784543 0.708278
0.808499 0.783536 0.711177
0.815885 0.782589 0.714076
0.822873 0.781796 0.717067
0.833127 0.784817 0.723751
0.850309 0.793606 0.729152
0.866819 0.799954 0.732143
0.881041 0.804074 0.735653
0.893309 0.806760 0.739620
0.903960 0.808408 0.743648
0.913390 0.809445 0.747921
0.921721 0.810300 0.752499
0.929137 0.811124 0.757412
0.935821 0.812131 0.762783
0.940185 0.815457 0.771115
0.943694 0.819638 0.780117
0.946807 0.823911 0.788907
0.715419 0.808011 0.658717
0.717708 0.808560 0.660761
0.720272 0.809018 0.662928
0.723873 0.809171 0.665705
0.728267 0.808865 0.668879
0.733272 0.808072 0.672358
0.738888 0.806973 0.676204
0.745296 0.805661 0.680781
0.752499 0.804318 0.686183
0.760281 0.802945 0.692317
0.768460 0.801572 0.699123
0.776761 0.800198 0.706569
0.784726 0.798795 0.714168
0.792386 0.797879 0.717098
0.799924 0.796994 0.719539
0.807187 0.796048 0.721981
0.814237 0.795102 0.724453
0.821012 0.794217 0.727016
0.827634 0.793484 0.729763
0.834073 0.793057 0.732815
0.842985 0.795560 0.738735
0.857969 0.803647 0.745296
0.873136 0.810117 0.748501
0.886259 0.814420 0.752041
0.897581 0.817319 0.755886
0.907530 0.819303 0.759915
0.916350 0.820768 0.764218
0.924193 0.822019 0.768826
0.931243 0.823209 0.773831
0.937499 0.824521 0.779171
0.942718 0.826169 0.785031
0.945861 0.829892 0.793332
0.734432 0.817533 0.677852
0.736324 0.817960 0.679530
0.738460 0.818387 0.681331
0.741390 0.818509 0.683619
0.745113 0.818265 0.686366
0.749294 0.817655 0.689296
0.754086 0.816709 0.692622
0.759518 0.815610 0.696529
0.765713 0.814481 0.701198
0.772488 0.813260 0.706538
0.779690 0.812100 0.712520
0.787015 0.810880 0.718990
0.794217 0.809598 0.725643
0.801114 0.808438 0.731319
0.807736 0.807614 0.733394
0.814237 0.806760 0.735531
0.820523 0.805905 0.737667
0.826749 0.805112 0.739895
0.832853 0.804471 0.742367
0.838926 0.804044 0.745113
0.844785 0.803830 0.748135
0.852537 0.805936 0.753445
0.865568 0.813352 0.760739
0.879393 0.819669 0.763973
0.891386 0.824002 0.767422
0.901854 0.827054 0.771084
0.911131 0.829252 0.774990
0.919402 0.831022 0.779294
0.926757 0.832609 0.783932
0.933349 0.834043 0.788846
0.939117 0.835416 0.793942
0.944091 0.836728 0.798978
0.751614 0.826230 0.695338
0.753231 0.826627 0.696803
0.755093 0.826993 0.698421
0.757595 0.827115 0.700465
0.760800 0.826902 0.702846
0.764370 0.826352 0.705409
0.768368 0.825589 0.708217
0.773007 0.824613 0.711574
0.778317 0.823606 0.715572
0.784115 0.822568 0.720150
0.790341 0.821500 0.725277
0.796811 0.820401 0.730922
0.803159 0.819272 0.736660
0.809445 0.818112 0.742672
0.815457 0.817227 0.746517
0.821408 0.816617 0.748562
0.827420 0.816098 0.750820
0.833371 0.815702 0.753231
0.839353 0.815457 0.755947
0.845243 0.815396 0.758907
0.851072 0.815549 0.762112
0.856687 0.815824 0.765530
0.863401 0.817655 0.770352
0.874479 0.824216 0.778225
0.887144 0.830564 0.781552
0.897978 0.834928 0.785000
0.907591 0.838071 0.788632
0.916045 0.840513 0.792599
0.923583 0.842496 0.796811
0.930297 0.844114 0.801236
0.936187 0.845579 0.805753
0.941192 0.846891 0.810300
0.771450 0.836057 0.715969
0.772366 0.836179 0.716762
0.773373 0.836210 0.717556
0.775021 0.836088 0.718807
0.777279 0.835721 0.720455
0.780117 0.835172 0.722438
0.783474 0.834531 0.724849
0.787503 0.833738 0.727810
0.792142 0.832975 0.731380
0.797269 0.832151 0.735470
0.802792 0.831296 0.740108
0.808499 0.830411 0.745022
0.814145 0.829465 0.750118
0.819699 0.828428 0.755367
0.825071 0.827390 0.760708
0.830289 0.826810 0.762875
0.835508 0.826291 0.764767
0.840757 0.825864 0.766812
0.846067 0.825589 0.769100
0.851286 0.825437 0.771542
0.856413 0.825376 0.774136
0.861448 0.825437 0.776913
0.866300 0.825650 0.779721
0.871794 0.826780 0.783566
0.880735 0.832090 0.791470
0.892790 0.838590 0.794553
0.902831 0.842954 0.797940
0.911742 0.846250 0.801572
0.919646 0.848844 0.805539
0.926635 0.850950 0.809689
0.932738 0.852689 0.813962
0.937987 0.854276 0.818326
0.785824 0.843290 0.731167
0.786648 0.843381 0.731899
0.787594 0.843473 0.732662
0.789029 0.843351 0.733791
0.790921 0.843076 0.735195
0.793271 0.842588 0.736843
0.796078 0.841978 0.738888
0.799405 0.841276 0.741299
0.803342 0.840574 0.744350
0.807736 0.839811 0.747860
0.812497 0.839078 0.751827
0.817472 0.838285 0.756100
0.822538 0.837461 0.760586
0.827543 0.836576 0.765255
0.832517 0.835691 0.770108
0.837308 0.834928 0.774350
0.842100 0.834592 0.776120
0.846921 0.834318 0.778134
0.851774 0.834104 0.780270
0.856657 0.834073 0.782589
0.861479 0.834104 0.785092
0.866239 0.834287 0.787747
0.870878 0.834562 0.790494
0.875334 0.834928 0.793271
0.878843 0.834531 0.794705
0.887053 0.839475 0.802213
0.897856 0.845701 0.805966
0.907195 0.850095 0.809384
0.915526 0.853483 0.813077
0.922881 0.856199 0.817014
0.929290 0.858457 0.821195
0.934783 0.860441 0.825559
0.801877 0.851255 0.748440
0.802640 0.851377 0.749111
0.803342 0.851408 0.749722
0.804379 0.851255 0.750515
0.805783 0.850950 0.751492
0.807614 0.850492 0.752743
0.809812 0.849851 0.754299
0.812406 0.849180 0.756130
0.815488 0.848417 0.758450
0.818997 0.847623 0.761135
0.822812 0.846830 0.764218
0.826902 0.846006 0.767666
0.831174 0.845182 0.771389
0.835447 0.844297 0.775296
0.839628 0.843320 0.779232
0.843839 0.842374 0.783383
0.847898 0.841703 0.786069
0.852079 0.841367 0.787625
0.856474 0.841184 0.789517
0.861021 0.841184 0.791684
0.865568 0.841306 0.794125
0.870054 0.841520 0.796597
0.874388 0.841764 0.799069
0.878477 0.841978 0.801511
0.882383 0.842191 0.803861
0.886168 0.842527 0.806271
0.893736 0.847166 0.813352
0.903227 0.852903 0.817502
0.911803 0.857176 0.820829
0.919402 0.860594 0.824491
0.926085 0.863371 0.828428
0.931792 0.865751 0.832609
0.813413 0.857206 0.761044
0.814084 0.857359 0.761715
0.814725 0.857389 0.762234
0.815640 0.857267 0.762936
0.816892 0.856992 0.763790
0.818448 0.856596 0.764920
0.820401 0.856107 0.766323
0.822721 0.855558 0.768002
0.825467 0.854948 0.770108
0.828611 0.854307 0.772580
0.832029 0.853666 0.775387
0.835752 0.853056 0.778592
0.839628 0.852354 0.781979
0.843503 0.851652 0.785519
0.847379 0.850858 0.789151
0.851194 0.850095 0.792935
0.855009 0.849363 0.796872
0.858824 0.849058 0.798611
0.862791 0.848905 0.800381
0.866850 0.848966 0.802365
0.870970 0.849088 0.804501
0.875090 0.849271 0.806760
0.879088 0.849516 0.809018
0.882902 0.849760 0.811276
0.886625 0.850004 0.813535
0.890135 0.850278 0.815732
0.893584 0.850614 0.817960
0.900359 0.854826 0.824521
0.908751 0.860197 0.829191
0.916564 0.864408 0.832609
0.923430 0.867796 0.836301
0.929259 0.870573 0.840238
0.825071 0.863279 0.773922
0.825528 0.863340 0.774380
0.825986 0.863310 0.774746
0.826658 0.863157 0.775235
0.827604 0.862882 0.775875
0.828885 0.862516 0.776730
0.830442 0.862058 0.777859
0.832425 0.861540 0.779294
0.834806 0.861021 0.781155
0.837522 0.860472 0.783291
0.840543 0.859922 0.785794
0.843900 0.859403 0.788663
0.847349 0.858824 0.791714
0.850889 0.858244 0.794949
0.854368 0.857572 0.798184
0.857847 0.856901 0.801541
0.861295 0.856199 0.805051
0.864744 0.855680 0.808255
0.868284 0.855619 0.809781
0.871977 0.855619 0.811551
0.875761 0.855772 0.813504
0.879545 0.855955 0.815579
0.883207 0.856199 0.817685
0.886839 0.856443 0.819791
0.890288 0.856718 0.821836
0.893645 0.856992 0.823941
0.896910 0.857359 0.826078
0.900023 0.857725 0.828183
0.906096 0.861479 0.834165
0.913512 0.866514 0.839353
0.920562 0.870603 0.842832
0.926574 0.873899 0.846555
0.835142 0.868589 0.785214
0.835477 0.868650 0.785580
0.835843 0.868620 0.785855
0.836454 0.868528 0.786313
0.837369 0.868315 0.787015
0.838682 0.868101 0.788022
0.840421 0.867887 0.789425
0.842557 0.867643 0.791165
0.845060 0.867430 0.793301
0.847868 0.867216 0.795773
0.850950 0.867002 0.798489
0.854185 0.866758 0.801419
0.857511 0.866484 0.804471
0.860838 0.866117 0.807553
0.864073 0.865660 0.810636
0.867185 0.865141 0.813657
0.870298 0.864591 0.816800
0.873381 0.864073 0.820035
0.876524 0.863859 0.822385
0.879759 0.863920 0.823972
0.883085 0.864012 0.825681
0.886412 0.864225 0.827512
0.889677 0.864408 0.829343
0.892912 0.864622 0.831205
0.896056 0.864866 0.833066
0.899107 0.865141 0.834989
0.902098 0.865446 0.836851
0.904997 0.865812 0.838834
0.907805 0.866239 0.840879
0.912963 0.869444 0.846128
0.919097 0.873808 0.851438
0.925109 0.877501 0.854673
0.847379 0.874998 0.799252
0.847654 0.874998 0.799496
0.847868 0.874937 0.799680
0.848325 0.874815 0.799954
0.849027 0.874632 0.800443
0.850004 0.874357 0.801175
0.851286 0.874113 0.802152
0.852903 0.873808 0.803433
0.854795 0.873503 0.805020
0.857023 0.873198 0.806882
0.859464 0.872892 0.808957
0.862028 0.872526 0.811215
0.864775 0.872160 0.813687
