data/fiter_cube/44540723/1023237/file.cube
# Created by Adobe Lightroom plugin Export LUT (1.17.0)
# www.johnrellis.com/lightroom/exportlut.htm
# Preset: 奶油色调低饱和（弱光环境）_08 云集
# Color profile: C:\Program Files (x86)\Common Files\Adobe\Color\Profiles\Recommended\AdobeRGB1998.icc
LUT_3D_SIZE 8
DOMAIN_MIN 0.000000 0.000000 0.000000
DOMAIN_MAX 0.903226 0.903226 0.903226
0.076783 0.070222 0.068788
0.221103 0.097566 0.102296
0.546715 0.112703 0.171756
0.774411 0.266850 0.274540
0.867430 0.424903 0.399512
0.913420 0.552880 0.525872
0.936156 0.648310 0.626764
0.950286 0.714199 0.698390
0.129824 0.226993 0.133608
0.202060 0.227573 0.174105
0.547295 0.270939 0.195834
0.765438 0.356390 0.292668
0.860746 0.463996 0.410803
0.908507 0.566644 0.527306
0.933135 0.652155 0.624384
0.948760 0.716396 0.697322
0.273472 0.518029 0.281834
0.339422 0.507469 0.315496
0.483070 0.495155 0.371740
0.748226 0.562737 0.396277
0.856046 0.584741 0.473610
0.903258 0.638025 0.569818
0.930297 0.696986 0.655451
0.946715 0.742428 0.715816
0.501183 0.700465 0.460060
0.531151 0.694423 0.476173
0.609155 0.679957 0.530968
0.705196 0.684352 0.575250
0.825345 0.722286 0.610681
0.898314 0.723659 0.634119
0.924590 0.745357 0.687221
0.942229 0.771786 0.734218
0.660945 0.782071 0.605371
0.673365 0.779629 0.613184
0.711238 0.773251 0.640497
0.757504 0.768368 0.674067
0.797177 0.765469 0.689815
0.857786 0.785916 0.709743
0.909850 0.795590 0.728084
0.937377 0.803769 0.756222
0.751614 0.826230 0.695338
0.760800 0.826902 0.702846
0.778317 0.823606 0.715572
0.803159 0.819272 0.736660
0.827420 0.816098 0.750820
0.851072 0.815549 0.762112
0.887144 0.830564 0.781552
0.923583 0.842496 0.796811
0.813413 0.857206 0.761044
0.816892 0.856992 0.763790
0.825467 0.854948 0.770108
0.839628 0.852354 0.781979
0.855009 0.849363 0.796872
0.870970 0.849088 0.804501
0.886625 0.850004 0.813535
0.908751 0.860197 0.829191
0.855985 0.879698 0.809232
0.857420 0.879393 0.810300
0.862699 0.878538 0.814603
0.871763 0.877531 0.822629
0.879515 0.874449 0.829191
0.890806 0.873930 0.839567
0.902403 0.875090 0.846616
0.912902 0.876249 0.853422
0.076356 0.110506 0.201022
0.208621 0.105379 0.231937
0.522728 0.186404 0.293400
0.752438 0.342382 0.387823
0.851255 0.468513 0.473884
0.901183 0.571801 0.561913
0.928740 0.654261 0.641291
0.946380 0.715663 0.704250
0.098512 0.249302 0.227268
0.248356 0.270420 0.276524
0.538689 0.322820 0.329107
0.750881 0.407813 0.400366
0.848203 0.501061 0.482521
0.898314 0.586969 0.565911
0.926360 0.659083 0.640406
0.944884 0.717281 0.702632
0.248966 0.527153 0.300542
0.388952 0.523949 0.385534
0.511864 0.512688 0.435096
0.750057 0.567620 0.457343
0.844755 0.598199 0.523217
0.893858 0.645716 0.595483
0.923522 0.695766 0.661769
0.942992 0.740780 0.717952
0.502251 0.698665 0.478187
0.551171 0.693660 0.510155
0.625513 0.682643 0.557916
0.701656 0.678950 0.588800
0.816556 0.713100 0.614160
0.888762 0.718044 0.639582
0.918608 0.740780 0.688045
0.939025 0.769253 0.734676
0.671015 0.780911 0.621942
0.681666 0.778195 0.627771
0.715541 0.771481 0.650263
0.756222 0.764553 0.678859
0.792844 0.760678 0.691035
0.854795 0.782589 0.710536
0.907744 0.793118 0.729702
0.935241 0.802853 0.758267
0.752743 0.824308 0.699550
0.758450 0.823423 0.703334
0.776028 0.820371 0.715694
0.801663 0.816739 0.736934
0.826596 0.814420 0.752682
0.850736 0.814878 0.764706
0.886656 0.829953 0.782925
0.922850 0.841367 0.797177
0.811337 0.855192 0.760250
0.813504 0.854368 0.761532
0.822812 0.852628 0.768429
0.838163 0.850736 0.781369
0.854490 0.848356 0.797024
0.870085 0.847898 0.804623
0.885100 0.848356 0.812558
0.907439 0.858610 0.827543
0.855070 0.878874 0.808927
0.856840 0.878721 0.810361
0.862303 0.877958 0.814786
0.871519 0.877073 0.822965
0.881773 0.875639 0.832639
0.891936 0.874510 0.841794
0.902464 0.874998 0.847379
0.912566 0.875822 0.853483
0.000000 0.195621 0.440375
0.168582 0.193545 0.463966
0.514122 0.216373 0.500908
0.729397 0.383307 0.538689
0.835996 0.514092 0.583551
0.886961 0.633936 0.655634
0.919310 0.693477 0.701106
0.940215 0.740230 0.742275
0.223239 0.358160 0.456519
0.274022 0.340063 0.481666
0.531884 0.343328 0.514580
0.730587 0.449683 0.549462
0.833555 0.550530 0.594354
0.884794 0.643397 0.656855
0.917754 0.697261 0.700526
0.939330 0.742733 0.742184
0.256840 0.545830 0.484810
0.368139 0.549920 0.503502
0.579461 0.558862 0.553826
0.742947 0.595727 0.588220
0.832944 0.643091 0.633021
0.883268 0.684077 0.672908
0.915679 0.721920 0.711208
0.937499 0.757992 0.749355
0.452735 0.716396 0.500481
0.521080 0.712306 0.533532
0.669673 0.702296 0.625940
0.729305 0.698024 0.655207
0.829129 0.726925 0.673671
0.882261 0.738338 0.698543
0.913329 0.758999 0.730404
0.935027 0.782773 0.762905
0.641352 0.788357 0.615747
0.672572 0.785245 0.638178
0.738827 0.778225 0.688258
0.775906 0.773159 0.715419
0.805814 0.770413 0.724361
0.861357 0.790158 0.738216
0.908721 0.798428 0.754025
0.932219 0.810483 0.779385
0.746365 0.827604 0.702663
0.760128 0.826139 0.714168
0.788510 0.822446 0.737026
0.810819 0.818906 0.753445
0.832761 0.816342 0.768643
0.853635 0.816587 0.777646
0.888762 0.832151 0.793240
0.923705 0.843442 0.807736
0.813077 0.857237 0.767056
0.819059 0.856291 0.772427
0.830320 0.854154 0.781338
0.843595 0.851926 0.791440
0.858549 0.849638 0.804807
0.873289 0.849332 0.813382
0.887938 0.850645 0.821347
0.910277 0.861692 0.835386
0.857053 0.879637 0.813931
0.859800 0.879118 0.816526
0.864714 0.878264 0.820157
0.874235 0.877745 0.828397
0.883970 0.876371 0.837156
0.893980 0.875303 0.846860
0.904143 0.875944 0.852140
0.913909 0.876982 0.857939
0.000885 0.311315 0.630365
0.211063 0.308843 0.641321
0.507286 0.318639 0.666011
0.718318 0.387396 0.675715
0.814054 0.546136 0.678462
0.874418 0.637110 0.705287
0.910430 0.700038 0.735744
0.933959 0.749966 0.769070
0.320806 0.451575 0.638483
0.341161 0.427253 0.647456
0.532677 0.418799 0.668788
0.722255 0.458350 0.679683
0.813748 0.581933 0.685573
0.873045 0.652888 0.709499
0.909209 0.708034 0.738216
0.932708 0.756863 0.772793
0.449317 0.594995 0.636774
0.506584 0.599084 0.641627
0.597894 0.593622 0.671046
0.732845 0.603021 0.690028
0.818021 0.660853 0.705898
0.873716 0.702693 0.728298
0.908446 0.746120 0.758999
0.931792 0.776150 0.783871
0.488350 0.715908 0.654047
0.536339 0.714534 0.660914
0.652857 0.712062 0.682338
0.755764 0.717006 0.712490
0.826352 0.733852 0.729000
0.872953 0.752590 0.747707
0.906249 0.773495 0.769039
0.930205 0.795132 0.791897
0.616815 0.798703 0.643305
0.646113 0.795224 0.656886
0.719387 0.787961 0.695918
0.793668 0.783505 0.747189
0.820127 0.781186 0.760311
0.871061 0.798367 0.771359
0.906706 0.806912 0.786160
0.928862 0.819120 0.804288
0.732174 0.834501 0.708370
0.747829 0.834226 0.719509
0.782284 0.829892 0.743832
0.825010 0.825559 0.778286
0.845365 0.823270 0.794369
0.861357 0.822690 0.799161
0.894224 0.837247 0.810361
0.925597 0.845670 0.821927
0.800870 0.861112 0.763546
0.807706 0.860502 0.769100
0.829313 0.858183 0.787564
0.852689 0.855894 0.807828
0.866728 0.854032 0.818967
0.879515 0.853117 0.827848
0.891661 0.853666 0.833036
0.913359 0.864561 0.844114
0.851713 0.882475 0.812772
0.855283 0.882139 0.816068
0.865995 0.880797 0.825925
0.878050 0.879393 0.836637
0.887419 0.878019 0.844327
0.897093 0.876890 0.853635
0.906493 0.877348 0.858976
0.915740 0.878508 0.864195
0.305272 0.438422 0.737270
0.349157 0.431006 0.741115
0.518639 0.445777 0.749142
0.696223 0.465339 0.762997
0.810697 0.544701 0.764309
0.863188 0.650752 0.761257
0.900725 0.713100 0.777157
0.927886 0.757595 0.797726
0.431220 0.525078 0.736019
0.446662 0.513359 0.740597
0.552392 0.509209 0.749203
0.702937 0.518578 0.762173
0.810727 0.579278 0.764828
0.862638 0.667170 0.763973
0.900389 0.721736 0.779660
0.927520 0.762417 0.799435
0.582116 0.650324 0.730678
0.609430 0.654261 0.735378
0.633753 0.634394 0.746395
0.725460 0.635920 0.761624
0.812009 0.658198 0.767086
0.860472 0.708522 0.770596
0.899077 0.745052 0.786007
0.926299 0.775937 0.803616
0.616236 0.723537 0.738979
0.640833 0.723751 0.740352
0.705257 0.726864 0.745968
0.758785 0.728786 0.764370
0.819516 0.733822 0.775692
0.863737 0.757443 0.784207
0.899809 0.777493 0.797055
0.926207 0.797848 0.812039
0.648737 0.789181 0.743679
0.668299 0.788205 0.746822
0.720089 0.785763 0.756161
0.779965 0.785153 0.770504
0.829984 0.788266 0.787472
0.870024 0.797971 0.797360
0.901244 0.809689 0.809628
0.925261 0.822873 0.823636
0.705776 0.838376 0.721706
0.719814 0.836790 0.728237
0.758663 0.832059 0.747463
0.806149 0.827634 0.774899
0.848234 0.825345 0.805478
0.866148 0.825956 0.816007
0.900389 0.840208 0.826352
0.925963 0.846830 0.836759
0.788937 0.864225 0.768215
0.795193 0.863310 0.772183
0.815000 0.860960 0.785489
0.842039 0.858610 0.805356
0.869963 0.856626 0.828794
0.883818 0.855619 0.840269
0.894499 0.855772 0.843748
0.916594 0.866453 0.852171
0.841428 0.884398 0.810086
0.844572 0.883970 0.812467
0.854765 0.882750 0.820493
0.872770 0.881712 0.836240
0.889555 0.879942 0.851164
0.899565 0.878691 0.859648
0.908568 0.878599 0.866117
0.917113 0.879545 0.870329
0.487709 0.554467 0.801236
0.499794 0.547478 0.802976
0.582513 0.555535 0.805509
0.692531 0.572412 0.812070
0.797421 0.597253 0.819883
0.860807 0.651423 0.817380
0.895750 0.719600 0.815518
0.921386 0.769528 0.828122
0.545892 0.600244 0.797238
0.553063 0.593469 0.798856
0.606683 0.590112 0.802914
0.701930 0.602106 0.809812
0.798856 0.619165 0.818387
0.859861 0.664851 0.816587
0.894926 0.726925 0.816037
0.921019 0.773007 0.828733
0.665644 0.697017 0.794308
0.668513 0.693050 0.795743
0.679683 0.678462 0.801389
0.734218 0.678035 0.808927
0.807370 0.683406 0.818204
0.860533 0.708278 0.818235
0.894316 0.752438 0.820432
0.920806 0.786465 0.832517
0.710750 0.750027 0.789487
0.719814 0.750729 0.791165
0.749905 0.754696 0.798459
0.774105 0.749142 0.810086
0.820401 0.750698 0.820523
0.864714 0.760555 0.823880
0.895354 0.786282 0.828672
0.921508 0.806332 0.838926
0.718715 0.794827 0.800961
0.729335 0.794553 0.801694
0.760769 0.793942 0.804044
0.801083 0.794949 0.808225
0.831510 0.795346 0.819577
0.867247 0.798520 0.827420
0.896452 0.812711 0.834440
0.922179 0.825071 0.843534
0.738003 0.832486 0.799344
0.747707 0.832273 0.801419
0.773922 0.830777 0.806332
0.808225 0.829374 0.813962
0.841917 0.829221 0.823148
0.874266 0.832731 0.836088
0.902129 0.840665 0.844541
0.924010 0.849027 0.853605
0.780179 0.867369 0.788815
0.786679 0.867216 0.791470
0.804623 0.866239 0.798245
0.832456 0.863737 0.812894
0.861418 0.861509 0.830716
0.888609 0.860441 0.851682
0.899657 0.860166 0.857908
0.922271 0.869718 0.864775
0.832822 0.887785 0.815030
0.836088 0.887297 0.817075
0.846860 0.885924 0.824033
0.863554 0.884459 0.835660
0.882383 0.882933 0.849851
0.901946 0.881468 0.866941
0.911772 0.880858 0.875486
0.919554 0.881590 0.878660
0.617090 0.645563 0.841855
0.623682 0.643061 0.843076
0.660883 0.645380 0.844816
0.721431 0.653559 0.847898
0.788663 0.663050 0.852171
0.850767 0.682033 0.855222
0.892668 0.716762 0.853666
0.918364 0.767208 0.853361
0.644160 0.669032 0.839170
0.648920 0.666316 0.840391
0.673976 0.662623 0.842741
0.727565 0.667903 0.845823
0.790249 0.674830 0.850309
0.850248 0.690028 0.853758
0.891295 0.721248 0.852232
0.917266 0.768643 0.852293
0.712795 0.728969 0.836973
0.714595 0.726284 0.837766
0.720790 0.716182 0.840543
0.753017 0.713741 0.844419
0.801907 0.716579 0.849088
0.854398 0.724514 0.853971
0.891814 0.747494 0.853605
0.917479 0.785214 0.855558
0.761898 0.777493 0.834440
0.766873 0.777646 0.835142
0.780117 0.776761 0.838102
0.787198 0.765713 0.843381
0.818326 0.764431 0.848875
0.861357 0.767147 0.855863
0.893492 0.780789 0.856382
0.917693 0.806394 0.859709
0.775265 0.805966 0.833799
0.780423 0.805905 0.833768
0.797391 0.806516 0.834287
0.819272 0.808255 0.839506
0.833860 0.802548 0.847684
0.864286 0.802823 0.855344
0.894469 0.809354 0.858305
0.917906 0.827756 0.863859
0.782284 0.839200 0.843198
0.787381 0.838804 0.843473
0.803372 0.837644 0.844511
0.826474 0.836393 0.846464
0.851987 0.835813 0.849058
0.873442 0.836149 0.857816
0.899046 0.839261 0.864378
0.920134 0.849638 0.870268
0.799039 0.864134 0.841245
0.803494 0.863951 0.842222
0.816709 0.863096 0.844816
0.836179 0.862119 0.849180
0.858335 0.861234 0.854643
0.881590 0.861479 0.861784
0.904326 0.864103 0.871336
0.923949 0.869902 0.877623
0.826474 0.887572 0.833036
0.829435 0.887419 0.834104
0.840055 0.887388 0.838468
0.854948 0.887236 0.844297
0.874083 0.886381 0.853819
0.895232 0.884977 0.867613
0.914824 0.884245 0.883482
0.922637 0.884306 0.888304
0.710384 0.716243 0.873075
0.712856 0.714412 0.873686
0.727687 0.712398 0.874601
0.760372 0.715572 0.876310
0.801236 0.719753 0.878752
0.846189 0.724880 0.881987
0.886809 0.741939 0.883238
0.916381 0.765621 0.882383
0.722957 0.728176 0.871794
0.725032 0.726406 0.872404
0.735286 0.721950 0.873716
0.765164 0.724056 0.875364
0.803738 0.727352 0.877958
0.846952 0.731594 0.881254
0.886656 0.746242 0.882689
0.915892 0.768460 0.881895
0.758785 0.762173 0.869444
0.760006 0.760555 0.869932
0.762936 0.753445 0.871366
0.782559 0.751553 0.874144
0.813993 0.752743 0.876799
0.851072 0.754421 0.880186
0.887938 0.763790 0.882414
0.915648 0.781552 0.882048
0.799741 0.801053 0.867277
0.800626 0.800046 0.867887
0.802426 0.795193 0.869322
0.806943 0.786618 0.872496
0.827634 0.784360 0.875822
0.857755 0.784878 0.879637
0.890715 0.788907 0.883055
0.916045 0.801450 0.883207
0.815549 0.824674 0.864591
0.818204 0.824918 0.865263
0.825681 0.824643 0.866972
0.838010 0.824033 0.870298
0.842222 0.814359 0.874601
0.863798 0.812802 0.878935
0.893675 0.814145 0.884062
0.916960 0.823819 0.885008
0.822202 0.846189 0.868833
0.824613 0.845914 0.868772
0.833036 0.845396 0.868833
0.846769 0.844877 0.869291
0.862638 0.844999 0.872435
0.874266 0.840879 0.879454
0.897429 0.842313 0.885985
0.919524 0.848325 0.888884
0.828824 0.871794 0.876677
0.831083 0.871427 0.876707
0.838743 0.870298 0.877012
0.851804 0.868803 0.877897
0.868650 0.867247 0.879332
0.887602 0.866575 0.881498
0.903777 0.866850 0.888151
0.921996 0.869139 0.892576
0.842466 0.888548 0.873930
0.844327 0.888334 0.874266
0.850980 0.887785 0.875578
0.862425 0.887053 0.878141
0.877012 0.886290 0.881651
0.893339 0.885740 0.886107
0.910460 0.885832 0.891600
0.925902 0.887236 0.897978
