data/fiter_cube/44540723/1023237/file.cube
# Created by Adobe Lightroom plugin Export LUT (1.17.0)
# www.johnrellis.com/lightroom/exportlut.htm
# Preset: 奶油色调低饱和（弱光环境）_08 云集
# Color profile: C:\Program Files (x86)\Common Files\Adobe\Color\Profiles\Recommended\AdobeRGB1998.icc
LUT_3D_SIZE 5
DOMAIN_MIN 0.000000 0.000000 0.000000
DOMAIN_MAX 0.903226 0.903226 0.903226
0.076783 0.070222 0.068788
0.464576 0.101900 0.151308
0.830594 0.352148 0.336980
0.920867 0.580865 0.555016
0.950286 0.714199 0.698390
0.223697 0.452430 0.240818
0.411109 0.434363 0.320897
0.819883 0.525963 0.402686
0.913634 0.638148 0.584955
0.947814 0.737484 0.713558
0.589349 0.747860 0.538201
0.649287 0.737362 0.577447
0.761013 0.732876 0.644587
0.891691 0.763943 0.679957
0.939696 0.787289 0.744228
0.771450 0.836057 0.715969
0.787503 0.833738 0.727810
0.825071 0.827390 0.760708
0.861448 0.825437 0.776913
0.919646 0.848844 0.805539
0.855985 0.879698 0.809232
0.860960 0.878752 0.813138
0.873991 0.875151 0.823758
0.893736 0.874205 0.841306
0.912902 0.876249 0.853422
0.000000 0.169100 0.377081
0.435462 0.180941 0.437293
0.798337 0.438880 0.524865
0.898619 0.633936 0.644190
0.941527 0.731350 0.729580
0.200778 0.481147 0.426429
0.509209 0.498543 0.495338
0.795651 0.579492 0.569421
0.895628 0.672633 0.659327
0.939635 0.748257 0.738155
0.565850 0.755367 0.552056
0.684382 0.742794 0.635767
0.765743 0.733486 0.678370
0.888731 0.764553 0.708003
0.934905 0.794766 0.765438
0.774777 0.837125 0.727199
0.798245 0.834501 0.746548
0.832029 0.829068 0.773556
0.863920 0.826932 0.788174
0.920104 0.849851 0.813230
0.859312 0.880034 0.815732
0.864042 0.879179 0.819211
0.878782 0.877134 0.831693
0.896422 0.875517 0.847288
0.914244 0.877348 0.857816
0.195468 0.376257 0.693660
0.446052 0.381048 0.708614
0.771145 0.469276 0.725216
0.878569 0.663844 0.739742
0.931151 0.752956 0.782650
0.508690 0.600977 0.691035
0.565148 0.579370 0.708827
0.777127 0.604547 0.732174
0.877012 0.703304 0.750423
0.930053 0.770077 0.790158
0.578546 0.758358 0.704524
0.666377 0.754177 0.718532
0.798642 0.757778 0.754971
0.879484 0.781155 0.778653
0.927398 0.810086 0.808988
0.744228 0.844083 0.728176
0.776425 0.839750 0.748318
0.844297 0.834348 0.799954
0.872251 0.833066 0.816251
0.923430 0.851743 0.832517
0.845090 0.883238 0.809262
0.856870 0.882109 0.819516
0.883574 0.879484 0.843595
0.900298 0.877256 0.858488
0.916045 0.878630 0.866514
0.518029 0.575250 0.811185
0.577600 0.574578 0.814664
0.745480 0.601770 0.824765
0.869352 0.668421 0.826871
0.919707 0.769833 0.833890
0.649531 0.681880 0.805692
0.661494 0.667781 0.810513
0.763699 0.671260 0.821805
0.868406 0.706172 0.826688
0.918547 0.782345 0.836210
0.726375 0.772854 0.801724
0.756039 0.774746 0.803281
0.802914 0.772976 0.819516
0.870329 0.778988 0.830411
0.919554 0.814542 0.844907
0.757443 0.842008 0.812009
0.778714 0.839994 0.815366
0.830320 0.837919 0.827085
0.882628 0.841337 0.845670
0.923461 0.853819 0.859098
0.829740 0.888640 0.816648
0.841215 0.887388 0.823667
0.871397 0.884733 0.843839
0.905577 0.882322 0.871550
0.920134 0.882048 0.880735
0.710384 0.716243 0.873075
0.721553 0.711940 0.874357
0.780148 0.717647 0.877440
0.857786 0.726558 0.882933
0.916381 0.765621 0.882383
0.749355 0.753079 0.870268
0.753384 0.746609 0.871885
0.793606 0.744717 0.875792
0.860319 0.748775 0.881590
0.915862 0.778134 0.882200
0.807828 0.813199 0.865934
0.816190 0.813016 0.867552
0.824826 0.800504 0.873014
0.867521 0.798062 0.879881
0.916289 0.812131 0.883818
0.824643 0.852750 0.871214
0.832700 0.851987 0.871275
0.857023 0.850736 0.872282
0.881804 0.847379 0.881193
0.920073 0.853666 0.889738
0.842466 0.888548 0.873930
0.848783 0.887938 0.875120
0.869413 0.886656 0.879820
0.897551 0.885679 0.887358
0.925902 0.887236 0.897978
