data/fiter_cube/29797953/1022863/file.cube
# Created by Adobe Lightroom plugin Export LUT (1.17.0)
# www.johnrellis.com/lightroom/exportlut.htm
# Preset: 电影灰蓝色_08 云集
# Color profile: C:\Program Files (x86)\Common Files\Adobe\Color\Profiles\Recommended\AdobeRGB1998.icc
LUT_3D_SIZE 5
DOMAIN_MIN 0.000000 0.000000 0.000000
DOMAIN_MAX 0.903226 0.903226 0.903226
0.069123 0.076112 0.088075
0.185367 0.095918 0.089631
0.580316 0.107759 0.017609
0.762142 0.298314 0.000000
0.871122 0.487526 0.182162
0.089631 0.135195 0.128664
0.187411 0.161074 0.094697
0.616175 0.268040 0.000000
0.767666 0.369818 0.000000
0.874449 0.519585 0.191165
0.344060 0.486824 0.385901
0.460792 0.495644 0.447639
0.575433 0.432197 0.093050
0.781949 0.540215 0.000000
0.881071 0.609827 0.220951
0.617578 0.691096 0.621088
0.648280 0.696071 0.641627
0.693263 0.700130 0.687709
0.736324 0.611017 0.253452
0.876097 0.679866 0.270665
0.731319 0.811185 0.757473
0.748379 0.814847 0.769558
0.788968 0.821927 0.802640
0.804105 0.826383 0.801114
0.855619 0.756863 0.472206
0.066651 0.087831 0.128145
0.200168 0.083070 0.146242
0.562097 0.160861 0.157504
0.748287 0.334630 0.179843
0.861234 0.504265 0.272343
0.085969 0.160800 0.168246
0.212222 0.195407 0.168338
0.596674 0.290105 0.166476
0.755032 0.396216 0.185946
0.863920 0.531701 0.279179
0.352514 0.503624 0.413947
0.475349 0.516045 0.466529
0.574945 0.445472 0.196384
0.774807 0.562615 0.225284
0.873320 0.618372 0.311620
0.620142 0.695033 0.629328
0.650080 0.699763 0.647395
0.697078 0.705379 0.691707
0.732479 0.617029 0.318212
0.872618 0.690730 0.347936
0.729122 0.812528 0.759060
0.746273 0.816007 0.770474
0.791501 0.826139 0.806516
0.807828 0.829404 0.811460
0.854124 0.760006 0.497810
0.000000 0.125032 0.271244
0.199954 0.105013 0.377600
0.594659 0.174380 0.351781
0.712184 0.402106 0.385229
0.837400 0.545830 0.450324
0.092073 0.212589 0.264958
0.192569 0.246281 0.367010
0.573846 0.324285 0.382483
0.719570 0.452796 0.403540
0.841337 0.564721 0.453864
0.302220 0.506096 0.465614
0.446204 0.545098 0.508171
0.585382 0.509850 0.421118
0.744472 0.586450 0.457832
0.853361 0.632593 0.474098
0.613092 0.705562 0.651392
0.642145 0.707759 0.660456
0.699947 0.715084 0.695491
0.724117 0.636439 0.457954
0.865171 0.722988 0.512627
0.723354 0.817319 0.768124
0.738796 0.820218 0.775967
0.781704 0.829587 0.802182
0.818479 0.836240 0.836667
0.848234 0.766293 0.557488
0.000000 0.192203 0.440284
0.111025 0.195590 0.509728
0.632624 0.223423 0.616602
0.739193 0.440711 0.542657
0.810971 0.582025 0.585199
0.067170 0.277440 0.416968
0.159670 0.283482 0.492287
0.625269 0.360235 0.619318
0.729122 0.488869 0.553704
0.803861 0.602319 0.595697
0.239933 0.457527 0.480293
0.321965 0.473854 0.493202
0.565911 0.553216 0.600824
0.700008 0.593317 0.590143
0.817044 0.647395 0.612848
0.563226 0.687434 0.655909
0.603326 0.696925 0.669093
0.682216 0.725643 0.704463
0.714687 0.672999 0.610132
0.849149 0.731167 0.639002
0.713100 0.826841 0.791440
0.727687 0.828916 0.795407
0.768582 0.836027 0.809262
0.821317 0.846799 0.838926
0.841764 0.777920 0.636103
0.000000 0.315526 0.616815
0.188022 0.312657 0.650599
0.603418 0.390051 0.739620
0.780301 0.520134 0.741299
0.851621 0.617426 0.705928
0.121431 0.373541 0.590326
0.205814 0.367864 0.629450
0.580835 0.442634 0.726467
0.776028 0.554192 0.745663
0.849241 0.630701 0.709529
0.000000 0.405035 0.494636
0.061097 0.380072 0.477119
0.465766 0.508965 0.663722
0.767361 0.626734 0.766903
0.841794 0.669001 0.721004
0.480964 0.667628 0.670863
0.498146 0.665431 0.669734
0.536919 0.650660 0.659602
0.677272 0.682246 0.732815
0.825834 0.727626 0.741512
0.660517 0.808164 0.788266
0.674922 0.811795 0.792996
0.722713 0.825254 0.810361
0.800656 0.853086 0.845335
0.832212 0.817411 0.784817
