data/fiter_cube/29797953/1022863/file.cube
# Created by Adobe Lightroom plugin Export LUT (1.17.0)
# www.johnrellis.com/lightroom/exportlut.htm
# Preset: 电影灰蓝色_08 云集
# Color profile: C:\Program Files (x86)\Common Files\Adobe\Color\Profiles\Recommended\AdobeRGB1998.icc
LUT_3D_SIZE 8
DOMAIN_MIN 0.000000 0.000000 0.000000
DOMAIN_MAX 0.903226 0.903226 0.903226
0.069123 0.076112 0.088075
0.095766 0.082551 0.090059
0.232395 0.098878 0.087617
0.477119 0.085267 0.061891
0.655543 0.161654 0.000000
0.745541 0.272068 0.000000
0.809445 0.378546 0.083162
0.871122 0.487526 0.182162
0.074708 0.088563 0.098207
0.096071 0.096254 0.093294
0.252354 0.132753 0.083253
0.490394 0.139010 0.047517
0.657679 0.201541 0.000000
0.744533 0.292515 0.000000
0.808316 0.389685 0.079011
0.870298 0.493721 0.180270
0.100893 0.166476 0.148653
0.136568 0.177676 0.174014
0.235538 0.193301 0.093599
0.540063 0.283696 0.000000
0.680476 0.330053 0.000000
0.753689 0.376257 0.000000
0.815702 0.446601 0.086580
0.874723 0.528435 0.192264
0.224094 0.375128 0.290257
0.280156 0.387549 0.317144
0.380468 0.394507 0.388128
0.488685 0.358221 0.081422
0.681819 0.428382 0.000000
0.769680 0.500725 0.000000
0.824125 0.527947 0.103639
0.878691 0.579004 0.208347
0.449775 0.567285 0.468391
0.478706 0.570062 0.481849
0.549371 0.574334 0.526848
0.578637 0.586236 0.511803
0.636255 0.493385 0.123537
0.745937 0.517937 0.000000
0.826932 0.601770 0.139315
0.884276 0.644129 0.239750
0.591638 0.670588 0.594537
0.606287 0.673243 0.603998
0.641901 0.677241 0.629786
0.668910 0.678065 0.655573
0.678218 0.683284 0.585290
0.720058 0.590234 0.224155
0.803738 0.600305 0.142550
0.880156 0.679438 0.271000
0.671290 0.747158 0.683528
0.678401 0.748775 0.688350
0.699489 0.752834 0.703609
0.727321 0.756344 0.728328
0.743130 0.757259 0.749325
0.751461 0.757504 0.647303
0.784329 0.673182 0.343755
0.862638 0.678859 0.253666
0.731319 0.811185 0.757473
0.736538 0.812253 0.761044
0.753689 0.816159 0.773648
0.781033 0.822995 0.796628
0.796567 0.822263 0.809812
0.805875 0.824735 0.820249
0.819760 0.825315 0.715724
0.855619 0.756863 0.472206
0.070619 0.080995 0.100771
0.098421 0.081086 0.103944
0.225376 0.102876 0.107362
0.468574 0.112428 0.098329
0.645716 0.181796 0.083406
0.737819 0.282841 0.089448
0.803220 0.383948 0.129824
0.866178 0.490089 0.210056
0.073426 0.092866 0.105531
0.100465 0.104158 0.109957
0.245975 0.137819 0.109133
0.484627 0.155154 0.094881
0.650813 0.217716 0.078767
0.738949 0.304173 0.086793
0.802853 0.395666 0.128084
0.865385 0.495888 0.208042
0.104433 0.179507 0.163363
0.151217 0.198154 0.192905
0.245548 0.203372 0.116976
0.535912 0.296025 0.068910
0.672267 0.334173 0.049104
0.747555 0.381567 0.081910
0.808865 0.447608 0.134066
0.869383 0.528710 0.218448
0.234836 0.384253 0.304692
0.292149 0.396338 0.330236
0.390967 0.404486 0.395483
0.483650 0.358465 0.118257
0.673915 0.430457 0.011505
0.761532 0.497810 0.084443
0.817258 0.526116 0.149264
0.873655 0.578363 0.233433
0.456764 0.570245 0.476387
0.482979 0.572259 0.487800
0.550713 0.576257 0.529412
0.578241 0.584833 0.519890
0.631830 0.492439 0.155001
0.742702 0.521355 0.095186
0.823545 0.604883 0.183932
0.880613 0.644221 0.265843
0.592004 0.670344 0.596246
0.604211 0.671473 0.603204
0.638697 0.675441 0.627131
0.667842 0.677241 0.654414
0.677211 0.682582 0.591180
0.718257 0.591363 0.246281
0.802060 0.603662 0.178714
0.877928 0.681483 0.294530
0.669581 0.745632 0.682704
0.675898 0.746578 0.686519
0.697047 0.750881 0.701534
0.726040 0.755428 0.727169
0.742824 0.757137 0.748806
0.750210 0.756802 0.650721
0.781704 0.672267 0.354314
0.860166 0.679194 0.270451
0.729641 0.810513 0.756588
0.735042 0.811704 0.760372
0.752316 0.815671 0.772885
0.779568 0.822599 0.795407
0.798184 0.824186 0.811704
0.807492 0.825925 0.823270
0.819303 0.825467 0.719051
0.854185 0.756558 0.477577
0.063478 0.090974 0.142702
0.093507 0.085267 0.167330
0.254673 0.081239 0.168276
0.450721 0.141268 0.182773
0.634119 0.219730 0.187594
0.729274 0.326055 0.206088
0.795743 0.417975 0.238315
0.860014 0.512047 0.299138
0.078462 0.117739 0.146548
0.095857 0.121279 0.173007
0.247135 0.138552 0.180117
0.468360 0.181521 0.189029
0.638727 0.253880 0.191897
0.730434 0.344060 0.207309
0.795987 0.428443 0.238560
0.860044 0.518212 0.299168
0.094545 0.199985 0.202090
0.141970 0.229496 0.227390
0.272801 0.239902 0.197147
0.523644 0.314427 0.204715
0.661402 0.359686 0.204685
0.738857 0.411292 0.217441
0.800870 0.472358 0.248508
0.862608 0.545129 0.306157
0.235599 0.416205 0.346380
0.297063 0.426276 0.362799
0.423438 0.440345 0.420264
0.501030 0.386236 0.209659
0.675898 0.471534 0.213230
0.752560 0.514458 0.242435
0.809812 0.543847 0.270756
0.867643 0.591608 0.322423
0.455512 0.581079 0.493812
0.486305 0.583856 0.504814
0.558679 0.590600 0.542260
0.594354 0.596338 0.563012
0.636042 0.510430 0.248356
0.741329 0.547753 0.235630
0.819669 0.626246 0.305852
0.874388 0.652125 0.350378
0.593133 0.675044 0.605280
0.606561 0.676295 0.612146
0.639521 0.680018 0.631891
0.671199 0.682795 0.658991
0.679316 0.686091 0.616358
0.714687 0.598474 0.314336
0.799130 0.619257 0.277836
0.874876 0.694148 0.373632
0.670283 0.749447 0.688838
0.676997 0.750515 0.692683
0.697414 0.754116 0.705715
0.727382 0.759243 0.730587
0.745571 0.761044 0.751614
0.750637 0.759762 0.668666
0.779294 0.677638 0.400336
0.859617 0.690700 0.340093
0.727504 0.812161 0.758663
0.732204 0.812894 0.761471
0.749569 0.816526 0.773098
0.776577 0.823789 0.793973
0.799466 0.826871 0.813596
0.811093 0.828672 0.829099
0.818997 0.827573 0.732784
0.852811 0.759823 0.503105
0.000000 0.110353 0.222293
0.044465 0.106630 0.253208
0.290959 0.048005 0.321416
0.508049 0.093965 0.284825
0.599512 0.268864 0.309422
0.707240 0.358862 0.321904
0.777768 0.447547 0.351263
0.846250 0.531640 0.397314
0.068086 0.152773 0.228794
0.070100 0.144411 0.259892
0.299931 0.127108 0.332708
0.502464 0.175051 0.297276
0.605890 0.298375 0.318578
0.709468 0.378302 0.327550
0.778653 0.458412 0.354345
0.846952 0.536980 0.397345
0.096864 0.226017 0.257023
0.132509 0.241764 0.271366
0.283665 0.288182 0.348241
0.478828 0.338231 0.347875
0.631769 0.387030 0.343786
0.719387 0.444770 0.351659
0.785794 0.501488 0.372351
0.851469 0.562860 0.406470
0.201144 0.414740 0.383978
0.263951 0.434882 0.402319
0.415106 0.470832 0.439460
0.514122 0.435035 0.349798
0.664179 0.516930 0.382483
0.732479 0.531609 0.382757
0.793973 0.560296 0.392309
0.856535 0.603845 0.420569
0.452186 0.599695 0.530938
0.480446 0.600580 0.535210
0.550683 0.603876 0.552605
0.610407 0.609155 0.593133
0.637385 0.534325 0.363867
0.736141 0.588708 0.391455
0.807370 0.639490 0.429084
0.864347 0.660151 0.445960
0.592340 0.683772 0.622004
0.606348 0.685695 0.627832
0.638758 0.688197 0.641413
0.674830 0.691951 0.665705
0.686427 0.694972 0.654566
0.711330 0.612482 0.404822
0.795407 0.646052 0.402075
0.870603 0.713832 0.473182
0.667872 0.754452 0.697810
0.674830 0.755734 0.701228
0.695888 0.759548 0.712551
0.724941 0.765255 0.732235
0.750271 0.768582 0.756924
0.752926 0.766354 0.700008
0.775479 0.685695 0.461769
0.857145 0.707210 0.430976
0.726162 0.816129 0.765225
0.730953 0.817075 0.767849
0.746059 0.819883 0.776333
0.771237 0.825406 0.792782
0.800565 0.831479 0.816251
0.814755 0.833310 0.831815
0.818601 0.831205 0.755612
0.850523 0.764706 0.539727
0.000000 0.141817 0.321599
0.000000 0.136782 0.350866
0.259953 0.117983 0.446876
0.529992 0.105226 0.445014
0.653590 0.259281 0.413947
0.696407 0.376654 0.415167
0.752590 0.480690 0.456672
0.827207 0.560418 0.499123
0.000000 0.184543 0.325475
0.000000 0.174990 0.353491
0.259709 0.172488 0.446265
0.531426 0.186130 0.452399
0.648096 0.298711 0.421057
0.691249 0.404303 0.427680
0.754330 0.490486 0.460639
0.828305 0.565423 0.500328
0.098177 0.246586 0.305455
0.128054 0.257115 0.315740
0.250919 0.298619 0.427344
0.529717 0.343328 0.472663
0.629633 0.396582 0.442725
0.686946 0.467628 0.456001
0.759854 0.521386 0.472389
0.831815 0.581537 0.502678
0.185763 0.395697 0.406195
0.228275 0.407355 0.415290
0.352514 0.443549 0.445289
0.522972 0.496590 0.500511
0.626917 0.517571 0.490791
0.705165 0.542473 0.487800
0.771389 0.571832 0.492073
0.840543 0.610071 0.505791
0.399298 0.575586 0.533654
0.435065 0.583917 0.543511
0.528161 0.609644 0.574640
0.601434 0.615381 0.589227
0.635279 0.567468 0.482765
0.727901 0.629908 0.524712
0.787686 0.638178 0.517784
0.850736 0.659998 0.522972
0.583368 0.691066 0.643915
0.595605 0.691493 0.645869
0.628168 0.692653 0.651972
0.664485 0.694972 0.663416
0.694209 0.700038 0.690578
0.704585 0.625513 0.488411
0.791165 0.678126 0.520409
0.863279 0.725887 0.558282
0.662623 0.760281 0.711604
0.669001 0.760983 0.713527
0.689235 0.763699 0.720760
0.717739 0.768276 0.734005
0.748226 0.773007 0.756130
0.756283 0.773709 0.740261
0.769894 0.694087 0.523644
0.854063 0.727474 0.523796
0.720974 0.819577 0.773007
0.725521 0.820249 0.774868
0.740352 0.822660 0.781430
0.763973 0.827878 0.793942
0.792660 0.834318 0.812161
0.817258 0.838285 0.833463
0.818479 0.836149 0.786038
0.846677 0.769345 0.578637
0.000000 0.181613 0.418280
0.000000 0.174105 0.441779
0.207065 0.185336 0.515740
0.556878 0.156039 0.598138
0.670497 0.297307 0.551232
0.725063 0.410071 0.519524
0.761776 0.480110 0.516625
0.805020 0.586877 0.578180
0.000000 0.216800 0.416052
0.000000 0.210239 0.438544
0.210880 0.218479 0.510735
0.555200 0.218906 0.598047
0.667659 0.332952 0.553796
0.721248 0.428199 0.522881
0.758389 0.492592 0.521904
0.804288 0.591730 0.580377
0.087648 0.276493 0.378058
0.126436 0.294469 0.407752
0.226322 0.311040 0.492195
0.543450 0.362097 0.597070
0.661463 0.431861 0.566735
0.710658 0.483314 0.536797
0.747677 0.536248 0.543908
0.809049 0.606409 0.585809
0.170596 0.382361 0.426337
0.199771 0.388769 0.431067
0.288670 0.409644 0.447547
0.485756 0.483955 0.560906
0.652674 0.539055 0.588006
0.694728 0.550835 0.559289
0.742672 0.588922 0.572412
0.818509 0.631403 0.594446
0.350134 0.545647 0.533898
0.376349 0.550622 0.538720
0.453223 0.566644 0.554589
0.546654 0.591302 0.579675
0.632502 0.617182 0.606378
0.697292 0.625696 0.597772
0.761288 0.639734 0.594934
0.831327 0.663844 0.600916
0.536950 0.669459 0.635157
0.554467 0.672938 0.640223
0.601373 0.684321 0.656001
0.655177 0.705348 0.682185
0.686641 0.701930 0.683742
0.700221 0.654292 0.588098
0.788357 0.712245 0.626673
0.849424 0.717983 0.618677
0.655177 0.767483 0.732906
0.662470 0.769589 0.735805
0.682216 0.771664 0.739376
0.710201 0.774990 0.745876
0.740291 0.778470 0.756435
0.768154 0.784054 0.780758
0.764553 0.706111 0.591424
0.853971 0.755764 0.621607
0.715084 0.825345 0.787137
0.719509 0.825895 0.788357
0.734035 0.827939 0.792782
0.756741 0.831937 0.801022
0.784543 0.837400 0.813413
0.815915 0.844114 0.833799
0.824247 0.844755 0.826108
0.842954 0.776181 0.624201
0.000000 0.230869 0.510369
0.000000 0.224063 0.527398
0.192233 0.239536 0.581201
0.509789 0.261631 0.656092
0.687343 0.335637 0.679805
0.745418 0.455177 0.634516
0.784237 0.524437 0.613275
0.828397 0.582116 0.622980
0.000000 0.258488 0.504540
0.000000 0.254032 0.521630
0.195651 0.262913 0.576104
0.503960 0.296147 0.651911
0.685084 0.366766 0.680079
0.743801 0.472419 0.637110
0.782345 0.533959 0.615717
0.827268 0.586908 0.624567
0.072053 0.315465 0.469245
0.131930 0.330999 0.493141
0.213413 0.332677 0.553307
0.479225 0.381781 0.635950
0.677333 0.450202 0.681636
0.738399 0.522881 0.645808
0.776120 0.562799 0.623468
0.823514 0.602014 0.629450
0.098177 0.346929 0.424262
0.119326 0.346593 0.423987
0.226139 0.389105 0.474708
0.425849 0.459052 0.598077
0.663874 0.543694 0.685328
0.729915 0.585199 0.659358
0.766415 0.600397 0.634180
0.816007 0.629908 0.641047
0.290623 0.518212 0.538231
0.307622 0.519677 0.539544
0.359380 0.523186 0.542992
0.426337 0.523125 0.545190
0.597345 0.593774 0.647150
0.718898 0.641016 0.674769
0.753628 0.638209 0.645258
0.804593 0.668666 0.659998
0.483345 0.649683 0.634791
0.495552 0.651087 0.636561
0.533593 0.655848 0.642573
0.584619 0.663111 0.651698
0.635676 0.672694 0.663508
0.702571 0.695766 0.692012
0.756771 0.697780 0.677150
0.825193 0.712428 0.679744
0.614801 0.738766 0.713161
0.622034 0.741024 0.715999
0.644739 0.748928 0.725765
0.679988 0.762600 0.742611
0.725856 0.782803 0.767666
0.757351 0.783566 0.772396
0.761715 0.728664 0.671534
0.851255 0.779477 0.710475
0.698939 0.822843 0.794614
0.704036 0.824399 0.796811
0.721004 0.829831 0.804410
0.747433 0.837736 0.815366
0.776150 0.842618 0.822995
0.807492 0.848600 0.834470
0.836271 0.854917 0.854215
0.838132 0.786191 0.681147
0.000000 0.315526 0.616815
0.000000 0.310063 0.627558
0.250553 0.319799 0.660395
0.494575 0.358770 0.709102
0.699855 0.430091 0.772641
0.770108 0.497871 0.753506
0.818509 0.575982 0.725429
0.851621 0.617426 0.705928
0.000000 0.335851 0.609766
0.081239 0.331884 0.620783
0.243900 0.333318 0.655360
0.488106 0.376043 0.704952
0.694087 0.448127 0.769528
0.769589 0.510491 0.755520
0.817594 0.583124 0.726894
0.850919 0.621454 0.706996
0.141299 0.386999 0.579828
0.165591 0.388098 0.592462
0.244022 0.383978 0.633204
0.459052 0.420020 0.688716
0.672236 0.495399 0.757595
0.768032 0.548150 0.762875
0.814603 0.605035 0.731746
0.848478 0.634852 0.710689
0.000000 0.363928 0.486641
0.000000 0.378119 0.504814
0.225772 0.429664 0.568017
0.395453 0.463935 0.652247
0.625849 0.541772 0.731716
0.759426 0.597070 0.769223
0.809659 0.635401 0.739467
0.844480 0.655940 0.716945
0.198581 0.498756 0.554620
0.203586 0.494026 0.551293
0.214450 0.473976 0.537560
0.250645 0.450233 0.530907
0.530297 0.555566 0.677119
0.741115 0.645655 0.775692
0.802060 0.671901 0.750484
0.838468 0.683742 0.725734
0.436011 0.641657 0.651667
0.441505 0.640650 0.651026
0.457893 0.636286 0.648219
0.476997 0.624353 0.639979
0.487648 0.594263 0.618402
0.650141 0.656855 0.717983
0.789883 0.716854 0.765927
0.829007 0.718013 0.737728
0.580316 0.735744 0.726131
0.584924 0.736110 0.726772
0.599573 0.737148 0.728695
0.622095 0.738705 0.731807
0.650782 0.740200 0.735500
0.684077 0.739132 0.737301
0.769833 0.771023 0.787961
0.817655 0.769619 0.765560
0.660517 0.808164 0.788266
0.664820 0.809232 0.789639
0.679713 0.813046 0.794614
0.705745 0.820188 0.803861
0.742123 0.831479 0.818265
0.788235 0.848142 0.839170
0.829313 0.860014 0.855131
0.832212 0.817411 0.784817
