data/fiter_cube/29797953/1022863/file.cube
# Created by Adobe Lightroom plugin Export LUT (1.17.0)
# www.johnrellis.com/lightroom/exportlut.htm
# Preset: 电影灰蓝色_08 云集
# Color profile: C:\Program Files (x86)\Common Files\Adobe\Color\Profiles\Recommended\AdobeRGB1998.icc
LUT_3D_SIZE 32
DOMAIN_MIN 0.0 0.0 0.0
DOMAIN_MAX 1.0 1.0 1.0
0.069123 0.076112 0.088075
0.071778 0.076448 0.087984
0.074556 0.077424 0.088441
0.081697 0.079408 0.088991
0.095766 0.082551 0.090059
0.117433 0.086824 0.090669
0.147494 0.091554 0.090425
0.185367 0.095918 0.089631
0.232395 0.098878 0.087617
0.289281 0.099367 0.084291
0.353399 0.095186 0.078798
0.417304 0.089021 0.071321
0.477119 0.085267 0.061891
0.530541 0.090455 0.044221
0.580316 0.107759 0.017609
0.621515 0.133455 0.000000
0.655543 0.161654 0.000000
0.683803 0.190677 0.000000
0.707149 0.218509 0.000000
0.727504 0.245640 0.000000
0.745541 0.272068 0.000000
0.762142 0.298314 0.000000
0.778225 0.324804 0.025574
0.793942 0.351598 0.062074
0.809445 0.378546 0.083162
0.824918 0.405707 0.104311
0.840299 0.432990 0.127687
0.855711 0.460243 0.152987
0.871122 0.487526 0.182162
0.886442 0.514885 0.215061
0.901549 0.541863 0.251011
0.916228 0.568261 0.289769
0.069673 0.077058 0.088838
0.071443 0.077882 0.088472
0.075135 0.078737 0.088624
0.082551 0.080995 0.089143
0.096834 0.084321 0.089876
0.118685 0.089021 0.090455
0.148806 0.093782 0.090181
0.186893 0.098634 0.089296
0.233738 0.101961 0.087495
0.290867 0.102876 0.083711
0.354589 0.099733 0.078126
0.418097 0.094362 0.070954
0.477546 0.091737 0.061372
0.530694 0.096834 0.043030
0.580041 0.113283 0.015625
0.620722 0.137575 0.000000
0.654414 0.164981 0.000000
0.682643 0.192996 0.000000
0.706020 0.220096 0.000000
0.726436 0.246830 0.000000
0.744564 0.272862 0.000000
0.761166 0.298741 0.000000
0.777279 0.324926 0.022339
0.793057 0.351537 0.060456
0.808591 0.378271 0.081514
0.824063 0.405371 0.103059
0.839536 0.432593 0.125978
0.855009 0.459785 0.151675
0.870481 0.487037 0.180606
0.885863 0.514397 0.213596
0.901030 0.541344 0.249393
0.915770 0.567773 0.288151
0.070375 0.078676 0.090364
0.071717 0.079133 0.091676
0.074708 0.080201 0.089357
0.082979 0.082918 0.089265
0.098268 0.087190 0.089906
0.120729 0.092073 0.090394
0.150881 0.097383 0.090028
0.189029 0.102358 0.089113
0.236210 0.106172 0.086854
0.293248 0.107515 0.083253
0.356817 0.105257 0.077455
0.420050 0.101472 0.070008
0.479103 0.099428 0.060273
0.531914 0.105043 0.040070
0.580804 0.121340 0.013519
0.620966 0.144167 0.000000
0.654414 0.170352 0.000000
0.682368 0.197360 0.000000
0.705715 0.223758 0.000000
0.726070 0.249790 0.000000
0.744228 0.275547 0.000000
0.760891 0.300725 0.000000
0.777005 0.326787 0.019928
0.792721 0.352911 0.059297
0.808286 0.379522 0.080690
0.823758 0.406317 0.102296
0.839231 0.433356 0.125246
0.854704 0.460456 0.150942
0.870207 0.487526 0.179934
0.885588 0.514855 0.212863
0.900786 0.541650 0.248631
0.915526 0.567956 0.287327
0.072694 0.082643 0.093812
0.074342 0.083345 0.095277
0.074952 0.083223 0.096315
0.082399 0.085817 0.091493
0.099702 0.091737 0.090303
0.124971 0.100557 0.089784
0.156191 0.106020 0.089235
0.194919 0.111635 0.088045
0.242649 0.116091 0.085756
0.300053 0.118349 0.081422
0.363104 0.117281 0.075563
0.425574 0.115480 0.067475
0.483650 0.115969 0.055818
0.535912 0.122530 0.032410
0.583642 0.137331 0.006134
0.622736 0.158328 0.000000
0.655390 0.182559 0.000000
0.682887 0.207736 0.000000
0.705806 0.232425 0.000000
0.725887 0.257084 0.000000
0.743923 0.281529 0.000000
0.760433 0.305974 0.000000
0.776577 0.331212 0.015930
0.792416 0.356847 0.056916
0.808103 0.383215 0.079408
0.823758 0.409735 0.101534
0.839322 0.436439 0.125216
0.854856 0.463325 0.151186
0.870329 0.490120 0.180179
0.885679 0.516960 0.213016
0.900755 0.543389 0.248783
0.915435 0.569268 0.287022
0.074708 0.088563 0.098207
0.076600 0.089448 0.099825
0.078706 0.090272 0.101900
0.081147 0.091371 0.102235
0.096071 0.096254 0.093294
0.124788 0.105165 0.090425
0.161868 0.119478 0.088319
0.203952 0.128023 0.086000
0.252354 0.132753 0.083253
0.310430 0.136019 0.078492
0.372595 0.136690 0.071839
0.433753 0.136812 0.063203
0.490394 0.139010 0.047517
0.542473 0.146578 0.020661
0.587884 0.160403 0.000000
0.625727 0.179599 0.000000
0.657679 0.201541 0.000000
0.684627 0.224308 0.000000
0.707149 0.246983 0.000000
0.726864 0.269841 0.000000
0.744533 0.292515 0.000000
0.760891 0.315587 0.000000
0.776883 0.339605 0.011170
0.792660 0.364294 0.054536
0.808316 0.389685 0.079011
0.823880 0.415442 0.101595
0.839445 0.441444 0.125185
0.854887 0.467506 0.151217
0.870298 0.493721 0.180270
0.885618 0.519951 0.212924
0.900694 0.545861 0.248508
0.915343 0.571344 0.286717
0.078126 0.097627 0.104646
0.079774 0.098970 0.106355
0.082856 0.100587 0.109071
0.087190 0.100618 0.113069
0.093721 0.107210 0.107668
0.117433 0.111696 0.094331
0.158663 0.123323 0.089418
0.206302 0.140688 0.085512
0.267185 0.159091 0.078584
0.325658 0.162173 0.073152
0.386786 0.163912 0.065553
0.446143 0.165377 0.052918
0.500572 0.168582 0.029175
0.551751 0.176791 0.001465
0.594598 0.189914 0.000000
0.630762 0.206760 0.000000
0.661616 0.226078 0.000000
0.687587 0.246372 0.000000
0.709407 0.266606 0.000000
0.728695 0.287266 0.000000
0.745968 0.308110 0.000000
0.762203 0.329595 0.000000
0.784390 0.362982 0.027466
0.799680 0.386114 0.066285
0.814817 0.409735 0.088899
0.829862 0.433722 0.111574
0.844816 0.457893 0.135470
0.859709 0.482216 0.161746
0.874601 0.506767 0.190982
0.889403 0.531487 0.223514
0.903929 0.555962 0.258610
0.917998 0.579919 0.295964
0.082399 0.113100 0.114687
0.084901 0.114534 0.116365
0.088533 0.116670 0.119326
0.096345 0.118715 0.126070
0.101289 0.118227 0.132448
0.117372 0.134005 0.113710
0.148775 0.134157 0.094759
0.203128 0.146426 0.086915
0.263951 0.167056 0.079988
0.339940 0.189700 0.066926
0.409552 0.201755 0.047333
0.466316 0.203189 0.022614
0.520256 0.207797 0.000000
0.568170 0.216464 0.000000
0.607752 0.228183 0.000000
0.641169 0.242679 0.000000
0.669825 0.258946 0.000000
0.693996 0.275853 0.000000
0.714626 0.293431 0.000000
0.733211 0.311559 0.000000
0.750149 0.330755 0.000000
0.766598 0.351232 0.000000
0.782834 0.373083 0.012085
0.798703 0.395697 0.062013
0.814359 0.418921 0.086763
0.829679 0.442084 0.110658
0.844724 0.465461 0.135164
0.859617 0.488838 0.161654
0.874479 0.512444 0.190860
0.889189 0.536309 0.223178
0.903685 0.559899 0.257908
0.917723 0.583276 0.295109
0.089631 0.135195 0.128664
0.092653 0.136843 0.130617
0.096895 0.139162 0.133639
0.107454 0.143771 0.142641
0.116609 0.143221 0.150210
0.122469 0.145632 0.155337
0.152224 0.169589 0.119356
0.187411 0.161074 0.094697
0.253666 0.172213 0.082826
0.326940 0.194888 0.071534
0.405768 0.218723 0.045655
0.482460 0.246006 0.000000
0.536065 0.252873 0.000000
0.579522 0.259190 0.000000
0.616175 0.268040 0.000000
0.647547 0.279179 0.000000
0.674556 0.292149 0.000000
0.697414 0.305669 0.000000
0.717220 0.319921 0.000000
0.735103 0.335271 0.000000
0.751522 0.351598 0.000000
0.767666 0.369818 0.000000
0.783627 0.389471 0.005127
0.799313 0.410101 0.060060
0.814725 0.431434 0.086091
0.829923 0.453101 0.110506
0.844846 0.474891 0.135256
0.859648 0.497017 0.161837
0.874449 0.519585 0.191165
0.889097 0.542412 0.223331
0.903532 0.565179 0.257847
0.917601 0.587701 0.294987
0.100893 0.166476 0.148653
0.104341 0.168246 0.150851
0.109590 0.170565 0.154055
0.120882 0.175326 0.161990
0.136568 0.177676 0.174014
0.147036 0.176913 0.184512
0.156985 0.189548 0.171908
0.200107 0.214267 0.125277
0.235538 0.193301 0.093599
0.313603 0.200870 0.075135
0.393072 0.225345 0.056855
0.471290 0.252781 0.000000
0.540063 0.283696 0.000000
0.592309 0.308843 0.000000
0.626062 0.313939 0.000000
0.655299 0.321294 0.000000
0.680476 0.330053 0.000000
0.701961 0.339971 0.000000
0.720668 0.350469 0.000000
0.737697 0.362615 0.000000
0.753689 0.376257 0.000000
0.769497 0.391730 0.000000
0.785092 0.408972 0.000000
0.800473 0.427375 0.058137
0.815702 0.446601 0.086580
0.830625 0.466346 0.111421
0.845426 0.486580 0.136507
0.860075 0.507256 0.163149
0.874723 0.528435 0.192264
0.889281 0.549981 0.224277
0.903593 0.571618 0.258579
0.917571 0.593225 0.295140
0.117952 0.206851 0.174655
0.122194 0.208499 0.177035
0.127871 0.210727 0.180240
0.140749 0.215549 0.188052
0.162112 0.220859 0.203250
0.177127 0.219913 0.214298
0.188571 0.219730 0.228519
0.205722 0.243381 0.188876
0.260685 0.264439 0.130922
0.295720 0.230808 0.090944
0.378973 0.232395 0.063416
0.456458 0.258671 0.016907
0.526055 0.288212 0.000000
0.584222 0.320836 0.000000
0.632105 0.354528 0.000000
0.663844 0.367529 0.000000
0.687343 0.371984 0.000000
0.707424 0.377783 0.000000
0.725032 0.384863 0.000000
0.741085 0.393194 0.000000
0.756466 0.403784 0.000000
0.771725 0.416388 0.000000
0.786831 0.430640 0.000000
0.801694 0.446265 0.057527
0.816556 0.463081 0.086519
0.831266 0.480873 0.112398
0.845914 0.499367 0.137545
0.860502 0.518578 0.164401
0.875090 0.538537 0.194064
0.889586 0.558892 0.225925
0.903868 0.579431 0.259922
0.917845 0.600092 0.296513
0.142184 0.255375 0.206210
0.146670 0.256992 0.208713
0.153231 0.259190 0.212039
0.167239 0.263920 0.219821
0.191806 0.270603 0.235264
0.214084 0.271489 0.249363
0.231876 0.271061 0.264225
0.243748 0.273869 0.276493
0.272160 0.306310 0.207156
0.332921 0.318883 0.137789
0.362371 0.271580 0.086641
0.438819 0.264439 0.036713
0.510338 0.292638 0.000000
0.570611 0.323949 0.000000
0.620417 0.356634 0.000000
0.661585 0.388891 0.000000
0.693782 0.416022 0.000000
0.712490 0.417548 0.000000
0.729030 0.420478 0.000000
0.744289 0.425391 0.000000
0.759304 0.432807 0.000000
0.774197 0.442542 0.000000
0.788998 0.454322 0.000000
0.803586 0.467567 0.059480
0.818112 0.482216 0.088960
0.832578 0.497841 0.114900
0.846921 0.514336 0.140383
0.861265 0.531731 0.167269
0.875639 0.549981 0.196567
0.889982 0.568841 0.227909
0.904143 0.588037 0.261570
0.917998 0.607538 0.297795
0.175204 0.312200 0.243992
0.180423 0.313787 0.246372
0.187533 0.315862 0.249882
0.202914 0.319860 0.257359
0.227787 0.326055 0.271153
0.259739 0.329290 0.290440
0.283085 0.329473 0.305760
0.303075 0.330877 0.324437
0.313848 0.345800 0.308782
0.349248 0.371008 0.227909
0.403449 0.370459 0.146761
0.425635 0.312749 0.082704
0.503807 0.304997 0.000000
0.566888 0.336004 0.000000
0.617426 0.368170 0.000000
0.659266 0.399878 0.000000
0.692805 0.428473 0.000000
0.719600 0.453529 0.000000
0.738277 0.464332 0.000000
0.752529 0.465675 0.000000
0.766720 0.469703 0.000000
0.780758 0.476265 0.000000
0.794736 0.484718 0.012665
0.808652 0.495094 0.071351
0.822568 0.507012 0.099489
0.836454 0.520256 0.124636
0.850340 0.534417 0.149722
0.864195 0.549676 0.176303
0.878111 0.565820 0.204837
0.892058 0.582696 0.235477
0.905791 0.600061 0.268254
0.919310 0.618006 0.303624
0.224094 0.375128 0.290257
0.229984 0.376562 0.292882
0.237949 0.378424 0.296513
0.254734 0.382147 0.304326
0.280156 0.387549 0.317144
0.317021 0.393164 0.338933
0.341680 0.392981 0.352941
0.363439 0.393133 0.369299
0.380468 0.394507 0.388128
0.388861 0.415381 0.341802
0.427344 0.433051 0.253513
0.472206 0.421790 0.160800
0.488685 0.358221 0.081422
0.544152 0.335393 0.000000
0.600671 0.367559 0.000000
0.645502 0.399115 0.000000
0.681819 0.428382 0.000000
0.710628 0.453895 0.000000
0.734249 0.476234 0.000000
0.755337 0.497597 0.000000
0.769680 0.500725 0.000000
0.783383 0.504479 0.000000
0.796963 0.510460 0.019013
0.810513 0.518334 0.075898
0.824125 0.527947 0.103639
0.837705 0.538994 0.128786
0.851316 0.551202 0.153811
0.864958 0.564599 0.180148
0.878691 0.579004 0.208347
0.892454 0.594385 0.238376
0.906126 0.610315 0.270542
0.919493 0.626978 0.305608
0.283879 0.434943 0.339391
0.289525 0.435950 0.341741
0.296635 0.437079 0.344671
0.311772 0.439490 0.351324
0.334051 0.442908 0.361852
0.364904 0.446845 0.378851
0.393744 0.448035 0.395453
0.414893 0.447364 0.409339
0.432990 0.447730 0.425544
0.446265 0.449714 0.443183
0.453559 0.471809 0.368750
0.490852 0.482399 0.277317
0.524712 0.462715 0.176699
0.535912 0.396460 0.084413
0.579889 0.366247 0.000000
0.630243 0.398047 0.000000
0.669398 0.427619 0.000000
0.700557 0.453681 0.000000
0.726040 0.476509 0.000000
0.747982 0.497780 0.000000
0.768734 0.519219 0.000000
0.786374 0.533867 0.000000
0.799588 0.537407 0.039124
0.812833 0.542992 0.083436
0.826108 0.550408 0.110475
0.839384 0.559289 0.135103
0.852689 0.569482 0.159823
0.866117 0.581048 0.185977
0.879637 0.593713 0.213535
0.893187 0.607355 0.242832
0.906706 0.621851 0.274601
0.919921 0.637171 0.308965
0.344060 0.486824 0.385901
0.348699 0.487556 0.387976
0.354589 0.488167 0.390387
0.367590 0.489723 0.396002
0.386816 0.491920 0.404761
0.411048 0.494697 0.417334
0.441566 0.496712 0.435920
0.460792 0.495644 0.447639
0.478096 0.495491 0.461280
0.492195 0.496498 0.476753
0.497536 0.504387 0.468482
0.509117 0.519005 0.394324
0.543236 0.524010 0.301884
0.567926 0.498451 0.196231
0.575433 0.432197 0.093050
0.610498 0.395636 0.000000
0.655512 0.426429 0.000000
0.689479 0.452888 0.000000
0.716945 0.476448 0.000000
0.740139 0.497902 0.000000
0.761624 0.519036 0.000000
0.781949 0.540215 0.000000
0.801205 0.561089 0.060761
0.815366 0.568414 0.093294
0.828305 0.573602 0.119356
0.841306 0.580529 0.143557
0.854429 0.588952 0.168154
0.867674 0.598779 0.193942
0.881071 0.609827 0.220951
0.894499 0.621942 0.249882
0.907866 0.635096 0.281254
0.920989 0.649012 0.315190
0.400214 0.530694 0.429297
0.404395 0.531273 0.431128
0.409400 0.531762 0.433204
0.420325 0.532860 0.438056
0.436378 0.534539 0.445563
0.456489 0.536767 0.456062
0.482460 0.538964 0.472297
0.502159 0.539086 0.484840
0.517784 0.538720 0.496407
0.531121 0.539055 0.509239
0.541405 0.540124 0.523339
0.542290 0.549950 0.492012
0.555322 0.558434 0.418799
0.585870 0.559106 0.325872
0.603143 0.528771 0.217960
0.608179 0.464240 0.106294
0.636194 0.422461 0.000000
0.676539 0.451392 0.000000
0.706874 0.475624 0.000000
0.731899 0.497810 0.000000
0.754208 0.518944 0.000000
0.775357 0.540307 0.018128
0.795346 0.561425 0.075715
0.814328 0.581964 0.105348
0.831205 0.598352 0.132235
0.843900 0.603265 0.155703
0.856718 0.609735 0.179294
0.869688 0.617670 0.204044
0.882780 0.626917 0.230167
0.895903 0.637263 0.258030
0.908965 0.648676 0.288243
0.921721 0.661036 0.321111
0.449775 0.567285 0.468391
0.452857 0.567559 0.469703
0.456977 0.567926 0.471534
0.465797 0.568780 0.475563
0.478706 0.570062 0.481849
0.494942 0.571771 0.490547
0.514855 0.573754 0.502892
0.535515 0.574792 0.517113
0.549371 0.574334 0.526848
0.561730 0.574304 0.537774
0.572168 0.575006 0.549828
0.579706 0.576287 0.562768
0.578637 0.586236 0.511803
0.592493 0.590661 0.440375
0.620356 0.588495 0.348669
0.632410 0.555352 0.241154
0.636255 0.493385 0.123537
0.658747 0.447425 0.000000
0.695064 0.474189 0.000000
0.722591 0.496773 0.000000
0.745937 0.517937 0.000000
0.767788 0.539330 0.034302
0.788540 0.560510 0.082521
0.808194 0.581476 0.112245
0.826932 0.601770 0.139315
0.844694 0.621149 0.166812
0.858762 0.630488 0.191257
0.871489 0.636652 0.214664
0.884276 0.644129 0.239750
0.897185 0.652888 0.266667
0.910002 0.662776 0.295995
0.922545 0.673701 0.328038
0.492561 0.599298 0.503990
0.495338 0.599695 0.505333
0.506737 0.606043 0.513939
0.513664 0.606561 0.517235
0.523827 0.607446 0.522484
0.536431 0.608545 0.529442
0.551171 0.609949 0.538476
0.570245 0.610986 0.552544
0.582818 0.610529 0.561517
0.593561 0.610132 0.570520
0.602777 0.610254 0.580285
0.610071 0.610712 0.590600
0.612512 0.613397 0.588861
0.612818 0.619684 0.534752
0.626307 0.620783 0.465400
0.651392 0.616632 0.376043
0.659785 0.581659 0.269383
0.663447 0.522820 0.146609
0.681117 0.473182 0.000000
0.713588 0.497688 0.000000
0.738460 0.518456 0.000000
0.761135 0.539727 0.045350
0.782528 0.561059 0.088441
0.802792 0.582147 0.118074
0.821988 0.602533 0.145907
0.840177 0.622095 0.173312
0.857481 0.640589 0.200870
0.873503 0.656306 0.227726
0.885924 0.661921 0.250919
0.898528 0.669001 0.276616
0.911070 0.677333 0.304875
0.923308 0.686763 0.335851
0.531701 0.627955 0.538262
0.534661 0.628809 0.540093
0.538293 0.629694 0.542290
0.544823 0.630793 0.546044
0.553887 0.631891 0.551141
0.564813 0.632990 0.557610
0.577234 0.634150 0.565515
0.592279 0.635218 0.576623
0.605615 0.635645 0.586999
0.614862 0.635248 0.594385
0.623316 0.635187 0.602472
0.630365 0.635492 0.611139
0.635676 0.636072 0.620142
0.634943 0.639796 0.603204
0.637232 0.643336 0.551720
0.650629 0.642603 0.484413
0.672175 0.635676 0.398108
0.679957 0.601740 0.293492
0.684016 0.546197 0.169192
0.698695 0.494057 0.000000
0.728298 0.516838 0.000000
0.752255 0.537652 0.032441
0.774655 0.559197 0.085542
0.795804 0.580713 0.117678
0.815854 0.601648 0.146944
0.834775 0.621790 0.175723
0.852811 0.640833 0.204074
0.870024 0.658839 0.232731
0.886381 0.675837 0.261509
0.899992 0.685695 0.288121
0.912200 0.692470 0.315038
0.924132 0.700435 0.344945
0.563622 0.650660 0.567559
0.566125 0.651301 0.569207
0.569116 0.652033 0.571160
0.574426 0.652857 0.574365
0.581842 0.653773 0.578820
0.590753 0.654719 0.584283
0.600855 0.655665 0.590875
0.612329 0.656733 0.599207
0.625788 0.657832 0.610407
0.633875 0.657465 0.616663
0.641444 0.657404 0.623499
0.648035 0.657557 0.630762
0.653376 0.657893 0.638361
0.657252 0.658564 0.646174
0.654841 0.662226 0.617212
0.658534 0.663844 0.568627
0.671717 0.662043 0.503777
0.690181 0.653010 0.421149
0.697841 0.620386 0.318791
0.702571 0.568231 0.194430
0.715053 0.514092 0.011414
0.742397 0.535637 0.034485
0.766201 0.557031 0.080476
0.788388 0.578698 0.113405
0.809293 0.600275 0.144900
0.829068 0.621027 0.175479
0.847807 0.640681 0.205173
0.865660 0.659236 0.234836
0.882658 0.676753 0.264988
0.898650 0.693294 0.295537
0.913237 0.707912 0.326329
0.924895 0.714473 0.354833
0.591638 0.670588 0.594537
0.593622 0.671107 0.595911
0.596033 0.671717 0.597559
0.600305 0.672450 0.600275
0.606287 0.673243 0.603998
0.613519 0.674098 0.608637
0.621729 0.675013 0.614099
0.630701 0.676173 0.620569
0.641901 0.677241 0.629786
0.650843 0.677729 0.637263
0.657496 0.677668 0.642908
0.663569 0.677760 0.649012
0.668910 0.678065 0.655573
0.673274 0.678553 0.662593
0.675532 0.679683 0.665888
0.673426 0.682795 0.630793
0.678218 0.683284 0.585290
0.691218 0.680720 0.523980
0.707118 0.670039 0.445441
0.714687 0.638880 0.346563
0.720058 0.590234 0.224155
0.731716 0.535485 0.069398
0.757748 0.556237 0.083345
0.781613 0.578302 0.111238
0.803738 0.600305 0.142550
0.824399 0.621820 0.175967
0.843931 0.642206 0.207980
0.862486 0.661372 0.239536
0.880156 0.679438 0.271000
0.896696 0.696376 0.302892
0.911955 0.712245 0.335515
0.925780 0.727138 0.368902
0.617578 0.691096 0.621088
0.618860 0.691432 0.622004
0.620447 0.691768 0.623011
0.623621 0.692287 0.625025
0.628229 0.692988 0.627955
0.633997 0.693751 0.631647
0.640742 0.694820 0.636255
0.648280 0.696071 0.641627
0.657160 0.697536 0.648707
0.667170 0.698848 0.657557
0.673487 0.698909 0.662715
0.679530 0.699001 0.668360
0.684962 0.699214 0.674403
0.689601 0.699611 0.680873
0.693263 0.700130 0.687709
0.693050 0.701930 0.679652
0.692439 0.703761 0.644892
0.697993 0.703120 0.602472
0.710414 0.699825 0.545190
0.723903 0.687556 0.469856
0.730983 0.657343 0.374395
0.736324 0.611017 0.253452
0.748318 0.559014 0.102266
0.772183 0.575586 0.110445
0.795895 0.597864 0.136873
0.817838 0.619806 0.168338
0.838254 0.641077 0.203311
0.857694 0.661128 0.237186
0.876097 0.679866 0.270665
0.893339 0.697414 0.304143
0.909239 0.713802 0.338140
0.923613 0.729244 0.373083
0.637293 0.709804 0.642939
0.638361 0.710140 0.643671
0.639704 0.710506 0.644587
0.642329 0.711025 0.646265
0.646082 0.711757 0.648676
0.650904 0.712612 0.651789
0.656672 0.713649 0.655665
0.663264 0.714900 0.660426
0.670771 0.716396 0.666163
0.680446 0.717769 0.674769
0.687984 0.718410 0.681361
0.693812 0.718471 0.686488
0.699214 0.718593 0.692042
0.704067 0.718868 0.698024
0.708156 0.719326 0.704341
0.711330 0.719966 0.711025
0.709468 0.722103 0.692470
0.710109 0.723079 0.657954
0.716304 0.721706 0.617884
0.728389 0.717952 0.564660
0.739925 0.704524 0.493263
0.746731 0.675563 0.401678
0.752407 0.631861 0.283452
0.765316 0.582971 0.132265
0.786313 0.594476 0.134188
0.810056 0.616968 0.160983
0.831846 0.638819 0.194095
0.852232 0.659815 0.230777
0.871519 0.679408 0.266606
0.889555 0.697749 0.302251
0.906218 0.714870 0.338201
0.921263 0.730983 0.375036
0.655634 0.729671 0.664454
0.656550 0.730037 0.665187
0.657710 0.730312 0.665980
0.659937 0.730770 0.667414
0.663264 0.731380 0.669520
0.667567 0.732113 0.672358
0.672816 0.733028 0.675898
0.678859 0.734127 0.680262
0.685695 0.735409 0.685481
0.693996 0.736721 0.692592
0.702754 0.737911 0.700740
0.708217 0.737819 0.705226
0.713405 0.737758 0.710170
0.718166 0.737819 0.715450
0.722286 0.738003 0.721035
0.725673 0.738308 0.726894
0.728237 0.738827 0.733089
0.725185 0.740780 0.704921
0.726802 0.741024 0.670771
0.733516 0.739193 0.631922
0.745357 0.735225 0.582605
0.755276 0.721035 0.515496
0.761898 0.693233 0.427893
0.767819 0.651759 0.312169
0.781521 0.605768 0.160525
0.801389 0.614435 0.159304
0.825162 0.637079 0.187778
0.846769 0.658503 0.222171
0.866941 0.678920 0.260380
0.885801 0.698054 0.298558
0.903227 0.715938 0.336828
0.919005 0.732815 0.375830
0.671290 0.747158 0.683528
0.672175 0.747463 0.684230
0.673274 0.747768 0.684962
0.675319 0.748196 0.686336
0.678401 0.748775 0.688350
0.682429 0.749508 0.691066
0.687343 0.750393 0.694484
0.693050 0.751492 0.698665
0.699489 0.752834 0.703609
0.706661 0.754330 0.709590
0.715541 0.755764 0.717830
0.722255 0.756313 0.723812
0.727321 0.756344 0.728328
0.732082 0.756374 0.733150
0.736385 0.756527 0.738277
0.740108 0.756802 0.743648
0.743130 0.757259 0.749325
0.743893 0.758297 0.748104
0.741695 0.759823 0.719173
0.744228 0.759609 0.685603
0.751461 0.757504 0.647303
0.763058 0.753384 0.601495
0.771389 0.738582 0.539452
0.777981 0.712123 0.455695
0.784329 0.673182 0.343755
0.798947 0.630365 0.194430
0.817411 0.635431 0.186801
0.841123 0.657801 0.216526
0.862638 0.678859 0.253666
0.882506 0.698817 0.294011
0.900755 0.717556 0.335058
0.917235 0.735164 0.376867
0.686915 0.764309 0.702785
0.687739 0.764553 0.703395
0.688655 0.764797 0.704005
0.690486 0.765164 0.705287
0.693324 0.765652 0.707118
0.697017 0.766293 0.709651
0.701564 0.767147 0.712825
0.706935 0.768185 0.716762
0.712978 0.769467 0.721431
0.719631 0.770962 0.726864
0.727657 0.772457 0.734127
0.735927 0.773922 0.741939
0.740841 0.773922 0.746059
0.745571 0.773953 0.750484
0.749874 0.774044 0.755062
0.753689 0.774228 0.759884
0.757015 0.774533 0.764950
0.759701 0.775082 0.770230
0.758785 0.776455 0.760983
0.757626 0.777523 0.733181
0.760861 0.777035 0.700496
0.768551 0.774807 0.662684
0.780209 0.770748 0.619165
0.787198 0.755703 0.562432
0.793881 0.730709 0.483162
0.800809 0.694331 0.375433
0.816312 0.654505 0.229557
0.833860 0.656397 0.214817
0.857206 0.677943 0.245914
0.878416 0.698634 0.286107
0.897765 0.718166 0.328893
0.915129 0.736721 0.373724
0.701686 0.780270 0.721096
0.702358 0.780484 0.721614
0.703243 0.780697 0.722225
0.705013 0.781064 0.723415
0.707698 0.781613 0.725246
0.711299 0.782345 0.727840
0.715816 0.783383 0.731106
0.721126 0.784604 0.735134
0.727138 0.786160 0.739925
0.733761 0.787900 0.745388
0.741024 0.789792 0.751766
0.749660 0.791653 0.759884
0.755978 0.792538 0.765560
0.760678 0.792691 0.769619
0.765042 0.792874 0.773831
0.768978 0.793027 0.778134
0.772488 0.793301 0.782650
0.775448 0.793698 0.787320
0.777890 0.794278 0.792233
0.775692 0.795834 0.776455
0.775418 0.796567 0.750210
0.779202 0.795987 0.718898
0.787289 0.793820 0.682033
0.799283 0.790005 0.639429
0.805081 0.774838 0.588281
0.811856 0.751461 0.514733
0.819669 0.717647 0.411872
0.836454 0.681025 0.270512
0.853330 0.680568 0.250889
0.875853 0.700923 0.283879
0.896300 0.721126 0.328069
0.914611 0.740230 0.374243
0.717678 0.797024 0.740749
0.718257 0.797177 0.741207
0.719020 0.797330 0.741726
0.720638 0.797635 0.742794
0.723140 0.798093 0.744503
0.726467 0.798734 0.746822
0.730587 0.799619 0.749844
0.735470 0.800717 0.753445
0.741024 0.802029 0.757748
0.747158 0.803555 0.762661
0.753719 0.805264 0.768124
0.761532 0.806973 0.775082
0.769436 0.808652 0.782406
0.773800 0.808652 0.785885
