data/fiter_cube/39179523/1023431/file.cube
# Created by Adobe Lightroom plugin Export LUT (1.17.0)
# www.johnrellis.com/lightroom/exportlut.htm
# Preset: 日系大师人物肖像_05 云集
# Color profile: C:\Program Files (x86)\Common Files\Adobe\Color\Profiles\Recommended\AdobeRGB1998.icc
LUT_3D_SIZE 5
DOMAIN_MIN 0.000000 0.000000 0.000000
DOMAIN_MAX 0.903226 0.903226 0.903226
0.065766 0.085786 0.095003
0.222782 0.000000 0.091066
0.572107 0.000000 0.018647
0.794614 0.000000 0.000000
0.982666 0.000000 0.000000
0.039826 0.209995 0.100710
0.203250 0.219944 0.082399
0.558709 0.172580 0.000000
0.788205 0.086671 0.000000
0.984253 0.125399 0.000000
0.000000 0.530938 0.114412
0.228550 0.523674 0.191684
0.549279 0.538262 0.000000
0.772793 0.483192 0.000000
0.969757 0.474586 0.000000
0.000000 0.753780 0.262455
0.323796 0.745632 0.360449
0.577142 0.726833 0.417487
0.753079 0.731594 0.197147
0.957061 0.721706 0.000000
0.271733 0.938811 0.438758
0.435279 0.931487 0.500694
0.656153 0.911315 0.589807
0.812711 0.905882 0.620172
0.960754 0.928862 0.357916
0.000000 0.097353 0.249638
0.202029 0.102785 0.235233
0.566155 0.000000 0.193118
0.781338 0.000000 0.143069
0.974640 0.000000 0.000000
0.000000 0.225376 0.268864
0.201968 0.227634 0.255772
0.555016 0.197604 0.214817
0.776913 0.163882 0.148928
0.972930 0.149355 0.000000
0.000000 0.535515 0.280186
0.196628 0.531426 0.301762
0.535210 0.526665 0.278141
0.760525 0.488441 0.174166
0.966339 0.477363 0.000000
0.000000 0.752987 0.362097
0.280003 0.748165 0.399725
0.580957 0.727077 0.492897
0.746944 0.729641 0.354040
0.953887 0.725185 0.000000
0.240208 0.939727 0.481086
0.395819 0.934081 0.517174
0.660273 0.917876 0.630121
0.815976 0.908568 0.659419
0.958648 0.930694 0.453498
0.000000 0.138674 0.586542
0.264347 0.183658 0.581750
0.574731 0.265782 0.578241
0.781613 0.334722 0.562951
0.963714 0.237217 0.459907
0.000000 0.261265 0.587030
0.271458 0.301915 0.583001
0.566033 0.378759 0.580499
0.769406 0.391638 0.556909
0.960388 0.331579 0.463691
0.000000 0.541497 0.593561
0.140352 0.541772 0.586267
0.524132 0.532830 0.564508
0.741451 0.530816 0.536217
0.954192 0.522667 0.462776
0.000000 0.755306 0.574334
0.218631 0.747768 0.579431
0.554864 0.732082 0.612634
0.731807 0.728817 0.593988
0.939849 0.738674 0.491127
0.100649 0.940398 0.619806
0.321599 0.937346 0.632013
0.581506 0.928832 0.663050
0.803555 0.913054 0.727016
0.945403 0.927947 0.619165
0.253880 0.283940 0.792477
0.395514 0.331518 0.791653
0.628077 0.482368 0.788296
0.777737 0.541222 0.788602
0.947112 0.612360 0.820462
0.301030 0.385138 0.788632
0.415351 0.418067 0.788022
0.629267 0.530114 0.786221
0.771969 0.581140 0.787442
0.944732 0.625849 0.816770
0.126528 0.521447 0.779294
0.314946 0.532860 0.775479
0.600000 0.606683 0.775784
0.755276 0.656794 0.781552
0.943145 0.655299 0.795621
0.000000 0.742977 0.785397
0.272801 0.740566 0.781827
0.530175 0.736324 0.773983
0.713741 0.725154 0.755795
0.937072 0.726406 0.726040
0.000000 0.948425 0.809171
0.131228 0.945464 0.808988
0.504082 0.938842 0.806363
0.739895 0.932525 0.798886
0.934905 0.929412 0.773037
0.508659 0.482368 0.945861
0.566278 0.509667 0.944091
0.705165 0.590173 0.939574
0.834440 0.680507 0.933471
0.939818 0.687495 0.932799
0.512596 0.527794 0.943755
0.567468 0.549371 0.942290
0.701656 0.613489 0.938750
0.833402 0.701320 0.932464
0.938201 0.705531 0.932860
0.441474 0.604150 0.942870
0.514336 0.621485 0.941619
0.667903 0.662654 0.939147
0.825467 0.739651 0.935332
0.939452 0.763882 0.938109
0.273045 0.748898 0.945373
0.362890 0.748501 0.943511
0.537560 0.744228 0.940978
0.781552 0.786587 0.943542
0.948363 0.856535 0.952239
0.060182 0.938018 0.955657
0.261143 0.936614 0.954681
0.488441 0.935332 0.953948
0.694575 0.933074 0.951232
0.916045 0.923674 0.937041
