data/fiter_cube/39179523/1023431/file.cube
# Created by Adobe Lightroom plugin Export LUT (1.17.0)
# www.johnrellis.com/lightroom/exportlut.htm
# Preset: 日系大师人物肖像_05 云集
# Color profile: C:\Program Files (x86)\Common Files\Adobe\Color\Profiles\Recommended\AdobeRGB1998.icc
LUT_3D_SIZE 8
DOMAIN_MIN 0.000000 0.000000 0.000000
DOMAIN_MAX 0.903226 0.903226 0.903226
0.065766 0.085786 0.095003
0.111391 0.078523 0.094423
0.271183 0.000000 0.088319
0.480537 0.000000 0.063508
0.648432 0.000000 0.000000
0.767666 0.000000 0.000000
0.873442 0.000000 0.000000
0.982666 0.000000 0.000000
0.066224 0.119997 0.097841
0.102327 0.123507 0.095369
0.260807 0.098054 0.083284
0.469154 0.000000 0.052064
0.639796 0.000000 0.000000
0.759335 0.000000 0.000000
0.864622 0.000000 0.000000
0.976501 0.000000 0.000000
0.000000 0.251743 0.095918
0.099367 0.249180 0.112093
0.247868 0.261906 0.077882
0.461372 0.250248 0.000000
0.636347 0.215976 0.000000
0.758175 0.181582 0.000000
0.870146 0.172457 0.000000
0.981537 0.194278 0.000000
0.000000 0.442939 0.099397
0.000000 0.440558 0.137728
0.270024 0.428016 0.164370
0.459937 0.456458 0.000000
0.639460 0.439551 0.000000
0.755978 0.409918 0.000000
0.864256 0.387854 0.000000
0.975189 0.391974 0.000000
0.000000 0.610986 0.146181
0.000000 0.609277 0.175692
0.297093 0.600519 0.242863
0.479377 0.590753 0.264897
0.616815 0.601282 0.060883
0.736110 0.565301 0.000000
0.848142 0.548150 0.000000
0.965454 0.553094 0.000000
0.000000 0.725429 0.234562
0.000000 0.727596 0.255528
0.352483 0.717037 0.348882
0.502525 0.705715 0.374273
0.616602 0.699489 0.354894
0.725643 0.705135 0.173220
0.839017 0.688106 0.000000
0.959899 0.691310 0.000000
0.095369 0.831571 0.335393
0.197757 0.830900 0.350591
0.418952 0.819608 0.444709
0.545586 0.810330 0.476997
0.655726 0.799741 0.502953
0.738186 0.803037 0.447974
0.836606 0.811856 0.263401
0.948882 0.808774 0.000000
0.271733 0.938811 0.438758
0.322087 0.936980 0.451911
0.481880 0.928771 0.526635
0.616876 0.920928 0.589349
0.703944 0.908263 0.601068
0.795102 0.903685 0.627619
0.866514 0.916899 0.552026
0.960754 0.928862 0.357916
0.043061 0.088594 0.139742
0.101076 0.090486 0.132265
0.263371 0.001495 0.120119
0.468788 0.000000 0.104128
0.638788 0.000000 0.052613
0.756771 0.000000 0.000000
0.861631 0.000000 0.000000
0.973144 0.000000 0.000000
0.003906 0.122255 0.145754
0.101656 0.125704 0.141573
0.258183 0.118318 0.129580
0.464424 0.000000 0.104799
0.634730 0.000000 0.050721
0.752499 0.000000 0.000000
0.855314 0.000000 0.000000
0.966857 0.000000 0.000000
0.000000 0.254368 0.151827
0.082063 0.255985 0.154696
0.248478 0.262364 0.145022
0.456367 0.254826 0.101839
0.629053 0.225254 0.017121
0.748989 0.197055 0.000000
0.855863 0.175723 0.000000
0.969909 0.189334 0.000000
0.000000 0.438483 0.166720
0.000000 0.438880 0.171023
0.272526 0.428992 0.217533
0.447913 0.444831 0.140475
0.620661 0.425452 0.000000
0.740688 0.399207 0.000000
0.848600 0.380957 0.000000
0.964019 0.382910 0.000000
0.000000 0.608759 0.207736
0.000000 0.606928 0.213596
0.298528 0.596490 0.283696
0.475441 0.581353 0.307439
0.605768 0.591180 0.162692
0.727535 0.559289 0.000000
0.840208 0.543145 0.000000
0.958556 0.548486 0.000000
0.000000 0.720760 0.270939
0.000000 0.719661 0.281987
0.348669 0.709651 0.370825
0.498085 0.699733 0.395483
0.613489 0.694484 0.386114
0.721614 0.702144 0.234012
0.834714 0.685817 0.000000
0.954955 0.687617 0.000000
0.076326 0.824613 0.352331
0.183413 0.822141 0.363256
0.394141 0.813352 0.438483
0.541100 0.804807 0.489265
0.652277 0.796201 0.515801
0.734035 0.798581 0.468544
0.829435 0.806119 0.299840
0.941466 0.802823 0.000000
0.255589 0.935119 0.446296
0.309575 0.933959 0.459571
0.462165 0.927214 0.521538
0.613672 0.918669 0.597375
0.708003 0.912444 0.616236
0.796109 0.905669 0.637995
0.864866 0.915648 0.567102
0.956970 0.926329 0.384039
0.000000 0.100679 0.300084
0.087770 0.102785 0.290105
0.254124 0.109285 0.284337
0.484291 0.000000 0.289708
0.644984 0.000000 0.228580
0.758328 0.000000 0.215000
0.865476 0.000000 0.157992
0.979217 0.000000 0.000000
0.000000 0.134310 0.306554
0.088106 0.144320 0.299260
0.252140 0.161715 0.288762
0.475502 0.098756 0.285863
0.638178 0.000000 0.240696
0.753811 0.000000 0.215793
0.860563 0.000000 0.157565
0.975616 0.000000 0.000000
0.000000 0.269261 0.318944
0.000000 0.270939 0.315038
0.248356 0.271824 0.302770
0.462043 0.263432 0.282353
0.634363 0.252811 0.257786
0.749844 0.242832 0.224582
0.857023 0.229892 0.164797
0.972442 0.216190 0.000000
0.000000 0.454017 0.319463
0.000000 0.454505 0.318944
0.253025 0.451392 0.328985
0.453620 0.452796 0.317723
0.623713 0.442634 0.273045
0.741024 0.421210 0.240238
0.851164 0.406592 0.180056
0.968231 0.399176 0.000000
0.000000 0.613581 0.332525
0.000000 0.612757 0.339757
0.267338 0.607263 0.364843
0.484413 0.591791 0.416693
0.608179 0.596979 0.339025
0.725704 0.570001 0.263890
0.838773 0.559411 0.205447
0.959808 0.557366 0.000000
0.000000 0.722560 0.367376
0.000000 0.721187 0.378424
0.305150 0.714504 0.410193
0.503868 0.700374 0.474800
0.618006 0.692226 0.484535
0.714931 0.699947 0.375647
0.828824 0.689113 0.252079
0.954162 0.696132 0.105318
0.066041 0.827512 0.426276
0.187442 0.825315 0.436011
0.358618 0.818448 0.466987
0.547143 0.805661 0.547021
0.653620 0.797116 0.567834
0.735561 0.798550 0.544457
0.827512 0.808682 0.419501
0.943725 0.810483 0.197513
0.221317 0.937011 0.491035
0.276219 0.934997 0.498207
0.419013 0.929442 0.533074
0.607416 0.920623 0.628168
0.704219 0.914061 0.645655
0.794003 0.908202 0.664210
0.864439 0.916625 0.616663
0.954925 0.928283 0.473548
0.000000 0.117006 0.497902
0.000000 0.127352 0.497139
0.298650 0.176608 0.486244
0.480781 0.189151 0.487861
0.655146 0.245762 0.506004
0.757534 0.196963 0.449195
0.854551 0.137423 0.387701
0.968658 0.125063 0.334417
0.000000 0.168124 0.502892
0.039734 0.178744 0.500999
0.306126 0.222019 0.490791
0.478645 0.240696 0.490181
0.651026 0.279026 0.505791
0.752407 0.229801 0.446540
0.848203 0.206180 0.394598
0.967102 0.172519 0.331640
0.000000 0.271275 0.504997
0.000000 0.276127 0.502281
0.288273 0.312535 0.494606
0.467170 0.351263 0.491829
0.637263 0.355322 0.496559
0.742306 0.314153 0.437690
0.850950 0.330053 0.412451
0.969482 0.303532 0.339391
0.000000 0.458808 0.514275
0.000000 0.460304 0.511650
0.226322 0.461707 0.503380
0.446906 0.457282 0.489509
0.612634 0.456641 0.472847
0.727413 0.454536 0.452003
0.840299 0.450935 0.418128
0.962860 0.441444 0.349126
0.000000 0.625422 0.510918
0.000000 0.623163 0.509178
0.227848 0.616083 0.506859
0.463508 0.605371 0.518303
0.602930 0.600977 0.506676
0.716915 0.587213 0.469490
0.832029 0.583246 0.435737
0.955535 0.580346 0.367102
0.000000 0.729488 0.502251
0.000000 0.730312 0.509148
0.294041 0.722194 0.522118
0.486427 0.711055 0.550561
0.627680 0.698817 0.592920
0.709834 0.703334 0.527642
0.822019 0.699580 0.459144
0.948638 0.709957 0.395056
0.000000 0.830564 0.527367
0.141360 0.829465 0.533654
0.344366 0.824643 0.553338
0.511406 0.817166 0.586542
0.656397 0.806058 0.637263
0.741695 0.802976 0.638025
0.822416 0.811063 0.549432
0.939055 0.816373 0.426520
0.176486 0.942046 0.575677
0.244968 0.941039 0.580896
0.385168 0.936645 0.595911
0.538079 0.930053 0.627008
0.691890 0.919432 0.686213
0.788144 0.913085 0.702968
0.862608 0.917998 0.676539
0.950622 0.930083 0.577874
0.000000 0.169528 0.659632
0.113863 0.183474 0.659632
0.345342 0.235203 0.656214
0.520745 0.332921 0.649531
0.648157 0.353338 0.652949
0.756252 0.464759 0.671687
0.854307 0.428321 0.643122
0.958862 0.381689 0.599145
0.000000 0.221195 0.659510
0.157015 0.233768 0.660182
0.354925 0.277745 0.657221
0.524193 0.369116 0.650172
0.645075 0.383642 0.652766
0.753719 0.479561 0.671992
0.852262 0.441413 0.642512
0.957794 0.391333 0.595605
0.000000 0.314092 0.656275
0.148135 0.330022 0.655573
0.350744 0.366613 0.653681
0.522301 0.436683 0.650660
0.634119 0.459602 0.650385
0.742031 0.514672 0.666682
0.843076 0.473457 0.633722
0.952941 0.412848 0.575280
0.000000 0.446387 0.655787
0.000000 0.450019 0.653864
0.273930 0.460487 0.648249
0.493996 0.502037 0.645075
0.618677 0.542351 0.646815
0.726101 0.553674 0.652003
0.830533 0.505638 0.604211
0.950164 0.477699 0.555077
0.000000 0.608972 0.658076
0.000000 0.609461 0.656794
0.242802 0.608392 0.651484
0.446967 0.604700 0.642725
0.588342 0.597101 0.628779
0.702144 0.595453 0.615290
0.818936 0.593713 0.594141
0.945708 0.589044 0.552972
0.000000 0.726528 0.642298
0.000000 0.725154 0.642084
0.231449 0.718959 0.640375
0.447150 0.708858 0.639063
0.597223 0.698634 0.646815
0.696803 0.699336 0.639582
0.812039 0.705928 0.607904
0.940703 0.715206 0.569146
0.000000 0.832364 0.645747
0.000000 0.830442 0.646845
0.295323 0.824857 0.651698
0.476295 0.817990 0.661677
0.611444 0.812497 0.672633
0.736690 0.804349 0.704738
0.812955 0.809293 0.650080
0.930571 0.817533 0.582238
0.000000 0.941772 0.671412
0.137362 0.940337 0.673243
0.330480 0.936126 0.679286
0.492500 0.934051 0.691859
0.622675 0.929198 0.698238
0.771237 0.918608 0.745602
0.857481 0.917327 0.742489
0.943206 0.928740 0.660731
0.213321 0.261021 0.770077
0.273808 0.275731 0.769772
0.411902 0.325048 0.767208
0.558282 0.415229 0.765499
0.665522 0.489448 0.761837
0.753475 0.511437 0.764004
0.855741 0.592737 0.794644
0.950072 0.579461 0.790677
0.238865 0.300267 0.766171
0.290043 0.312016 0.765743
0.417731 0.355291 0.764462
0.557641 0.434272 0.762539
0.663905 0.506554 0.759335
0.750027 0.525597 0.762325
0.854002 0.601221 0.794522
0.948943 0.583642 0.788998
0.272679 0.393225 0.764614
0.315587 0.401953 0.764187
0.430365 0.434791 0.763394
0.562493 0.494850 0.762600
0.668208 0.564874 0.760525
0.745663 0.573327 0.763363
0.852903 0.632227 0.798306
0.948333 0.599237 0.784756
0.111391 0.458808 0.759670
0.215061 0.468391 0.758511
0.395056 0.504265 0.757107
0.552728 0.558404 0.760220
0.669673 0.619745 0.764157
0.742367 0.629694 0.767025
0.851347 0.665187 0.798123
0.949187 0.618463 0.771847
0.000000 0.588159 0.757534
0.151186 0.590356 0.756649
0.331456 0.596704 0.753262
0.484047 0.605676 0.747829
0.630457 0.639124 0.748959
0.724422 0.669947 0.756771
0.835233 0.674647 0.770321
0.944427 0.620142 0.723262
0.000000 0.713619 0.757717
0.062013 0.714351 0.757839
0.305028 0.713222 0.755062
0.464637 0.710719 0.750057
0.587274 0.706233 0.742184
0.688716 0.699580 0.730739
0.810483 0.701686 0.719692
0.940551 0.703334 0.697536
0.000000 0.834287 0.767697
0.000000 0.833890 0.768154
0.278691 0.830106 0.767147
0.446296 0.825315 0.765621
0.580774 0.820340 0.760189
0.703426 0.815274 0.754971
0.807980 0.811948 0.741970
0.932372 0.820096 0.704280
0.000000 0.947478 0.782162
0.000000 0.946075 0.782040
0.247257 0.942077 0.781857
0.440650 0.937987 0.782376
0.579248 0.934539 0.777096
0.713802 0.930663 0.776638
0.853696 0.920684 0.814298
0.937102 0.929656 0.749966
0.377691 0.369879 0.865751
0.410590 0.383886 0.866545
0.498054 0.425238 0.865080
0.608209 0.492439 0.863188
0.710018 0.572717 0.860136
0.781674 0.602655 0.858183
0.853391 0.613245 0.859983
0.942260 0.671534 0.881285
0.383124 0.393439 0.861112
0.413733 0.405554 0.861814
0.497627 0.442206 0.860868
0.604639 0.502556 0.858824
0.705287 0.577295 0.855985
0.776394 0.606989 0.853544
0.847196 0.615564 0.855131
0.937438 0.671717 0.877440
0.404822 0.467048 0.861967
0.430732 0.474830 0.861662
0.506981 0.501610 0.860258
0.608942 0.549187 0.858885
0.705501 0.607141 0.856870
0.778012 0.639063 0.855772
0.848783 0.646387 0.859098
0.941039 0.700008 0.883452
0.366003 0.528710 0.860777
0.401099 0.537285 0.859678
0.494728 0.564843 0.858091
0.600305 0.601068 0.858915
0.700038 0.644099 0.859709
0.782773 0.688594 0.861753
0.851316 0.692287 0.865385
0.944213 0.738857 0.889860
0.241276 0.596918 0.854337
0.282292 0.598230 0.852811
0.387488 0.604242 0.849424
0.534112 0.631464 0.849119
0.663050 0.668635 0.853391
0.772976 0.724086 0.859556
0.843595 0.733242 0.863371
0.944244 0.771878 0.890043
0.190829 0.711055 0.854276
0.243687 0.711818 0.853788
0.362707 0.714107 0.852049
0.488289 0.717433 0.850004
0.594110 0.715206 0.846860
0.734218 0.743954 0.853819
0.839139 0.785306 0.865660
0.943938 0.786984 0.874571
0.115663 0.824063 0.859281
0.195712 0.824491 0.859525
0.333379 0.823697 0.858366
0.466011 0.822812 0.856748
0.575341 0.819791 0.852750
0.682216 0.815640 0.846616
0.794369 0.806821 0.833677
0.931792 0.807858 0.820066
0.000000 0.941405 0.875731
0.000000 0.940826 0.875517
0.248142 0.941863 0.877379
0.415839 0.940520 0.876738
0.542535 0.939879 0.873198
0.671351 0.938262 0.864866
0.815152 0.933257 0.860594
0.930236 0.930480 0.845640
0.508659 0.482368 0.945861
0.527855 0.491585 0.945861
0.583276 0.518395 0.943420
0.663600 0.564416 0.941039
0.744869 0.615534 0.937774
0.818723 0.671626 0.933837
0.878416 0.678553 0.934295
0.939818 0.687495 0.932799
0.509270 0.496071 0.943969
0.528008 0.504509 0.943999
0.582971 0.529747 0.942077
0.661585 0.571893 0.939452
0.742519 0.620142 0.936492
0.816861 0.674952 0.932799
0.876158 0.682704 0.932708
0.937713 0.690730 0.931487
0.510216 0.538506 0.942748
0.527733 0.544915 0.942535
0.580224 0.564233 0.940215
0.659602 0.600824 0.939940
0.739498 0.640406 0.937133
0.815213 0.690944 0.933288
0.875425 0.704463 0.932952
0.937224 0.710475 0.932494
0.488472 0.588952 0.943114
0.507408 0.594202 0.943236
0.562799 0.608728 0.941711
0.642939 0.634455 0.940734
0.729885 0.669306 0.939147
0.812894 0.716945 0.936584
0.877104 0.741268 0.935973
0.939055 0.744350 0.936309
0.366857 0.623163 0.942687
0.399420 0.628840 0.942870
0.485603 0.643915 0.941558
0.586725 0.663050 0.941436
0.696803 0.694636 0.939971
0.798581 0.740383 0.938537
0.877012 0.783627 0.938781
0.941222 0.787350 0.941283
0.280583 0.718318 0.942840
0.309453 0.718135 0.942016
0.390936 0.718013 0.940093
0.491402 0.716884 0.938445
0.610742 0.721859 0.938842
0.762722 0.766476 0.942382
0.880217 0.832212 0.946960
0.948455 0.844297 0.951202
0.213107 0.829557 0.947051
0.251896 0.829160 0.946532
0.349645 0.828153 0.945251
0.463264 0.827268 0.944488
0.567987 0.823514 0.944091
0.681758 0.818387 0.944121
0.846616 0.853849 0.950072
0.947753 0.894957 0.955505
0.060182 0.938018 0.955657
0.156252 0.937438 0.955230
0.296788 0.936339 0.954528
0.430396 0.935668 0.954192
0.544335 0.934752 0.953460
0.663630 0.933410 0.951843
0.789151 0.931792 0.948547
0.916045 0.923674 0.937041
