data/fiter_cube/39179523/1023431/file.cube
# Created by Adobe Lightroom plugin Export LUT (1.17.0)
# www.johnrellis.com/lightroom/exportlut.htm
# Preset: 日系大师人物肖像_05 云集
# Color profile: C:\Program Files (x86)\Common Files\Adobe\Color\Profiles\Recommended\AdobeRGB1998.icc
LUT_3D_SIZE 32
DOMAIN_MIN 0.0 0.0 0.0
DOMAIN_MAX 1.0 1.0 1.0
0.065766 0.085786 0.095003
0.065766 0.085786 0.095003
0.065766 0.085786 0.095003
0.083101 0.083650 0.094820
0.111391 0.078523 0.094423
0.142306 0.069581 0.093812
0.179782 0.046113 0.092836
0.222782 0.000000 0.091066
0.271183 0.000000 0.088319
0.322667 0.000000 0.084474
0.376196 0.000000 0.079225
0.429419 0.000000 0.072389
0.480537 0.000000 0.063508
0.528405 0.000000 0.047272
0.572107 0.000000 0.018647
0.611933 0.000000 0.000000
0.648432 0.000000 0.000000
0.681422 0.000000 0.000000
0.710201 0.000000 0.000000
0.740536 0.000000 0.000000
0.767666 0.000000 0.000000
0.794614 0.000000 0.000000
0.821134 0.000000 0.000000
0.847379 0.000000 0.000000
0.873442 0.000000 0.000000
0.899657 0.000000 0.000000
0.926452 0.000000 0.000000
0.954070 0.000000 0.000000
0.982666 0.000000 0.000000
1.000000 0.000000 0.000000
1.000000 0.000000 0.000000
1.000000 0.000000 0.000000
0.065766 0.085786 0.095003
0.065766 0.085786 0.095003
0.065766 0.085786 0.095003
0.083101 0.083650 0.094820
0.111147 0.078584 0.094423
0.141695 0.069825 0.093812
0.178561 0.054719 0.092683
0.221286 0.010163 0.090761
0.269047 0.000000 0.087984
0.320531 0.000000 0.084108
0.373754 0.000000 0.078889
0.426734 0.000000 0.072053
0.477852 0.000000 0.063111
0.525597 0.000000 0.046479
0.569360 0.000000 0.017792
0.609247 0.000000 0.000000
0.645808 0.000000 0.000000
0.679011 0.000000 0.000000
0.708278 0.000000 0.000000
0.738186 0.000000 0.000000
0.764920 0.000000 0.000000
0.791562 0.000000 0.000000
0.817929 0.000000 0.000000
0.844144 0.000000 0.000000
0.870237 0.000000 0.000000
0.896544 0.000000 0.000000
0.923491 0.000000 0.000000
0.951202 0.000000 0.000000
0.979950 0.000000 0.000000
1.000000 0.000000 0.000000
1.000000 0.000000 0.000000
1.000000 0.000000 0.000000
0.065766 0.085786 0.095003
0.065766 0.085786 0.095003
0.065766 0.085786 0.095003
0.083101 0.083650 0.094820
0.110414 0.080873 0.094270
0.140688 0.076356 0.093477
0.177096 0.067048 0.092195
0.219425 0.040742 0.090272
0.267185 0.000000 0.087465
0.318486 0.000000 0.083528
0.371649 0.000000 0.078248
0.424659 0.000000 0.071321
0.475807 0.000000 0.062165
0.523766 0.000000 0.043946
0.567437 0.000000 0.015290
0.607599 0.000000 0.000000
0.644160 0.000000 0.000000
0.677455 0.000000 0.000000
0.707240 0.000000 0.000000
0.736843 0.000000 0.000000
0.763455 0.000000 0.000000
0.789914 0.000000 0.000000
0.816220 0.000000 0.000000
0.842405 0.000000 0.000000
0.868498 0.000000 0.000000
0.894835 0.000000 0.000000
0.921813 0.000000 0.000000
0.949615 0.000000 0.000000
0.978515 0.000000 0.000000
1.000000 0.000000 0.000000
1.000000 0.000000 0.000000
1.000000 0.000000 0.000000
0.065980 0.098787 0.095796
0.066133 0.099825 0.095949
0.065858 0.101167 0.095857
0.080598 0.102632 0.095949
0.108248 0.100343 0.092836
0.138430 0.095399 0.092134
0.174960 0.088380 0.090883
0.217350 0.076997 0.088930
0.264988 0.051942 0.086000
0.316289 0.000000 0.081941
0.369268 0.000000 0.076448
0.422187 0.000000 0.069154
0.473243 0.000000 0.059571
0.521111 0.000000 0.037354
0.565118 0.000000 0.008453
0.605249 0.000000 0.000000
0.642023 0.000000 0.000000
0.675441 0.000000 0.000000
0.705776 0.000000 0.000000
0.734707 0.000000 0.000000
0.760861 0.000000 0.000000
0.786984 0.000000 0.000000
0.813260 0.000000 0.000000
0.839780 0.000000 0.000000
0.866453 0.000000 0.000000
0.893431 0.000000 0.000000
0.920897 0.000000 0.000000
0.949065 0.000000 0.000000
0.978027 0.000000 0.000000
1.000000 0.000000 0.000000
1.000000 0.000000 0.000000
1.000000 0.000000 0.000000
0.066224 0.119997 0.097841
0.066438 0.120607 0.097993
0.066133 0.121462 0.098177
0.078431 0.120729 0.100252
0.102327 0.123507 0.095369
0.134524 0.121218 0.089693
0.170962 0.117220 0.088350
0.213321 0.109773 0.086336
0.260807 0.098054 0.083284
0.311955 0.078584 0.078981
0.364935 0.020966 0.073152
0.417914 0.000000 0.065309
0.469154 0.000000 0.052064
0.517418 0.000000 0.025879
0.561852 0.000000 0.000000
0.602533 0.000000 0.000000
0.639796 0.000000 0.000000
0.673640 0.000000 0.000000
0.704982 0.000000 0.000000
0.733547 0.000000 0.000000
0.759335 0.000000 0.000000
0.785183 0.000000 0.000000
0.811337 0.000000 0.000000
0.837827 0.000000 0.000000
0.864622 0.000000 0.000000
0.891722 0.000000 0.000000
0.919310 0.000000 0.000000
0.947478 0.000000 0.000000
0.976501 0.000000 0.000000
1.000000 0.000000 0.000000
1.000000 0.000000 0.000000
1.000000 0.000000 0.000000
0.066102 0.143069 0.100343
0.066438 0.143557 0.100282
0.066194 0.144289 0.100221
0.077180 0.143954 0.102205
0.101076 0.141268 0.106416
0.128389 0.148623 0.093690
0.166659 0.148257 0.084352
0.209232 0.144991 0.081910
0.256992 0.139071 0.078370
0.308415 0.128145 0.073610
0.361669 0.112154 0.067018
0.414740 0.088685 0.057710
0.466102 0.039826 0.035370
0.514733 0.000000 0.007080
0.559411 0.000000 0.000000
0.600397 0.000000 0.000000
0.637934 0.000000 0.000000
0.671992 0.000000 0.000000
0.704341 0.000000 0.000000
0.732845 0.000000 0.000000
0.758694 0.000000 0.000000
0.784695 0.000000 0.000000
0.829618 0.000000 0.000000
0.856199 0.000000 0.000000
0.882536 0.000000 0.000000
0.908873 0.000000 0.000000
0.935454 0.000000 0.000000
0.962615 0.000000 0.000000
0.990539 0.000000 0.000000
1.000000 0.000000 0.000000
1.000000 0.000000 0.000000
1.000000 0.000000 0.000000
0.063996 0.174624 0.101717
0.063630 0.175174 0.101869
0.063752 0.175845 0.101991
0.077424 0.175326 0.103731
0.103731 0.172580 0.107881
0.129671 0.174197 0.105318
0.164248 0.182956 0.089570
0.208988 0.184268 0.074037
0.258244 0.180941 0.069581
0.311070 0.176150 0.062898
0.365179 0.167666 0.050690
0.419043 0.154269 0.028321
0.470466 0.138033 0.001801
0.518761 0.118227 0.000000
0.562921 0.093782 0.000000
0.603113 0.062318 0.000000
0.640101 0.000000 0.000000
0.675807 0.000000 0.000000
0.707973 0.000000 0.000000
0.736660 0.000000 0.000000
0.763638 0.000000 0.000000
0.791531 0.000000 0.000000
0.820035 0.000000 0.000000
0.848661 0.000000 0.000000
0.876951 0.000000 0.000000
0.904540 0.000000 0.000000
0.931853 0.000000 0.000000
0.959319 0.000000 0.000000
0.987488 0.000000 0.000000
1.000000 0.000000 0.000000
1.000000 0.076356 0.000000
1.000000 0.109926 0.000000
0.039826 0.209995 0.100710
0.040528 0.210422 0.100618
0.042206 0.210941 0.100740
0.074342 0.209903 0.105501
0.103853 0.207248 0.107851
0.133974 0.203494 0.111330
0.163241 0.210544 0.100984
0.203250 0.219944 0.082399
0.251865 0.221805 0.056062
0.305150 0.218814 0.040742
0.359808 0.214206 0.018097
0.413733 0.207919 0.000000
0.465644 0.198337 0.000000
0.514244 0.185672 0.000000
0.558709 0.172580 0.000000
0.599237 0.158785 0.000000
0.637385 0.145846 0.000000
0.673945 0.133974 0.000000
0.705501 0.121492 0.000000
0.733913 0.109071 0.000000
0.760616 0.096681 0.000000
0.788205 0.086671 0.000000
0.816434 0.080842 0.000000
0.844938 0.078828 0.000000
0.873136 0.081300 0.000000
0.900786 0.088411 0.000000
0.928222 0.098207 0.000000
0.955901 0.110079 0.000000
0.984253 0.125399 0.000000
1.000000 0.141817 0.000000
1.000000 0.159640 0.000000
1.000000 0.176669 0.000000
0.000000 0.251743 0.095918
0.000000 0.252079 0.095827
0.000000 0.252171 0.099641
0.063447 0.251377 0.109926
0.099367 0.249180 0.112093
0.134493 0.245701 0.115206
0.168490 0.243351 0.116304
0.202457 0.252720 0.100374
0.247868 0.261906 0.077882
0.298253 0.263188 0.017945
0.354437 0.260685 0.000000
0.409033 0.255802 0.000000
0.461372 0.250248 0.000000
0.510216 0.243931 0.000000
0.554894 0.234470 0.000000
0.596338 0.224552 0.000000
0.636347 0.215976 0.000000
0.672145 0.207340 0.000000
0.703334 0.198489 0.000000
0.731624 0.189517 0.000000
0.758175 0.181582 0.000000
0.785611 0.175784 0.000000
0.813657 0.172732 0.000000
0.841978 0.171664 0.000000
0.870146 0.172457 0.000000
0.897856 0.174685 0.000000
0.925383 0.179110 0.000000
0.953124 0.185580 0.000000
0.981537 0.194278 0.000000
1.000000 0.204929 0.000000
1.000000 0.216983 0.000000
1.000000 0.229648 0.000000
0.000000 0.296971 0.095186
0.000000 0.297063 0.094545
0.000000 0.296818 0.098482
0.017792 0.296361 0.111574
0.090883 0.294408 0.116548
0.131991 0.291508 0.119631
0.171695 0.287388 0.123842
0.207706 0.288518 0.119295
0.246494 0.297734 0.099031
0.295445 0.306401 0.071229
0.345190 0.305852 0.000000
0.402502 0.303990 0.000000
0.455604 0.299168 0.000000
0.505211 0.293645 0.000000
0.551720 0.288731 0.000000
0.595422 0.284764 0.000000
0.635248 0.277043 0.000000
0.670863 0.269078 0.000000
0.701991 0.260838 0.000000
0.730068 0.252262 0.000000
0.756344 0.244144 0.000000
0.783108 0.238376 0.000000
0.810483 0.234653 0.000000
0.838163 0.233158 0.000000
0.865934 0.232883 0.000000
0.893614 0.234043 0.000000
0.921386 0.237003 0.000000
0.949554 0.241886 0.000000
0.978454 0.248508 0.000000
1.000000 0.257267 0.000000
1.000000 0.267308 0.000000
1.000000 0.277836 0.000000
0.000000 0.342657 0.096010
0.000000 0.342718 0.095125
0.000000 0.342870 0.096925
0.000000 0.342382 0.110689
0.076753 0.341100 0.122713
0.126741 0.338750 0.126070
0.171420 0.335515 0.130373
0.214694 0.331304 0.135683
0.251865 0.336095 0.122652
0.294438 0.344610 0.097353
0.345403 0.352361 0.059388
0.393133 0.349462 0.000000
0.449592 0.348272 0.000000
0.501793 0.344640 0.000000
0.549554 0.340398 0.000000
0.592615 0.336126 0.000000
0.631922 0.331548 0.000000
0.667323 0.325597 0.000000
0.698543 0.316716 0.000000
0.726833 0.307652 0.000000
0.753140 0.299168 0.000000
0.779995 0.292729 0.000000
0.807523 0.288792 0.000000
0.835264 0.286717 0.000000
0.863035 0.286473 0.000000
0.890715 0.286839 0.000000
0.918456 0.288609 0.000000
0.946624 0.292180 0.000000
0.975463 0.297520 0.000000
1.000000 0.304509 0.000000
1.000000 0.312810 0.000000
1.000000 0.321996 0.000000
0.000000 0.389990 0.096773
0.000000 0.390112 0.096101
0.000000 0.390204 0.095369
0.000000 0.389776 0.110628
0.055818 0.388922 0.131350
0.120089 0.386938 0.134890
0.169741 0.384344 0.139406
0.217136 0.380743 0.144961
0.263310 0.376226 0.151369
0.300267 0.384253 0.127352
0.344915 0.391913 0.095369
0.397528 0.399847 0.025269
0.459998 0.409735 0.000000
0.516350 0.409674 0.000000
0.563989 0.404700 0.000000
0.606836 0.399390 0.000000
0.645411 0.393835 0.000000
0.679042 0.387671 0.000000
0.708400 0.380499 0.000000
0.735195 0.371099 0.000000
0.761318 0.361547 0.000000
0.787961 0.353948 0.000000
0.814878 0.348211 0.000000
0.841947 0.345006 0.000000
0.869108 0.343389 0.000000
0.896208 0.343450 0.000000
0.923491 0.344182 0.000000
0.951110 0.346319 0.000000
0.979370 0.350042 0.000000
1.000000 0.355352 0.000000
1.000000 0.361944 0.000000
1.000000 0.369207 0.000000
0.000000 0.442939 0.099397
0.000000 0.442969 0.099031
0.000000 0.442725 0.098207
0.000000 0.442023 0.112490
0.000000 0.440558 0.137728
0.114839 0.438209 0.147494
0.169986 0.435431 0.152071
0.220462 0.432013 0.157748
0.270024 0.428016 0.164370
0.315526 0.427771 0.163912
0.356970 0.438117 0.135744
0.405768 0.447791 0.096925
0.459937 0.456458 0.000000
0.504753 0.452583 0.000000
0.556939 0.451820 0.000000
0.600519 0.445930 0.000000
0.639460 0.439551 0.000000
0.673426 0.432197 0.000000
0.703182 0.424292 0.000000
0.730068 0.416449 0.000000
0.755978 0.409918 0.000000
0.782681 0.402075 0.000000
0.809659 0.395666 0.000000
0.836973 0.390723 0.000000
0.864256 0.387854 0.000000
0.891447 0.386877 0.000000
0.918822 0.387610 0.000000
0.946654 0.389044 0.000000
0.975189 0.391974 0.000000
1.000000 0.396643 0.000000
1.000000 0.402594 0.000000
1.000000 0.409308 0.000000
0.000000 0.487007 0.104891
0.000000 0.487007 0.104524
0.000000 0.486824 0.104433
0.000000 0.486183 0.116243
0.000000 0.484718 0.142000
0.110140 0.482551 0.162142
0.169406 0.480262 0.166751
0.223209 0.478492 0.172671
0.275242 0.476326 0.180056
0.326452 0.473823 0.188815
0.369177 0.477211 0.179110
0.410559 0.485786 0.147250
0.457282 0.493477 0.103151
0.507408 0.499702 0.000000
0.549248 0.495888 0.000000
0.593530 0.490913 0.000000
0.632776 0.483375 0.000000
0.667201 0.475135 0.000000
0.697536 0.466194 0.000000
0.724849 0.457588 0.000000
0.751034 0.450141 0.000000
0.777676 0.445136 0.000000
0.804685 0.440925 0.000000
0.832212 0.435920 0.000000
0.859831 0.431708 0.000000
0.887388 0.429450 0.000000
0.915007 0.429358 0.000000
0.942992 0.430732 0.000000
0.971771 0.433204 0.000000
1.000000 0.437324 0.000000
1.000000 0.442878 0.000000
1.000000 0.449104 0.000000
0.000000 0.530938 0.114412
0.000000 0.531151 0.114595
0.000000 0.531029 0.114870
0.000000 0.530785 0.123690
0.000000 0.529625 0.150515
0.112428 0.527794 0.181155
0.173892 0.526024 0.185885
0.228550 0.523674 0.191684
0.281163 0.521233 0.198642
0.332677 0.518578 0.207095
0.382696 0.515801 0.216770
0.420386 0.521355 0.196170
0.460243 0.528161 0.161410
0.503655 0.533989 0.114015
0.549279 0.538262 0.000000
0.588464 0.534478 0.000000
0.626154 0.526268 0.000000
0.661067 0.517052 0.000000
0.691859 0.507286 0.000000
0.719661 0.497719 0.000000
0.745998 0.489265 0.000000
0.772793 0.483192 0.000000
0.799863 0.479347 0.000000
0.827298 0.477241 0.000000
0.855131 0.474403 0.000000
0.883268 0.471199 0.000000
0.911559 0.470161 0.000000
0.940276 0.471717 0.000000
0.969757 0.474586 0.000000
1.000000 0.478737 0.000000
1.000000 0.484199 0.000000
1.000000 0.490272 0.000000
0.000000 0.573785 0.128939
0.000000 0.573999 0.129610
0.000000 0.573907 0.130343
0.000000 0.573663 0.135683
0.000000 0.572534 0.162173
0.107637 0.570733 0.194675
0.183200 0.568872 0.208652
0.237705 0.566827 0.214420
0.290074 0.564446 0.221134
0.340887 0.561669 0.228946
0.390295 0.558465 0.237949
0.436042 0.555718 0.245060
0.468269 0.561059 0.215152
0.504662 0.565576 0.177798
0.543847 0.569085 0.128695
0.585046 0.571527 0.005127
0.622461 0.568383 0.000000
0.654108 0.557366 0.000000
0.685969 0.547295 0.000000
0.714656 0.537163 0.000000
0.741634 0.528130 0.000000
0.769009 0.521538 0.000000
0.796536 0.517052 0.000000
0.824369 0.514488 0.000000
0.852384 0.513512 0.000000
0.880644 0.513848 0.000000
0.909453 0.511833 0.000000
0.938567 0.512322 0.000000
0.968231 0.515221 0.000000
0.998657 0.518822 0.000000
1.000000 0.523613 0.000000
1.000000 0.529046 0.000000
0.000000 0.610986 0.146181
0.000000 0.610925 0.146700
0.000000 0.610742 0.148135
0.000000 0.610498 0.150698
0.000000 0.609277 0.175692
0.101656 0.607385 0.206851
0.193820 0.605066 0.231510
0.246433 0.602960 0.236545
0.297093 0.600519 0.242863
0.346777 0.597772 0.250126
0.395056 0.594690 0.258671
0.441230 0.591363 0.268040
0.479377 0.590753 0.264897
0.509819 0.594965 0.233738
0.543389 0.598138 0.195438
0.579156 0.600183 0.145541
0.616815 0.601282 0.060883
0.652674 0.598962 0.000000
0.679194 0.585351 0.000000
0.708766 0.575158 0.000000
0.736110 0.565301 0.000000
0.763699 0.557885 0.000000
0.791562 0.552728 0.000000
0.819760 0.549615 0.000000
0.848142 0.548150 0.000000
0.876677 0.548333 0.000000
0.905669 0.549798 0.000000
0.935332 0.550958 0.000000
0.965454 0.553094 0.000000
0.996246 0.557092 0.000000
1.000000 0.561730 0.000000
1.000000 0.566949 0.000000
0.000000 0.644923 0.165957
0.000000 0.645136 0.167300
0.000000 0.656336 0.177554
0.000000 0.655879 0.181094
0.000000 0.654475 0.201724
0.121309 0.652125 0.231235
0.220981 0.648798 0.265476
0.269780 0.646235 0.270237
0.317815 0.643427 0.275914
0.365179 0.640345 0.282628
0.411139 0.636927 0.290288
0.455146 0.633234 0.298741
0.496315 0.629145 0.308049
0.526513 0.629328 0.293675
0.553918 0.631495 0.260899
0.584070 0.632929 0.221317
0.616602 0.633600 0.171695
0.650874 0.633570 0.098085
0.685084 0.631678 0.000000
0.706966 0.615686 0.000000
0.734859 0.605676 0.000000
0.762600 0.597528 0.000000
0.790616 0.591547 0.000000
0.818753 0.587488 0.000000
0.846799 0.584924 0.000000
0.874937 0.584009 0.000000
0.903441 0.584588 0.000000
0.932586 0.586664 0.000000
0.962768 0.589410 0.000000
0.993622 0.593957 0.000000
1.000000 0.598596 0.000000
1.000000 0.603540 0.000000
0.000000 0.677241 0.190280
0.000000 0.678553 0.192782
0.000000 0.679744 0.195804
0.000000 0.680568 0.200809
0.000000 0.680262 0.217563
0.127474 0.678492 0.246006
0.223911 0.675502 0.278569
0.281987 0.672602 0.294102
0.327031 0.670008 0.299382
0.371405 0.667079 0.305394
0.415259 0.663905 0.312444
0.457282 0.660456 0.320439
0.497047 0.656611 0.329107
0.534234 0.652522 0.338018
0.558282 0.653864 0.313054
0.583734 0.655207 0.279423
0.611749 0.655970 0.239750
0.642054 0.656123 0.190829
0.674281 0.655818 0.122469
0.708003 0.655238 0.000000
0.727687 0.639185 0.000000
0.756771 0.631769 0.000000
0.785275 0.625513 0.000000
0.813931 0.621210 0.000000
0.842527 0.618372 0.000000
0.871183 0.617151 0.000000
0.900114 0.617456 0.000000
0.929595 0.619593 0.000000
0.960052 0.622919 0.000000
0.991363 0.627588 0.000000
1.000000 0.634638 0.000000
1.000000 0.639399 0.000000
0.000000 0.702113 0.212131
0.000000 0.703151 0.214786
0.000000 0.704128 0.217868
0.000000 0.704677 0.222965
0.000000 0.704402 0.235935
0.140322 0.702602 0.262730
0.230747 0.699702 0.293584
0.297093 0.696407 0.318975
0.338445 0.693996 0.323796
0.380041 0.691279 0.329534
0.421118 0.688380 0.336309
0.460914 0.685237 0.343603
0.498939 0.681636 0.351537
0.534844 0.677913 0.360113
0.566217 0.674891 0.362615
0.587457 0.676326 0.333501
0.611444 0.677333 0.299382
0.637964 0.677943 0.259617
0.666896 0.678248 0.211063
0.697841 0.678370 0.146151
0.730312 0.678248 0.000000
0.750118 0.664057 0.000000
0.780209 0.658961 0.000000
0.809262 0.654353 0.000000
0.838285 0.651240 0.000000
0.867308 0.649592 0.000000
0.896513 0.649561 0.000000
0.926329 0.651270 0.000000
0.956939 0.654810 0.000000
0.988586 0.658961 0.000000
1.000000 0.665522 0.000000
1.000000 0.673060 0.000000
0.000000 0.725429 0.234562
0.000000 0.726406 0.237186
0.000000 0.727291 0.240330
0.000000 0.727840 0.245457
0.000000 0.727596 0.255528
0.157687 0.725826 0.280735
0.240330 0.723110 0.309850
0.312108 0.719478 0.342138
0.352483 0.717037 0.348882
0.390753 0.714534 0.354101
0.428962 0.711849 0.360143
0.466468 0.708919 0.367041
0.502525 0.705715 0.374273
0.537102 0.702327 0.382361
0.569940 0.698787 0.390906
0.595697 0.697688 0.383917
0.616602 0.699489 0.354894
0.640253 0.701137 0.321324
0.666499 0.702632 0.281987
0.695125 0.703944 0.234775
0.725643 0.705135 0.173220
0.757687 0.706050 0.057618
0.777737 0.693538 0.000000
0.809140 0.690883 0.000000
0.839017 0.688106 0.000000
0.868711 0.686610 0.000000
0.898558 0.686549 0.000000
0.928862 0.688106 0.000000
0.959899 0.691310 0.000000
0.991669 0.696010 0.000000
1.000000 0.700771 0.000000
1.000000 0.707790 0.000000
0.000000 0.753780 0.262455
0.000000 0.754147 0.264469
0.000000 0.754391 0.266819
0.000000 0.754269 0.271336
0.072450 0.753719 0.278141
0.179782 0.751736 0.301640
0.255497 0.749020 0.329351
0.323796 0.745632 0.360449
0.371832 0.742885 0.377264
0.407416 0.740749 0.382391
0.443091 0.738521 0.388464
0.478462 0.735988 0.394995
0.512627 0.733150 0.402014
0.545586 0.730098 0.409522
0.577142 0.726833 0.417487
0.607172 0.723537 0.425879
0.628107 0.724025 0.409308
0.648341 0.725917 0.379736
0.671199 0.727657 0.345830
0.696468 0.729152 0.306096
0.723903 0.730495 0.258335
0.753079 0.731594 0.197147
0.783658 0.732387 0.099489
0.802670 0.720302 0.000000
0.834470 0.719020 0.000000
0.864561 0.717433 0.000000
0.894865 0.717281 0.000000
0.925628 0.718685 0.000000
0.957061 0.721706 0.000000
0.989166 0.726131 0.000000
1.000000 0.731228 0.000000
1.000000 0.737026 0.000000
0.000000 0.778347 0.285222
0.000000 0.778714 0.287205
0.000000 0.778988 0.289647
0.009949 0.778866 0.294285
0.121950 0.778256 0.301122
0.199741 0.776425 0.320867
0.269596 0.773709 0.347173
0.333928 0.770413 0.376684
0.389593 0.767025 0.402991
0.422217 0.765011 0.407660
0.455451 0.762905 0.413184
0.488502 0.760616 0.419226
0.520989 0.758083 0.425788
0.552758 0.755306 0.432929
0.583276 0.752468 0.440467
0.612634 0.749538 0.448524
0.640650 0.746639 0.457099
0.658167 0.748928 0.431525
0.678218 0.751125 0.402289
0.700771 0.753262 0.368444
0.725582 0.755215 0.328893
0.752468 0.757015 0.281224
0.781094 0.758602 0.220798
0.811063 0.759915 0.130282
0.826535 0.745693 0.000000
0.859098 0.746059 0.000000
0.889830 0.745876 0.000000
0.920958 0.747219 0.000000
0.952758 0.750088 0.000000
0.985351 0.754330 0.000000
1.000000 0.759823 0.000000
1.000000 0.764645 0.000000
0.000000 0.807004 0.313054
0.008331 0.807492 0.315251
0.074098 0.807584 0.317571
0.120668 0.807248 0.321965
0.167147 0.806394 0.328374
0.226108 0.804501 0.344579
0.289525 0.801633 0.369360
0.350195 0.798062 0.397467
0.408240 0.794034 0.428138
0.441291 0.791501 0.435767
0.471412 0.789120 0.440223
0.501915 0.786648 0.445441
0.532341 0.784024 0.451118
0.562158 0.781186 0.457191
0.591058 0.778103 0.463661
0.619043 0.774960 0.470558
0.645960 0.771878 0.478065
0.669123 0.770352 0.477424
0.686458 0.772732 0.451728
0.706386 0.775235 0.422583
0.728725 0.777737 0.389014
0.753201 0.780056 0.349310
0.779416 0.782010 0.301183
0.807065 0.783566 0.239963
0.835782 0.784634 0.151278
0.852964 0.773220 0.000000
0.886198 0.774990 0.000000
0.917754 0.776272 0.000000
0.949767 0.778866 0.000000
0.982605 0.782834 0.000000
1.000000 0.787991 0.000000
1.000000 0.792935 0.000000
0.095369 0.831571 0.335393
0.111879 0.831998 0.337499
0.130495 0.832120 0.339910
0.160708 0.831785 0.344244
0.197757 0.830900 0.350591
0.246220 0.829282 0.364050
0.305821 0.826535 0.388067
0.363378 0.823270 0.415045
0.418952 0.819608 0.444709
0.459327 0.816709 0.461952
0.487495 0.814664 0.466316
0.516564 0.812589 0.471351
0.545586 0.810330 0.476997
0.574182 0.807889 0.482887
0.602167 0.805234 0.489143
0.629389 0.802487 0.495796
0.655726 0.799741 0.502953
0.681239 0.797208 0.510796
0.701015 0.797604 0.502068
0.718410 0.800320 0.476905
0.738186 0.803037 0.447974
0.760128 0.805692 0.414191
0.783993 0.808072 0.374029
0.809567 0.810147 0.325139
0.836606 0.811856 0.263401
0.864775 0.813230 0.175967
0.881773 0.802670 0.000000
0.915770 0.805753 0.000000
0.948882 0.808774 0.000000
0.982208 0.812802 0.000000
1.000000 0.817472 0.000000
1.000000 0.822293 0.000000
0.150576 0.857664 0.359899
0.161776 0.857877 0.361883
0.174166 0.857816 0.363989
0.197421 0.857267 0.368048
0.228275 0.856260 0.374090
0.267918 0.854704 0.384710
0.323064 0.851926 0.407416
0.377569 0.848692 0.433356
0.430732 0.845151 0.461891
0.477821 0.841764 0.487861
0.504326 0.839902 0.491981
0.531701 0.838071 0.496834
0.559258 0.836118 0.502159
0.586786 0.833921 0.507866
0.613672 0.831510 0.513756
0.639887 0.828977 0.519951
0.665522 0.826413 0.526635
0.690394 0.824002 0.533867
0.714626 0.821927 0.541833
0.731594 0.823972 0.525231
0.749050 0.826902 0.500267
0.768704 0.829801 0.471473
0.790280 0.832547 0.437537
0.813718 0.835050 0.397070
0.838804 0.837278 0.347478
0.865354 0.839231 0.284672
0.893309 0.841001 0.196933
0.911589 0.832395 0.000000
0.944915 0.835386 0.000000
0.979583 0.839872 0.000000
1.000000 0.844266 0.000000
1.000000 0.848936 0.000000
0.190616 0.882689 0.383093
0.198856 0.882780 0.384771
0.209384 0.882689 0.386938
0.229038 0.882231 0.390845
0.257145 0.881376 0.397223
0.290532 0.880369 0.406073
0.342992 0.878294 0.428809
0.395575 0.875944 0.454841
0.447517 0.873381 0.483497
0.497749 0.870695 0.513817
0.528161 0.869444 0.523980
0.554711 0.868437 0.529595
0.581415 0.867247 0.535393
0.608026 0.865751 0.541405
0.634180 0.863920 0.547539
0.659571 0.861784 0.553582
0.684352 0.859556 0.559960
0.708461 0.857389 0.566766
0.732082 0.855467 0.574182
0.754208 0.854246 0.579461
0.769619 0.857328 0.558343
0.787076 0.860441 0.533867
0.806363 0.863401 0.505180
0.827543 0.866239 0.471321
0.850523 0.868894 0.430762
0.875242 0.871336 0.380865
0.901701 0.873655 0.317296
0.929686 0.875883 0.229587
0.949462 0.869200 0.029053
0.981872 0.871336 0.000000
1.000000 0.876371 0.000000
1.000000 0.880247 0.000000
0.239231 0.913146 0.414466
0.245731 0.913115 0.416052
0.254032 0.912871 0.417914
0.270512 0.912261 0.421698
0.294713 0.911254 0.427680
0.323796 0.910002 0.435798
0.368902 0.907774 0.455329
0.417395 0.905150 0.479652
0.465949 0.902220 0.506371
0.513573 0.899107 0.534966
0.549554 0.896757 0.552850
0.573846 0.895354 0.557336
0.598566 0.893828 0.562158
0.623468 0.892119 0.567376
