data/fiter_cube/67355442/1023286/file.cube
# Created by Adobe Lightroom plugin Export LUT (1.17.0)
# www.johnrellis.com/lightroom/exportlut.htm
# Preset: 日系A通透明亮[云集]-3
# Color profile: C:\Program Files (x86)\Common Files\Adobe\Color\Profiles\Recommended\AdobeRGB1998.icc
LUT_3D_SIZE 8
DOMAIN_MIN 0.000000 0.000000 0.000000
DOMAIN_MAX 0.903226 0.903226 0.903226
0.038514 0.041474 0.039948
0.112428 0.046967 0.034760
0.312749 0.000000 0.000000
0.541741 0.000000 0.000000
0.718013 0.000000 0.000000
0.845914 0.000000 0.000000
0.947204 0.190860 0.000000
1.000000 0.268742 0.000000
0.023316 0.112581 0.056062
0.103639 0.112367 0.038911
0.299138 0.124269 0.000000
0.538537 0.088838 0.000000
0.714778 0.096620 0.000000
0.840024 0.173465 0.000000
0.940581 0.245274 0.000000
1.000000 0.304601 0.000000
0.000000 0.359319 0.060273
0.000000 0.355840 0.000000
0.302190 0.336187 0.000000
0.529168 0.331518 0.000000
0.713619 0.345861 0.000000
0.843107 0.367468 0.000000
0.948272 0.392004 0.000000
1.000000 0.411749 0.000000
0.000000 0.637201 0.162173
0.000000 0.635920 0.075929
0.300450 0.625513 0.155642
0.572412 0.597131 0.000000
0.736599 0.569146 0.000000
0.838834 0.549187 0.000000
0.939239 0.544823 0.000000
1.000000 0.540581 0.000000
0.000000 0.806577 0.327001
0.000000 0.806088 0.295842
0.319860 0.800351 0.285618
0.567590 0.781888 0.328771
0.733669 0.741787 0.188357
0.843229 0.697505 0.092042
0.926665 0.674800 0.158694
1.000000 0.665248 0.198398
0.238529 0.900359 0.465797
0.279973 0.902617 0.459022
0.380133 0.899657 0.428809
0.577600 0.886503 0.500877
0.706020 0.867185 0.474067
0.830350 0.838315 0.353582
0.932372 0.800839 0.272313
1.000000 0.778164 0.329931
0.433692 0.965179 0.577752
0.449989 0.964996 0.574823
0.494606 0.962371 0.561059
0.607752 0.953857 0.591913
0.720516 0.942596 0.647181
0.798367 0.930083 0.588159
0.899596 0.912169 0.494087
0.996094 0.882506 0.415381
0.563745 1.000000 0.663508
0.571496 1.000000 0.662013
0.599207 1.000000 0.658900
0.657771 1.000000 0.669734
0.736507 0.991363 0.701137
0.807584 0.984100 0.720943
0.870329 0.978668 0.678950
0.953399 0.969757 0.614221
0.028473 0.037446 0.119661
0.125368 0.000671 0.123018
0.319799 0.000000 0.099611
0.532067 0.000000 0.062074
0.708705 0.000000 0.000000
0.834104 0.000000 0.000000
0.936034 0.132601 0.000000
1.000000 0.237858 0.000000
0.000000 0.116457 0.115297
0.114382 0.119600 0.118532
0.314580 0.094301 0.100191
0.536889 0.000000 0.056062
0.709926 0.000000 0.000000
0.832395 0.114900 0.000000
0.931548 0.208255 0.000000
1.000000 0.278508 0.000000
0.000000 0.355657 0.166842
0.093843 0.352056 0.164736
0.310338 0.337407 0.133913
0.528435 0.327245 0.102754
0.711788 0.333379 0.000000
0.835630 0.346807 0.000000
0.935943 0.369116 0.000000
1.000000 0.395178 0.000000
0.000000 0.624414 0.266209
0.000000 0.622827 0.250584
0.321965 0.619257 0.250797
0.559838 0.582940 0.166049
0.717525 0.551904 0.106600
0.823972 0.534813 0.099855
0.926482 0.531304 0.000000
1.000000 0.530205 0.000000
0.095308 0.798398 0.410437
0.162936 0.797299 0.386816
0.341894 0.792691 0.350835
0.568597 0.773220 0.394079
0.723659 0.732235 0.266728
0.833494 0.690272 0.196323
0.918608 0.669612 0.224918
1.000000 0.660914 0.236790
0.310979 0.892149 0.512932
0.334936 0.891905 0.503441
0.406653 0.890440 0.470649
0.584863 0.879698 0.528588
0.707668 0.862852 0.514336
0.827329 0.835691 0.405188
0.927489 0.798581 0.327672
0.997253 0.775998 0.366735
0.464515 0.958495 0.602930
0.475135 0.957519 0.597955
0.516899 0.955657 0.586694
0.616358 0.949462 0.609369
0.726162 0.939666 0.661860
0.799802 0.927245 0.610681
0.895995 0.908568 0.518669
0.990814 0.878813 0.440192
0.581781 1.000000 0.679774
0.590082 1.000000 0.679194
0.615900 1.000000 0.676173
0.666835 0.999908 0.682582
0.748653 0.991577 0.718563
0.815152 0.983825 0.737423
0.872496 0.977813 0.693812
0.952453 0.968536 0.629419
0.000000 0.005554 0.348211
0.131441 0.000000 0.372381
0.394415 0.000000 0.382849
0.619074 0.000000 0.351293
0.744045 0.000000 0.250767
0.835538 0.000000 0.197482
0.936004 0.000000 0.170840
1.000000 0.152041 0.128176
0.000000 0.144747 0.307225
0.000000 0.109102 0.347326
0.380224 0.000000 0.371191
0.601221 0.000000 0.318181
0.730953 0.000000 0.224521
0.831998 0.000000 0.202762
0.932769 0.081147 0.170016
1.000000 0.220371 0.125429
0.000000 0.334356 0.335912
0.000000 0.338933 0.339422
0.335576 0.347051 0.348455
0.560204 0.310307 0.301244
0.725246 0.299229 0.261723
0.836820 0.310582 0.223728
0.933257 0.335821 0.182773
1.000000 0.367102 0.133364
0.000000 0.629725 0.429328
0.000000 0.626154 0.427466
0.381018 0.613703 0.437446
0.573327 0.589349 0.400153
0.719509 0.557061 0.354772
0.830289 0.536706 0.308202
0.929595 0.524651 0.252171
1.000000 0.517693 0.186526
0.000000 0.796872 0.511284
0.206455 0.792508 0.518090
0.452613 0.780362 0.533806
0.607507 0.773861 0.561456
0.727321 0.736202 0.465003
0.828885 0.693782 0.400855
0.912230 0.672694 0.397284
1.000000 0.661372 0.365942
0.333593 0.888823 0.584527
0.409003 0.884886 0.595819
0.530785 0.877134 0.610529
0.625574 0.872648 0.617273
0.728237 0.859739 0.626612
0.823758 0.833219 0.538354
0.918029 0.798276 0.472389
0.990204 0.779873 0.488350
0.516533 0.954742 0.662287
0.555016 0.951415 0.673030
0.607050 0.947265 0.677241
0.657984 0.944701 0.672999
0.751217 0.936553 0.712001
0.814725 0.926024 0.684810
0.897093 0.909483 0.613214
0.985992 0.882658 0.549859
0.631769 1.000000 0.728603
0.651331 0.998352 0.735500
0.670436 0.997009 0.731807
0.706172 0.995758 0.731258
0.771542 0.989105 0.755398
0.834653 0.981964 0.780606
0.882322 0.976928 0.741787
0.953796 0.968750 0.685634
0.000000 0.000000 0.579004
0.000000 0.000000 0.596948
0.464210 0.000000 0.647791
0.667262 0.000000 0.641077
0.808835 0.000000 0.606317
0.882292 0.000000 0.506981
0.951019 0.000000 0.412055
1.000000 0.000000 0.315496
0.000000 0.108400 0.563317
0.000000 0.085359 0.582727
0.425147 0.000000 0.634730
0.661372 0.000000 0.636561
0.806699 0.000000 0.598688
0.875486 0.000000 0.493477
0.945251 0.000000 0.398596
1.000000 0.000000 0.332158
0.000000 0.333165 0.479744
0.000000 0.336278 0.481636
0.290684 0.313664 0.580011
0.635737 0.212192 0.618921
0.780453 0.144167 0.551476
0.855039 0.189914 0.459419
0.929808 0.231174 0.393652
1.000000 0.309270 0.370459
0.000000 0.573144 0.566613
0.000000 0.575097 0.568627
0.317205 0.578912 0.575494
0.579675 0.585107 0.588800
0.721126 0.544335 0.537591
0.824277 0.515984 0.489021
0.919738 0.500298 0.443305
1.000000 0.498024 0.405310
0.000000 0.796811 0.640009
0.000000 0.792294 0.638514
0.409308 0.776303 0.639216
0.635645 0.757351 0.660395
0.730312 0.735805 0.630854
0.818173 0.698787 0.582879
0.908110 0.675196 0.543572
0.997864 0.655695 0.497688
0.265019 0.891081 0.662593
0.361028 0.889097 0.669551
0.539574 0.875792 0.687495
0.683009 0.863737 0.715267
0.766445 0.861997 0.737118
0.827451 0.834348 0.669795
0.907866 0.801968 0.617975
0.980194 0.786069 0.613275
0.481758 0.956176 0.702968
0.525139 0.953429 0.710964
0.632166 0.945251 0.736263
0.724117 0.938445 0.760189
0.782650 0.935729 0.771237
0.839048 0.927367 0.768856
0.900206 0.910002 0.707973
0.977966 0.885161 0.657313
0.614221 1.000000 0.753231
0.637812 1.000000 0.760433
0.703120 0.994995 0.782406
0.759701 0.990021 0.797421
0.798001 0.986999 0.800107
0.857176 0.980591 0.827176
0.895872 0.975921 0.800870
0.956146 0.968688 0.751888
0.000000 0.000000 0.731746
0.000000 0.000000 0.740261
0.427649 0.000000 0.766018
0.708675 0.000000 0.807065
0.825864 0.000000 0.787961
0.911437 0.000000 0.735866
0.975921 0.000000 0.673426
1.000000 0.000000 0.604364
0.000000 0.077852 0.723049
0.000000 0.003388 0.732540
0.396857 0.000000 0.759457
0.693843 0.000000 0.800870
0.822202 0.000000 0.785519
0.909392 0.000000 0.733211
0.972808 0.000000 0.668666
1.000000 0.000000 0.599969
0.000000 0.357488 0.663691
0.000000 0.350378 0.682033
0.277592 0.287968 0.727749
0.638972 0.253819 0.778012
0.805570 0.185885 0.774502
0.898497 0.107546 0.721401
0.958587 0.205142 0.650721
1.000000 0.203799 0.581659
0.000000 0.529534 0.646143
0.000000 0.529564 0.646143
0.297246 0.532158 0.647059
0.542748 0.547478 0.724910
0.774136 0.528161 0.756191
0.869047 0.483803 0.695186
0.931334 0.456001 0.622492
1.000000 0.405554 0.545495
0.000000 0.726986 0.711757
0.000000 0.726375 0.712490
0.353246 0.723079 0.714168
0.571466 0.720089 0.718624
0.725765 0.723629 0.727108
0.812436 0.684199 0.683314
0.900725 0.648890 0.638117
0.990600 0.626246 0.599969
0.000000 0.880522 0.749416
0.225193 0.877775 0.749691
0.447059 0.867948 0.750820
0.634394 0.853208 0.758541
0.763088 0.842252 0.774807
0.826261 0.827878 0.753811
0.896605 0.799466 0.715419
0.975128 0.781613 0.690517
0.409766 0.956817 0.760037
0.457649 0.953735 0.763058
0.579095 0.944915 0.774960
0.704128 0.934966 0.796231
0.800748 0.928588 0.819364
0.860441 0.927672 0.836728
0.901946 0.907897 0.781277
0.969574 0.883574 0.737484
0.567163 1.000000 0.784237
0.592767 1.000000 0.788754
0.664912 0.996674 0.803738
0.756863 0.989593 0.830045
0.826932 0.983307 0.850004
0.870695 0.979889 0.860349
0.909300 0.974975 0.855619
0.957855 0.967437 0.810941
0.000000 0.000000 0.836057
0.057069 0.000000 0.840208
0.405463 0.000000 0.853269
0.643977 0.000000 0.877775
0.839719 0.000000 0.904936
0.920409 0.000000 0.878264
0.983856 0.000000 0.823911
1.000000 0.000000 0.778195
0.000000 0.000000 0.828153
0.000000 0.000000 0.832364
0.379248 0.000000 0.846769
0.631281 0.000000 0.872313
0.834653 0.000000 0.901610
0.916503 0.000000 0.875547
0.981415 0.000000 0.822049
1.000000 0.000000 0.775662
0.000000 0.325414 0.801907
0.000000 0.284794 0.810483
0.293767 0.270848 0.830777
0.592737 0.268925 0.858061
0.812253 0.280430 0.891417
0.906523 0.269718 0.870268
0.974914 0.260716 0.818723
1.000000 0.282780 0.768948
0.000000 0.533074 0.726375
0.019471 0.534905 0.736202
0.310277 0.539055 0.772000
0.527092 0.523308 0.825528
0.767147 0.558129 0.868467
0.890135 0.540337 0.863310
0.964294 0.502556 0.816526
1.000000 0.482521 0.759518
0.000000 0.676936 0.761013
0.146822 0.675868 0.760616
0.343023 0.672419 0.758999
0.513237 0.669032 0.755764
0.694209 0.693874 0.817288
0.862882 0.697902 0.847318
0.940063 0.655756 0.799832
0.998627 0.611872 0.737087
0.169589 0.822019 0.806912
0.256748 0.821622 0.807767
0.420508 0.817929 0.808316
0.580774 0.813901 0.809689
0.710018 0.812863 0.812833
0.824826 0.820035 0.822965
0.893980 0.781918 0.781582
0.975952 0.753140 0.747036
0.345800 0.949493 0.837400
0.396338 0.948241 0.838621
0.519219 0.943053 0.841733
0.650141 0.935973 0.846769
0.766934 0.927672 0.854582
0.863615 0.921233 0.870603
0.906157 0.907561 0.848936
0.964202 0.883726 0.813352
0.494850 1.000000 0.835386
0.525383 1.000000 0.837461
0.609827 1.000000 0.844785
0.711604 0.993072 0.858061
0.808164 0.984497 0.876493
0.885039 0.978393 0.897642
0.927672 0.976074 0.910216
0.961273 0.967285 0.869718
0.000000 0.000000 0.919158
0.149142 0.000000 0.921386
0.395911 0.000000 0.928222
0.599512 0.000000 0.939849
0.772946 0.000000 0.954528
0.913207 0.000000 0.963897
0.984070 0.000000 0.941192
1.000000 0.000000 0.887602
0.000000 0.000000 0.915709
0.042969 0.000000 0.917967
0.377264 0.000000 0.924926
0.590051 0.000000 0.936522
0.766842 0.000000 0.951690
0.910246 0.000000 0.962097
0.981384 0.000000 0.939513
1.000000 0.087282 0.886442
0.000000 0.268467 0.903471
0.000000 0.257328 0.907103
0.311650 0.249393 0.914702
0.560815 0.253819 0.927214
0.747799 0.294224 0.943450
0.902342 0.340642 0.957702
0.974487 0.347509 0.936767
1.000000 0.341497 0.885832
0.092836 0.553979 0.861601
0.180209 0.549035 0.866148
0.306401 0.516777 0.883787
0.507317 0.489845 0.906889
0.716609 0.528130 0.927153
0.890196 0.568170 0.950134
0.963134 0.550042 0.932708
1.000000 0.520226 0.885954
0.187045 0.671901 0.827451
0.235050 0.669886 0.826078
0.347601 0.663142 0.821561
0.499275 0.663508 0.850767
0.663996 0.662928 0.897978
0.853544 0.703639 0.931609
0.949004 0.693507 0.927214
1.000000 0.661707 0.887388
0.261601 0.784543 0.857786
0.302800 0.783383 0.857237
0.408972 0.779385 0.855222
0.530236 0.773190 0.851194
0.641047 0.764492 0.843595
0.792477 0.789425 0.894499
0.932708 0.811734 0.920714
0.992920 0.777401 0.884001
0.349157 0.902953 0.889586
0.384924 0.902129 0.889647
0.482124 0.899290 0.889494
0.595148 0.895933 0.889586
0.704891 0.893126 0.890043
0.808286 0.892729 0.892485
0.902892 0.899229 0.901091
0.962829 0.864866 0.863951
0.443977 1.000000 0.903258
0.472908 1.000000 0.903716
0.555444 0.998016 0.905760
0.656764 0.993042 0.909209
0.760616 0.987274 0.914733
0.857084 0.980377 0.923308
0.934478 0.975311 0.939422
0.965515 0.967773 0.923522
0.088563 0.000000 0.992279
0.210697 0.000000 0.992889
0.395605 0.000000 0.994598
0.569360 0.000000 0.997925
0.722103 0.000000 1.000000
0.862821 0.000000 1.000000
0.967041 0.000000 1.000000
1.000000 0.179385 0.987945
0.000000 0.000000 0.990814
0.175845 0.000000 0.991424
0.382605 0.000000 0.993225
0.562860 0.000000 0.996490
0.718074 0.000000 1.000000
0.859464 0.000000 1.000000
0.965118 0.189975 1.000000
1.000000 0.251499 0.987091
0.000000 0.243107 0.985809
0.000000 0.241184 0.986358
0.336004 0.234531 0.988098
0.541466 0.243198 0.991699
0.704952 0.285191 0.996033
0.848692 0.350072 1.000000
0.959350 0.396612 1.000000
1.000000 0.408118 0.985046
0.248112 0.555779 0.964813
0.246555 0.537987 0.967376
0.278782 0.472847 0.975586
0.502922 0.470466 0.981598
0.683619 0.503197 0.986877
0.833127 0.545861 0.993103
0.952056 0.575189 0.997375
1.000000 0.563745 0.982391
0.370153 0.706538 0.933043
0.387610 0.703822 0.935302
0.443763 0.692958 0.943023
0.535637 0.672541 0.957488
0.647089 0.642847 0.973602
0.811185 0.676997 0.982727
0.945708 0.712245 0.991974
1.000000 0.696620 0.979919
0.405615 0.792233 0.932464
0.423682 0.791226 0.931823
0.478462 0.787808 0.929625
0.552514 0.781094 0.925566
0.644648 0.772091 0.937224
0.770199 0.767880 0.967071
0.923491 0.813291 0.982635
0.993957 0.813535 0.977996
0.432197 0.879911 0.946990
0.451057 0.879271 0.946654
0.507683 0.877104 0.945464
0.586114 0.873777 0.943511
0.671351 0.868956 0.940093
0.754635 0.860899 0.933684
0.877623 0.875120 0.962646
0.983032 0.904936 0.975372
0.465339 0.973297 0.961089
0.484260 0.972656 0.960967
0.542809 0.970794 0.960662
0.625940 0.968200 0.960357
0.717281 0.965362 0.960021
0.807828 0.962829 0.959899
0.892302 0.961486 0.960632
0.966705 0.965270 0.965942
