data/fiter_cube/67355442/1023286/file.cube
# Created by Adobe Lightroom plugin Export LUT (1.17.0)
# www.johnrellis.com/lightroom/exportlut.htm
# Preset: 日系A通透明亮[云集]-3
# Color profile: C:\Program Files (x86)\Common Files\Adobe\Color\Profiles\Recommended\AdobeRGB1998.icc
LUT_3D_SIZE 32
DOMAIN_MIN 0.0 0.0 0.0
DOMAIN_MAX 1.0 1.0 1.0
0.038514 0.041474 0.039948
0.049531 0.041871 0.039612
0.060700 0.041352 0.039216
0.078920 0.043244 0.038758
0.112428 0.046967 0.034760
0.154635 0.040803 0.029389
0.203830 0.017578 0.020844
0.256748 0.000000 0.008515
0.312749 0.000000 0.000000
0.370581 0.000000 0.000000
0.429419 0.000000 0.000000
0.487037 0.000000 0.000000
0.541741 0.000000 0.000000
0.592493 0.000000 0.000000
0.638392 0.000000 0.000000
0.680171 0.000000 0.000000
0.718013 0.000000 0.000000
0.751736 0.000000 0.000000
0.781888 0.000000 0.000000
0.815183 0.000000 0.000000
0.845914 0.000000 0.000000
0.873960 0.098573 0.000000
0.899901 0.136660 0.000000
0.924224 0.166567 0.000000
0.947204 0.190860 0.000000
0.969329 0.213016 0.000000
0.990845 0.233066 0.000000
1.000000 0.251682 0.000000
1.000000 0.268742 0.000000
1.000000 0.284642 0.000000
1.000000 0.299290 0.000000
1.000000 0.311894 0.000000
0.039307 0.050599 0.041260
0.047181 0.050507 0.041047
0.059388 0.051026 0.040558
0.077363 0.055329 0.039857
0.111788 0.061097 0.034150
0.154574 0.059388 0.027466
0.203464 0.045228 0.018677
0.256229 0.008423 0.007202
0.311925 0.000000 0.000000
0.369360 0.000000 0.000000
0.427863 0.000000 0.000000
0.485298 0.000000 0.000000
0.539757 0.000000 0.000000
0.590570 0.000000 0.000000
0.636286 0.000000 0.000000
0.678126 0.000000 0.000000
0.715969 0.000000 0.000000
0.749722 0.000000 0.000000
0.780026 0.000000 0.000000
0.813077 0.000000 0.000000
0.843351 0.052613 0.000000
0.871214 0.109682 0.000000
0.897093 0.143801 0.000000
0.921447 0.170901 0.000000
0.944488 0.194827 0.000000
0.966766 0.217044 0.000000
0.988525 0.236149 0.000000
1.000000 0.254368 0.000000
1.000000 0.271336 0.000000
1.000000 0.286931 0.000000
1.000000 0.301396 0.000000
1.000000 0.314153 0.000000
0.039216 0.060426 0.043275
0.046021 0.059998 0.043183
0.058259 0.060365 0.041596
0.075227 0.064363 0.040650
0.108034 0.070130 0.036988
0.151339 0.072145 0.028534
0.202243 0.067720 0.017853
0.255955 0.051972 0.004669
0.311498 0.006744 0.000000
0.368841 0.000000 0.000000
0.427192 0.000000 0.000000
0.484718 0.000000 0.000000
0.539086 0.000000 0.000000
0.589715 0.000000 0.000000
0.635462 0.000000 0.000000
0.677150 0.000000 0.000000
0.715053 0.000000 0.000000
0.748714 0.000000 0.000000
0.779141 0.000000 0.000000
0.812131 0.000000 0.000000
0.842161 0.085481 0.000000
0.869902 0.125124 0.000000
0.895720 0.155825 0.000000
0.920043 0.180148 0.000000
0.943175 0.203403 0.000000
0.965454 0.223239 0.000000
0.987274 0.241855 0.000000
1.000000 0.259831 0.000000
1.000000 0.276036 0.000000
1.000000 0.291356 0.000000
1.000000 0.305180 0.000000
1.000000 0.317601 0.000000
0.036805 0.078462 0.048341
0.044404 0.077760 0.045563
0.057801 0.076875 0.048188
0.075410 0.079194 0.043519
0.105348 0.086610 0.039338
0.143496 0.091768 0.035187
0.194797 0.094057 0.021057
0.250614 0.090913 0.005127
0.308995 0.081788 0.000000
0.369055 0.064057 0.000000
0.428321 0.009155 0.000000
0.485328 0.000000 0.000000
0.539452 0.000000 0.000000
0.589776 0.000000 0.000000
0.635340 0.000000 0.000000
0.676783 0.000000 0.000000
0.714473 0.000000 0.000000
0.748074 0.000000 0.000000
0.779110 0.030945 0.000000
0.811032 0.094301 0.000000
0.840330 0.127504 0.000000
0.867643 0.154299 0.000000
0.893462 0.178683 0.000000
0.918059 0.200351 0.000000
0.941711 0.220218 0.000000
0.964508 0.238621 0.000000
0.986725 0.256046 0.000000
1.000000 0.272526 0.000000
1.000000 0.287755 0.000000
1.000000 0.302007 0.000000
1.000000 0.314641 0.000000
1.000000 0.326116 0.000000
0.023316 0.112581 0.056062
0.028779 0.112276 0.046082
0.052003 0.110750 0.046052
0.074281 0.109987 0.047913
0.103639 0.112367 0.038911
0.143160 0.118654 0.029175
0.188052 0.123018 0.021973
0.239506 0.124880 0.008362
0.299138 0.124269 0.000000
0.360266 0.120058 0.000000
0.421881 0.111879 0.000000
0.482002 0.100893 0.000000
0.538537 0.088838 0.000000
0.589990 0.078889 0.000000
0.635584 0.076387 0.000000
0.676997 0.084810 0.000000
0.714778 0.096620 0.000000
0.748287 0.113039 0.000000
0.780484 0.132845 0.000000
0.811429 0.152926 0.000000
0.840024 0.173465 0.000000
0.866941 0.193088 0.000000
0.892424 0.211398 0.000000
0.916991 0.228855 0.000000
0.940581 0.245274 0.000000
0.963439 0.261234 0.000000
0.985718 0.276738 0.000000
1.000000 0.290837 0.000000
1.000000 0.304601 0.000000
1.000000 0.317021 0.000000
1.000000 0.328588 0.000000
1.000000 0.339055 0.000000
0.000000 0.159945 0.059297
0.000000 0.159731 0.047700
0.011048 0.158541 0.033143
0.064576 0.155856 0.040650
0.099428 0.155520 0.037659
0.140871 0.156619 0.022309
0.189761 0.160616 0.008301
0.238895 0.164218 0.000000
0.290867 0.164309 0.000000
0.351232 0.165286 0.000000
0.414069 0.165316 0.000000
0.475715 0.162356 0.000000
0.533288 0.159243 0.000000
0.586419 0.157534 0.000000
0.634272 0.158724 0.000000
0.677699 0.162905 0.000000
0.716365 0.170596 0.000000
0.749538 0.179843 0.000000
0.782620 0.192844 0.000000
0.812985 0.206973 0.000000
0.841123 0.221256 0.000000
0.867857 0.235569 0.000000
0.910460 0.266117 0.000000
0.934051 0.279057 0.000000
0.956390 0.291020 0.000000
0.977874 0.302800 0.000000
0.998535 0.314305 0.000000
1.000000 0.324559 0.000000
1.000000 0.334936 0.000000
1.000000 0.344579 0.000000
1.000000 0.353246 0.000000
1.000000 0.360967 0.000000
0.000000 0.223667 0.056641
0.000000 0.223301 0.040528
0.000000 0.222721 0.014832
0.007385 0.220462 0.012879
0.085878 0.216648 0.032288
0.138094 0.216526 0.012421
0.191196 0.214664 0.000000
0.247807 0.214725 0.000000
0.301640 0.217136 0.000000
0.356909 0.217746 0.000000
0.413397 0.217380 0.000000
0.476753 0.219791 0.000000
0.535393 0.221073 0.000000
0.589014 0.222019 0.000000
0.636835 0.224216 0.000000
0.679591 0.228458 0.000000
0.718166 0.234134 0.000000
0.754849 0.242710 0.000000
0.788785 0.252781 0.000000
0.819883 0.263035 0.000000
0.848631 0.274388 0.000000
0.876341 0.286595 0.000000
0.903044 0.298894 0.000000
0.928496 0.310246 0.000000
0.952514 0.321599 0.000000
0.974945 0.331579 0.000000
0.996155 0.341100 0.000000
1.000000 0.349828 0.000000
1.000000 0.358221 0.000000
1.000000 0.366155 0.000000
1.000000 0.373266 0.000000
1.000000 0.379767 0.000000
0.000000 0.288670 0.054994
0.000000 0.288334 0.031891
0.000000 0.287968 0.003906
0.000000 0.286534 0.000000
0.053925 0.283299 0.000000
0.123995 0.279789 0.010101
0.184756 0.277531 0.000000
0.243473 0.273075 0.000000
0.304967 0.269718 0.000000
0.360937 0.271824 0.000000
0.417121 0.272923 0.000000
0.471626 0.272618 0.000000
0.526726 0.273777 0.000000
0.581689 0.276951 0.000000
0.630701 0.280125 0.000000
0.674342 0.284092 0.000000
0.714992 0.290074 0.000000
0.752895 0.297642 0.000000
0.786038 0.304936 0.000000
0.816831 0.312261 0.000000
0.846067 0.320409 0.000000
0.874235 0.329442 0.000000
0.901305 0.338262 0.000000
0.926482 0.346960 0.000000
0.950317 0.355505 0.000000
0.972717 0.363348 0.000000
0.993927 0.370550 0.000000
1.000000 0.377417 0.000000
1.000000 0.384009 0.000000
1.000000 0.390387 0.000000
1.000000 0.396033 0.000000
1.000000 0.401129 0.000000
0.000000 0.359319 0.060273
0.000000 0.358984 0.036561
0.000000 0.358801 0.000000
0.000000 0.358007 0.000000
0.000000 0.355840 0.000000
0.102693 0.352239 0.000000
0.174472 0.348455 0.000000
0.239750 0.343481 0.000000
0.302190 0.336187 0.000000
0.366613 0.331487 0.000000
0.423255 0.331762 0.000000
0.477882 0.331945 0.000000
0.529168 0.331518 0.000000
0.576379 0.330541 0.000000
0.624598 0.333684 0.000000
0.670497 0.338842 0.000000
0.713619 0.345861 0.000000
0.750668 0.351385 0.000000
0.783413 0.356054 0.000000
0.813962 0.361425 0.000000
0.843107 0.367468 0.000000
0.871214 0.373754 0.000000
0.898161 0.380102 0.000000
0.923888 0.386511 0.000000
0.948272 0.392004 0.000000
0.971130 0.396979 0.000000
0.992432 0.402014 0.000000
1.000000 0.407080 0.000000
1.000000 0.411749 0.000000
1.000000 0.416388 0.000000
1.000000 0.420661 0.000000
1.000000 0.424384 0.000000
0.000000 0.432746 0.071138
0.000000 0.432471 0.058503
0.000000 0.432044 0.018372
0.000000 0.431800 0.000000
0.000000 0.430274 0.000000
0.060914 0.427436 0.000000
0.159121 0.423560 0.033509
0.233555 0.418067 0.000000
0.300908 0.410864 0.000000
0.364508 0.401343 0.000000
0.429236 0.394629 0.000000
0.483772 0.391394 0.000000
0.534813 0.390784 0.000000
0.581628 0.389624 0.000000
0.626337 0.390539 0.000000
0.668696 0.393378 0.000000
0.711696 0.399542 0.000000
0.748775 0.403693 0.000000
0.781552 0.406897 0.000000
0.811917 0.410254 0.000000
0.840665 0.413947 0.000000
0.868162 0.417884 0.000000
0.894560 0.421668 0.000000
0.919799 0.425513 0.000000
0.943938 0.429053 0.000000
0.966888 0.432319 0.000000
0.988891 0.435370 0.000000
1.000000 0.438209 0.000000
1.000000 0.440864 0.000000
1.000000 0.443824 0.000000
1.000000 0.446876 0.000000
1.000000 0.449409 0.000000
0.000000 0.503136 0.092836
0.000000 0.503075 0.082155
0.000000 0.503014 0.066377
0.000000 0.502861 0.000000
0.000000 0.502403 0.000000
0.000000 0.500694 0.000000
0.143618 0.497810 0.023621
0.225345 0.493538 0.064027
0.298894 0.486122 0.000000
0.366400 0.476875 0.000000
0.428687 0.465400 0.000000
0.491402 0.457130 0.000000
0.542748 0.451240 0.000000
0.591638 0.451606 0.000000
0.635462 0.451759 0.000000
0.675074 0.451728 0.000000
0.710506 0.451179 0.000000
0.744442 0.452033 0.000000
0.777371 0.453986 0.000000
0.807858 0.455879 0.000000
0.836851 0.457893 0.000000
0.864500 0.460029 0.000000
0.891020 0.462531 0.000000
0.916350 0.464759 0.000000
0.940612 0.466743 0.000000
0.963622 0.468421 0.000000
0.985657 0.469917 0.000000
1.000000 0.471473 0.000000
1.000000 0.472938 0.000000
1.000000 0.474189 0.000000
1.000000 0.475044 0.000000
1.000000 0.475502 0.000000
0.000000 0.570031 0.122286
0.000000 0.570031 0.114229
0.000000 0.570123 0.102052
0.000000 0.570092 0.069123
0.000000 0.570184 0.000000
0.000000 0.568933 0.000000
0.120546 0.566918 0.048035
0.219974 0.563867 0.098421
0.297185 0.557824 0.092805
0.367926 0.549035 0.027649
0.433204 0.538445 0.000000
0.496010 0.528985 0.000000
0.574212 0.536767 0.000000
0.622522 0.530388 0.000000
0.664027 0.528069 0.000000
0.700771 0.524743 0.000000
0.733150 0.520836 0.000000
0.761868 0.516472 0.000000
0.788266 0.512413 0.000000
0.816953 0.511498 0.000000
0.844877 0.511009 0.000000
0.871458 0.510857 0.000000
0.896849 0.510521 0.000000
0.921202 0.510338 0.000000
0.944488 0.510124 0.000000
0.966827 0.509758 0.000000
0.988190 0.509606 0.000000
1.000000 0.509178 0.000000
1.000000 0.508904 0.000000
1.000000 0.508598 0.000000
1.000000 0.508171 0.000000
1.000000 0.507317 0.000000
0.000000 0.637201 0.162173
0.000000 0.637171 0.156680
0.000000 0.636866 0.145724
0.000000 0.636347 0.123537
0.000000 0.635920 0.075929
0.000000 0.634394 0.015167
0.096284 0.631952 0.084596
0.217350 0.628870 0.121004
0.300450 0.625513 0.155642
0.376928 0.620874 0.131777
0.448280 0.614679 0.096925
0.513695 0.606683 0.000000
0.572412 0.597131 0.000000
0.623224 0.585412 0.000000
0.669642 0.579339 0.000000
0.705409 0.574945 0.000000
0.736599 0.569146 0.000000
0.764248 0.562829 0.000000
0.789761 0.557092 0.000000
0.814328 0.552361 0.000000
0.838834 0.549187 0.000000
0.865690 0.548119 0.000000
0.891203 0.547021 0.000000
0.915770 0.545861 0.000000
0.939239 0.544823 0.000000
0.961700 0.543694 0.000000
0.983307 0.542535 0.000000
1.000000 0.541527 0.000000
1.000000 0.540581 0.000000
1.000000 0.539605 0.000000
1.000000 0.538567 0.000000
1.000000 0.537224 0.000000
0.000000 0.687770 0.201785
0.000000 0.687709 0.195529
0.000000 0.687465 0.187716
0.000000 0.687160 0.170535
0.000000 0.686641 0.138766
0.000000 0.687037 0.088472
0.065095 0.686091 0.121218
0.216098 0.684657 0.151705
0.306584 0.682826 0.183902
0.383154 0.679713 0.201114
0.453162 0.672816 0.174868
0.517540 0.664912 0.142123
0.575311 0.655573 0.097902
0.626307 0.644648 0.000000
0.670710 0.631891 0.000000
0.710079 0.621332 0.000000
0.739956 0.613977 0.000000
0.766629 0.606317 0.000000
0.791409 0.598962 0.000000
0.815366 0.592950 0.000000
0.838712 0.588067 0.000000
0.861631 0.584314 0.000000
0.885618 0.582025 0.000000
0.910491 0.580316 0.000000
0.934203 0.578698 0.000000
0.956909 0.576989 0.000000
0.978729 0.575280 0.000000
0.999847 0.573632 0.000000
1.000000 0.572229 0.000000
1.000000 0.570855 0.000000
1.000000 0.569329 0.000000
1.000000 0.567651 0.000000
0.000000 0.735164 0.244938
0.000000 0.735409 0.240604
0.000000 0.735195 0.234195
0.000000 0.735195 0.220157
0.000000 0.735042 0.196536
0.000000 0.735012 0.160067
0.027283 0.733700 0.161959
0.216312 0.731228 0.187259
0.309941 0.728725 0.215610
0.387884 0.726040 0.246616
0.455543 0.720851 0.244358
0.517693 0.713405 0.218296
0.574029 0.704860 0.187015
0.624750 0.694942 0.147616
0.669886 0.683406 0.090425
0.709529 0.670039 0.000000
0.744106 0.656825 0.000000
0.769741 0.647761 0.000000
0.793759 0.639368 0.000000
0.817014 0.631952 0.000000
0.839719 0.625727 0.000000
0.861997 0.620661 0.000000
0.883818 0.616480 0.048463
0.905211 0.613184 0.086854
0.928801 0.611139 0.064820
0.951873 0.609216 0.000000
0.974182 0.607294 0.000000
0.995789 0.605585 0.000000
1.000000 0.603998 0.000000
1.000000 0.602564 0.000000
1.000000 0.601007 0.000000
1.000000 0.599176 0.000000
0.000000 0.774899 0.288029
0.000000 0.775082 0.284581
0.000000 0.775021 0.278843
0.000000 0.774960 0.268101
0.000000 0.774838 0.249699
0.000000 0.774838 0.223209
0.051240 0.774319 0.204898
0.222690 0.771908 0.227298
0.316442 0.768978 0.252140
0.393805 0.765774 0.279973
0.461433 0.762356 0.310491
0.518547 0.755184 0.289281
0.571099 0.746822 0.261509
0.619715 0.737331 0.229252
0.664027 0.726619 0.191684
0.704372 0.714656 0.143130
0.740749 0.701472 0.068635
0.772976 0.688045 0.000000
0.796475 0.677760 0.000000
0.819425 0.669642 0.000000
0.841825 0.662654 0.017762
0.863828 0.656611 0.070253
0.885283 0.651453 0.093538
0.906401 0.647181 0.115267
0.926970 0.643763 0.137026
0.947753 0.641321 0.151888
0.970275 0.639155 0.137728
0.992035 0.637263 0.124849
1.000000 0.635401 0.112337
1.000000 0.633600 0.099214
1.000000 0.631769 0.086488
1.000000 0.629694 0.073854
0.000000 0.806577 0.327001
0.000000 0.806638 0.323583
0.000000 0.806455 0.319707
0.000000 0.806302 0.310369
0.000000 0.806088 0.295842
0.000000 0.805936 0.274784
0.094820 0.805875 0.248325
0.228855 0.803433 0.263218
0.319860 0.800351 0.285618
0.395758 0.797024 0.310613
0.462348 0.793515 0.338750
0.518822 0.789151 0.353002
0.567590 0.781888 0.328771
0.613519 0.773587 0.301122
0.656672 0.764096 0.268467
0.696590 0.753445 0.231632
0.733669 0.741787 0.188357
0.767941 0.729427 0.132876
0.799405 0.717098 0.074464
0.821408 0.705531 0.076448
0.843229 0.697505 0.092042
0.864622 0.690455 0.108309
0.885649 0.684382 0.123598
0.906340 0.679133 0.141115
0.926665 0.674800 0.158694
0.946593 0.671412 0.177340
0.966125 0.668879 0.198642
0.986786 0.667140 0.204898
1.000000 0.665248 0.198398
1.000000 0.663569 0.193851
1.000000 0.661707 0.190890
1.000000 0.659815 0.189670
0.000000 0.834195 0.364446
0.000000 0.834409 0.362005
0.000000 0.843687 0.373449
0.001587 0.843473 0.365759
0.100221 0.843046 0.354467
0.147951 0.842527 0.338567
0.190829 0.841886 0.318822
0.261570 0.839841 0.316625
0.343938 0.836393 0.336187
0.414679 0.832639 0.358556
0.476539 0.828885 0.382513
0.531060 0.825010 0.408850
0.575677 0.819272 0.405005
0.616693 0.811765 0.379706
0.656275 0.803250 0.350866
0.694392 0.793790 0.317815
0.730770 0.783352 0.280674
0.765255 0.772091 0.239139
0.797818 0.760037 0.189822
0.828885 0.748653 0.145602
0.849180 0.735531 0.140505
0.869657 0.727047 0.150149
0.889769 0.719631 0.160800
0.909514 0.713130 0.173861
0.928740 0.707332 0.187381
0.947662 0.702541 0.202762
0.966278 0.698543 0.219608
0.984710 0.695796 0.239719
1.000000 0.694209 0.263340
1.000000 0.692622 0.264469
1.000000 0.690913 0.264195
1.000000 0.689143 0.265568
0.080751 0.860716 0.403632
0.099550 0.861784 0.403510
0.118044 0.862852 0.402594
0.144808 0.863676 0.398993
0.173159 0.864073 0.390509
0.204623 0.863951 0.379553
0.235630 0.863523 0.363287
0.276493 0.862547 0.350042
0.352483 0.859251 0.367285
0.418799 0.855711 0.387274
0.477729 0.852079 0.408881
0.530144 0.848417 0.432532
0.576715 0.844602 0.457130
0.613336 0.838376 0.437140
0.649500 0.831052 0.411872
0.685145 0.822965 0.383154
0.720119 0.813993 0.350683
0.754147 0.804196 0.314916
0.787137 0.793820 0.275059
0.819028 0.782925 0.229709
0.850706 0.773220 0.188968
0.870481 0.759426 0.181094
0.890288 0.751247 0.188785
0.909728 0.743954 0.199680
0.928710 0.737514 0.211337
0.947356 0.731930 0.224643
0.965759 0.727199 0.239902
0.983886 0.723659 0.258915
1.000000 0.721248 0.280919
1.000000 0.720058 0.306584
1.000000 0.719600 0.329839
1.000000 0.718105 0.333471
0.175723 0.881407 0.435279
0.184909 0.882292 0.435767
0.195102 0.883177 0.435462
0.210330 0.883818 0.431983
0.230106 0.884154 0.425666
0.253147 0.883970 0.416724
0.278325 0.883482 0.404456
0.305699 0.882902 0.389746
0.364477 0.880369 0.398260
0.426215 0.876982 0.416205
0.481819 0.873594 0.435950
0.531609 0.870146 0.457160
0.576501 0.866545 0.479377
0.614801 0.862455 0.490333
0.646632 0.856321 0.468269
0.678950 0.849485 0.443488
0.711482 0.841855 0.415015
0.744015 0.833494 0.384070
0.776333 0.824613 0.349157
0.808164 0.815213 0.311650
0.839414 0.805325 0.269413
0.871946 0.797513 0.229770
0.891203 0.782925 0.218448
0.910216 0.774838 0.226596
0.928832 0.767544 0.236423
0.947082 0.761105 0.248234
0.965057 0.755581 0.261692
0.982818 0.751217 0.278843
1.000000 0.747982 0.299107
1.000000 0.745876 0.323156
1.000000 0.744900 0.350683
1.000000 0.745083 0.381903
0.238529 0.900359 0.465797
0.244388 0.901122 0.465705
0.252384 0.901884 0.465949
0.264164 0.902403 0.463508
0.279973 0.902617 0.459022
0.297856 0.902403 0.451606
0.318334 0.901915 0.441932
0.341558 0.901274 0.430732
0.380133 0.899657 0.428809
0.436439 0.896483 0.444526
0.487709 0.893278 0.462074
0.534874 0.889891 0.480995
0.577600 0.886503 0.500877
0.616663 0.883085 0.521324
0.647852 0.878721 0.518425
0.676356 0.873259 0.497353
0.706020 0.867185 0.474067
0.736507 0.860685 0.448066
0.767575 0.853666 0.419623
0.798917 0.846220 0.388342
0.830350 0.838315 0.353582
0.861601 0.829862 0.314885
0.895171 0.824033 0.277226
0.914061 0.808804 0.263493
0.932372 0.800839 0.272313
0.950225 0.793729 0.282750
0.967773 0.787442 0.295659
0.985077 0.782284 0.311345
1.000000 0.778164 0.329931
1.000000 0.775113 0.352270
1.000000 0.773190 0.378180
1.000000 0.772274 0.407660
0.302251 0.920684 0.500023
0.306004 0.920958 0.499641
0.310307 0.921111 0.498909
0.318181 0.921172 0.496468
0.329992 0.920989 0.492622
0.344213 0.920623 0.486763
0.361120 0.920073 0.479377
0.380957 0.919463 0.471168
0.403174 0.918853 0.461982
0.453864 0.916014 0.476356
0.500969 0.913085 0.492561
0.544640 0.910002 0.509758
0.584924 0.906859 0.527764
0.622034 0.903624 0.546258
0.656214 0.900359 0.565057
0.680629 0.895964 0.549615
0.706050 0.891020 0.529747
0.732906 0.885557 0.507378
0.761013 0.879667 0.483101
0.790066 0.873289 0.455665
0.819852 0.866423 0.425544
0.850034 0.859037 0.392157
0.880278 0.851102 0.354650
0.913664 0.846128 0.316564
0.932219 0.830320 0.299535
0.949706 0.822446 0.308293
0.966918 0.815457 0.319493
0.983948 0.809537 0.332952
1.000000 0.804654 0.350134
1.000000 0.800778 0.370611
1.000000 0.797910 0.394598
1.000000 0.796139 0.422766
0.348028 0.936278 0.526329
0.351171 0.936553 0.526024
0.354986 0.936736 0.525628
0.361852 0.936736 0.523980
0.371710 0.936492 0.521050
0.383337 0.936095 0.516320
0.397589 0.935515 0.510674
0.414069 0.934874 0.504021
0.433204 0.934203 0.497108
0.468879 0.932219 0.502586
0.511772 0.929442 0.517052
0.552148 0.926543 0.532341
0.589960 0.923552 0.548638
0.625391 0.920500 0.565698
0.658350 0.917479 0.583124
0.686458 0.914275 0.591974
0.707912 0.910430 0.575158
0.731136 0.906126 0.556268
0.756161 0.901427 0.535943
0.782589 0.896300 0.512902
0.810239 0.890745 0.487770
0.838926 0.884764 0.459968
0.868193 0.878325 0.428870
0.897826 0.871458 0.394232
0.927642 0.863981 0.351751
0.948333 0.850462 0.333196
0.965332 0.842344 0.341100
0.982055 0.835721 0.353094
0.998474 0.830106 0.368627
1.000000 0.825467 0.387152
1.000000 0.821836 0.409491
1.000000 0.819394 0.436347
0.397925 0.952544 0.555627
0.400855 0.952789 0.555749
0.403906 0.952850 0.555474
0.409003 0.952728 0.553887
0.416541 0.952392 0.551476
0.425818 0.951873 0.547662
0.437507 0.951171 0.543359
0.451148 0.950347 0.538018
0.466560 0.949493 0.532158
0.489174 0.948089 0.530785
0.526970 0.945190 0.543053
0.563287 0.942321 0.556390
0.598047 0.939330 0.570611
0.630793 0.936278 0.585565
0.661402 0.933135 0.600488
0.690242 0.930022 0.615839
0.712123 0.926757 0.613214
0.731807 0.923156 0.597192
0.753292 0.919341 0.579675
0.776699 0.915251 0.559991
0.801724 0.910857 0.539055
0.828061 0.906035 0.515465
0.855436 0.900725 0.489326
0.883543 0.894865 0.459663
0.912139 0.888396 0.426337
0.941894 0.882231 0.388861
0.964385 0.871366 0.371862
0.980835 0.862394 0.376745
0.996857 0.855894 0.389624
1.000000 0.850431 0.406165
1.000000 0.846036 0.426429
1.000000 0.842771 0.451514
0.433692 0.965179 0.577752
0.436378 0.965393 0.578180
0.439155 0.965454 0.578058
0.443580 0.965332 0.576898
0.449989 0.964996 0.574823
0.458137 0.964538 0.572045
0.468330 0.963897 0.568688
0.480354 0.963195 0.564843
0.494606 0.962371 0.561059
0.510338 0.961547 0.557092
0.542107 0.959197 0.566430
0.575647 0.956542 0.578820
0.607752 0.953857 0.591913
0.638239 0.951080 0.605310
0.667170 0.948241 0.619135
0.694545 0.945403 0.633021
0.720516 0.942596 0.647181
0.737789 0.939788 0.635981
0.756222 0.936797 0.621668
0.776455 0.933593 0.605768
0.798367 0.930083 0.588159
0.821775 0.926268 0.568658
0.846586 0.922057 0.546410
0.872587 0.917357 0.521660
0.899596 0.912169 0.494087
0.927398 0.906493 0.462898
0.955901 0.900420 0.427710
0.979980 0.892027 0.411658
0.996094 0.882506 0.415381
1.000000 0.876310 0.429908
1.000000 0.871183 0.449165
1.000000 0.867063 0.471962
0.469459 0.977386 0.600519
0.471626 0.977478 0.600763
0.473579 0.977478 0.600458
0.477211 0.977264 0.599481
0.482612 0.976867 0.598016
0.489570 0.976349 0.595758
0.497963 0.975708 0.592767
0.508659 0.974975 0.590021
0.520867 0.974212 0.586938
0.534722 0.973419 0.584039
0.557519 0.971801 0.587945
0.587823 0.969421 0.599084
0.617304 0.966949 0.610834
0.645777 0.964355 0.623133
0.672816 0.961669 0.635615
0.698604 0.958984 0.648188
0.723262 0.956298 0.660975
0.744747 0.953796 0.667964
0.760403 0.951415 0.655665
0.777859 0.948913 0.642512
0.796963 0.946197 0.628046
0.817594 0.943206 0.611933
0.839719 0.939849 0.593835
0.863157 0.936156 0.573236
0.887877 0.932097 0.550134
0.913848 0.927581 0.523919
0.940917 0.922667 0.495094
0.968841 0.917449 0.462684
0.993561 0.910613 0.447425
1.000000 0.900664 0.450111
1.000000 0.894804 0.466835
1.000000 0.889830 0.487587
0.500511 0.988098 0.620783
0.501823 0.988159 0.620783
0.503960 0.988098 0.620813
0.506950 0.987945 0.620020
0.511803 0.987640 0.618830
0.518791 0.987274 0.617762
0.527520 0.986908 0.616449
0.537987 0.986511 0.615198
0.550134 0.986053 0.614038
0.563745 0.985595 0.613306
0.579828 0.984924 0.613947
0.607538 0.982971 0.624628
0.634607 0.980926 0.635767
0.660883 0.978698 0.647364
0.686000 0.976349 0.658808
0.709987 0.973907 0.670314
0.733120 0.971374 0.682063
0.755398 0.968902 0.693996
0.772244 0.966888 0.693111
0.786801 0.965026 0.682033
0.802945 0.962982 0.670130
0.820615 0.960754 0.657130
0.839719 0.958221 0.642573
0.860227 0.955444 0.626093
0.882139 0.952300 0.607843
0.905486 0.948852 0.587030
0.930175 0.945129 0.563806
0.956237 0.941039 0.537377
0.983551 0.936797 0.508293
1.000000 0.931487 0.494789
1.000000 0.921019 0.497719
1.000000 0.915007 0.515862
0.538293 0.999634 0.645838
0.539666 0.999603 0.646021
0.540887 0.999512 0.645747
0.543206 0.999329 0.644953
0.547326 0.998962 0.644160
0.552636 0.998566 0.642878
0.559564 0.998077 0.641718
0.567864 0.997559 0.640314
0.577783 0.996979 0.639216
0.588830 0.996338 0.638117
0.600855 0.995636 0.637171
0.621973 0.993957 0.643702
0.645960 0.991852 0.653193
0.669612 0.989654 0.663081
