data/fiter_cube/67355442/1023286/file.cube
# Created by Adobe Lightroom plugin Export LUT (1.17.0)
# www.johnrellis.com/lightroom/exportlut.htm
# Preset: 日系A通透明亮[云集]-3
# Color profile: C:\Program Files (x86)\Common Files\Adobe\Color\Profiles\Recommended\AdobeRGB1998.icc
LUT_3D_SIZE 5
DOMAIN_MIN 0.000000 0.000000 0.000000
DOMAIN_MAX 0.903226 0.903226 0.903226
0.038514 0.041474 0.039948
0.256748 0.000000 0.008515
0.638392 0.000000 0.000000
0.873960 0.098573 0.000000
1.000000 0.268742 0.000000
0.000000 0.288670 0.054994
0.243473 0.273075 0.000000
0.630701 0.280125 0.000000
0.874235 0.329442 0.000000
1.000000 0.384009 0.000000
0.000000 0.735164 0.244938
0.216312 0.731228 0.187259
0.669886 0.683406 0.090425
0.861997 0.620661 0.000000
1.000000 0.603998 0.000000
0.302251 0.920684 0.500023
0.380957 0.919463 0.471168
0.656214 0.900359 0.565057
0.850034 0.859037 0.392157
1.000000 0.804654 0.350134
0.563745 1.000000 0.663508
0.590356 1.000000 0.659663
0.693446 0.995727 0.680598
0.821378 0.982971 0.711849
0.953399 0.969757 0.614221
0.000000 0.017243 0.282139
0.316075 0.000000 0.307652
0.662654 0.000000 0.207370
0.858274 0.000000 0.134676
1.000000 0.178439 0.000000
0.000000 0.273259 0.274601
0.272648 0.283665 0.284276
0.643427 0.230381 0.211612
0.861173 0.266697 0.142947
1.000000 0.340124 0.000000
0.000000 0.726772 0.433509
0.343603 0.713710 0.441321
0.658137 0.670466 0.372168
0.846616 0.612634 0.312505
1.000000 0.596490 0.235325
0.409583 0.911315 0.598291
0.520958 0.905547 0.611322
0.691005 0.894713 0.646632
0.846769 0.857023 0.530022
0.992126 0.806241 0.474220
0.634089 1.000000 0.724422
0.653590 1.000000 0.720607
0.729549 0.994079 0.729946
0.840543 0.981842 0.760830
0.954528 0.969848 0.673915
0.000000 0.000000 0.666163
0.357549 0.000000 0.703059
0.756802 0.000000 0.723995
0.918639 0.000000 0.622980
1.000000 0.000000 0.479957
0.000000 0.304479 0.597681
0.198550 0.236484 0.665126
0.743221 0.000000 0.715419
0.900999 0.000000 0.595789
1.000000 0.000000 0.454078
0.000000 0.662104 0.649866
0.246799 0.661219 0.652674
0.662898 0.663935 0.667659
0.839597 0.598077 0.585687
1.000000 0.563836 0.512810
0.280613 0.908995 0.710292
0.485420 0.896544 0.719692
0.739590 0.877104 0.761471
0.848569 0.853788 0.724422
0.973571 0.810758 0.668330
0.591394 1.000000 0.765713
0.666499 0.997498 0.785519
0.794522 0.986297 0.824277
0.877073 0.978515 0.850004
0.956298 0.967468 0.779873
0.000000 0.000000 0.855619
0.335241 0.000000 0.867674
0.730007 0.000000 0.905608
0.937591 0.000000 0.895140
1.000000 0.000000 0.810330
0.000000 0.222843 0.836973
0.231022 0.200015 0.852415
0.700984 0.176638 0.892943
0.927611 0.193118 0.889189
1.000000 0.203006 0.806790
0.000000 0.598962 0.752560
0.260533 0.594263 0.748806
0.604730 0.604303 0.837705
0.896452 0.617334 0.873228
1.000000 0.558953 0.788937
0.235264 0.844633 0.830045
0.397375 0.839963 0.829191
0.647242 0.833768 0.831083
0.845548 0.840818 0.843503
0.971191 0.779904 0.775540
0.469856 1.000000 0.851194
0.565820 1.000000 0.856718
0.750149 0.990204 0.876158
0.899290 0.977905 0.909636
0.962005 0.967132 0.883268
0.088563 0.000000 0.992279
0.349279 0.000000 0.994018
0.648035 0.000000 1.000000
0.896941 0.000000 1.000000
1.000000 0.179385 0.987945
0.000000 0.186130 0.987671
0.294347 0.170565 0.989471
0.632074 0.182681 0.995453
0.886381 0.311131 1.000000
1.000000 0.368444 0.985748
0.323583 0.643763 0.950225
0.395758 0.627466 0.957275
0.577478 0.564721 0.977295
0.858061 0.625788 0.990051
1.000000 0.632288 0.981079
0.413397 0.813870 0.936492
0.470558 0.811002 0.934630
0.601678 0.800168 0.927794
0.798489 0.795956 0.965667
0.991211 0.838834 0.977447
0.465339 0.973297 0.961089
0.525048 0.971374 0.960754
0.671260 0.966796 0.960204
0.829618 0.962310 0.959960
0.966705 0.965270 0.965942
