data/fiter_cube/80369196/1023071/file.cube
# Created by Adobe Lightroom plugin Export LUT (1.17.0)
# www.johnrellis.com/lightroom/exportlut.htm
# Preset: Have Fun_03
# Color profile: C:\Program Files (x86)\Common Files\Adobe\Color\Profiles\Recommended\AdobeRGB1998.icc
LUT_3D_SIZE 8
DOMAIN_MIN 0.000000 0.000000 0.000000
DOMAIN_MAX 0.903226 0.903226 0.903226
0.000000 0.000000 0.000000
0.128908 0.000000 0.000000
0.319646 0.038972 0.000000
0.476112 0.103243 0.000000
0.629725 0.139010 0.000000
0.766903 0.173251 0.000000
0.903960 0.202487 0.000000
1.000000 0.223545 0.000000
0.006317 0.135958 0.000000
0.146090 0.144198 0.000000
0.338293 0.170993 0.000000
0.492256 0.184787 0.000000
0.644221 0.202914 0.000000
0.778622 0.223911 0.000000
0.912200 0.243626 0.000000
1.000000 0.258213 0.000000
0.100160 0.316808 0.000000
0.184054 0.318853 0.000000
0.332067 0.324163 0.000000
0.500755 0.334569 0.000000
0.665370 0.341711 0.000000
0.792172 0.341833 0.000000
0.916197 0.345281 0.000000
1.000000 0.349096 0.000000
0.166445 0.461372 0.000000
0.220279 0.463142 0.000000
0.342260 0.465248 0.000000
0.477668 0.464240 0.000000
0.638788 0.476936 0.000000
0.799496 0.481697 0.000000
0.932158 0.476204 0.000000
1.000000 0.468208 0.000000
0.224857 0.600824 0.000000
0.262913 0.601343 0.000000
0.363531 0.601801 0.000000
0.488167 0.600702 0.000000
0.621546 0.601465 0.000000
0.772580 0.611414 0.000000
0.928099 0.616236 0.000000
1.000000 0.599695 0.000000
0.276951 0.730068 0.000000
0.304540 0.727687 0.000000
0.388128 0.728481 0.000000
0.501488 0.729549 0.000000
0.628412 0.731533 0.000000
0.760006 0.733425 0.000000
0.902831 0.740139 0.000000
1.000000 0.736568 0.000000
0.323278 0.864866 0.000000
0.346654 0.864469 0.000000
0.419959 0.865995 0.000000
0.524559 0.867430 0.000000
0.645960 0.869902 0.000000
0.774838 0.871946 0.000000
0.908202 0.874876 0.000000
1.000000 0.873014 0.000000
0.358038 1.000000 0.000000
0.379187 1.000000 0.000000
0.445167 1.000000 0.000000
0.542565 1.000000 0.000000
0.660914 1.000000 0.000000
0.784512 1.000000 0.000000
0.911162 1.000000 0.000000
1.000000 0.997559 0.000000
0.000000 0.000000 0.145083
0.137545 0.000000 0.141848
0.321508 0.000000 0.123232
0.480964 0.092378 0.106447
0.635340 0.137179 0.073518
0.773892 0.173190 0.000000
0.910246 0.200351 0.000000
1.000000 0.216495 0.000000
0.000000 0.142855 0.141909
0.151949 0.149111 0.136049
0.337377 0.158846 0.115938
0.491524 0.177310 0.096529
0.644495 0.201053 0.061616
0.781277 0.223026 0.000000
0.916747 0.242191 0.000000
1.000000 0.252873 0.000000
0.031952 0.324895 0.100313
0.183810 0.324529 0.116945
0.335668 0.327550 0.103395
0.508629 0.334539 0.031006
0.667597 0.339757 0.000000
0.796384 0.342138 0.000000
0.923949 0.346746 0.000000
1.000000 0.346807 0.000000
0.162783 0.469001 0.083070
0.223819 0.469062 0.093385
0.345678 0.469825 0.076936
0.485512 0.471778 0.004242
0.651850 0.485420 0.000000
0.812863 0.487495 0.000000
0.940246 0.479561 0.000000
1.000000 0.468238 0.000000
0.228916 0.603143 0.038605
0.266575 0.604059 0.023743
0.366857 0.605188 0.000000
0.492897 0.605982 0.000000
0.627741 0.607568 0.000000
0.779538 0.616846 0.000000
0.933928 0.619379 0.000000
1.000000 0.599603 0.000000
0.282475 0.733486 0.000000
0.310704 0.733577 0.000000
0.393378 0.734127 0.000000
0.505791 0.734340 0.000000
0.631678 0.735134 0.000000
0.762142 0.735653 0.000000
0.905791 0.742611 0.000000
1.000000 0.737697 0.000000
0.327977 0.869657 0.000000
0.351995 0.870573 0.000000
0.424414 0.871366 0.000000
0.527916 0.871519 0.000000
0.648402 0.872770 0.000000
0.777493 0.874998 0.000000
0.911864 0.878599 0.000000
1.000000 0.875853 0.000000
0.359716 1.000000 0.000000
0.380499 1.000000 0.000000
0.446204 1.000000 0.000000
0.543297 1.000000 0.000000
0.659205 1.000000 0.000000
0.783444 1.000000 0.000000
0.911284 1.000000 0.000000
1.000000 0.998474 0.000000
0.000000 0.000000 0.328954
0.130434 0.000000 0.326726
0.316625 0.000000 0.319890
0.464240 0.116548 0.299046
0.601648 0.192447 0.296666
0.753109 0.216068 0.285039
0.896178 0.232120 0.264988
1.000000 0.237156 0.228824
0.000000 0.146517 0.325505
0.142733 0.150851 0.323583
0.322728 0.165530 0.317937
0.467079 0.204807 0.303929
0.618311 0.229343 0.294957
0.760891 0.253513 0.285130
0.901976 0.266453 0.264500
1.000000 0.269413 0.227726
0.025818 0.322881 0.316472
0.177127 0.324315 0.314397
0.333684 0.328862 0.308415
0.493355 0.330816 0.294530
0.641779 0.341466 0.287144
0.777798 0.351720 0.276646
0.912657 0.358892 0.257176
1.000000 0.357366 0.219028
0.156954 0.468238 0.293126
0.222416 0.467414 0.294652
0.349401 0.468147 0.297368
0.481941 0.470588 0.288457
0.652796 0.485512 0.268650
0.806241 0.486030 0.254856
0.929564 0.482338 0.239414
1.000000 0.472877 0.199527
0.223087 0.604456 0.273259
0.267948 0.604089 0.277012
0.373785 0.603723 0.283024
0.493538 0.603906 0.274968
0.623926 0.605310 0.263279
0.780240 0.619135 0.245090
0.935363 0.621332 0.215000
1.000000 0.600977 0.161807
0.283360 0.733822 0.257816
0.315831 0.733577 0.261448
0.401556 0.734035 0.265476
0.510582 0.735225 0.257176
0.634150 0.736782 0.243809
0.763272 0.737850 0.223606
0.908629 0.746181 0.188174
1.000000 0.738155 0.103670
0.331060 0.868620 0.231540
0.355932 0.869108 0.232578
0.428199 0.870634 0.229496
0.530510 0.872007 0.218540
0.649928 0.873838 0.200381
0.777646 0.875578 0.170993
0.910033 0.877867 0.118624
1.000000 0.874235 0.000000
0.362219 1.000000 0.164126
0.381018 1.000000 0.155673
0.446876 1.000000 0.144594
0.543084 1.000000 0.117342
0.658900 1.000000 0.058534
0.782406 1.000000 0.000000
0.909819 1.000000 0.000000
1.000000 0.997925 0.000000
0.000000 0.000000 0.477211
0.105043 0.000000 0.474464
0.298039 0.030091 0.469764
0.462898 0.121126 0.462470
0.606836 0.179080 0.447150
0.735531 0.239017 0.436561
0.870756 0.289403 0.437629
1.000000 0.277745 0.415991
0.000000 0.154055 0.470985
0.133700 0.158816 0.469703
0.306493 0.176181 0.466377
0.464607 0.202029 0.460426
0.607233 0.234501 0.446937
0.736568 0.277836 0.437873
0.876921 0.311406 0.436530
1.000000 0.300847 0.413947
0.095613 0.317876 0.466621
0.187900 0.322301 0.465187
0.330144 0.331914 0.461769
0.471962 0.338476 0.455879
0.607691 0.352636 0.444434
0.741024 0.370153 0.437018
0.890135 0.374426 0.425452
1.000000 0.372320 0.405158
0.165042 0.465919 0.455848
0.224399 0.466712 0.454871
0.347143 0.469276 0.451728
0.483162 0.473823 0.444617
0.645380 0.480690 0.436988
0.780880 0.486763 0.432502
0.914092 0.488563 0.420569
1.000000 0.481422 0.397040
0.223514 0.603754 0.437385
0.265415 0.604242 0.437385
0.369024 0.604700 0.435035
0.494331 0.603632 0.432319
0.621302 0.604883 0.424384
0.786526 0.622736 0.416480
0.939757 0.621576 0.403052
1.000000 0.604456 0.380865
0.278172 0.732570 0.417426
0.308507 0.730739 0.416449
0.397314 0.731899 0.418189
0.510155 0.732723 0.417639
0.631586 0.734493 0.409491
0.760616 0.736965 0.398016
0.911986 0.749020 0.383703
1.000000 0.737942 0.357519
0.332372 0.869017 0.405188
0.356725 0.868803 0.405341
0.427558 0.868986 0.403113
0.526299 0.869963 0.393835
0.645624 0.871855 0.384405
0.774319 0.874449 0.371221
0.908568 0.878080 0.353521
1.000000 0.873869 0.326238
0.384131 1.000000 0.396185
0.399969 1.000000 0.392584
0.450263 1.000000 0.376806
0.536217 1.000000 0.353521
0.654200 1.000000 0.343023
0.778561 1.000000 0.323186
0.906950 1.000000 0.293614
1.000000 0.997528 0.248600
0.000000 0.000000 0.615442
0.081636 0.010224 0.613703
0.287541 0.089570 0.610925
0.450904 0.143709 0.605188
0.601709 0.185153 0.595819
0.739132 0.224125 0.580041
0.875181 0.275364 0.573480
1.000000 0.341283 0.579828
0.000000 0.167788 0.612116
0.128054 0.172213 0.609888
0.298741 0.189181 0.607507
0.454780 0.213046 0.603174
0.603143 0.236667 0.594659
0.739681 0.263584 0.579217
0.875120 0.307317 0.573602
1.000000 0.366705 0.581170
0.129671 0.325475 0.606409
0.199466 0.329503 0.605219
0.326238 0.335058 0.603082
0.465705 0.342199 0.598199
0.608331 0.351263 0.591058
0.742580 0.368536 0.578424
0.876310 0.400031 0.576806
1.000000 0.443030 0.586877
0.179110 0.464240 0.599145
0.230961 0.465949 0.598383
0.347173 0.469825 0.594965
0.479957 0.475654 0.589441
0.613794 0.481575 0.582574
0.742397 0.495644 0.576989
0.877195 0.512413 0.579126
1.000000 0.502556 0.564630
0.227817 0.603174 0.587640
0.267094 0.603540 0.586725
0.368780 0.605097 0.584131
0.495918 0.606653 0.579309
0.625208 0.611109 0.574487
0.788388 0.623804 0.576593
0.919097 0.622675 0.569482
1.000000 0.612238 0.551507
0.281407 0.737514 0.571923
0.312535 0.737606 0.571679
0.402411 0.738460 0.571893
0.517632 0.739193 0.571801
0.634546 0.741421 0.563806
0.762631 0.741695 0.553124
0.922210 0.756161 0.550988
1.000000 0.739681 0.537804
0.335302 0.871397 0.560021
0.361364 0.871733 0.560998
0.437537 0.872221 0.563165
0.538323 0.872801 0.563256
0.641321 0.875700 0.543481
0.772396 0.877928 0.534264
0.909392 0.881712 0.523308
1.000000 0.875303 0.512993
0.411048 1.000000 0.565179
0.431189 1.000000 0.566766
0.493538 1.000000 0.571649
0.561456 1.000000 0.556115
0.646632 1.000000 0.519188
0.773373 1.000000 0.507103
0.903441 1.000000 0.489479
1.000000 0.998322 0.465126
0.000000 0.075715 0.744839
0.065187 0.088563 0.744137
0.278843 0.124086 0.743618
0.439796 0.164675 0.738979
0.590631 0.200320 0.732845
0.736843 0.230320 0.725460
0.877073 0.262791 0.715877
1.000000 0.322423 0.711543
0.000000 0.185336 0.746914
0.125490 0.190097 0.746548
0.293645 0.205142 0.744778
0.446509 0.225772 0.739864
0.594293 0.247745 0.733486
0.738918 0.269139 0.725643
0.878325 0.295995 0.716121
1.000000 0.350103 0.712459
0.141573 0.332799 0.739986
0.198428 0.334325 0.739864
0.321080 0.339055 0.738216
0.458503 0.346136 0.734401
0.599878 0.355871 0.729335
0.741115 0.368414 0.721859
0.879026 0.387366 0.714412
1.000000 0.427832 0.713344
0.190005 0.464790 0.733883
0.236149 0.466590 0.733669
0.347143 0.471443 0.731411
0.474250 0.476143 0.726192
0.607202 0.481605 0.720821
0.742275 0.489570 0.713710
0.878508 0.500664 0.710048
1.000000 0.529381 0.713283
0.234165 0.601434 0.728084
0.271214 0.602136 0.727443
0.370947 0.604791 0.725216
0.493904 0.608759 0.721492
0.619043 0.610651 0.717525
0.750973 0.614374 0.710628
0.883055 0.625422 0.710109
1.000000 0.649500 0.719875
0.281315 0.739895 0.719417
0.311864 0.739467 0.718318
0.400153 0.740108 0.716487
0.512657 0.740902 0.713283
0.631983 0.742184 0.709560
0.763424 0.746059 0.705592
0.921874 0.760250 0.716426
1.000000 0.749996 0.705196
0.336706 0.871489 0.706081
0.361089 0.871122 0.705715
0.434974 0.871702 0.705776
0.534997 0.872892 0.705257
0.648219 0.875273 0.704067
0.766659 0.879576 0.692531
0.906889 0.883665 0.686397
1.000000 0.877958 0.691798
0.414038 1.000000 0.707088
0.433631 1.000000 0.707973
0.494575 1.000000 0.710414
0.582177 1.000000 0.713130
0.686915 1.000000 0.717891
0.770474 1.000000 0.680842
0.899657 1.000000 0.669215
1.000000 0.998352 0.654078
0.000000 0.121675 0.886503
0.058961 0.132235 0.888884
0.276402 0.156558 0.886625
0.436530 0.186679 0.882750
0.588251 0.216587 0.878325
0.734890 0.243046 0.871824
0.878233 0.267674 0.863554
1.000000 0.314611 0.849149
0.000000 0.196811 0.875212
0.108522 0.202243 0.877287
0.282628 0.214664 0.875853
0.435187 0.232151 0.872251
0.581689 0.250645 0.866361
0.723842 0.267857 0.857939
0.863859 0.285405 0.848569
0.994507 0.319219 0.836545
0.121736 0.337285 0.879240
0.184726 0.338231 0.878477
0.310399 0.340978 0.874815
0.448707 0.347112 0.871000
0.587793 0.353552 0.863645
0.728328 0.363439 0.856779
0.871031 0.380499 0.851682
1.000000 0.409979 0.843778
0.188510 0.472145 0.879088
0.232242 0.472419 0.877440
0.339879 0.474342 0.872862
0.468757 0.479225 0.870970
0.602472 0.483040 0.865232
0.741665 0.490578 0.861326
0.882017 0.501793 0.856474
1.000000 0.519615 0.847318
0.221744 0.597742 0.864042
0.256474 0.596521 0.861357
0.352453 0.596185 0.856992
0.471595 0.598077 0.855344
0.598993 0.598016 0.852293
0.735409 0.600305 0.847471
0.873533 0.607263 0.840726
1.000000 0.630335 0.842130
0.266636 0.730617 0.853361
0.297154 0.731014 0.853025
0.382086 0.732113 0.851957
0.492653 0.734646 0.852201
0.613489 0.735256 0.851347
0.749355 0.739467 0.852171
0.888060 0.747799 0.846708
1.000000 0.769894 0.851957
0.325994 0.874601 0.852110
0.352056 0.876341 0.853391
0.424445 0.877317 0.852995
0.524224 0.879637 0.853025
0.637873 0.878447 0.848966
0.765133 0.877348 0.845182
0.902312 0.885924 0.850126
1.000000 0.890776 0.861204
0.406012 1.000000 0.842283
0.424811 1.000000 0.842466
0.490913 1.000000 0.846830
0.578210 1.000000 0.847562
0.682490 1.000000 0.847929
0.797910 1.000000 0.852750
0.898802 1.000000 0.841032
1.000000 0.996765 0.832334
0.000000 0.129549 0.984771
0.000000 0.136263 0.985626
0.243381 0.151522 0.982422
0.404364 0.176608 0.981445
0.552941 0.201938 0.979034
0.696742 0.224369 0.975494
0.840818 0.249454 0.973541
0.983276 0.277958 0.970153
0.000000 0.191226 0.979492
0.000000 0.195193 0.980407
0.249393 0.203830 0.978210
0.404517 0.218418 0.976226
0.550896 0.235477 0.973999
0.693477 0.251743 0.970550
0.835904 0.270176 0.967620
0.978393 0.294255 0.964691
0.000000 0.311315 0.974853
0.103059 0.312657 0.974945
0.262547 0.313481 0.971191
0.412085 0.323552 0.974273
0.553155 0.329839 0.970916
0.692256 0.336187 0.965759
0.834592 0.349798 0.963561
0.978607 0.368566 0.962799
0.000000 0.433814 0.972839
0.136080 0.436133 0.973541
0.274174 0.435920 0.971069
0.415808 0.440040 0.970550
0.556725 0.445289 0.968811
0.696315 0.450416 0.965545
0.838895 0.459663 0.964385
0.984985 0.475135 0.965698
0.093172 0.561364 0.965820
0.162020 0.562432 0.966979
0.278874 0.560296 0.965515
0.404425 0.555993 0.965698
0.547997 0.558129 0.962646
0.690486 0.560937 0.960113
0.838865 0.572290 0.961791
0.990570 0.600275 0.967041
0.175021 0.696284 0.960418
0.210452 0.694881 0.959014
0.301335 0.691463 0.956359
0.413977 0.687221 0.955322
0.541955 0.684108 0.956878
0.694728 0.694606 0.962829
0.856016 0.719966 0.971801
0.997742 0.744350 0.970275
0.271031 0.844297 0.966033
0.294652 0.843778 0.965454
0.365637 0.842832 0.964446
0.469368 0.843931 0.965576
0.593439 0.847074 0.968109
0.734493 0.856016 0.973236
0.868467 0.861265 0.972320
0.992950 0.870298 0.962554
0.365026 0.993011 0.972229
0.381750 0.992493 0.971588
0.438880 0.992340 0.970886
0.530694 0.993652 0.971344
0.641810 0.994507 0.971221
0.763302 0.994141 0.970092
0.889891 0.988556 0.965820
0.993866 0.985626 0.968078
