data/fiter_cube/80369196/1023071/file.cube
# Created by Adobe Lightroom plugin Export LUT (1.17.0)
# www.johnrellis.com/lightroom/exportlut.htm
# Preset: Have Fun_03
# Color profile: C:\Program Files (x86)\Common Files\Adobe\Color\Profiles\Recommended\AdobeRGB1998.icc
LUT_3D_SIZE 32
DOMAIN_MIN 0.0 0.0 0.0
DOMAIN_MAX 1.0 1.0 1.0
0.000000 0.000000 0.000000
0.000000 0.000000 0.000000
0.000000 0.000000 0.000000
0.078004 0.000000 0.000000
0.128908 0.000000 0.000000
0.180148 0.000000 0.000000
0.229587 0.000000 0.000000
0.276127 0.013581 0.000000
0.319646 0.038972 0.000000
0.360540 0.062562 0.000000
0.399969 0.076204 0.000000
0.438209 0.090089 0.000000
0.476112 0.103243 0.000000
0.514244 0.113405 0.000000
0.553277 0.122225 0.000000
0.592035 0.130831 0.000000
0.629725 0.139010 0.000000
0.666072 0.146944 0.000000
0.699916 0.156130 0.000000
0.733364 0.164736 0.000000
0.766903 0.173251 0.000000
0.800809 0.181125 0.000000
0.835172 0.188632 0.000000
0.869627 0.195926 0.000000
0.903960 0.202487 0.000000
0.937835 0.208804 0.000000
0.970794 0.214603 0.000000
1.000000 0.219608 0.000000
1.000000 0.223545 0.000000
1.000000 0.226596 0.000000
1.000000 0.229465 0.000000
1.000000 0.233371 0.000000
0.000000 0.000000 0.000000
0.000000 0.000000 0.000000
0.000000 0.000000 0.000000
0.080903 0.011994 0.000000
0.131777 0.021180 0.000000
0.182925 0.033021 0.000000
0.232609 0.046632 0.000000
0.278965 0.061646 0.000000
0.322301 0.071534 0.000000
0.363287 0.081758 0.000000
0.402716 0.092683 0.000000
0.441016 0.103456 0.000000
0.479011 0.115206 0.000000
0.517327 0.123140 0.000000
0.556542 0.131594 0.000000
0.595331 0.139071 0.000000
0.633051 0.146944 0.000000
0.669245 0.154513 0.000000
0.703029 0.163058 0.000000
0.736385 0.171450 0.000000
0.769863 0.179385 0.000000
0.803647 0.186770 0.000000
0.837919 0.194003 0.000000
0.872190 0.200870 0.000000
0.906340 0.207523 0.000000
0.940002 0.213535 0.000000
0.972778 0.218906 0.000000
1.000000 0.223728 0.000000
1.000000 0.227543 0.000000
1.000000 0.230411 0.000000
1.000000 0.233127 0.000000
1.000000 0.236759 0.000000
0.000000 0.000000 0.000000
0.000000 0.000000 0.000000
0.008179 0.008057 0.000000
0.084230 0.051026 0.000000
0.135622 0.064027 0.000000
0.186923 0.072450 0.000000
0.236057 0.079408 0.000000
0.282139 0.087007 0.000000
0.325322 0.094148 0.000000
0.366064 0.101900 0.000000
0.405371 0.110353 0.000000
0.443671 0.119509 0.000000
0.481575 0.128054 0.000000
0.519921 0.135286 0.000000
0.559136 0.142672 0.000000
0.597925 0.149660 0.000000
0.635554 0.156985 0.000000
0.671534 0.164034 0.000000
0.705226 0.171969 0.000000
0.738491 0.179599 0.000000
0.771878 0.186954 0.000000
0.805509 0.193820 0.000000
0.839628 0.200809 0.000000
0.873808 0.207187 0.000000
0.907836 0.213565 0.000000
0.941405 0.219120 0.000000
0.973968 0.224430 0.000000
1.000000 0.229038 0.000000
1.000000 0.232639 0.000000
1.000000 0.235264 0.000000
1.000000 0.237552 0.000000
1.000000 0.241062 0.000000
0.000000 0.084291 0.000000
0.020203 0.085267 0.000000
0.058869 0.086824 0.000000
0.091402 0.090364 0.000000
0.139467 0.102358 0.000000
0.192935 0.112001 0.000000
0.241947 0.118807 0.000000
0.287541 0.124361 0.000000
0.330022 0.129458 0.000000
0.370520 0.134859 0.000000
0.409552 0.140902 0.000000
0.447852 0.147585 0.000000
0.485756 0.152804 0.000000
0.524071 0.158328 0.000000
0.563378 0.164340 0.000000
0.601953 0.170199 0.000000
0.639429 0.175998 0.000000
0.675105 0.182956 0.000000
0.708797 0.189609 0.000000
0.742061 0.196139 0.000000
0.775448 0.202396 0.000000
0.808988 0.208499 0.000000
0.842771 0.214633 0.000000
0.876432 0.220340 0.000000
0.909911 0.225772 0.000000
0.942840 0.230961 0.000000
0.975006 0.235447 0.000000
1.000000 0.239689 0.000000
1.000000 0.242985 0.000000
1.000000 0.245212 0.000000
1.000000 0.247013 0.000000
1.000000 0.250065 0.000000
0.006317 0.135958 0.000000
0.047791 0.136721 0.000000
0.074769 0.137758 0.000000
0.108309 0.140291 0.000000
0.146090 0.144198 0.000000
0.195132 0.154635 0.000000
0.246769 0.162631 0.000000
0.296178 0.167727 0.000000
0.338293 0.170993 0.000000
0.378027 0.174899 0.000000
0.416663 0.178256 0.000000
0.454505 0.181430 0.000000
0.492256 0.184787 0.000000
0.530571 0.188785 0.000000
0.569451 0.193393 0.000000
0.607416 0.198001 0.000000
0.644221 0.202914 0.000000
0.678950 0.208469 0.000000
0.712306 0.213504 0.000000
0.745388 0.218784 0.000000
0.778622 0.223911 0.000000
0.812100 0.229038 0.000000
0.845640 0.234134 0.000000
0.879088 0.239017 0.000000
0.912200 0.243626 0.000000
0.944854 0.247990 0.000000
0.976684 0.252110 0.000000
1.000000 0.255314 0.000000
1.000000 0.258213 0.000000
1.000000 0.260075 0.000000
1.000000 0.261112 0.000000
1.000000 0.263584 0.000000
0.041505 0.186587 0.000000
0.069612 0.187076 0.000000
0.090059 0.187747 0.000000
0.122255 0.189639 0.000000
0.159640 0.192294 0.000000
0.199069 0.195712 0.000000
0.246128 0.203922 0.000000
0.294682 0.210483 0.000000
0.341009 0.214054 0.000000
0.385840 0.215824 0.000000
0.423926 0.217197 0.000000
0.461463 0.218509 0.000000
0.498909 0.220554 0.000000
0.537255 0.223301 0.000000
0.575708 0.226719 0.000000
0.613123 0.230289 0.000000
0.649104 0.234440 0.000000
0.683192 0.238224 0.000000
0.716030 0.241794 0.000000
0.748745 0.245670 0.000000
0.781582 0.249485 0.000000
0.814603 0.253361 0.000000
0.834043 0.253086 0.000000
0.867887 0.257481 0.000000
0.901701 0.261692 0.000000
0.935058 0.265660 0.000000
0.967895 0.269352 0.000000
0.999695 0.272435 0.000000
1.000000 0.274998 0.000000
1.000000 0.276616 0.000000
1.000000 0.277440 0.000000
1.000000 0.279606 0.000000
0.069642 0.230076 0.000000
0.085573 0.230533 0.000000
0.103243 0.231083 0.000000
0.132479 0.232334 0.000000
0.167727 0.234257 0.000000
0.205295 0.236393 0.000000
0.244083 0.239139 0.000000
0.287572 0.245029 0.000000
0.333165 0.249546 0.000000
0.377508 0.252232 0.000000
0.420935 0.253910 0.000000
0.463142 0.255009 0.000000
0.500359 0.256046 0.000000
0.538628 0.258030 0.000000
0.577111 0.260746 0.000000
0.614557 0.264012 0.000000
0.650019 0.266850 0.000000
0.684047 0.269291 0.000000
0.716548 0.271580 0.000000
0.748501 0.273960 0.000000
0.780240 0.276463 0.000000
0.811887 0.278996 0.000000
0.843503 0.281773 0.000000
0.875273 0.284489 0.000000
0.907225 0.287449 0.000000
0.939361 0.290288 0.000000
0.971283 0.293156 0.000000
1.000000 0.295537 0.000000
1.000000 0.297337 0.000000
1.000000 0.298405 0.000000
1.000000 0.298405 0.000000
1.000000 0.299840 0.000000
0.085023 0.275120 0.000000
0.099001 0.275456 0.000000
0.114778 0.275853 0.000000
0.142672 0.276677 0.000000
0.176852 0.277989 0.000000
0.213291 0.279637 0.000000
0.251286 0.281407 0.000000
0.289982 0.283543 0.000000
0.330816 0.286931 0.000000
0.374731 0.290349 0.000000
0.418189 0.292515 0.000000
0.461463 0.294255 0.000000
0.505608 0.296269 0.000000
0.548608 0.298741 0.000000
0.586419 0.300572 0.000000
0.622736 0.302037 0.000000
0.657710 0.303471 0.000000
0.691188 0.304570 0.000000
0.723262 0.305669 0.000000
0.754879 0.306828 0.000000
0.786282 0.308232 0.000000
0.817594 0.309697 0.000000
0.848905 0.311528 0.000000
0.880339 0.313329 0.000000
0.911833 0.315343 0.000000
0.943511 0.317510 0.000000
0.974884 0.319554 0.000000
1.000000 0.321111 0.000000
1.000000 0.322240 0.000000
1.000000 0.322728 0.000000
1.000000 0.322057 0.000000
1.000000 0.322362 0.000000
0.100160 0.316808 0.000000
0.112001 0.316991 0.000000
0.125887 0.317357 0.000000
0.151675 0.317845 0.000000
0.184054 0.318853 0.000000
0.219272 0.319921 0.000000
0.256138 0.321233 0.000000
0.293828 0.322728 0.000000
0.332067 0.324163 0.000000
0.370459 0.325994 0.000000
0.413519 0.329168 0.000000
0.456672 0.331701 0.000000
0.500755 0.334569 0.000000
0.546593 0.338018 0.000000
0.591485 0.340673 0.000000
0.631006 0.341741 0.000000
0.665370 0.341711 0.000000
0.698421 0.341619 0.000000
0.729946 0.341344 0.000000
0.761135 0.341344 0.000000
0.792172 0.341833 0.000000
0.823178 0.342199 0.000000
0.854124 0.342992 0.000000
0.885130 0.344152 0.000000
0.916197 0.345281 0.000000
0.947387 0.346471 0.000000
0.978302 0.347692 0.000000
1.000000 0.348608 0.000000
1.000000 0.349096 0.000000
1.000000 0.348882 0.000000
1.000000 0.347631 0.000000
1.000000 0.346960 0.000000
0.119112 0.355840 0.000000
0.128725 0.355962 0.000000
0.140475 0.356298 0.000000
0.163577 0.356725 0.000000
0.193210 0.357519 0.000000
0.226383 0.358404 0.000000
0.261509 0.359442 0.000000
0.297826 0.360479 0.000000
0.334813 0.361730 0.000000
0.371923 0.362737 0.000000
0.409491 0.364080 0.000000
0.451575 0.367132 0.000000
0.495277 0.370672 0.000000
0.540276 0.374426 0.000000
0.585138 0.377630 0.000000
0.628779 0.379644 0.000000
0.670924 0.380621 0.000000
0.705318 0.379553 0.000000
0.736233 0.378027 0.000000
0.767025 0.377020 0.000000
0.798001 0.376501 0.000000
0.828946 0.376349 0.000000
0.859922 0.376349 0.000000
0.890806 0.376684 0.000000
0.921599 0.377020 0.000000
0.952239 0.377508 0.000000
0.982452 0.377844 0.000000
1.000000 0.377935 0.000000
1.000000 0.377600 0.000000
1.000000 0.376562 0.000000
1.000000 0.374762 0.000000
1.000000 0.372961 0.000000
0.136934 0.393927 0.000000
0.144991 0.394049 0.000000
0.155673 0.394263 0.000000
0.175723 0.394507 0.000000
0.203006 0.394934 0.000000
0.233890 0.395544 0.000000
0.267155 0.396277 0.000000
0.301854 0.397009 0.000000
0.337591 0.397772 0.000000
0.373724 0.398657 0.000000
0.410163 0.399481 0.000000
0.446906 0.400549 0.000000
0.488045 0.403540 0.000000
0.532982 0.408423 0.000000
0.577996 0.412573 0.000000
0.621790 0.415473 0.000000
0.664240 0.416876 0.000000
0.704768 0.417273 0.000000
0.743618 0.416571 0.000000
0.774655 0.414588 0.000000
0.805081 0.413031 0.000000
0.835477 0.411749 0.000000
0.865873 0.410956 0.000000
0.896147 0.410346 0.000000
0.926360 0.409888 0.000000
0.956451 0.409522 0.000000
0.986084 0.409033 0.000000
1.000000 0.408392 0.000000
1.000000 0.407263 0.000000
1.000000 0.405646 0.000000
1.000000 0.403113 0.000000
1.000000 0.400275 0.000000
0.153170 0.430274 0.000000
0.160098 0.430365 0.000000
0.169375 0.430457 0.000000
0.187289 0.430671 0.000000
0.212253 0.431006 0.000000
0.241245 0.431464 0.000000
0.272801 0.432013 0.000000
0.306157 0.432532 0.000000
0.340612 0.433112 0.000000
0.375494 0.433356 0.000000
0.410803 0.433692 0.000000
0.446265 0.434119 0.000000
0.473823 0.427436 0.000000
0.513939 0.430884 0.000000
0.558709 0.436622 0.000000
0.602716 0.440894 0.000000
0.645624 0.443946 0.000000
0.686976 0.445594 0.000000
0.726772 0.446113 0.000000
0.765896 0.446265 0.000000
0.803525 0.445716 0.000000
0.834134 0.444099 0.000000
0.864805 0.442878 0.000000
0.895354 0.441871 0.000000
0.925719 0.440986 0.000000
0.955779 0.440192 0.000000
0.985321 0.439185 0.000000
1.000000 0.437995 0.000000
1.000000 0.436530 0.000000
1.000000 0.434485 0.000000
1.000000 0.431556 0.000000
1.000000 0.427924 0.000000
0.166445 0.461372 0.000000
0.172702 0.461524 0.000000
0.181003 0.461860 0.000000
0.197269 0.462379 0.000000
0.220279 0.463142 0.000000
0.247501 0.464088 0.000000
0.277409 0.464729 0.000000
0.309209 0.465095 0.000000
0.342260 0.465248 0.000000
0.375738 0.465248 0.000000
0.409613 0.464942 0.000000
0.443580 0.464454 0.000000
0.477668 0.464240 0.000000
0.513329 0.465339 0.000000
0.552087 0.468025 0.000000
0.595758 0.473152 0.000000
0.638788 0.476936 0.000000
0.680354 0.479469 0.000000
0.720668 0.480690 0.000000
0.760464 0.481453 0.000000
0.799496 0.481697 0.000000
0.837644 0.481239 0.000000
0.872648 0.479988 0.000000
0.902495 0.478004 0.000000
0.932158 0.476204 0.000000
0.961395 0.474464 0.000000
0.990234 0.472663 0.000000
1.000000 0.470619 0.000000
1.000000 0.468208 0.000000
1.000000 0.465370 0.000000
1.000000 0.461707 0.000000
1.000000 0.457069 0.000000
0.181521 0.497566 0.000000
0.187350 0.497566 0.000000
0.194614 0.497902 0.000000
0.209537 0.498360 0.000000
0.230747 0.498909 0.000000
0.256321 0.499611 0.000000
0.284916 0.500267 0.000000
0.315526 0.500725 0.000000
0.347478 0.500877 0.000000
0.380224 0.500877 0.000000
0.413550 0.500572 0.000000
0.447150 0.500175 0.000000
0.480842 0.499855 0.000000
0.514916 0.499825 0.000000
0.550225 0.500816 0.000000
0.587793 0.502892 0.000000
0.631006 0.508049 0.000000
0.672999 0.511589 0.000000
0.713832 0.513756 0.000000
0.754208 0.515404 0.000000
0.793912 0.516289 0.000000
0.832670 0.516472 0.000000
0.870298 0.515892 0.000000
0.906462 0.514458 0.000000
0.938293 0.511986 0.000000
0.966735 0.509300 0.000000
0.994751 0.506523 0.000000
1.000000 0.503624 0.000000
1.000000 0.500420 0.000000
1.000000 0.496742 0.000000
1.000000 0.492348 0.000000
1.000000 0.486732 0.000000
0.196506 0.533043 0.000000
0.201480 0.533043 0.000000
0.207950 0.533227 0.000000
0.221775 0.533745 0.000000
0.241642 0.534356 0.000000
0.265721 0.535088 0.000000
0.292912 0.535607 0.000000
0.322271 0.535973 0.000000
0.353063 0.536095 0.000000
0.385046 0.535973 0.000000
0.417456 0.535546 0.000000
0.450324 0.534966 0.000000
0.483528 0.534478 0.000000
0.517205 0.534295 0.000000
0.551202 0.534386 0.000000
0.586175 0.535393 0.000000
0.622034 0.536553 0.000000
0.664485 0.541466 0.000000
0.705989 0.544915 0.000000
0.747127 0.547662 0.000000
0.787564 0.549584 0.000000
0.827085 0.550622 0.000000
0.865446 0.550774 0.000000
0.902312 0.549767 0.000000
0.937438 0.547753 0.000000
0.970733 0.544671 0.000000
0.999084 0.540887 0.000000
1.000000 0.537011 0.000000
1.000000 0.532799 0.000000
1.000000 0.528222 0.000000
1.000000 0.523033 0.000000
1.000000 0.516533 0.000000
0.210727 0.567315 0.000000
0.215427 0.567254 0.000000
0.221134 0.567346 0.000000
0.233707 0.567529 0.000000
0.251926 0.567803 0.000000
0.274571 0.568200 0.000000
0.300053 0.568444 0.000000
0.327977 0.568597 0.000000
0.357702 0.568597 0.000000
0.388525 0.568444 0.000000
0.420386 0.568231 0.000000
0.452796 0.568048 0.000000
0.485664 0.567864 0.000000
0.519127 0.567926 0.000000
0.552880 0.568048 0.000000
0.587030 0.568536 0.000000
0.621546 0.569329 0.000000
0.655360 0.569329 0.000000
0.697444 0.574182 0.000000
0.739040 0.578027 0.000000
0.779965 0.580957 0.000000
0.820096 0.582940 0.000000
0.859129 0.583825 0.000000
0.896605 0.583551 0.000000
0.932433 0.582086 0.000000
0.966400 0.579431 0.000000
0.998322 0.575555 0.000000
1.000000 0.570611 0.000000
1.000000 0.565515 0.000000
1.000000 0.560113 0.000000
1.000000 0.554162 0.000000
1.000000 0.547082 0.000000
0.224857 0.600824 0.000000
0.228885 0.600855 0.000000
0.234379 0.600946 0.000000
0.245975 0.601190 0.000000
0.262913 0.601343 0.000000
0.283940 0.601648 0.000000
0.308141 0.601770 0.000000
0.334966 0.601831 0.000000
0.363531 0.601801 0.000000
0.393347 0.601617 0.000000
0.424323 0.601343 0.000000
0.455970 0.601007 0.000000
0.488167 0.600702 0.000000
0.520836 0.600519 0.000000
0.554070 0.600610 0.000000
0.587671 0.600946 0.000000
0.621546 0.601465 0.000000
0.655695 0.602197 0.000000
0.688319 0.601617 0.000000
0.730770 0.607080 0.000000
0.772580 0.611414 0.000000
0.813443 0.614588 0.000000
0.853269 0.616449 0.000000
0.891539 0.617060 0.000000
0.928099 0.616236 0.000000
0.962707 0.614069 0.000000
0.995239 0.610559 0.000000
1.000000 0.605829 0.000000
1.000000 0.599695 0.000000
1.000000 0.592493 0.000000
1.000000 0.585687 0.000000
1.000000 0.577752 0.000000
0.238102 0.632624 0.000000
0.241764 0.632410 0.000000
0.243748 0.625788 0.000000
0.254368 0.625940 0.000000
0.270115 0.626215 0.000000
0.289738 0.626612 0.000000
0.312627 0.627008 0.000000
0.338018 0.627375 0.000000
0.365454 0.627619 0.000000
0.394324 0.627680 0.000000
0.424262 0.627741 0.000000
0.455146 0.627741 0.000000
0.486793 0.627863 0.000000
0.519036 0.628168 0.000000
0.551843 0.628626 0.000000
0.585016 0.629267 0.000000
0.618708 0.630121 0.000000
0.652583 0.631037 0.000000
0.686610 0.632013 0.000000
0.719692 0.632105 0.000000
0.761227 0.637537 0.000000
0.803250 0.642359 0.000000
0.844175 0.645747 0.000000
0.883696 0.647761 0.000000
0.921569 0.648249 0.000000
0.957549 0.647242 0.000000
0.991333 0.644648 0.000000
1.000000 0.640497 0.000000
1.000000 0.634760 0.000000
1.000000 0.627436 0.000000
1.000000 0.618616 0.000000
1.000000 0.608728 0.000000
0.250584 0.662745 0.000000
0.253513 0.661921 0.000000
0.257939 0.661067 0.000000
0.267308 0.660426 0.000000
0.281590 0.660029 0.000000
0.300053 0.660060 0.000000
0.321782 0.660304 0.000000
0.346136 0.660578 0.000000
0.372625 0.660792 0.000000
0.400458 0.660975 0.000000
0.429725 0.661006 0.000000
0.459937 0.661097 0.000000
0.491096 0.661341 0.000000
0.522850 0.661707 0.000000
0.555230 0.662257 0.000000
0.588159 0.662959 0.000000
0.621515 0.663844 0.000000
0.655177 0.664759 0.000000
0.688991 0.665736 0.000000
0.722805 0.666590 0.000000
0.755734 0.666651 0.000000
0.795926 0.671260 0.000000
0.837644 0.676020 0.000000
0.877958 0.679164 0.000000
0.916625 0.680659 0.000000
0.953368 0.680446 0.000000
0.987945 0.678553 0.000000
1.000000 0.674891 0.000000
1.000000 0.669490 0.000000
1.000000 0.662379 0.000000
1.000000 0.653559 0.000000
1.000000 0.642664 0.000000
0.263951 0.696132 0.000000
0.266819 0.695338 0.000000
0.270817 0.694575 0.000000
0.279576 0.694026 0.000000
0.293187 0.693660 0.000000
0.310613 0.693660 0.000000
0.331304 0.693874 0.000000
0.354681 0.694148 0.000000
0.380102 0.694362 0.000000
0.407294 0.694545 0.000000
0.435767 0.694667 0.000000
0.465339 0.694820 0.000000
0.495949 0.695094 0.000000
0.527245 0.695491 0.000000
0.559228 0.696071 0.000000
0.591791 0.696803 0.000000
0.624842 0.697688 0.000000
0.658198 0.698634 0.000000
0.691737 0.699550 0.000000
0.725399 0.700404 0.000000
0.759060 0.701198 0.000000
0.791623 0.701076 0.000000
0.830533 0.704921 0.000000
0.871763 0.709438 0.000000
0.911406 0.712184 0.000000
0.949126 0.713008 0.000000
0.984619 0.711971 0.000000
1.000000 0.709041 0.000000
1.000000 0.704128 0.000000
1.000000 0.697322 0.000000
1.000000 0.688533 0.000000
1.000000 0.676997 0.000000
0.276951 0.730068 0.000000
0.279698 0.729305 0.000000
0.283330 0.728573 0.000000
0.291722 0.728023 0.000000
0.304540 0.727687 0.000000
0.321233 0.727718 0.000000
0.340948 0.727932 0.000000
0.363470 0.728237 0.000000
0.388128 0.728481 0.000000
0.414527 0.728786 0.000000
0.442420 0.729000 0.000000
0.471443 0.729213 0.000000
0.501488 0.729549 0.000000
0.532341 0.729946 0.000000
0.563867 0.730434 0.000000
0.595972 0.730983 0.000000
0.628412 0.731533 0.000000
0.661097 0.732113 0.000000
0.693996 0.732631 0.000000
0.726986 0.733028 0.000000
0.760006 0.733425 0.000000
0.793088 0.733761 0.000000
0.824949 0.733059 0.000000
0.862333 0.736049 0.000000
0.902831 0.740139 0.000000
0.941527 0.742336 0.000000
0.978088 0.742458 0.000000
1.000000 0.740597 0.000000
1.000000 0.736568 0.000000
1.000000 0.730526 0.000000
1.000000 0.722286 0.000000
1.000000 0.710658 0.000000
0.288304 0.761410 0.000000
0.290990 0.761074 0.000000
0.294652 0.760800 0.000000
0.302739 0.760708 0.000000
0.315068 0.760739 0.000000
0.331090 0.760922 0.000000
0.350134 0.761166 0.000000
0.371740 0.761410 0.000000
0.395544 0.761624 0.000000
0.421210 0.761715 0.000000
0.448219 0.761898 0.000000
0.476661 0.762020 0.000000
0.506126 0.762325 0.000000
0.536370 0.762722 0.000000
0.567468 0.763241 0.000000
0.599207 0.763882 0.000000
0.631312 0.764492 0.000000
0.663844 0.765194 0.000000
0.696620 0.765866 0.000000
0.729610 0.766445 0.000000
0.762814 0.767117 0.000000
0.796017 0.767727 0.000000
0.829496 0.768521 0.000000
0.861143 0.767605 0.000000
0.897520 0.769986 0.000000
0.937316 0.773648 0.000000
0.974884 0.774960 0.000000
1.000000 0.773983 0.000000
1.000000 0.770779 0.000000
1.000000 0.765225 0.000000
1.000000 0.756771 0.000000
1.000000 0.745388 0.000000
0.300877 0.796353 0.000000
0.303410 0.796017 0.000000
0.306767 0.795743 0.000000
0.314519 0.795560 0.000000
0.326238 0.795590 0.000000
0.341650 0.795804 0.000000
0.359930 0.796139 0.000000
0.380865 0.796445 0.000000
0.404120 0.796719 0.000000
0.429084 0.796902 0.000000
0.455665 0.797086 0.000000
0.483467 0.797269 0.000000
0.512383 0.797543 0.000000
0.542351 0.797940 0.000000
0.572961 0.798428 0.000000
0.604303 0.798947 0.000000
0.636072 0.799466 0.000000
0.668269 0.800015 0.000000
0.700740 0.800534 0.000000
0.733486 0.801083 0.000000
0.766354 0.801541 0.000000
0.799374 0.802060 0.000000
0.832547 0.802609 0.000000
0.865934 0.803250 0.000000
0.898741 0.803433 0.000000
0.934020 0.805081 0.000000
0.972656 0.807706 0.000000
1.000000 0.807889 0.000000
1.000000 0.805509 0.000000
1.000000 0.800534 0.000000
1.000000 0.791562 0.000000
1.000000 0.780331 0.000000
0.311620 0.828977 0.000000
0.313909 0.828611 0.000000
0.317266 0.828397 0.000000
0.324651 0.828397 0.000000
0.336034 0.828611 0.000000
0.350774 0.828946 0.000000
0.368536 0.829465 0.000000
0.388983 0.829984 0.000000
0.411719 0.830533 0.000000
0.436286 0.830991 0.000000
0.462470 0.831540 0.000000
0.489876 0.831998 0.000000
0.518517 0.832486 0.000000
0.548180 0.833066 0.000000
0.578729 0.833860 0.000000
0.609918 0.834684 0.000000
0.641749 0.835538 0.000000
0.673854 0.836240 0.000000
0.706294 0.836851 0.000000
0.738796 0.837278 0.000000
0.771511 0.837613 0.000000
0.804379 0.838041 0.000000
0.837613 0.838651 0.000000
0.871183 0.839414 0.000000
0.905028 0.840513 0.000000
0.935363 0.838346 0.000000
0.969757 0.839445 0.000000
1.000000 0.841093 0.000000
1.000000 0.840055 0.000000
1.000000 0.834745 0.000000
1.000000 0.826169 0.000000
1.000000 0.815030 0.000000
0.323278 0.864866 0.000000
0.325414 0.864500 0.000000
0.328710 0.864286 0.000000
0.335790 0.864286 0.000000
0.346654 0.864469 0.000000
0.360845 0.864775 0.000000
0.378149 0.865171 0.000000
0.397833 0.865599 0.000000
0.419959 0.865995 0.000000
0.443977 0.866361 0.000000
0.469459 0.866758 0.000000
0.496498 0.867063 0.000000
0.524559 0.867430 0.000000
0.553674 0.867887 0.000000
0.583764 0.868498 0.000000
0.614557 0.869200 0.000000
0.645960 0.869902 0.000000
0.677821 0.870573 0.000000
0.709926 0.871122 0.000000
0.742306 0.871550 0.000000
0.774838 0.871946 0.000000
0.807706 0.872404 0.000000
0.840879 0.873014 0.000000
0.874357 0.873808 0.000000
0.908202 0.874876 0.000000
0.942382 0.876158 0.000000
0.971862 0.873167 0.000000
1.000000 0.873686 0.000000
1.000000 0.873014 0.000000
1.000000 0.868009 0.000000
1.000000 0.859892 0.000000
1.000000 0.849027 0.000000
0.333684 0.899840 0.000000
0.335973 0.899596 0.000000
0.339086 0.899504 0.000000
0.345983 0.899626 0.000000
0.356542 0.899870 0.000000
0.370306 0.900328 0.000000
0.387030 0.900755 0.000000
0.406378 0.901213 0.000000
0.427985 0.901579 0.000000
0.451301 0.901946 0.000000
0.476509 0.902251 0.000000
0.502922 0.902495 0.000000
0.530571 0.902800 0.000000
0.559411 0.903197 0.000000
0.589044 0.903746 0.000000
0.619562 0.904417 0.000000
0.650721 0.905119 0.000000
0.682368 0.905760 0.000000
0.714321 0.906340 0.000000
0.746548 0.906828 0.000000
0.779080 0.907286 0.000000
0.811887 0.907774 0.000000
0.845029 0.908415 0.000000
0.878508 0.909270 0.000000
0.912352 0.910307 0.000000
0.946593 0.911559 0.000000
0.981170 0.913054 0.000000
1.000000 0.909209 0.000000
1.000000 0.906065 0.000000
1.000000 0.901610 0.000000
1.000000 0.893767 0.000000
1.000000 0.881987 0.000000
0.343755 0.935485 0.000000
0.345861 0.935332 0.000000
0.348974 0.935271 0.000000
0.355566 0.935332 0.000000
0.365789 0.935454 0.000000
0.379004 0.935607 0.000000
0.395087 0.935576 0.000000
0.413642 0.935515 0.000000
0.434394 0.935332 0.000000
0.457038 0.935088 0.000000
0.481331 0.934813 0.000000
0.507012 0.934630 0.000000
0.533959 0.934478 0.000000
0.562097 0.934569 0.000000
0.591211 0.934844 0.000000
0.621210 0.935332 0.000000
0.652003 0.936004 0.000000
0.683284 0.936645 0.000000
0.715023 0.937255 0.000000
0.747097 0.937835 0.000000
0.779446 0.938415 0.000000
0.812253 0.939025 0.000000
0.845335 0.939849 0.000000
0.878813 0.940826 0.000000
0.912718 0.942046 0.000000
0.945892 0.942290 0.000000
0.979034 0.942382 0.000000
1.000000 0.942443 0.000000
1.000000 0.937285 0.000000
1.000000 0.931914 0.000000
1.000000 0.925170 0.000000
1.000000 0.913115 0.000000
0.350805 0.967346 0.000000
0.352819 0.967285 0.000000
0.355871 0.967315 0.000000
0.362402 0.967437 0.000000
0.372351 0.967681 0.000000
0.385351 0.967956 0.000000
0.401129 0.968170 0.000000
0.419318 0.968353 0.000000
0.439857 0.968505 0.000000
0.462318 0.968627 0.000000
0.486427 0.968719 0.000000
0.511955 0.968872 0.000000
0.538811 0.969055 0.000000
0.566766 0.969329 0.000000
