data/fiter_cube/80369196/1023071/file.cube
# Created by Adobe Lightroom plugin Export LUT (1.17.0)
# www.johnrellis.com/lightroom/exportlut.htm
# Preset: Have Fun_03
# Color profile: C:\Program Files (x86)\Common Files\Adobe\Color\Profiles\Recommended\AdobeRGB1998.icc
LUT_3D_SIZE 5
DOMAIN_MIN 0.000000 0.000000 0.000000
DOMAIN_MAX 0.903226 0.903226 0.903226
0.000000 0.000000 0.000000
0.276127 0.013581 0.000000
0.553277 0.122225 0.000000
0.800809 0.181125 0.000000
1.000000 0.223545 0.000000
0.085023 0.275120 0.000000
0.289982 0.283543 0.000000
0.586419 0.300572 0.000000
0.817594 0.309697 0.000000
1.000000 0.322240 0.000000
0.196506 0.533043 0.000000
0.322271 0.535973 0.000000
0.551202 0.534386 0.000000
0.827085 0.550622 0.000000
1.000000 0.532799 0.000000
0.288304 0.761410 0.000000
0.371740 0.761410 0.000000
0.567468 0.763241 0.000000
0.796017 0.767727 0.000000
1.000000 0.770779 0.000000
0.358038 1.000000 0.000000
0.425055 1.000000 0.000000
0.601343 1.000000 0.000000
0.815824 1.000000 0.000000
1.000000 0.997559 0.000000
0.000000 0.000000 0.290593
0.277287 0.000000 0.281163
0.534966 0.163180 0.259525
0.797818 0.209201 0.234562
1.000000 0.229160 0.166964
0.000000 0.282841 0.277501
0.293553 0.289036 0.269566
0.570153 0.299718 0.248936
0.813138 0.320531 0.226017
1.000000 0.326452 0.155123
0.191836 0.538354 0.238132
0.331273 0.539147 0.248722
0.557733 0.541985 0.230350
0.837980 0.557397 0.188205
1.000000 0.533684 0.085786
0.295323 0.762783 0.205905
0.380591 0.762509 0.209415
0.570886 0.764767 0.188327
0.797147 0.769741 0.138338
1.000000 0.771572 0.000000
0.359014 1.000000 0.000000
0.425605 1.000000 0.000000
0.599115 1.000000 0.000000
0.813657 1.000000 0.000000
1.000000 0.997040 0.000000
0.000000 0.000000 0.548089
0.249119 0.039277 0.544030
0.534600 0.156802 0.531548
0.770748 0.244541 0.505425
1.000000 0.347936 0.516625
0.096376 0.285039 0.539361
0.286107 0.295201 0.536858
0.539757 0.311315 0.526696
0.772061 0.351904 0.506706
1.000000 0.386755 0.501701
0.198154 0.537102 0.524285
0.326238 0.539208 0.521538
0.557061 0.545068 0.511498
0.818051 0.557092 0.505272
1.000000 0.546593 0.475807
0.291814 0.767178 0.490913
0.382452 0.768429 0.492378
0.574456 0.769314 0.487098
0.797177 0.772976 0.469215
1.000000 0.773953 0.445991
0.409064 1.000000 0.492531
0.459968 1.000000 0.487129
0.589746 1.000000 0.438239
0.808469 1.000000 0.414069
1.000000 0.998383 0.364294
0.000000 0.090944 0.784634
0.235996 0.124727 0.782315
0.515953 0.188235 0.773129
0.773770 0.240482 0.761196
1.000000 0.318822 0.746975
0.114778 0.301061 0.780117
0.279332 0.306493 0.778012
0.526818 0.322515 0.770657
0.777401 0.346929 0.759365
1.000000 0.403754 0.748714
0.214115 0.536278 0.770291
0.329290 0.538903 0.767178
0.548333 0.546197 0.759030
0.772793 0.546746 0.740047
1.000000 0.584863 0.747524
0.293736 0.774044 0.752743
0.383459 0.775540 0.752132
0.574029 0.776852 0.747158
0.799466 0.781765 0.741390
1.000000 0.789151 0.748531
0.415290 1.000000 0.742611
0.476020 1.000000 0.744198
0.631586 1.000000 0.747829
0.802365 1.000000 0.720912
1.000000 0.998505 0.701045
0.000000 0.129549 0.984771
0.198459 0.146548 0.983124
0.479652 0.189761 0.980652
0.732906 0.230838 0.975097
0.983276 0.277958 0.970153
0.000000 0.282353 0.977966
0.224491 0.286412 0.976593
0.482612 0.300389 0.974426
0.728817 0.316106 0.967254
0.980591 0.350469 0.965393
0.002960 0.496040 0.969482
0.231968 0.493568 0.967956
0.480201 0.496651 0.963622
0.723934 0.499367 0.957336
0.986175 0.532708 0.964843
0.209873 0.736416 0.964935
0.299626 0.733639 0.962371
0.492683 0.728634 0.961089
0.737026 0.734768 0.964874
0.996124 0.774472 0.967620
0.365026 0.993011 0.972229
0.420722 0.992248 0.970947
0.584649 0.994293 0.971496
0.794766 0.993530 0.969451
0.993866 0.985626 0.968078
