data/fiter_cube/46928955/1023408/file.cube
# Created by Adobe Lightroom plugin Export LUT (1.17.0)
# www.johnrellis.com/lightroom/exportlut.htm
# Preset: 室内干净明亮通透人像_01 云集
# Color profile: C:\Program Files (x86)\Common Files\Adobe\Color\Profiles\Recommended\AdobeRGB1998.icc
LUT_3D_SIZE 32
DOMAIN_MIN 0.0 0.0 0.0
DOMAIN_MAX 1.0 1.0 1.0
0.107637 0.020172 0.075471
0.107637 0.020172 0.075471
0.107637 0.020172 0.075471
0.119203 0.025299 0.077852
0.135195 0.033753 0.081697
0.156100 0.034913 0.086030
0.184939 0.048585 0.090822
0.223117 0.058442 0.095155
0.269047 0.060761 0.098726
0.321843 0.055787 0.102541
0.380652 0.036652 0.106752
0.443732 0.007568 0.111574
0.508476 0.000000 0.116884
0.572107 0.000000 0.123415
0.629786 0.032227 0.131380
0.677729 0.086305 0.142153
0.728664 0.134157 0.159548
0.769772 0.177829 0.179873
0.803372 0.217075 0.201541
0.833310 0.255619 0.226047
0.860380 0.293156 0.252995
0.884764 0.330327 0.283238
0.906188 0.366400 0.315618
0.925292 0.402045 0.349767
0.942535 0.437446 0.386114
0.958434 0.473762 0.425055
0.973358 0.512413 0.467933
0.987396 0.552392 0.513268
1.000000 0.591058 0.558282
1.000000 0.627466 0.602289
1.000000 0.660975 0.644617
1.000000 0.684504 0.676112
0.107637 0.020172 0.075471
0.107637 0.020172 0.075471
0.107637 0.020172 0.075471
0.119203 0.025299 0.077852
0.134798 0.032990 0.081727
0.155398 0.053407 0.087037
0.184115 0.065003 0.091646
0.221225 0.070588 0.095460
0.266117 0.073121 0.099336
0.318181 0.070985 0.103212
0.375891 0.065003 0.107271
0.437995 0.052796 0.111818
0.501946 0.033448 0.116915
0.565087 0.036164 0.123201
0.623163 0.065858 0.131167
0.671778 0.097139 0.141360
0.722652 0.138460 0.157992
0.763027 0.177981 0.177096
0.796353 0.215122 0.197696
0.826444 0.251591 0.220706
0.853910 0.287907 0.247288
0.878721 0.324224 0.276127
0.900725 0.359686 0.307713
0.920409 0.394965 0.341466
0.938201 0.430304 0.377569
0.954650 0.466621 0.416327
0.970123 0.505241 0.459205
0.984649 0.545769 0.505089
0.998627 0.585382 0.551049
1.000000 0.622736 0.596002
1.000000 0.657008 0.639094
1.000000 0.685237 0.676417
0.107637 0.020172 0.075471
0.107637 0.020172 0.075471
0.107637 0.020172 0.075471
0.119265 0.036866 0.078523
0.134463 0.059541 0.083467
0.154971 0.070344 0.088838
0.182925 0.078096 0.093080
0.219669 0.083314 0.096590
0.263828 0.086122 0.100191
0.315038 0.085725 0.103853
0.372107 0.083253 0.107851
0.433722 0.077394 0.112245
0.497200 0.072786 0.117586
0.560388 0.074769 0.123720
0.618647 0.088624 0.131289
0.667964 0.111269 0.141512
0.719020 0.147951 0.157595
0.758724 0.183932 0.176028
0.792081 0.218326 0.195956
0.822293 0.253086 0.218631
0.850095 0.288548 0.244602
0.875273 0.323827 0.273472
0.897642 0.358679 0.304601
0.917571 0.393469 0.337774
0.935668 0.428412 0.373754
0.952392 0.464393 0.412451
0.968200 0.502739 0.454810
0.982971 0.543359 0.500999
0.997192 0.583398 0.547662
1.000000 0.621118 0.593042
1.000000 0.655634 0.636530
1.000000 0.686275 0.677028
0.109560 0.065156 0.081727
0.109529 0.067231 0.082521
0.110292 0.069490 0.083253
0.116945 0.075868 0.089570
0.134493 0.087160 0.088899
0.155306 0.094606 0.092531
0.182956 0.100893 0.095491
0.219059 0.105776 0.098848
0.262547 0.109010 0.102083
0.312749 0.110140 0.105653
0.368933 0.109712 0.109651
0.429236 0.108919 0.113954
0.491859 0.109194 0.119173
0.554406 0.111940 0.125307
0.612970 0.121004 0.132845
0.664302 0.139406 0.142855
0.714443 0.168643 0.158602
0.753201 0.198276 0.175937
0.785916 0.228122 0.194553
0.815763 0.259220 0.216190
0.843442 0.291722 0.240787
0.868986 0.325078 0.268864
0.892180 0.359014 0.299748
0.913268 0.393713 0.333501
0.932555 0.429328 0.370397
0.950317 0.466468 0.410864
0.966827 0.505486 0.454627
0.982025 0.546685 0.501946
0.996429 0.586419 0.548730
1.000000 0.623346 0.593591
1.000000 0.657130 0.636469
1.000000 0.688136 0.677790
0.113039 0.095338 0.093385
0.113100 0.096742 0.093507
0.113680 0.097688 0.093935
0.119875 0.098390 0.099245
0.128267 0.108125 0.105287
0.153628 0.122286 0.099916
0.182010 0.126741 0.099763
0.217014 0.131502 0.102205
0.259129 0.135378 0.105074
0.307927 0.138582 0.108492
0.362676 0.140536 0.112367
0.421912 0.142641 0.116732
0.483619 0.145144 0.121675
0.545678 0.149691 0.127810
0.605158 0.157687 0.134737
0.660975 0.173648 0.145785
0.710018 0.196628 0.160647
0.748653 0.221592 0.177676
0.781674 0.247349 0.196201
0.811551 0.274998 0.217258
0.839139 0.304204 0.241398
0.864714 0.335119 0.268650
0.888182 0.366979 0.299168
0.909697 0.400275 0.332708
0.929412 0.434882 0.369604
0.947631 0.471290 0.410132
0.964508 0.509667 0.454261
0.979950 0.549828 0.501183
0.994598 0.588830 0.547784
1.000000 0.625299 0.592615
1.000000 0.658778 0.635706
1.000000 0.689540 0.676997
0.114382 0.125643 0.104097
0.114473 0.126406 0.104219
0.116213 0.127352 0.105013
0.122621 0.126284 0.107637
0.131594 0.130495 0.114046
0.145296 0.142977 0.121767
0.180301 0.159365 0.113619
0.217044 0.160037 0.107057
0.258213 0.164584 0.109651
0.305821 0.169009 0.112520
0.359228 0.173312 0.116060
0.417639 0.177066 0.120546
0.478431 0.181399 0.125582
0.540093 0.186709 0.131289
0.599634 0.194827 0.138491
0.658900 0.210452 0.150210
0.706661 0.229587 0.164767
0.745083 0.250309 0.181216
0.778286 0.272618 0.199710
0.808682 0.297215 0.221195
0.836820 0.324254 0.245396
0.862943 0.353216 0.273198
0.916381 0.436683 0.356023
0.934722 0.468635 0.393103
0.951232 0.500969 0.431434
0.966217 0.534539 0.472236
0.980041 0.568505 0.513787
0.993256 0.601160 0.554345
1.000000 0.632197 0.593866
1.000000 0.661311 0.632441
1.000000 0.688441 0.669673
1.000000 0.696437 0.682551
0.113069 0.164950 0.119112
0.113161 0.165530 0.119234
0.117739 0.166293 0.120394
0.125460 0.166842 0.121096
0.139498 0.164981 0.130709
0.153811 0.173617 0.136233
0.176791 0.188235 0.145174
0.224704 0.206424 0.133303
0.269444 0.206851 0.123445
0.316625 0.206577 0.119387
0.371344 0.212161 0.123140
0.430365 0.217807 0.127535
0.491035 0.223575 0.132570
0.551781 0.230198 0.138582
0.614832 0.241459 0.147494
0.671778 0.257298 0.160403
0.716365 0.273869 0.175692
0.753201 0.291875 0.193362
0.785946 0.312078 0.213077
0.816892 0.335943 0.236301
0.846616 0.363775 0.264622
0.874754 0.395209 0.298100
0.900511 0.429572 0.336553
0.923430 0.465187 0.378302
0.943389 0.501488 0.422187
0.960510 0.536828 0.466102
0.975555 0.571588 0.509636
0.989471 0.604181 0.551202
1.000000 0.634974 0.591363
1.000000 0.663508 0.629816
1.000000 0.690150 0.667201
1.000000 0.702113 0.685756
0.109590 0.201389 0.134340
0.112917 0.202029 0.134859
0.118441 0.202762 0.135805
0.130098 0.203586 0.137942
0.144198 0.202457 0.142763
0.162509 0.203769 0.153353
0.183566 0.214328 0.160159
0.214786 0.230808 0.171786
0.270268 0.249546 0.156039
0.319554 0.251286 0.142458
0.367956 0.247379 0.132509
0.423072 0.250492 0.133211
0.482826 0.257450 0.138186
0.544762 0.265873 0.144564
0.611841 0.279881 0.154330
0.665370 0.292821 0.166018
0.708766 0.306340 0.180362
0.745144 0.320806 0.196811
0.777951 0.337865 0.216068
0.809140 0.358556 0.238926
0.839017 0.383246 0.266117
0.867521 0.411597 0.298741
0.893614 0.442969 0.335943
0.916960 0.476051 0.376898
0.937499 0.509972 0.419898
0.955230 0.543816 0.463630
0.970855 0.577234 0.507195
0.985382 0.608972 0.548913
0.999207 0.639124 0.589349
1.000000 0.667170 0.628077
1.000000 0.693477 0.665827
1.000000 0.708736 0.689418
0.109926 0.241398 0.152926
0.114199 0.241917 0.153506
0.120729 0.242649 0.154574
0.135409 0.243809 0.157839
0.149569 0.243748 0.157931
0.174228 0.241489 0.171237
0.196963 0.247501 0.181216
0.224369 0.259129 0.189670
0.263401 0.277958 0.204257
0.326055 0.297734 0.186343
0.378851 0.300084 0.170596
0.428656 0.296330 0.156313
0.478767 0.291997 0.145510
0.546777 0.304936 0.153170
0.608850 0.317510 0.162173
0.659968 0.328862 0.173159
0.702571 0.340124 0.187106
0.738766 0.352422 0.203067
0.771572 0.366918 0.221653
0.802945 0.384833 0.243931
0.832944 0.406958 0.270726
0.861601 0.432654 0.302953
0.887938 0.461311 0.339666
0.911589 0.491829 0.379522
0.932464 0.523522 0.422065
0.950622 0.555291 0.465309
0.966735 0.587121 0.508598
0.981720 0.617487 0.550134
0.995972 0.646265 0.589990
1.000000 0.673335 0.628687
1.000000 0.698726 0.666194
1.000000 0.716274 0.693629
0.112795 0.284001 0.174472
0.118196 0.284276 0.175113
0.125429 0.284794 0.176028
0.142214 0.285710 0.178988
0.161501 0.286198 0.181155
0.185397 0.284703 0.188815
0.213779 0.282780 0.205020
0.240848 0.293645 0.213382
0.274113 0.306798 0.223880
0.320500 0.328344 0.242283
0.387396 0.348699 0.222446
0.446357 0.354070 0.205509
0.501762 0.353948 0.190585
0.551720 0.349432 0.175540
0.603723 0.352728 0.171176
0.654810 0.363989 0.181247
0.698024 0.374823 0.195102
0.734737 0.386023 0.211460
0.767788 0.399207 0.230289
0.798886 0.414954 0.252293
0.828367 0.433906 0.278599
0.856046 0.455970 0.308873
0.881682 0.480598 0.343359
0.904845 0.507286 0.381262
0.925780 0.535668 0.421637
0.944396 0.565393 0.464240
0.961303 0.595972 0.507713
0.977142 0.625727 0.550011
0.992279 0.654170 0.590814
1.000000 0.680903 0.630243
1.000000 0.706050 0.668513
1.000000 0.724666 0.698451
0.119844 0.326360 0.198001
0.125612 0.326818 0.198795
0.134340 0.327398 0.199741
0.151919 0.328496 0.202640
0.177340 0.329595 0.207645
0.196689 0.329717 0.208591
0.230808 0.327916 0.225071
0.261631 0.331395 0.240970
0.294560 0.344091 0.251652
0.333318 0.359075 0.264988
0.392828 0.388983 0.292699
0.467536 0.413794 0.273045
0.523796 0.417395 0.250584
0.572625 0.414588 0.231510
0.613794 0.407050 0.213169
0.648310 0.397009 0.196597
0.690608 0.406287 0.205142
0.727077 0.415930 0.218540
0.760342 0.427375 0.236820
0.791745 0.441627 0.258579
0.821530 0.458900 0.284764
0.849638 0.479072 0.315068
0.875731 0.501976 0.349401
0.899413 0.526757 0.386908
0.920684 0.553246 0.426947
0.939635 0.580865 0.468879
0.956878 0.609186 0.511376
0.973114 0.636988 0.552758
0.988617 0.663752 0.592981
1.000000 0.689113 0.631922
1.000000 0.713252 0.670161
1.000000 0.733761 0.703700
0.132204 0.372442 0.225650
0.139040 0.372747 0.226261
0.147372 0.373358 0.227481
0.165988 0.374395 0.230167
0.194186 0.375921 0.235935
0.216587 0.376623 0.237095
0.248600 0.376318 0.248325
0.285161 0.375189 0.268803
0.321813 0.387030 0.285863
0.364996 0.406043 0.303258
0.413489 0.427100 0.323674
0.476051 0.458747 0.356054
0.595758 0.526909 0.374548
0.639185 0.523461 0.342962
0.672847 0.512596 0.316655
0.700618 0.497932 0.291630
0.724819 0.482277 0.268711
0.751766 0.477729 0.263310
0.781613 0.486641 0.277134
0.810117 0.498360 0.295842
0.837339 0.513481 0.323186
0.862730 0.531212 0.354040
0.886015 0.550530 0.387640
0.907378 0.572137 0.424598
0.926818 0.595361 0.463569
0.944518 0.619654 0.503441
0.960967 0.643488 0.542077
0.976562 0.666499 0.579217
0.991363 0.688899 0.615686
1.000000 0.710414 0.651423
1.000000 0.731411 0.686915
1.000000 0.743465 0.709285
0.154482 0.432654 0.264561
0.161044 0.433051 0.265385
0.170291 0.432898 0.265965
0.189364 0.432990 0.268101
0.217655 0.433326 0.272831
0.247318 0.434241 0.277348
0.275731 0.437873 0.282872
0.321050 0.440162 0.306645
0.364691 0.444587 0.334936
0.409033 0.464668 0.354681
0.459815 0.488624 0.379004
0.515251 0.515862 0.407507
0.579614 0.553948 0.452247
0.637049 0.573114 0.429877
0.675105 0.569329 0.397955
0.704433 0.558618 0.370794
0.729061 0.543969 0.343877
0.750912 0.527947 0.318517
0.771695 0.512810 0.295933
0.800168 0.522148 0.310796
0.827543 0.534600 0.330144
0.853483 0.550011 0.356939
0.877348 0.567956 0.390051
0.899290 0.587793 0.426337
0.919341 0.609216 0.464546
0.937652 0.631800 0.503990
0.954772 0.654200 0.542290
0.971038 0.676204 0.579614
0.986633 0.697536 0.615930
1.000000 0.718441 0.652064
1.000000 0.738949 0.688045
1.000000 0.753597 0.715206
0.178988 0.487282 0.303044
0.186404 0.488075 0.304082
0.195621 0.488411 0.305058
0.215091 0.489540 0.308019
0.244266 0.490883 0.313237
0.281834 0.492622 0.322545
0.306584 0.494636 0.323125
0.346990 0.496101 0.339635
0.393347 0.498146 0.367254
0.437171 0.508263 0.394568
0.483711 0.529931 0.417517
0.532860 0.553643 0.444648
0.580713 0.577447 0.474800
0.630945 0.608545 0.519860
0.674708 0.620447 0.495033
0.705867 0.613794 0.458442
0.730861 0.601526 0.427588
0.752773 0.586725 0.398322
0.773526 0.571771 0.371862
0.794095 0.558190 0.348974
0.818082 0.557305 0.347112
0.844572 0.570977 0.369360
0.869139 0.586175 0.394568
0.891844 0.604944 0.430304
0.912535 0.625269 0.468727
0.931548 0.646479 0.507958
0.949371 0.667536 0.546044
0.966308 0.688197 0.582818
0.982544 0.708553 0.619196
0.997955 0.728573 0.655482
1.000000 0.748379 0.691646
1.000000 0.764126 0.721401
0.210971 0.547021 0.348302
0.217960 0.547814 0.349615
0.226658 0.547539 0.350164
0.245670 0.547601 0.352300
0.273259 0.547753 0.356420
0.309667 0.547936 0.363897
0.340337 0.548974 0.367712
0.371069 0.550347 0.373816
0.419226 0.551415 0.400153
0.465278 0.554345 0.432349
0.507652 0.569238 0.458015
0.550866 0.588800 0.483925
0.592523 0.608515 0.512016
0.630488 0.627741 0.540154
0.670008 0.653223 0.579065
0.704707 0.661158 0.553979
0.731350 0.653956 0.517296
0.753414 0.642084 0.485786
0.774105 0.628534 0.456428
0.794491 0.615351 0.430243
0.814939 0.603540 0.407691
0.835691 0.593286 0.388220
0.860594 0.606409 0.410407
0.884031 0.622187 0.437385
0.905577 0.640864 0.472724
0.925475 0.661555 0.512505
0.944427 0.682094 0.551232
0.962554 0.702632 0.589380
0.979919 0.722744 0.627070
0.996246 0.742580 0.664485
1.000000 0.762142 0.701534
1.000000 0.774960 0.727871
0.247044 0.599695 0.393042
0.254246 0.600275 0.394293
0.262547 0.600519 0.395300
0.280858 0.600702 0.397772
0.308202 0.600824 0.402258
0.343908 0.601251 0.410132
0.381903 0.602289 0.419776
0.409186 0.604028 0.422889
0.451575 0.604883 0.442878
0.497139 0.605890 0.472999
0.537591 0.608972 0.505669
0.573022 0.623377 0.527306
0.606714 0.638025 0.549401
0.638209 0.652613 0.571466
0.667353 0.667018 0.592798
0.699886 0.688350 0.624811
0.728939 0.694057 0.601099
0.752651 0.688045 0.567681
0.773465 0.679194 0.541131
0.793973 0.669490 0.516747
0.814603 0.659571 0.494026
0.835294 0.650446 0.473854
0.856046 0.642023 0.455512
0.878202 0.645258 0.459327
0.900603 0.661921 0.488899
0.921599 0.680232 0.522881
0.941222 0.699947 0.561578
0.959991 0.719203 0.599512
0.977905 0.737972 0.636500
0.994507 0.756497 0.673396
1.000000 0.774594 0.709468
1.000000 0.785946 0.734371
0.286625 0.640894 0.433509
0.292576 0.640955 0.434241
0.300389 0.640803 0.435218
0.317052 0.640711 0.437659
0.342443 0.640528 0.442176
0.375372 0.640406 0.449744
0.415473 0.640528 0.462013
0.443977 0.641444 0.467140
0.475380 0.642542 0.477913
0.518975 0.642603 0.505669
0.558099 0.643732 0.536187
0.590478 0.650324 0.562127
0.619745 0.663081 0.581598
0.647547 0.675990 0.600793
0.673640 0.688655 0.619501
0.697871 0.700740 0.637140
0.726131 0.719417 0.665370
0.751217 0.723751 0.643519
0.773007 0.719295 0.614008
0.792752 0.712886 0.591211
0.812375 0.705837 0.570855
0.832120 0.698604 0.552178
0.852018 0.691615 0.534905
0.872374 0.685542 0.519829
0.893278 0.680629 0.506706
0.915282 0.696315 0.534569
0.936248 0.713863 0.566979
0.955901 0.732753 0.605402
0.974640 0.750973 0.642817
0.992004 0.768948 0.680110
1.000000 0.786526 0.716457
1.000000 0.797055 0.740902
0.331609 0.677180 0.474311
0.337987 0.677852 0.476143
0.381384 0.701259 0.507713
0.396857 0.700679 0.510674
0.419837 0.699733 0.515801
0.449195 0.698390 0.523674
0.484352 0.696864 0.535698
0.514672 0.695979 0.545739
0.537346 0.696345 0.551781
0.568841 0.696132 0.569970
0.600946 0.696254 0.593927
0.628809 0.697169 0.618982
0.651850 0.704982 0.635950
0.674067 0.715023 0.650843
0.695644 0.725002 0.665797
0.716426 0.734676 0.680476
0.736446 0.744137 0.695064
0.760433 0.759701 0.719753
0.781277 0.762051 0.699062
0.800473 0.757992 0.672114
0.818326 0.752529 0.650965
0.836301 0.746914 0.633021
0.854612 0.741176 0.616693
0.873259 0.735775 0.601953
0.892210 0.730739 0.588373
0.911955 0.726650 0.576654
0.932464 0.731716 0.583612
0.952544 0.746914 0.612726
0.971496 0.763943 0.649409
0.989380 0.781155 0.686549
1.000000 0.798062 0.722927
1.000000 0.808225 0.747524
0.387671 0.714199 0.521874
0.397467 0.716945 0.526818
0.408972 0.719661 0.532403
0.427314 0.721767 0.539330
0.451392 0.722805 0.547478
0.479072 0.722652 0.556756
0.510002 0.721706 0.567987
0.542260 0.720790 0.581598
0.561608 0.721279 0.586114
0.583825 0.721889 0.595636
0.613489 0.721920 0.616693
0.639887 0.722560 0.638758
0.662348 0.724269 0.660212
0.682216 0.733028 0.673518
0.701717 0.741726 0.686854
0.720699 0.750240 0.700069
0.739223 0.758694 0.713283
0.757290 0.767208 0.726619
0.779660 0.781704 0.749813
0.798734 0.784176 0.732204
0.816892 0.781491 0.709102
0.834592 0.778012 0.691066
0.852232 0.774258 0.676204
0.870115 0.770382 0.662715
0.888365 0.766690 0.650477
0.907286 0.763821 0.640192
0.927184 0.762051 0.632074
0.948241 0.761929 0.626978
0.968505 0.776730 0.656031
0.986999 0.793515 0.693385
1.000000 0.809842 0.729824
1.000000 0.819425 0.754177
0.429999 0.739498 0.557794
0.439033 0.741848 0.562737
0.449256 0.744137 0.568170
0.465339 0.745846 0.574701
0.486061 0.746792 0.582422
0.509606 0.746609 0.590631
0.535821 0.745876 0.600336
0.563806 0.745205 0.612268
0.585260 0.745480 0.619928
0.602808 0.746426 0.625605
0.626825 0.746975 0.640833
0.651728 0.747463 0.660639
0.673823 0.748104 0.680903
0.692775 0.751919 0.697902
0.710506 0.759579 0.709926
0.727871 0.767147 0.721859
0.744930 0.774685 0.733761
0.761776 0.782345 0.745876
0.778592 0.790280 0.758267
0.799496 0.803891 0.779843
0.816800 0.806363 0.765194
0.833951 0.804837 0.745907
0.851133 0.802731 0.730587
0.868162 0.800351 0.718288
0.885496 0.797665 0.706935
0.903410 0.795438 0.697108
0.922240 0.794064 0.689357
0.942260 0.794156 0.684474
0.963500 0.796048 0.682979
0.984192 0.804990 0.699031
1.000000 0.820798 0.735348
1.000000 0.830564 0.760678
0.472023 0.763455 0.594690
0.479469 0.765499 0.599176
0.488472 0.767575 0.604181
0.501854 0.769131 0.610224
0.519249 0.769955 0.616999
0.538872 0.769894 0.624170
0.560723 0.769345 0.632349
0.584466 0.768734 0.642420
0.607446 0.768643 0.652674
0.622553 0.769436 0.656825
0.639887 0.770413 0.664942
0.663325 0.770535 0.682673
0.684657 0.770901 0.700954
0.703731 0.771572 0.719722
0.720455 0.777127 0.732845
0.736843 0.784390 0.744259
0.753475 0.791958 0.756252
0.770138 0.799893 0.768521
0.786831 0.808225 0.781247
0.803555 0.816861 0.794217
0.823941 0.830350 0.814450
0.840238 0.833677 0.804135
0.856229 0.833280 0.789090
0.872953 0.832578 0.777249
0.889586 0.831785 0.768307
0.906645 0.830900 0.760433
0.924590 0.830503 0.754086
0.943542 0.831174 0.750210
0.963592 0.833188 0.749081
0.984344 0.836332 0.750576
1.000000 0.839963 0.754940
1.000000 0.841764 0.767178
0.524712 0.794583 0.644678
0.529137 0.795438 0.647089
0.534203 0.796078 0.649531
0.543359 0.796384 0.652949
0.555993 0.796353 0.657496
0.571588 0.795895 0.662867
0.589563 0.795407 0.669612
0.609766 0.795102 0.678218
0.632074 0.795193 0.689296
0.648035 0.796139 0.695247
0.662715 0.797574 0.701167
0.682094 0.798276 0.714199
0.702388 0.798581 0.730648
0.720851 0.798978 0.747219
0.737209 0.799954 0.763241
0.752041 0.806210 0.773159
0.766995 0.812650 0.783291
0.782040 0.819425 0.793668
0.797177 0.826444 0.804257
0.812314 0.833707 0.814878
0.827268 0.841123 0.825406
0.845518 0.852720 0.841733
0.859403 0.854978 0.832517
0.873167 0.854032 0.818875
0.888701 0.853605 0.808469
0.904601 0.853574 0.801480
0.921386 0.853910 0.795987
0.939239 0.855039 0.792569
0.958190 0.857206 0.791501
0.977722 0.860288 0.792599
0.997009 0.863981 0.795682
1.000000 0.856901 0.783169
0.557397 0.816007 0.678889
0.561242 0.816800 0.681147
0.565667 0.817533 0.683406
0.573388 0.817899 0.686580
0.583886 0.817868 0.690303
0.596857 0.817441 0.694667
0.611994 0.816892 0.700221
0.629450 0.816373 0.707332
0.649256 0.816220 0.716701
0.667201 0.816617 0.725216
0.680262 0.817746 0.729793
0.694667 0.818845 0.736995
0.714046 0.818997 0.751675
0.732143 0.819333 0.766659
0.748592 0.819883 0.781582
0.763272 0.822599 0.794247
0.777310 0.828611 0.803403
0.791531 0.834928 0.812772
0.805905 0.841459 0.822324
0.820340 0.848325 0.831937
0.834714 0.855344 0.841550
0.848936 0.862486 0.850980
0.865965 0.873106 0.865110
0.878599 0.875425 0.857816
0.887510 0.870939 0.841642
0.902464 0.871244 0.833066
0.918151 0.872282 0.828153
0.934844 0.873869 0.825010
0.952575 0.876341 0.823911
0.971008 0.879637 0.824826
0.989441 0.883879 0.828153
1.000000 0.879820 0.820127
0.596460 0.842466 0.721370
0.599939 0.843320 0.723537
0.603388 0.843839 0.725277
0.609247 0.843839 0.727382
0.617548 0.843412 0.729976
0.628077 0.842679 0.733181
0.640681 0.841764 0.737331
0.655207 0.840726 0.742550
0.671809 0.839872 0.749508
0.689815 0.839322 0.758297
0.701289 0.839445 0.761501
0.712825 0.839902 0.765591
0.728054 0.839902 0.774899
0.744717 0.839475 0.787167
0.759976 0.839048 0.799252
0.773922 0.838895 0.811276
0.786404 0.842222 0.819852
0.799130 0.847410 0.827451
0.812375 0.853239 0.835721
0.826078 0.859617 0.844450
0.839963 0.866331 0.853330
0.853605 0.873045 0.862028
0.866758 0.879545 0.870207
0.881956 0.888640 0.881956
0.892851 0.890227 0.875212
0.903655 0.889036 0.864469
0.917967 0.889952 0.857542
0.933135 0.891722 0.854185
0.949310 0.894194 0.852659
0.966308 0.897551 0.853208
0.983520 0.901884 0.856077
0.994324 0.899260 0.850462
0.621942 0.860655 0.749844
0.625086 0.861448 0.751827
0.628229 0.861936 0.753445
0.633387 0.861936 0.755276
0.640711 0.861601 0.757595
0.650050 0.860990 0.760433
0.661402 0.860258 0.764218
0.674678 0.859525 0.769070
0.689723 0.858946 0.775296
0.706386 0.858610 0.783108
0.720638 0.858732 0.789151
0.731502 0.859373 0.792752
0.743038 0.860044 0.797787
0.759274 0.859800 0.808682
0.774319 0.859617 0.819455
0.788296 0.859586 0.830137
0.801144 0.859861 0.840696
0.812924 0.864591 0.847349
0.825223 0.869841 0.854459
0.837919 0.875517 0.861967
0.850706 0.881468 0.869566
0.863401 0.887480 0.877104
0.875700 0.893309 0.884276
0.887449 0.898894 0.891051
0.900786 0.906554 0.900664
0.910430 0.907927 0.895079
0.920226 0.907012 0.885924
0.934142 0.908873 0.881102
0.948974 0.911650 0.879423
0.964569 0.915221 0.879820
0.980316 0.919646 0.882322
0.988647 0.915923 0.875486
0.649866 0.880247 0.780056
0.652308 0.880735 0.781491
0.654658 0.880888 0.782406
0.658900 0.880644 0.783627
0.664881 0.880095 0.785214
0.672786 0.879332 0.787350
0.682612 0.878447 0.790249
0.694301 0.877653 0.794186
0.707912 0.877043 0.799374
0.723049 0.876738 0.805936
0.739498 0.876646 0.813840
0.749538 0.877317 0.816800
0.759976 0.878050 0.820676
0.772976 0.878294 0.827695
0.787503 0.878050 0.837003
0.801083 0.877836 0.846250
0.813687 0.877897 0.855467
0.825284 0.879515 0.863706
0.836606 0.884154 0.869810
0.848325 0.889189 0.876280
0.860227 0.894469 0.882902
0.872038 0.899840 0.889525
0.883543 0.905119 0.895872
0.894591 0.910216 0.901946
0.905119 0.915038 0.907683
0.916686 0.921386 0.915587
0.925322 0.922698 0.911009
0.934325 0.922087 0.903227
0.947448 0.924498 0.899840
0.961730 0.928130 0.899596
0.976196 0.932555 0.901610
0.983764 0.929839 0.895964
0.674372 0.897429 0.805386
0.676234 0.897734 0.806302
0.678401 0.897856 0.807095
0.682124 0.897734 0.808255
0.688014 0.897459 0.809995
0.695857 0.897276 0.812589
0.706020 0.897337 0.816342
0.718135 0.897612 0.821164
0.732113 0.898192 0.827176
0.747433 0.899046 0.834226
0.763973 0.900114 0.842222
0.777432 0.901457 0.848203
0.787930 0.902892 0.852171
0.798306 0.904082 0.856443
0.812375 0.904265 0.864530
0.825437 0.904204 0.872374
0.837644 0.904173 0.880095
0.848997 0.904448 0.887846
0.859464 0.907103 0.893950
0.869871 0.911254 0.899138
0.880369 0.915618 0.904417
0.890806 0.919982 0.909728
0.900877 0.924285 0.914855
0.910552 0.928405 0.919738
0.919707 0.932250 0.924315
0.928374 0.935943 0.928679
0.937407 0.940520 0.934569
0.944732 0.941619 0.930907
0.952819 0.941558 0.924926
0.964477 0.944244 0.922911
0.976898 0.948119 0.923796
0.979553 0.941466 0.913542
0.710658 0.921141 0.838926
0.712062 0.921324 0.839506
0.713619 0.921233 0.839902
0.716640 0.920897 0.840604
0.721309 0.920439 0.841672
0.727687 0.919921 0.843351
0.735927 0.919463 0.845792
0.745815 0.919158 0.848997
0.757290 0.919036 0.853086
0.770199 0.919066 0.858030
0.783993 0.919219 0.863676
0.798367 0.919524 0.869902
0.807065 0.920165 0.872343
0.815915 0.920745 0.875181
