data/fiter_cube/46928955/1023408/file.cube
# Created by Adobe Lightroom plugin Export LUT (1.17.0)
# www.johnrellis.com/lightroom/exportlut.htm
# Preset: 室内干净明亮通透人像_01 云集
# Color profile: C:\Program Files (x86)\Common Files\Adobe\Color\Profiles\Recommended\AdobeRGB1998.icc
LUT_3D_SIZE 5
DOMAIN_MIN 0.000000 0.000000 0.000000
DOMAIN_MAX 0.903226 0.903226 0.903226
0.107637 0.020172 0.075471
0.223117 0.058442 0.095155
0.629786 0.032227 0.131380
0.884764 0.330327 0.283238
1.000000 0.591058 0.558282
0.109590 0.201389 0.134340
0.214786 0.230808 0.171786
0.611841 0.279881 0.154330
0.867521 0.411597 0.298741
0.999207 0.639124 0.589349
0.210971 0.547021 0.348302
0.371069 0.550347 0.373816
0.670008 0.653223 0.579065
0.835691 0.593286 0.388220
0.979919 0.722744 0.627070
0.524712 0.794583 0.644678
0.609766 0.795102 0.678218
0.737209 0.799954 0.763241
0.845518 0.852720 0.841733
0.958190 0.857206 0.791501
0.734646 0.937346 0.859739
0.766964 0.935821 0.868833
0.831754 0.929931 0.886809
0.907256 0.939879 0.928222
0.959197 0.960418 0.954253
0.099763 0.067262 0.132784
0.202152 0.121675 0.157198
0.619226 0.168521 0.191501
0.855344 0.349310 0.282475
0.991363 0.578119 0.535851
0.093355 0.221500 0.201846
0.246189 0.256291 0.216739
0.618097 0.315312 0.240909
0.846281 0.422950 0.319646
0.986877 0.617487 0.557122
0.179324 0.552392 0.392370
0.393347 0.558709 0.424903
0.647547 0.628717 0.565057
0.818845 0.592309 0.435767
0.975525 0.717769 0.618769
0.515679 0.795254 0.659510
0.604273 0.795865 0.689448
0.737758 0.800687 0.768673
0.844236 0.852110 0.846128
0.956573 0.853452 0.791806
0.724453 0.938170 0.861418
0.757839 0.936522 0.869596
0.841520 0.936980 0.897704
0.911437 0.943114 0.932830
0.961151 0.962371 0.957092
0.000000 0.155947 0.307683
0.183322 0.214359 0.313298
0.587640 0.294499 0.421912
0.861387 0.476265 0.538201
0.985321 0.628717 0.638453
0.000000 0.261814 0.389288
0.237430 0.301549 0.398627
0.621424 0.397894 0.476997
0.848783 0.537041 0.564080
0.982605 0.657435 0.655512
0.057191 0.563745 0.550713
0.320806 0.589197 0.566583
0.650843 0.626276 0.603967
0.822873 0.660395 0.623926
0.970977 0.738521 0.709133
0.435889 0.801419 0.711513
0.541680 0.796262 0.718929
0.726131 0.803464 0.774746
0.843656 0.851316 0.852903
0.956420 0.835233 0.783536
0.685756 0.939269 0.870115
0.722133 0.939391 0.876310
0.818906 0.939269 0.898222
0.908110 0.941680 0.935058
0.961059 0.962615 0.959716
0.000000 0.270848 0.575616
0.105165 0.295109 0.588556
0.533593 0.480781 0.615808
0.794400 0.570977 0.696162
0.964233 0.713466 0.804257
0.000000 0.353765 0.620722
0.210422 0.374701 0.628534
0.571099 0.545800 0.642329
0.795987 0.610071 0.714992
0.962615 0.730129 0.811521
0.000000 0.536858 0.695338
0.267887 0.548180 0.700923
0.621881 0.637934 0.721706
0.807736 0.707057 0.769528
0.964965 0.786496 0.839902
0.403388 0.783627 0.802365
0.491737 0.786130 0.803525
0.665888 0.807187 0.820920
0.826993 0.829404 0.845304
0.961700 0.847318 0.854856
0.617365 0.949920 0.906737
0.655451 0.949187 0.907591
0.763729 0.948363 0.913359
0.895598 0.949340 0.936461
0.964691 0.965881 0.965026
0.000000 0.421241 0.823117
0.219303 0.442145 0.824552
0.586847 0.598810 0.825193
0.770535 0.702449 0.848692
0.925902 0.764492 0.879484
0.000000 0.464820 0.830076
0.262791 0.482094 0.831388
0.588769 0.611627 0.832822
0.771481 0.719326 0.851072
0.926940 0.776577 0.884306
0.000000 0.535698 0.856626
0.000000 0.541680 0.855161
0.570184 0.645533 0.856657
0.782986 0.775326 0.866545
0.935943 0.819028 0.904112
0.296513 0.773556 0.905180
0.373266 0.772213 0.903288
0.542809 0.769497 0.900725
0.789151 0.820645 0.907317
0.951934 0.884276 0.934264
0.592798 0.938384 0.951263
0.618494 0.938476 0.951080
0.705226 0.942748 0.953216
0.833402 0.952209 0.957946
0.966857 0.965301 0.970184
