data/fiter_cube/46928955/1023408/file.cube
# Created by Adobe Lightroom plugin Export LUT (1.17.0)
# www.johnrellis.com/lightroom/exportlut.htm
# Preset: 室内干净明亮通透人像_01 云集
# Color profile: C:\Program Files (x86)\Common Files\Adobe\Color\Profiles\Recommended\AdobeRGB1998.icc
LUT_3D_SIZE 8
DOMAIN_MIN 0.000000 0.000000 0.000000
DOMAIN_MAX 0.903226 0.903226 0.903226
0.107637 0.020172 0.075471
0.135195 0.033753 0.081697
0.269047 0.060761 0.098726
0.508476 0.000000 0.116884
0.728664 0.134157 0.159548
0.860380 0.293156 0.252995
0.942535 0.437446 0.386114
1.000000 0.591058 0.558282
0.113039 0.095338 0.093385
0.128267 0.108125 0.105287
0.259129 0.135378 0.105074
0.483619 0.145144 0.121675
0.710018 0.196628 0.160647
0.839139 0.304204 0.241398
0.929412 0.434882 0.369604
0.994598 0.588830 0.547784
0.109926 0.241398 0.152926
0.149569 0.243748 0.157931
0.263401 0.277958 0.204257
0.478767 0.291997 0.145510
0.702571 0.340124 0.187106
0.832944 0.406958 0.270726
0.932464 0.523522 0.422065
0.995972 0.646265 0.589990
0.154482 0.432654 0.264561
0.217655 0.433326 0.272831
0.364691 0.444587 0.334936
0.579614 0.553948 0.452247
0.729061 0.543969 0.343877
0.827543 0.534600 0.330144
0.919341 0.609216 0.464546
0.986633 0.697536 0.615930
0.286625 0.640894 0.433509
0.342443 0.640528 0.442176
0.475380 0.642542 0.477913
0.619745 0.663081 0.581598
0.726131 0.719417 0.665370
0.812375 0.705837 0.570855
0.893278 0.680629 0.506706
0.974640 0.750973 0.642817
0.472023 0.763455 0.594690
0.519249 0.769955 0.616999
0.607446 0.768643 0.652674
0.684657 0.770901 0.700954
0.753475 0.791958 0.756252
0.823941 0.830350 0.814450
0.889586 0.831785 0.768307
0.963592 0.833188 0.749081
0.621942 0.860655 0.749844
0.640711 0.861601 0.757595
0.689723 0.858946 0.775296
0.743038 0.860044 0.797787
0.801144 0.859861 0.840696
0.850706 0.881468 0.869566
0.900786 0.906554 0.900664
0.948974 0.911650 0.879423
0.734646 0.937346 0.859739
0.744350 0.936675 0.862150
0.777584 0.935790 0.872435
0.827268 0.937102 0.891508
0.855955 0.930175 0.899596
0.897948 0.936156 0.923735
0.932921 0.950072 0.940551
0.959197 0.960418 0.954253
0.105043 0.039521 0.095644
0.128206 0.060395 0.097169
0.254734 0.099092 0.107424
0.476387 0.133211 0.121675
0.702571 0.184665 0.157015
0.831174 0.287633 0.231998
0.924651 0.416114 0.355444
0.991608 0.569390 0.530480
0.104280 0.103700 0.112673
0.135134 0.121523 0.117983
0.257511 0.154788 0.124727
0.471138 0.181552 0.132387
0.692714 0.228153 0.160525
0.820584 0.308873 0.231022
0.914458 0.420233 0.346410
0.984802 0.566033 0.518639
0.105653 0.246098 0.170291
0.164736 0.253330 0.182650
0.270420 0.284184 0.218936
0.475959 0.299321 0.176791
0.681758 0.338445 0.193759
0.812039 0.395819 0.253086
0.912016 0.491829 0.380133
0.984436 0.620569 0.555962
0.152255 0.425208 0.273533
0.220127 0.431159 0.284764
0.363439 0.439612 0.339879
0.542779 0.518883 0.425513
0.691707 0.505394 0.319615
0.798154 0.505516 0.315923
0.898222 0.573266 0.415167
0.974731 0.674495 0.582971
0.286137 0.636774 0.441596
0.337713 0.634699 0.446876
0.468025 0.633722 0.476081
0.602716 0.645075 0.564721
0.707973 0.698726 0.643702
0.797726 0.686549 0.550958
0.881651 0.666743 0.496651
0.966735 0.738521 0.623072
0.456916 0.755032 0.587732
0.492927 0.754604 0.597986
0.589441 0.753536 0.635615
0.671839 0.758694 0.685695
0.745235 0.783139 0.747127
0.819699 0.826139 0.811185
0.884886 0.826291 0.762478
0.958190 0.825193 0.738460
0.603662 0.850523 0.735409
0.618372 0.848569 0.738216
0.671656 0.847471 0.758358
0.732601 0.851560 0.787228
0.794644 0.854368 0.834440
0.844511 0.875700 0.864134
0.894102 0.900298 0.894896
0.942535 0.904326 0.871092
0.723018 0.932586 0.853361
0.734371 0.932738 0.856901
0.769284 0.932341 0.867857
0.822599 0.934173 0.888884
0.862028 0.935058 0.905058
0.900175 0.937896 0.925933
0.931853 0.949218 0.940032
0.957549 0.958953 0.952972
0.098695 0.080812 0.152010
0.120607 0.101961 0.149935
0.246342 0.143801 0.185031
0.522179 0.132021 0.207858
0.726986 0.234318 0.246128
0.839597 0.350896 0.307927
0.928862 0.458930 0.391119
0.995209 0.592340 0.551049
0.099886 0.133089 0.183261
0.134432 0.149569 0.183413
0.265721 0.186587 0.204623
0.511589 0.201877 0.221653
0.714137 0.273686 0.255589
0.829953 0.366217 0.309911
0.921294 0.465492 0.389715
0.991089 0.595850 0.547784
0.083833 0.265995 0.241032
0.142702 0.282872 0.249058
0.302739 0.306249 0.260472
0.519951 0.337713 0.273259
0.709224 0.385473 0.303716
0.822751 0.444068 0.351110
0.913756 0.524346 0.429206
0.985626 0.631189 0.565087
0.091493 0.459876 0.344640
0.194430 0.469062 0.351507
0.393042 0.479286 0.388159
0.567956 0.541680 0.468513
0.697139 0.512932 0.377600
0.808591 0.546075 0.416724
0.902037 0.611231 0.497810
0.978851 0.686519 0.597772
0.250889 0.646113 0.480995
0.320897 0.647913 0.488441
0.499428 0.648859 0.531548
0.622370 0.660334 0.605524
0.719387 0.712947 0.672236
0.798734 0.692744 0.583581
0.882536 0.688167 0.559686
0.967437 0.748470 0.653376
0.443519 0.760311 0.609888
0.486091 0.760037 0.620294
0.586145 0.758419 0.651759
0.672694 0.761563 0.695338
0.744839 0.781949 0.755276
0.817380 0.824430 0.814817
0.881743 0.822782 0.765835
0.959686 0.824430 0.745785
0.599969 0.855955 0.751156
0.616785 0.854643 0.754635
0.668330 0.851835 0.769131
0.735561 0.852720 0.797452
0.794278 0.855467 0.836545
0.846006 0.876951 0.869047
0.898650 0.904906 0.902190
0.948272 0.909941 0.880369
0.713924 0.934630 0.856870
0.722438 0.933440 0.857969
0.757382 0.932006 0.866880
0.817075 0.935210 0.889647
0.859770 0.936126 0.905455
0.901274 0.938750 0.928252
0.933745 0.950835 0.942779
0.959655 0.961028 0.955962
0.069337 0.128237 0.245975
0.098482 0.137514 0.250340
0.215854 0.215183 0.256901
0.464332 0.234501 0.325292
0.724758 0.275151 0.382696
0.839811 0.396185 0.435218
0.918914 0.506645 0.504723
0.989044 0.601495 0.581994
0.077546 0.179812 0.284642
0.118990 0.187411 0.285832
0.244419 0.254124 0.283024
0.488624 0.272801 0.349920
0.728328 0.317082 0.398749
0.833768 0.419745 0.444129
0.914122 0.518303 0.508904
0.986664 0.608209 0.584497
0.007660 0.280217 0.342779
0.122927 0.289738 0.349920
0.307256 0.334783 0.359594
0.540978 0.376928 0.410224
0.726162 0.438117 0.451820
0.828305 0.512749 0.499733
0.915251 0.592950 0.565789
0.986450 0.655787 0.623651
0.000000 0.469062 0.448463
0.156497 0.478157 0.453498
0.354650 0.512139 0.474800
0.572076 0.538231 0.501213
0.703975 0.551141 0.502251
0.807797 0.593072 0.540459
0.898344 0.647028 0.593744
0.977081 0.705409 0.659663
0.162264 0.669093 0.567956
0.254917 0.667872 0.566186
0.459937 0.666590 0.576196
0.634943 0.673640 0.641474
0.724788 0.718593 0.692409
0.796231 0.690364 0.615534
0.885924 0.716518 0.642298
0.967987 0.763607 0.707485
0.416114 0.775418 0.659998
0.470466 0.779568 0.673365
0.575586 0.775448 0.689876
0.684932 0.777920 0.730068
0.756802 0.793851 0.784512
0.823270 0.830533 0.827481
0.882780 0.822202 0.778439
0.962127 0.822202 0.758450
0.578454 0.861143 0.771298
0.598993 0.861418 0.775845
0.658167 0.861448 0.789883
0.737423 0.862852 0.817075
0.801724 0.866850 0.849577
0.853513 0.883879 0.881682
0.903166 0.909331 0.909453
0.951507 0.911101 0.885252
0.705318 0.941344 0.869535
0.716060 0.941314 0.871611
0.747982 0.939940 0.877043
0.801480 0.938964 0.890318
0.857176 0.939422 0.908415
0.902159 0.940276 0.931487
0.935729 0.952697 0.946410
0.961975 0.963348 0.959655
0.000000 0.185458 0.375799
0.000000 0.192569 0.380804
0.222080 0.256931 0.385870
0.414099 0.318791 0.433661
0.671931 0.370031 0.509606
0.817411 0.472175 0.572625
0.915007 0.585779 0.647547
0.981567 0.658564 0.697383
0.000000 0.228580 0.407111
0.069856 0.234440 0.412299
0.245274 0.285313 0.414893
0.435096 0.348913 0.454292
0.676204 0.398596 0.522362
0.817960 0.497810 0.586175
0.913237 0.599420 0.654719
0.980377 0.665339 0.700618
0.000000 0.307530 0.469337
0.093538 0.323033 0.479316
0.293675 0.360632 0.490394
0.489815 0.438087 0.509789
0.687190 0.485481 0.563836
0.816342 0.560784 0.617670
0.904234 0.630213 0.665644
0.975128 0.682155 0.704799
0.000000 0.463813 0.549859
0.116182 0.469825 0.554040
0.329046 0.492470 0.570306
0.567651 0.565728 0.589288
0.711391 0.602960 0.633143
0.812711 0.642359 0.660639
0.896208 0.680598 0.689693
0.972747 0.716854 0.721065
0.171115 0.642023 0.636652
0.246494 0.647211 0.640162
0.418219 0.664057 0.652216
0.600824 0.681086 0.667262
0.709346 0.695827 0.686915
0.793698 0.698146 0.677150
0.883726 0.730251 0.709651
0.965270 0.767300 0.751583
0.330541 0.772671 0.710506
0.375494 0.773098 0.712123
0.502831 0.769894 0.714961
0.639796 0.769863 0.731075
0.739895 0.778470 0.779080
0.814328 0.820188 0.822019
0.876921 0.804623 0.772030
0.961151 0.826749 0.794980
0.533257 0.864378 0.798550
0.553460 0.863096 0.799130
0.616175 0.861082 0.804257
0.701778 0.861692 0.819211
0.786801 0.866331 0.847654
0.849241 0.881132 0.884886
0.901366 0.907378 0.909941
0.951293 0.904204 0.881804
0.669581 0.941131 0.877043
0.679927 0.940398 0.877653
0.714168 0.938781 0.880705
0.773892 0.941772 0.892943
0.838895 0.940917 0.907897
0.895689 0.942260 0.929686
0.934356 0.952331 0.948241
0.962280 0.963714 0.961334
0.000000 0.257267 0.544732
0.000000 0.262455 0.548577
0.205509 0.305943 0.559258
0.448676 0.431678 0.569970
0.640467 0.453407 0.641657
0.776211 0.540826 0.666346
0.888212 0.628473 0.732937
0.971099 0.710170 0.793454
0.000000 0.286778 0.556847
0.000000 0.290806 0.560113
0.219791 0.323644 0.568841
0.455665 0.441230 0.575769
0.640192 0.469795 0.642512
0.774594 0.552331 0.669947
0.886870 0.636378 0.735897
0.970184 0.714931 0.795315
0.000000 0.365942 0.611872
0.077119 0.376043 0.614008
0.286656 0.401801 0.620813
0.505547 0.500694 0.625940
0.658015 0.546777 0.670008
0.781613 0.605219 0.699855
0.889250 0.673854 0.757992
0.970947 0.738643 0.809323
0.000000 0.475990 0.660212
0.063203 0.478492 0.661067
0.304753 0.493355 0.669612
0.556115 0.579461 0.690486
0.687648 0.645319 0.717617
0.799496 0.682979 0.751492
0.898283 0.732174 0.795834
0.971740 0.772793 0.827481
0.163790 0.620356 0.710903
0.232975 0.624353 0.713130
0.393317 0.638392 0.720119
0.566552 0.664240 0.732540
0.705806 0.716213 0.750759
0.809323 0.742397 0.785000
0.893034 0.770504 0.808438
0.966308 0.793088 0.825956
0.353796 0.754665 0.768765
0.397131 0.758419 0.772366
0.500999 0.764981 0.777829
0.612055 0.781003 0.791897
0.720638 0.791226 0.801175
0.805722 0.806912 0.820676
0.881926 0.809964 0.815732
0.964508 0.835660 0.841306
0.507408 0.869291 0.844144
0.528222 0.870451 0.845914
0.583368 0.871122 0.847684
0.664942 0.872526 0.851499
0.760861 0.873716 0.860960
0.845701 0.881743 0.891234
0.903502 0.908507 0.914427
0.958831 0.896757 0.881285
0.629999 0.948699 0.900237
0.641016 0.947845 0.900053
0.678035 0.945892 0.900481
0.737240 0.945495 0.904479
0.806363 0.944884 0.911589
0.883299 0.945861 0.929931
0.933898 0.953368 0.952148
0.964416 0.965698 0.964446
0.000000 0.330694 0.690608
0.000000 0.337255 0.695369
0.189883 0.362951 0.701015
0.460883 0.471687 0.706722
0.627283 0.588617 0.718654
0.756069 0.603326 0.773312
0.852171 0.661158 0.786770
0.946868 0.733791 0.840757
0.000000 0.348730 0.691066
0.000000 0.354345 0.695064
0.204990 0.375647 0.700801
0.459632 0.474800 0.704707
0.625483 0.591943 0.714504
0.750515 0.603449 0.767269
0.846616 0.658350 0.780880
0.942535 0.729915 0.835660
0.000000 0.411536 0.721614
0.084199 0.422431 0.723568
0.281621 0.441749 0.726925
0.490272 0.518975 0.730953
0.648432 0.635157 0.734737
0.757809 0.642115 0.782559
0.852873 0.691432 0.800229
0.947814 0.755734 0.850797
0.000000 0.478676 0.755306
0.000000 0.480262 0.754452
0.295079 0.513024 0.758389
0.521843 0.580743 0.767483
0.674678 0.678706 0.773007
0.772305 0.700801 0.809873
0.863737 0.739376 0.828733
0.953857 0.788449 0.868345
0.000000 0.609796 0.789303
0.149447 0.610163 0.788235
0.313725 0.614771 0.787900
0.483742 0.628687 0.790311
0.667933 0.696773 0.802884
0.775875 0.749264 0.826169
0.869444 0.780117 0.849210
0.959380 0.823636 0.885161
0.315953 0.742000 0.830350
0.350866 0.743618 0.830777
0.447211 0.749020 0.832303
0.559838 0.758145 0.836240
0.669245 0.769223 0.841581
0.797910 0.817075 0.858488
0.891020 0.840513 0.884703
0.965454 0.864195 0.902739
0.492042 0.850126 0.873136
0.510735 0.851652 0.874327
0.562799 0.854398 0.876188
0.636988 0.860075 0.880064
0.720089 0.870268 0.887144
0.813291 0.881529 0.895842
0.892058 0.893767 0.908659
0.962707 0.894865 0.904570
0.605432 0.945464 0.924163
0.615137 0.945617 0.924376
0.650965 0.948150 0.926818
0.701595 0.950225 0.928771
0.764889 0.952636 0.931121
0.850919 0.952178 0.936187
0.928740 0.955047 0.954437
0.967132 0.967987 0.968475
0.000000 0.421241 0.823117
0.000000 0.427955 0.824949
0.269322 0.450843 0.824765
0.495094 0.539757 0.825528
0.657465 0.655390 0.824582
0.747494 0.702724 0.841001
0.852476 0.721431 0.874601
0.925902 0.764492 0.879484
0.000000 0.432410 0.822446
0.049348 0.438697 0.824277
0.278752 0.460792 0.824979
0.492409 0.541650 0.825010
0.655634 0.655207 0.824369
0.746365 0.705592 0.839872
0.849973 0.722286 0.872984
0.924590 0.765530 0.879057
0.000000 0.472084 0.831052
0.149630 0.480873 0.831937
0.307012 0.497444 0.831113
0.497871 0.563287 0.836149
0.659602 0.666835 0.834806
0.751492 0.725582 0.844999
0.850980 0.738766 0.877256
0.926940 0.779873 0.885496
0.000000 0.499977 0.846860
0.000000 0.509026 0.848173
0.284337 0.543450 0.847990
0.503868 0.601648 0.850553
0.658869 0.682399 0.852079
0.764920 0.761563 0.857877
0.856535 0.769497 0.888304
0.933837 0.806241 0.898589
0.000000 0.602838 0.868894
0.000000 0.603113 0.869596
0.103548 0.598077 0.867582
0.395575 0.615442 0.865446
0.632746 0.692836 0.868162
0.771176 0.784329 0.872129
0.861448 0.804227 0.900633
0.939300 0.834867 0.911345
0.205783 0.737575 0.895201
0.240726 0.736599 0.894224
0.335882 0.734798 0.892027
0.451881 0.732784 0.889921
0.569970 0.729274 0.888212
0.755489 0.792752 0.897490
0.870756 0.854429 0.917754
0.949889 0.874662 0.930083
0.455024 0.855497 0.926177
0.468452 0.855344 0.925933
0.511437 0.855344 0.925628
0.579675 0.857206 0.926635
0.664271 0.860472 0.928405
0.755947 0.861906 0.927947
0.879728 0.895232 0.933898
0.960723 0.918242 0.949554
0.592798 0.938384 0.951263
0.600153 0.938231 0.951080
0.627405 0.938781 0.951232
0.675319 0.941131 0.952422
0.737972 0.944549 0.954040
0.813230 0.949554 0.956420
0.898436 0.958129 0.961852
0.966857 0.965301 0.970184
