data/fiter_cube/52608991/1023025/file.cube
# Created by Adobe Lightroom plugin Export LUT (1.17.0)
# www.johnrellis.com/lightroom/exportlut.htm
# Preset: 大神蓝橙街拍_05 云集
# Color profile: C:\Program Files (x86)\Common Files\Adobe\Color\Profiles\Recommended\AdobeRGB1998.icc
LUT_3D_SIZE 32
DOMAIN_MIN 0.0 0.0 0.0
DOMAIN_MAX 1.0 1.0 1.0
0.112886 0.129213 0.139010
0.115480 0.128847 0.138979
0.121920 0.128084 0.138888
0.135775 0.126345 0.138705
0.153170 0.126162 0.138735
0.172519 0.125826 0.138796
0.194614 0.125490 0.138674
0.220035 0.125063 0.138430
0.250065 0.124392 0.137819
0.285435 0.123140 0.137026
0.326635 0.121828 0.135439
0.372992 0.119722 0.133150
0.423682 0.117342 0.129885
0.477729 0.114656 0.125307
0.533806 0.111604 0.119387
0.590509 0.106477 0.111940
0.644892 0.101106 0.103243
0.696345 0.095308 0.093233
0.757076 0.086183 0.077760
0.816587 0.075013 0.055238
0.863157 0.062043 0.011994
0.899413 0.038422 0.000000
0.927031 0.006958 0.000000
0.948821 0.000000 0.000000
0.966674 0.000000 0.000000
0.982086 0.000000 0.000000
0.996063 0.000000 0.000000
1.000000 0.000000 0.000000
1.000000 0.000000 0.000000
1.000000 0.000000 0.000000
1.000000 0.000000 0.040406
1.000000 0.000000 0.071901
0.112673 0.130007 0.139284
0.114961 0.130068 0.139223
0.121004 0.130159 0.139254
0.134035 0.130159 0.139437
0.151339 0.129854 0.139315
0.170504 0.129427 0.139406
0.192203 0.129091 0.139162
0.217136 0.128725 0.138949
0.246342 0.128328 0.138399
0.281132 0.127626 0.137453
0.321233 0.126864 0.135988
0.366522 0.125551 0.133791
0.416114 0.123751 0.130556
0.468940 0.122072 0.126223
0.524163 0.119020 0.120485
0.580285 0.115999 0.113527
0.634638 0.111208 0.105226
0.686458 0.106203 0.095338
0.747066 0.098695 0.080446
0.805692 0.089815 0.061341
0.852842 0.079591 0.022522
0.890196 0.067720 0.000000
0.919097 0.050538 0.000000
0.942107 0.011170 0.000000
0.960967 0.000000 0.000000
0.977234 0.000000 0.000000
0.992035 0.000000 0.000000
1.000000 0.000000 0.000000
1.000000 0.000000 0.000000
1.000000 0.000000 0.000000
1.000000 0.000000 0.031769
1.000000 0.000000 0.068421
0.111727 0.133516 0.140322
0.114992 0.133516 0.138643
0.119722 0.133181 0.139559
0.131746 0.134279 0.140322
0.148959 0.134249 0.140200
0.168124 0.133883 0.140139
0.189487 0.133547 0.139895
0.213962 0.133455 0.139559
0.242893 0.133150 0.139040
0.276951 0.132967 0.137972
0.316747 0.132479 0.136538
0.361486 0.132143 0.134401
0.410590 0.131014 0.131258
0.463264 0.130343 0.126833
0.517754 0.128573 0.121431
0.573968 0.125704 0.114443
0.628351 0.122133 0.106081
0.680293 0.118013 0.096407
0.741665 0.111696 0.081910
0.799619 0.104829 0.063111
0.847074 0.096468 0.027100
0.885161 0.085908 0.000000
0.914794 0.075319 0.000000
0.938415 0.058625 0.000000
0.957794 0.016876 0.000000
0.974517 0.000000 0.000000
0.989715 0.000000 0.000000
1.000000 0.000000 0.000000
1.000000 0.000000 0.000000
1.000000 0.000000 0.000000
1.000000 0.000000 0.030121
1.000000 0.000000 0.067048
0.109071 0.141970 0.144015
0.111147 0.142275 0.138003
0.120485 0.141054 0.138399
0.130343 0.140261 0.140352
0.145022 0.142031 0.142428
0.164248 0.142153 0.142000
0.185672 0.142123 0.141604
0.210208 0.142153 0.140963
0.238712 0.142519 0.140291
0.272557 0.143008 0.139223
0.311620 0.143313 0.137697
0.355657 0.144076 0.135256
0.404059 0.144625 0.132174
0.455818 0.145205 0.127840
0.510216 0.144289 0.122408
0.566003 0.143771 0.115724
0.620508 0.141421 0.107332
0.672633 0.138613 0.097871
0.734401 0.134249 0.083406
0.790280 0.129458 0.066407
0.837217 0.122896 0.035431
0.875944 0.115511 0.000000
0.907286 0.106416 0.000000
0.932860 0.095216 0.000000
0.954101 0.081453 0.000000
0.972351 0.061372 0.000000
0.988525 0.005371 0.000000
1.000000 0.000000 0.000000
1.000000 0.000000 0.000000
1.000000 0.000000 0.000000
1.000000 0.000000 0.034455
1.000000 0.000000 0.068482
0.104768 0.152163 0.150912
0.108461 0.152224 0.141909
0.117250 0.151675 0.137057
0.129854 0.149355 0.138277
0.142458 0.148714 0.141268
0.157839 0.151064 0.144930
0.179232 0.152041 0.144167
0.203525 0.152834 0.143191
0.231510 0.154055 0.142367
0.264378 0.155459 0.141024
0.302556 0.157290 0.139345
0.346044 0.159518 0.136965
0.393805 0.161776 0.133730
0.445441 0.163546 0.129549
0.500023 0.164797 0.124117
0.556970 0.165560 0.117220
0.613245 0.164706 0.108644
0.667079 0.163088 0.098695
0.731197 0.161166 0.084138
0.785946 0.157992 0.067079
0.832151 0.153201 0.038605
0.870787 0.146914 0.002075
0.902556 0.139406 0.000000
0.928862 0.130587 0.000000
0.950866 0.119478 0.000000
0.969757 0.106966 0.000000
0.986358 0.090791 0.000000
1.000000 0.069093 0.000000
1.000000 0.014923 0.000000
1.000000 0.000000 0.000885
1.000000 0.000000 0.039582
1.000000 0.000000 0.071107
0.101564 0.163241 0.157412
0.106081 0.163180 0.150362
0.108278 0.163363 0.137606
0.128481 0.160952 0.136385
0.141085 0.157839 0.138521
0.155856 0.158358 0.142123
0.174197 0.161685 0.146120
0.197238 0.164431 0.146304
0.225101 0.166812 0.144930
0.257939 0.169772 0.143496
0.295933 0.173159 0.141604
0.339239 0.176944 0.138979
0.386847 0.180697 0.135561
0.438666 0.184176 0.131289
0.493568 0.187076 0.125612
0.551202 0.189395 0.118410
0.608453 0.190402 0.109590
0.667872 0.190860 0.098604
0.730526 0.190646 0.083894
0.784970 0.188785 0.066773
0.831418 0.185031 0.037415
0.870665 0.179843 0.001251
0.947478 0.180392 0.000000
0.966491 0.172702 0.000000
0.982116 0.163607 0.000000
0.995575 0.153292 0.000000
1.000000 0.141543 0.000000
1.000000 0.128450 0.004700
1.000000 0.113954 0.034150
1.000000 0.097078 0.063752
1.000000 0.077180 0.081544
1.000000 0.048157 0.099519
0.096162 0.178897 0.167147
0.102724 0.178683 0.160769
0.104891 0.178866 0.148440
0.123537 0.177371 0.136446
0.142947 0.173770 0.135836
0.156313 0.169894 0.138705
0.175418 0.172549 0.142824
0.199008 0.178134 0.147189
0.226505 0.183566 0.149142
0.262211 0.188968 0.146853
0.303624 0.194919 0.144259
0.350011 0.200870 0.141024
0.400275 0.206485 0.136812
0.453651 0.211551 0.131533
0.509148 0.215579 0.125093
0.565515 0.218723 0.117128
0.621332 0.220401 0.107790
0.688106 0.223301 0.094118
0.750912 0.224735 0.077363
0.805844 0.223789 0.057252
0.853788 0.221592 0.014954
0.894530 0.217319 0.000000
0.927398 0.211856 0.000000
0.953399 0.204868 0.000000
0.973877 0.196933 0.000000
0.989990 0.187350 0.000000
1.000000 0.177035 0.000000
1.000000 0.165408 0.011444
1.000000 0.153017 0.043427
1.000000 0.139742 0.067445
1.000000 0.125734 0.084504
1.000000 0.111727 0.102144
0.091310 0.193576 0.176669
0.097230 0.193210 0.171145
0.101595 0.193057 0.161013
0.109743 0.192752 0.138918
0.141939 0.188876 0.135134
0.157107 0.184817 0.135683
0.170626 0.180606 0.138888
0.193210 0.185977 0.142977
0.221073 0.193729 0.147219
0.252201 0.202121 0.151308
0.293248 0.210300 0.148409
0.339544 0.218479 0.144625
0.389685 0.226139 0.140139
0.442939 0.233066 0.134676
0.498482 0.238926 0.128023
0.555322 0.243870 0.119844
0.616602 0.248478 0.109407
0.683650 0.253330 0.095735
0.743801 0.255650 0.079927
0.797665 0.255619 0.061402
0.845548 0.253605 0.023774
0.886687 0.250095 0.000000
0.920287 0.244907 0.000000
0.947082 0.238041 0.000000
0.968322 0.229953 0.000000
0.985138 0.220829 0.000000
0.999145 0.210452 0.000000
1.000000 0.199741 0.022858
1.000000 0.188540 0.054780
1.000000 0.176669 0.072786
1.000000 0.164736 0.089326
1.000000 0.153506 0.106783
0.083742 0.210575 0.187869
0.089998 0.210361 0.182467
0.096284 0.210117 0.174166
0.101442 0.209934 0.150729
0.133883 0.207095 0.137728
0.158267 0.202365 0.134981
0.173495 0.197696 0.135256
0.188144 0.194369 0.138796
0.214633 0.202213 0.142580
0.248386 0.213107 0.146517
0.285496 0.224430 0.150362
0.330724 0.235874 0.149447
0.381201 0.245975 0.144442
0.435187 0.254948 0.138430
0.490669 0.262699 0.131350
0.548119 0.269291 0.122835
0.617945 0.278294 0.110872
0.681758 0.284001 0.097322
0.739956 0.286961 0.082002
0.793027 0.287572 0.064210
0.840452 0.286198 0.031373
0.881682 0.282841 0.000000
0.915496 0.277867 0.000000
0.942565 0.271000 0.000000
0.964202 0.263066 0.000000
0.981445 0.253544 0.000000
0.995850 0.243565 0.015625
1.000000 0.233066 0.042145
1.000000 0.222080 0.065187
1.000000 0.211154 0.080446
1.000000 0.200198 0.096407
1.000000 0.189883 0.113161
0.071351 0.230350 0.200992
0.079194 0.229984 0.195499
0.087800 0.229587 0.188113
0.094667 0.229282 0.166781
0.116884 0.227726 0.139986
0.158236 0.222904 0.135988
0.176486 0.217502 0.133944
0.191897 0.212345 0.134432
0.208316 0.210269 0.138247
0.239597 0.221042 0.141817
0.279271 0.235355 0.145235
0.321630 0.248966 0.148592
0.370520 0.263279 0.149905
0.425330 0.275212 0.143435
0.482887 0.285618 0.135775
0.552209 0.298863 0.125429
0.621424 0.309422 0.112886
0.684596 0.316167 0.098970
0.742092 0.319890 0.083711
0.793484 0.320775 0.067018
0.838804 0.319280 0.041444
0.877714 0.315709 0.011902
0.910033 0.310033 0.000000
0.936400 0.303014 0.000000
0.958038 0.294621 0.000000
0.975860 0.285283 0.011780
0.991119 0.275181 0.033692
1.000000 0.264927 0.059419
1.000000 0.254612 0.074311
1.000000 0.244053 0.089265
1.000000 0.234043 0.105470
1.000000 0.224674 0.122713
0.046723 0.251438 0.214939
0.060609 0.251316 0.210361
0.072602 0.250858 0.202792
0.084108 0.250523 0.183505
0.094453 0.250126 0.146639
0.147097 0.245914 0.137392
0.178500 0.240482 0.134401
0.197055 0.234836 0.132357
0.212711 0.229435 0.133242
0.232425 0.229343 0.137057
0.269688 0.243961 0.139864
0.315526 0.261448 0.142641
0.362799 0.277134 0.145418
0.416236 0.293858 0.148623
0.482246 0.311315 0.141115
0.551751 0.326757 0.130068
0.618891 0.338354 0.117525
0.680323 0.346014 0.104097
0.736843 0.350286 0.089143
0.787991 0.351812 0.073487
0.833341 0.350988 0.056641
0.872679 0.347692 0.030365
0.905547 0.342412 0.014435
0.932372 0.335302 0.012329
0.954345 0.326696 0.021332
0.972381 0.317144 0.038361
0.987793 0.307042 0.058778
1.000000 0.296513 0.071473
1.000000 0.286107 0.084688
1.000000 0.275761 0.099031
1.000000 0.266026 0.114626
1.000000 0.257053 0.131838
0.000000 0.277012 0.231754
0.000000 0.276829 0.227207
0.028290 0.276524 0.219944
0.064851 0.276036 0.202335
0.079957 0.275578 0.168124
0.125856 0.272892 0.138705
0.180056 0.267399 0.133394
0.202213 0.261570 0.131319
0.221256 0.255436 0.129274
0.237705 0.249943 0.130831
0.262181 0.253025 0.134646
0.305943 0.271336 0.136660
0.390845 0.313909 0.134707
0.465217 0.343053 0.134951
0.544488 0.370977 0.136019
0.620264 0.391272 0.129915
0.686641 0.401953 0.114931
0.744076 0.407141 0.100313
0.792508 0.407630 0.086336
0.834836 0.405402 0.074220
0.871183 0.400580 0.065064
0.901701 0.393896 0.060243
0.926940 0.385565 0.060121
0.948211 0.376104 0.064607
0.966125 0.365942 0.071382
0.981445 0.355291 0.079683
0.994781 0.344182 0.088777
1.000000 0.333043 0.098970
1.000000 0.322301 0.110109
1.000000 0.311803 0.122896
1.000000 0.302312 0.137392
1.000000 0.293828 0.153841
0.000000 0.317418 0.258488
0.000000 0.317205 0.253483
0.000000 0.316197 0.245731
0.000000 0.314488 0.227970
0.027039 0.312779 0.192660
0.083070 0.310277 0.138277
0.167880 0.303502 0.132509
0.209689 0.296544 0.128450
0.233127 0.290105 0.126131
0.253635 0.283787 0.123537
0.272587 0.279362 0.126101
0.307164 0.288975 0.129061
0.373358 0.321538 0.127321
0.453681 0.357794 0.124514
0.531426 0.387335 0.123476
0.607660 0.412329 0.125460
0.675807 0.429511 0.127779
0.733059 0.435767 0.113344
0.782071 0.437385 0.100343
0.824674 0.435462 0.089479
0.861692 0.431189 0.080934
0.893156 0.424720 0.076600
0.919158 0.416449 0.076020
0.941161 0.406928 0.079377
0.959716 0.396551 0.084871
0.975647 0.385534 0.091890
0.989502 0.374395 0.100191
1.000000 0.363134 0.109834
1.000000 0.352209 0.120546
1.000000 0.341833 0.133181
1.000000 0.332219 0.147677
1.000000 0.324132 0.164797
0.000000 0.348791 0.279026
0.000000 0.348516 0.274052
0.000000 0.347570 0.267002
0.000000 0.345800 0.250492
0.000000 0.343847 0.217807
0.006622 0.341558 0.163363
0.139681 0.336156 0.131777
0.210941 0.328527 0.125063
0.238956 0.322026 0.122621
0.263188 0.315862 0.119631
0.287327 0.312444 0.115785
0.313085 0.312779 0.119234
0.362524 0.332555 0.119234
0.435065 0.366979 0.115023
0.517113 0.402228 0.109987
0.591791 0.428107 0.109194
0.659236 0.447456 0.114412
0.719600 0.461646 0.125917
0.770169 0.465217 0.116030
0.814084 0.464424 0.105318
0.852354 0.460975 0.097658
0.885039 0.455116 0.093355
0.912108 0.447059 0.092836
0.935027 0.437598 0.095308
0.954284 0.427222 0.100221
0.970764 0.416144 0.106538
0.985168 0.404700 0.114137
0.998047 0.393378 0.123110
1.000000 0.382361 0.133669
1.000000 0.372076 0.146334
1.000000 0.362737 0.161166
1.000000 0.354864 0.178775
0.000000 0.384070 0.301762
0.000000 0.383886 0.297032
0.000000 0.382879 0.290410
0.000000 0.381048 0.274205
0.000000 0.378546 0.243687
0.000000 0.376074 0.193271
0.084688 0.372351 0.129915
0.191531 0.364508 0.122652
0.245426 0.359991 0.116213
0.277012 0.357275 0.111940
0.306126 0.354498 0.107149
0.333532 0.352514 0.103059
0.360723 0.351720 0.107668
0.418830 0.376043 0.105318
0.495247 0.410651 0.097688
0.575097 0.442603 0.091096
0.643275 0.463813 0.093355
0.704005 0.478859 0.103334
0.758145 0.489662 0.120455
0.803983 0.492775 0.122957
0.843046 0.490089 0.115358
0.876677 0.484565 0.110903
0.904662 0.477028 0.109865
0.928435 0.467597 0.111788
0.948577 0.457282 0.116152
0.965972 0.446387 0.122316
0.981292 0.435187 0.130404
0.995087 0.424262 0.139895
1.000000 0.413703 0.151705
1.000000 0.403906 0.165560
1.000000 0.395331 0.181949
1.000000 0.388434 0.201175
0.000000 0.422614 0.326452
0.000000 0.422461 0.321996
0.000000 0.421942 0.315648
0.000000 0.421210 0.300908
0.000000 0.421118 0.273777
0.000000 0.421241 0.227909
0.000000 0.421881 0.143862
0.160708 0.417639 0.115724
0.253117 0.411627 0.104067
0.293065 0.407630 0.098299
0.326177 0.403143 0.092439
0.356085 0.398535 0.086091
0.382879 0.393774 0.084504
0.411994 0.392432 0.091005
0.472267 0.416205 0.086458
0.547601 0.448280 0.075349
0.622004 0.475776 0.068635
0.686030 0.494179 0.075685
0.743465 0.507347 0.092744
0.793973 0.516533 0.117372
0.836667 0.520073 0.135286
0.871763 0.515648 0.131228
0.900755 0.508446 0.130587
0.925170 0.499367 0.132540
0.945830 0.489113 0.136934
0.963592 0.478248 0.143191
0.979217 0.467079 0.151247
0.993133 0.456062 0.160922
1.000000 0.445472 0.172549
1.000000 0.435645 0.186191
1.000000 0.426978 0.202090
1.000000 0.420111 0.220981
0.000000 0.473915 0.358892
0.000000 0.473732 0.354437
0.000000 0.473121 0.348089
0.000000 0.472358 0.333928
0.000000 0.471015 0.307622
0.000000 0.470192 0.263706
0.000000 0.469551 0.190799
0.086763 0.466194 0.107698
0.230350 0.459113 0.094209
0.301152 0.452613 0.081056
0.338384 0.447608 0.073793
0.371984 0.442451 0.064302
0.402014 0.436316 0.048798
0.428901 0.430671 0.056153
0.461402 0.430549 0.066743
0.523919 0.454597 0.055055
0.596765 0.483680 0.021790
0.666133 0.507195 0.014405
0.726772 0.523278 0.048890
0.779171 0.533776 0.084016
0.824582 0.540398 0.117678
0.862547 0.543603 0.151431
0.892912 0.537133 0.150118
0.918456 0.528679 0.151980
0.940063 0.518791 0.155978
0.958648 0.508049 0.162112
0.974945 0.497108 0.170169
0.989380 0.486336 0.180056
1.000000 0.475990 0.192050
1.000000 0.466438 0.206149
1.000000 0.458198 0.222812
1.000000 0.451881 0.242588
0.000000 0.527581 0.391760
0.000000 0.528435 0.388342
0.000000 0.568536 0.406012
0.000000 0.567315 0.390539
0.000000 0.565026 0.363806
0.000000 0.562615 0.318334
0.000000 0.559869 0.245914
0.000000 0.556878 0.079072
0.201602 0.547082 0.048676
0.320653 0.536797 0.000000
0.374029 0.529259 0.000000
0.414069 0.521721 0.000000
0.448859 0.512688 0.000000
0.478676 0.502403 0.000000
0.505303 0.493507 0.000000
0.541466 0.493141 0.000000
0.605615 0.515435 0.000000
0.673182 0.538598 0.000000
0.734615 0.555596 0.000000
0.786038 0.565148 0.000000
0.828977 0.569787 0.082124
0.865568 0.571649 0.129549
0.895354 0.571405 0.173037
0.919310 0.563256 0.181460
0.939422 0.552178 0.183810
0.956756 0.540459 0.187930
0.972076 0.528588 0.193820
0.986023 0.517052 0.202213
0.998840 0.506432 0.213107
1.000000 0.496895 0.227085
1.000000 0.488899 0.243961
1.000000 0.482856 0.263859
0.000000 0.591180 0.430121
0.000000 0.596704 0.429572
0.000000 0.601953 0.426337
0.000000 0.605829 0.415564
0.000000 0.607477 0.392615
0.000000 0.606683 0.353002
0.000000 0.604456 0.288609
0.000000 0.601495 0.169924
0.107332 0.594079 0.000000
0.286381 0.583154 0.000000
0.376684 0.572717 0.000000
0.420447 0.564874 0.000000
0.458778 0.555596 0.000000
0.492012 0.545068 0.000000
0.520226 0.533867 0.000000
0.545647 0.523369 0.000000
0.583734 0.523980 0.000000
0.646418 0.544915 0.000000
0.710384 0.565240 0.000000
0.766781 0.579034 0.000000
0.813931 0.586389 0.000000
0.853758 0.589746 0.086213
0.886381 0.589960 0.139925
0.912444 0.588525 0.186862
0.933501 0.581415 0.206455
0.951690 0.570092 0.210513
0.967651 0.558465 0.216312
0.982025 0.547173 0.224613
0.995117 0.536767 0.235569
1.000000 0.527428 0.249699
1.000000 0.519707 0.266850
1.000000 0.514061 0.287236
0.000000 0.635828 0.456733
0.000000 0.640894 0.455634
0.000000 0.645808 0.452705
0.000000 0.649531 0.442420
0.000000 0.650965 0.421088
0.000000 0.649866 0.384741
0.000000 0.647486 0.327489
0.000000 0.644495 0.233524
0.000000 0.640101 0.000000
0.234745 0.629145 0.000000
0.362768 0.617487 0.000000
0.424140 0.608453 0.000000
0.466285 0.599237 0.000000
0.503319 0.588952 0.000000
0.535210 0.577173 0.000000
0.562554 0.565789 0.000000
0.587671 0.554437 0.000000
0.627985 0.556268 0.000000
0.689998 0.576440 0.000000
0.749386 0.593347 0.000000
0.799893 0.603388 0.000000
0.842527 0.608331 0.000000
0.877867 0.609339 0.098024
0.905943 0.607782 0.154971
0.928099 0.605066 0.204318
0.946380 0.599329 0.234470
0.962737 0.587793 0.239780
0.977386 0.576654 0.247532
0.990723 0.566308 0.258305
1.000000 0.557153 0.272190
1.000000 0.549645 0.289342
1.000000 0.544396 0.310002
0.000000 0.678553 0.481666
0.000000 0.683467 0.481086
0.000000 0.688197 0.478492
0.000000 0.691524 0.468208
0.000000 0.692897 0.448096
0.000000 0.691676 0.415229
0.000000 0.689326 0.364019
0.000000 0.686213 0.284825
0.000000 0.683101 0.108217
0.142000 0.673487 0.000000
0.323522 0.661646 0.000000
0.423133 0.649683 0.000000
0.469306 0.640650 0.000000
0.510063 0.630854 0.000000
0.546197 0.620081 0.000000
0.577966 0.608850 0.000000
0.607691 0.600061 0.000000
0.636530 0.591241 0.000000
0.682155 0.596521 0.000000
0.745113 0.616938 0.000000
0.799588 0.630152 0.000000
0.844358 0.636408 0.000000
0.880247 0.637263 0.010163
0.909239 0.635218 0.128115
0.931914 0.631678 0.187686
0.949645 0.628473 0.240360
0.964141 0.624994 0.282048
0.978271 0.614069 0.290288
0.991028 0.603967 0.301305
1.000000 0.595453 0.315557
1.000000 0.588708 0.333043
1.000000 0.584649 0.354437
0.000000 0.739071 0.517388
0.000000 0.741085 0.514916
0.000000 0.742367 0.510399
0.000000 0.742733 0.498878
0.000000 0.741878 0.478553
0.000000 0.739467 0.448310
0.000000 0.737240 0.400671
0.000000 0.734920 0.331762
0.000000 0.732723 0.208133
0.000000 0.727657 0.000000
0.272007 0.717067 0.000000
0.409216 0.704860 0.000000
0.478859 0.694789 0.000000
0.524620 0.685512 0.000000
0.565362 0.675074 0.000000
0.601587 0.664057 0.000000
0.633875 0.653956 0.000000
0.664820 0.644984 0.000000
0.695064 0.636164 0.000000
0.739681 0.639643 0.000000
0.793973 0.653162 0.000000
0.838712 0.659205 0.000000
0.874327 0.659297 0.000000
0.902617 0.655604 0.070375
0.926543 0.651209 0.151339
0.945617 0.646662 0.210758
0.960876 0.643671 0.265232
0.973114 0.643336 0.317082
0.986053 0.633661 0.327977
0.997589 0.625330 0.342016
1.000000 0.618982 0.359442
1.000000 0.615320 0.380896
0.000000 0.775143 0.538659
0.000000 0.776852 0.536034
0.000000 0.778347 0.532006
0.000000 0.778805 0.521080
0.000000 0.778042 0.502342
0.000000 0.775784 0.474037
0.000000 0.773281 0.430732
0.000000 0.770779 0.369055
0.000000 0.768399 0.272007
0.000000 0.766384 0.000000
0.180240 0.756222 0.000000
0.363470 0.744717 0.000000
0.473579 0.732235 0.000000
0.523064 0.723842 0.000000
0.567590 0.714717 0.000000
0.607904 0.705074 0.000000
0.644495 0.695308 0.000000
0.677882 0.687617 0.000000
0.710903 0.680018 0.000000
0.744808 0.673701 0.000000
0.786740 0.674922 0.000000
0.834073 0.682887 0.000000
0.871702 0.684047 0.000000
0.901122 0.680323 0.000000
0.918425 0.669306 0.098238
0.939300 0.663966 0.172732
0.956207 0.659449 0.232853
0.969696 0.657252 0.289464
0.980194 0.659052 0.345708
0.991669 0.652705 0.365026
1.000000 0.646876 0.382910
1.000000 0.643824 0.405005
0.000000 0.820706 0.566064
0.000000 0.822507 0.563439
0.000000 0.823331 0.559197
0.000000 0.822995 0.548547
0.000000 0.821500 0.529778
0.000000 0.818906 0.502892
0.000000 0.815885 0.463294
0.000000 0.812680 0.406897
0.000000 0.809354 0.323735
0.000000 0.806180 0.158328
0.000000 0.798032 0.000000
0.304662 0.785946 0.000000
0.443488 0.772457 0.000000
0.518822 0.761105 0.000000
0.565209 0.751034 0.000000
0.607080 0.740414 0.000000
0.645075 0.729458 0.000000
0.679377 0.720424 0.000000
0.713191 0.713039 0.000000
0.747494 0.706569 0.000000
0.783017 0.701625 0.000000
0.822080 0.700832 0.000000
0.862181 0.703578 0.000000
0.893156 0.700130 0.000000
0.916930 0.693111 0.000000
0.935698 0.684749 0.132784
0.953338 0.678584 0.202701
0.967468 0.674128 0.263096
0.978698 0.673121 0.321538
0.987182 0.677211 0.381109
0.996582 0.675532 0.410254
1.000000 0.672908 0.432471
0.000000 0.846372 0.581231
0.000000 0.847898 0.578973
0.000000 0.848692 0.575006
0.000000 0.848417 0.564996
0.000000 0.847166 0.547478
0.000000 0.845121 0.522881
0.000000 0.842649 0.487495
0.000000 0.840421 0.436469
0.000000 0.838224 0.365057
0.000000 0.836179 0.246616
0.000000 0.832731 0.000000
0.217014 0.822171 0.000000
0.395850 0.810422 0.000000
0.512230 0.797482 0.000000
0.562585 0.789059 0.000000
0.608301 0.780026 0.000000
0.650141 0.770565 0.000000
0.688350 0.761959 0.000000
0.723842 0.755367 0.000000
0.759640 0.749325 0.000000
0.795132 0.743496 0.000000
0.829252 0.736812 0.000000
0.862119 0.731136 0.000000
0.893767 0.727474 0.000000
0.918181 0.719722 0.000000
0.937163 0.710140 0.089815
0.952239 0.700526 0.172030
0.967010 0.694453 0.240208
0.978759 0.691402 0.303258
0.987640 0.693111 0.366064
0.993591 0.701595 0.431067
1.000000 0.705928 0.470314
0.000000 0.872770 0.597467
0.000000 0.873686 0.594965
0.000000 0.873838 0.590814
0.000000 0.873198 0.580926
0.000000 0.871733 0.564660
0.000000 0.869627 0.541375
0.000000 0.867033 0.509850
0.000000 0.865141 0.463020
0.000000 0.863340 0.399451
0.000000 0.861814 0.305241
0.000000 0.860288 0.008179
0.000000 0.852873 0.000000
0.332952 0.842405 0.000000
0.472114 0.830564 0.000000
0.553246 0.820279 0.000000
0.601740 0.812131 0.000000
0.646265 0.803586 0.000000
0.687587 0.795132 0.000000
0.724269 0.788815 0.000000
0.760769 0.783108 0.000000
0.797269 0.777584 0.000000
0.833127 0.771969 0.000000
0.863798 0.762356 0.000000
0.891508 0.752987 0.000000
0.916930 0.744961 0.000000
0.936706 0.734554 0.000000
0.952331 0.723690 0.137942
0.964660 0.713497 0.207889
0.977020 0.708095 0.275517
0.986755 0.707057 0.341741
0.993469 0.712001 0.408789
0.996979 0.724575 0.477760
0.000000 0.893095 0.609857
0.000000 0.893523 0.607385
0.000000 0.893645 0.603296
0.000000 0.893248 0.593957
0.000000 0.892454 0.579339
0.000000 0.891539 0.558434
0.000000 0.890806 0.530541
0.000000 0.891020 0.489326
0.000000 0.891783 0.432898
0.000000 0.892790 0.352880
0.000000 0.893919 0.210056
0.000000 0.892149 0.000000
0.252781 0.884245 0.000000
0.427558 0.874754 0.000000
0.549432 0.863676 0.000000
0.603357 0.856779 0.000000
0.651637 0.849516 0.000000
0.696315 0.842161 0.000000
0.736172 0.836027 0.000000
0.774075 0.830533 0.000000
0.811673 0.825071 0.000000
0.848722 0.819455 0.000000
0.884703 0.813443 0.000000
0.909148 0.798093 0.000000
0.929656 0.783230 0.000000
0.947692 0.770138 0.000000
0.961883 0.756893 0.129427
0.972992 0.744778 0.210971
0.981628 0.734798 0.273655
0.990051 0.731258 0.342016
0.995911 0.734218 0.412421
0.998627 0.744564 0.483833
0.000000 0.921752 0.628168
0.000000 0.921904 0.625635
0.000000 0.921721 0.621881
0.000000 0.921111 0.612970
0.000000 0.920104 0.598505
0.000000 0.918883 0.579065
0.000000 0.917479 0.552880
0.000000 0.916747 0.515343
0.000000 0.916655 0.463691
0.000000 0.916747 0.393439
0.000000 0.916838 0.284154
0.000000 0.916930 0.000000
0.087404 0.909178 0.000000
0.362341 0.899748 0.000000
