data/fiter_cube/52608991/1023025/file.cube
# Created by Adobe Lightroom plugin Export LUT (1.17.0)
# www.johnrellis.com/lightroom/exportlut.htm
# Preset: 大神蓝橙街拍_05 云集
# Color profile: C:\Program Files (x86)\Common Files\Adobe\Color\Profiles\Recommended\AdobeRGB1998.icc
LUT_3D_SIZE 8
DOMAIN_MIN 0.000000 0.000000 0.000000
DOMAIN_MAX 0.903226 0.903226 0.903226
0.112886 0.129213 0.139010
0.153170 0.126162 0.138735
0.250065 0.124392 0.137819
0.423682 0.117342 0.129885
0.644892 0.101106 0.103243
0.863157 0.062043 0.011994
0.966674 0.000000 0.000000
1.000000 0.000000 0.000000
0.104768 0.152163 0.150912
0.142458 0.148714 0.141268
0.231510 0.154055 0.142367
0.393805 0.161776 0.133730
0.613245 0.164706 0.108644
0.832151 0.153201 0.038605
0.950866 0.119478 0.000000
1.000000 0.014923 0.000000
0.083742 0.210575 0.187869
0.133883 0.207095 0.137728
0.214633 0.202213 0.142580
0.381201 0.245975 0.144442
0.617945 0.278294 0.110872
0.840452 0.286198 0.031373
0.964202 0.263066 0.000000
1.000000 0.222080 0.065187
0.000000 0.317418 0.258488
0.027039 0.312779 0.192660
0.233127 0.290105 0.126131
0.373358 0.321538 0.127321
0.675807 0.429511 0.127779
0.861692 0.431189 0.080934
0.959716 0.396551 0.084871
1.000000 0.352209 0.120546
0.000000 0.473915 0.358892
0.000000 0.471015 0.307622
0.230350 0.459113 0.094209
0.402014 0.436316 0.048798
0.596765 0.483680 0.021790
0.824582 0.540398 0.117678
0.940063 0.518791 0.155978
1.000000 0.475990 0.192050
0.000000 0.678553 0.481666
0.000000 0.692897 0.448096
0.000000 0.683101 0.108217
0.469306 0.640650 0.000000
0.607691 0.600061 0.000000
0.799588 0.630152 0.000000
0.931914 0.631678 0.187686
0.991028 0.603967 0.301305
0.000000 0.846372 0.581231
0.000000 0.847166 0.547478
0.000000 0.838224 0.365057
0.395850 0.810422 0.000000
0.650141 0.770565 0.000000
0.795132 0.743496 0.000000
0.918181 0.719722 0.000000
0.978759 0.691402 0.303258
0.000000 0.937224 0.638117
0.000000 0.935882 0.610376
0.000000 0.933562 0.488777
0.000000 0.931853 0.000000
0.614618 0.884947 0.000000
0.784298 0.866239 0.000000
0.932982 0.847288 0.000000
0.983185 0.778225 0.230503
0.104860 0.141299 0.173220
0.138064 0.136263 0.164797
0.222629 0.148074 0.142641
0.376776 0.169863 0.135653
0.596551 0.177981 0.111452
0.813748 0.166537 0.053590
0.941588 0.124056 0.000000
1.000000 0.000000 0.000000
0.101686 0.143008 0.177615
0.137209 0.156039 0.167391
0.215427 0.166842 0.151553
0.366949 0.191318 0.138399
0.583612 0.207889 0.114107
0.798520 0.204379 0.061280
0.928466 0.170230 0.000000
1.000000 0.101656 0.000000
0.082673 0.190402 0.219059
0.120424 0.212284 0.199374
0.210361 0.204990 0.156802
0.354742 0.248051 0.148684
0.579553 0.287510 0.119020
0.799344 0.300267 0.062593
0.934417 0.276799 0.000000
1.000000 0.231907 0.033631
0.000000 0.312688 0.298375
0.003113 0.310643 0.259800
0.225925 0.295445 0.150301
0.343175 0.303655 0.132418
0.586969 0.390326 0.134371
0.798367 0.414710 0.087312
0.928832 0.393378 0.065553
1.000000 0.351598 0.100191
0.000000 0.478859 0.402228
0.000000 0.472847 0.361364
0.162325 0.458381 0.133669
0.379797 0.421668 0.104768
0.543969 0.449744 0.072145
0.786587 0.522271 0.105531
0.923735 0.514672 0.143465
0.994476 0.473274 0.176913
0.000000 0.663447 0.508965
0.000000 0.661189 0.473823
0.000000 0.651881 0.259098
0.437476 0.618769 0.000000
0.585870 0.583703 0.000000
0.784268 0.622248 0.000000
0.924407 0.628656 0.172427
0.986358 0.600031 0.287877
0.000000 0.827329 0.602106
0.000000 0.821927 0.568231
0.000000 0.814725 0.416876
0.334966 0.797024 0.000000
0.632166 0.760800 0.000000
0.777554 0.730129 0.000000
0.904479 0.710750 0.000000
0.972198 0.683223 0.276127
0.000000 0.930999 0.660883
0.000000 0.930846 0.635554
0.000000 0.927977 0.528496
0.000000 0.930510 0.000000
0.609461 0.894438 0.000000
0.784939 0.869841 0.000000
0.928893 0.845762 0.000000
0.980346 0.775906 0.214267
0.052094 0.176089 0.254429
0.095705 0.170291 0.252659
0.204562 0.156008 0.231724
0.384436 0.133455 0.178988
0.598749 0.227939 0.123049
0.821775 0.265507 0.046418
0.947601 0.228794 0.000000
1.000000 0.149447 0.000000
0.070100 0.181033 0.257084
0.105287 0.185885 0.249882
0.202823 0.173190 0.232059
0.370428 0.171176 0.186007
0.587182 0.247868 0.131533
0.806516 0.285588 0.058930
0.938567 0.252445 0.000000
1.000000 0.182925 0.004089
0.050629 0.191836 0.276097
0.100771 0.196902 0.268223
0.202487 0.225925 0.239750
0.360784 0.250980 0.210941
0.598596 0.316991 0.150515
0.808072 0.355505 0.067262
0.936461 0.326848 0.007538
1.000000 0.269780 0.064271
0.000000 0.228275 0.340002
0.000000 0.238804 0.346380
0.163027 0.337835 0.299443
0.362432 0.331395 0.214267
0.605402 0.412696 0.186282
0.808865 0.453071 0.100771
0.935119 0.427710 0.089174
1.000000 0.376104 0.118685
0.000000 0.429358 0.482521
0.000000 0.462531 0.479774
0.000000 0.503014 0.395209
0.389990 0.472114 0.194949
0.569421 0.477394 0.157748
0.788815 0.540642 0.082612
0.924102 0.535790 0.160464
0.994629 0.488838 0.190219
0.000000 0.666865 0.617151
0.000000 0.688899 0.610742
0.000000 0.675471 0.493080
0.352880 0.645869 0.161074
0.583429 0.602533 0.097078
0.767880 0.619898 0.000000
0.917662 0.633539 0.150576
0.985718 0.610895 0.299382
0.000000 0.844968 0.718990
0.000000 0.841520 0.691859
0.000000 0.829953 0.582971
0.000000 0.819638 0.147402
0.604883 0.772427 0.000000
0.775967 0.740200 0.000000
0.906889 0.720668 0.000000
0.976349 0.693690 0.287053
0.000000 0.935149 0.755093
0.000000 0.933196 0.731655
0.000000 0.928588 0.643946
0.000000 0.930175 0.406683
0.547784 0.902434 0.000000
0.772274 0.874723 0.000000
0.924804 0.850431 0.000000
0.981537 0.781674 0.214298
0.000000 0.235782 0.369940
0.000000 0.235782 0.370214
0.128115 0.189731 0.371588
0.327123 0.172366 0.343145
0.586389 0.000000 0.284367
0.806302 0.179507 0.176120
0.932067 0.292882 0.000000
1.000000 0.213077 0.015839
0.000000 0.245640 0.381689
0.000000 0.247257 0.376501
0.116213 0.206760 0.374426
0.329717 0.191073 0.346563
0.587823 0.000000 0.276066
0.798978 0.216831 0.183352
0.927031 0.312261 0.000000
1.000000 0.233066 0.027344
0.000000 0.256626 0.396643
0.000000 0.258396 0.390723
0.129213 0.269963 0.368688
0.333623 0.252354 0.354528
0.593347 0.230503 0.285832
0.812070 0.320958 0.218235
0.941405 0.377905 0.072175
1.000000 0.302861 0.083742
0.000000 0.285252 0.440742
0.000000 0.287053 0.435248
0.115419 0.301366 0.415534
0.341070 0.362890 0.372259
0.584833 0.400671 0.339452
0.799069 0.436957 0.265934
0.929137 0.455116 0.129854
1.000000 0.397284 0.131563
0.000000 0.331365 0.506279
0.000000 0.337469 0.507988
0.000000 0.370825 0.521538
0.305211 0.538140 0.457954
0.579126 0.510552 0.337163
0.800778 0.564996 0.332158
0.925628 0.558587 0.222263
0.995117 0.505303 0.205692
0.000000 0.450629 0.683101
0.000000 0.495918 0.690211
0.000000 0.615320 0.670405
0.222629 0.711025 0.547936
0.587610 0.663966 0.305241
0.779904 0.645228 0.268528
0.917632 0.648859 0.236667
0.984955 0.623468 0.313115
0.000000 0.710109 0.779629
0.000000 0.735195 0.778317
0.000000 0.821042 0.769680
0.000000 0.844633 0.622705
0.542351 0.812558 0.275700
0.776333 0.773037 0.189731
0.906676 0.733272 0.128145
0.977111 0.701106 0.283482
0.000000 0.878386 0.851713
0.000000 0.896849 0.850340
0.000000 0.941588 0.823148
0.000000 0.930449 0.676143
0.321141 0.923522 0.305211
0.734035 0.885893 0.099092
0.913664 0.857664 0.000000
0.981842 0.789273 0.205631
0.000000 0.322820 0.512932
0.000000 0.323857 0.510124
0.000000 0.290135 0.515190
0.273594 0.226719 0.523796
0.524804 0.188174 0.498482
0.767971 0.000000 0.433082
0.928496 0.000000 0.285374
1.000000 0.245426 0.148623
0.000000 0.329229 0.519829
0.000000 0.331548 0.518914
0.000000 0.309178 0.516960
0.267216 0.244694 0.525414
0.523247 0.212284 0.498238
0.768765 0.000000 0.431006
0.927733 0.121920 0.292760
1.000000 0.264683 0.151949
0.000000 0.344793 0.539391
0.000000 0.347021 0.537407
0.000000 0.350103 0.519799
0.234775 0.298955 0.523583
0.516228 0.281804 0.495918
0.759091 0.190005 0.416083
0.919890 0.269291 0.311284
0.998077 0.319493 0.155306
0.000000 0.367926 0.572625
0.000000 0.367803 0.566827
0.000000 0.374456 0.551385
0.236027 0.404425 0.521080
0.523735 0.393439 0.508080
0.767422 0.367132 0.424659
0.917754 0.412818 0.350530
0.997772 0.398444 0.155978
0.000000 0.399878 0.617884
0.000000 0.401678 0.614771
0.000000 0.409857 0.599634
0.249271 0.445228 0.572168
0.520928 0.526360 0.517266
0.760647 0.558984 0.488045
0.909514 0.549279 0.403510
0.991608 0.501884 0.215152
0.000000 0.429175 0.657679
0.000000 0.431373 0.654932
0.000000 0.441627 0.642786
0.211521 0.499306 0.658381
0.469398 0.682033 0.581079
0.744869 0.656855 0.468086
0.900572 0.686275 0.491371
0.981933 0.627405 0.339940
0.000000 0.512627 0.792050
0.000000 0.516564 0.792416
0.000000 0.536461 0.796628
0.000000 0.695125 0.786770
0.453895 0.830594 0.664790
0.729854 0.790982 0.426459
0.889677 0.746761 0.388220
0.971344 0.707027 0.329442
0.000000 0.634028 0.870512
0.000000 0.656092 0.868742
0.000000 0.733608 0.862486
0.000000 0.870909 0.855131
0.443885 0.916655 0.718929
0.670649 0.895720 0.402197
0.879942 0.865232 0.289891
0.976837 0.795224 0.207309
0.000000 0.429908 0.681880
0.000000 0.431159 0.680293
0.000000 0.408789 0.676295
0.000000 0.329381 0.686763
0.466865 0.290654 0.683497
0.719265 0.246586 0.647150
0.890654 0.238773 0.565881
0.993286 0.176883 0.431403
0.000000 0.425391 0.672206
0.000000 0.425055 0.668391
0.000000 0.413062 0.662135
0.000000 0.347753 0.673579
0.454444 0.301396 0.673548
0.710658 0.264591 0.640986
0.887358 0.255711 0.562951
0.991882 0.197330 0.428717
0.000000 0.441413 0.693446
0.000000 0.440253 0.687892
0.000000 0.441138 0.672511
0.000000 0.411994 0.673091
0.443824 0.360266 0.676020
0.712886 0.339971 0.645655
0.887877 0.335424 0.566308
0.987121 0.334691 0.456611
0.000000 0.454994 0.712642
0.000000 0.454322 0.706996
0.000000 0.459144 0.694911
0.000000 0.483925 0.680476
0.438575 0.462593 0.689784
0.729488 0.467475 0.665980
0.893370 0.458198 0.582300
0.984131 0.451575 0.484840
0.000000 0.466773 0.728908
0.000000 0.468330 0.726741
0.000000 0.475990 0.718013
0.000000 0.500114 0.701350
0.401953 0.552331 0.666529
0.710445 0.568322 0.658930
0.884245 0.557885 0.581384
0.977508 0.534966 0.486763
0.000000 0.485664 0.755673
0.000000 0.489540 0.756741
0.000000 0.499855 0.750423
0.000000 0.528313 0.736965
0.428687 0.590326 0.710933
0.706722 0.694087 0.668330
0.876249 0.724239 0.657710
0.966827 0.666194 0.546380
0.000000 0.519005 0.807706
0.000000 0.522911 0.808316
0.000000 0.535729 0.804074
0.000000 0.571221 0.796017
0.473884 0.659174 0.799344
0.697139 0.822538 0.735378
0.865446 0.787564 0.632441
0.946746 0.780545 0.629267
0.000000 0.551232 0.870237
0.000000 0.554009 0.870390
0.000000 0.567346 0.871733
0.000000 0.606928 0.875944
0.408270 0.765408 0.867643
0.681544 0.898741 0.776791
0.837888 0.876585 0.580255
0.954223 0.824949 0.523644
0.000000 0.495308 0.790402
0.000000 0.497963 0.791196
0.000000 0.491646 0.787167
0.000000 0.454963 0.791257
0.313054 0.391302 0.793271
0.628107 0.395605 0.789578
0.840574 0.376532 0.754421
0.943023 0.459358 0.677882
0.000000 0.491768 0.783169
0.000000 0.494026 0.783566
0.000000 0.494606 0.777768
0.000000 0.457221 0.780606
0.293187 0.390509 0.783352
0.613977 0.391302 0.779110
0.828611 0.367926 0.743313
0.938262 0.439490 0.666499
0.000000 0.500816 0.795377
0.000000 0.501762 0.793301
0.000000 0.505486 0.784604
0.000000 0.492775 0.779263
0.281163 0.430030 0.782467
0.611994 0.440436 0.779660
0.832456 0.435828 0.750484
0.939910 0.502373 0.680201
0.000000 0.510796 0.809720
0.000000 0.510948 0.806271
0.000000 0.515190 0.797787
0.000000 0.532311 0.785183
0.333440 0.526909 0.781888
0.616144 0.523705 0.784787
0.837247 0.535210 0.762173
0.939544 0.575341 0.694453
0.000000 0.514824 0.815152
0.000000 0.515160 0.812131
0.000000 0.519799 0.804868
0.000000 0.535637 0.794644
0.245701 0.572992 0.773312
0.588220 0.587793 0.775143
0.826108 0.612116 0.758907
0.936461 0.637446 0.700099
0.000000 0.524346 0.829068
0.000000 0.526055 0.828092
0.000000 0.533745 0.824399
0.000000 0.554192 0.818051
0.263279 0.597528 0.803983
0.575433 0.680568 0.775723
0.829496 0.724758 0.774136
0.934081 0.722835 0.719875
0.000000 0.538933 0.850492
0.000000 0.541772 0.850736
0.000000 0.551476 0.848478
0.000000 0.576501 0.844053
0.322087 0.629847 0.832425
0.625605 0.722133 0.811643
0.825620 0.808469 0.781399
0.924163 0.821897 0.769436
0.000000 0.552819 0.879728
0.000000 0.554772 0.879423
0.000000 0.566308 0.881346
0.000000 0.592554 0.879240
0.323156 0.655848 0.871733
0.670192 0.770809 0.867582
0.823301 0.887694 0.828092
0.920897 0.864286 0.754299
0.000000 0.544213 0.868589
0.000000 0.546838 0.868528
0.000000 0.552789 0.863706
0.000000 0.536767 0.863920
0.355444 0.540764 0.862303
0.547845 0.522087 0.860380
0.761105 0.557153 0.857267
0.907347 0.558190 0.830320
0.000000 0.542626 0.866056
0.000000 0.545159 0.866026
0.000000 0.552514 0.861692
0.000000 0.539055 0.860502
0.344671 0.542107 0.859220
0.540520 0.522148 0.857664
0.755703 0.554589 0.854307
0.904936 0.556695 0.827695
0.000000 0.542901 0.866850
0.000000 0.544945 0.866239
0.000000 0.551019 0.860899
0.000000 0.559930 0.859648
0.321416 0.557610 0.857664
0.537194 0.544396 0.855131
0.753231 0.578424 0.852323
0.902861 0.586572 0.828519
0.000000 0.544060 0.872313
0.000000 0.546258 0.872160
0.000000 0.553033 0.868040
0.000000 0.573144 0.862089
0.267674 0.586419 0.857053
0.542992 0.590906 0.855283
0.755734 0.627497 0.852781
0.901854 0.642512 0.833188
0.000000 0.546441 0.877226
0.000000 0.548363 0.877409
0.000000 0.553277 0.874540
0.000000 0.566278 0.870146
0.073640 0.605890 0.858122
0.548119 0.649622 0.850980
0.751614 0.676539 0.851499
0.900359 0.707820 0.839200
0.000000 0.550866 0.885222
0.000000 0.551690 0.884031
0.000000 0.556115 0.880888
0.000000 0.568658 0.876677
0.000000 0.598657 0.870207
0.458412 0.677913 0.856687
0.760830 0.746365 0.855863
0.898863 0.773556 0.846220
0.000000 0.558312 0.898405
0.000000 0.559503 0.897765
0.000000 0.565057 0.895842
0.000000 0.580804 0.893462
0.000000 0.618219 0.888548
0.475105 0.696468 0.878264
0.732906 0.790555 0.854826
0.894621 0.825803 0.849424
0.000000 0.565606 0.912810
0.000000 0.566918 0.912291
0.000000 0.573175 0.911192
0.000000 0.591272 0.909514
0.000000 0.635370 0.904784
0.524285 0.723201 0.893767
0.770596 0.820615 0.877287
0.893523 0.878569 0.856596
