data/fiter_cube/52608991/1023025/file.cube
# Created by Adobe Lightroom plugin Export LUT (1.17.0)
# www.johnrellis.com/lightroom/exportlut.htm
# Preset: 大神蓝橙街拍_05 云集
# Color profile: C:\Program Files (x86)\Common Files\Adobe\Color\Profiles\Recommended\AdobeRGB1998.icc
LUT_3D_SIZE 5
DOMAIN_MIN 0.000000 0.000000 0.000000
DOMAIN_MAX 0.903226 0.903226 0.903226
0.112886 0.129213 0.139010
0.220035 0.125063 0.138430
0.533806 0.111604 0.119387
0.899413 0.038422 0.000000
1.000000 0.000000 0.000000
0.091310 0.193576 0.176669
0.193210 0.185977 0.142977
0.498482 0.238926 0.128023
0.886687 0.250095 0.000000
1.000000 0.188540 0.054780
0.000000 0.384070 0.301762
0.191531 0.364508 0.122652
0.495247 0.410651 0.097688
0.876677 0.484565 0.110903
1.000000 0.413703 0.151705
0.000000 0.739071 0.517388
0.000000 0.734920 0.331762
0.565362 0.675074 0.000000
0.838712 0.659205 0.000000
0.986053 0.633661 0.327977
0.000000 0.937224 0.638117
0.000000 0.933227 0.535607
0.438605 0.901030 0.000000
0.822782 0.862028 0.000000
0.983185 0.778225 0.230503
0.079500 0.163790 0.227420
0.182406 0.150668 0.210025
0.474769 0.202152 0.136538
0.848569 0.234775 0.019715
1.000000 0.123873 0.000000
0.080018 0.176333 0.245274
0.181704 0.203983 0.217319
0.461738 0.262913 0.155795
0.844114 0.313939 0.035798
1.000000 0.234409 0.039246
0.000000 0.343145 0.393957
0.037507 0.400153 0.327428
0.447364 0.386694 0.162264
0.836881 0.491371 0.116701
1.000000 0.428595 0.152407
0.000000 0.753262 0.643183
0.000000 0.747738 0.532097
0.539544 0.692134 0.000000
0.824765 0.659205 0.000000
0.982940 0.639521 0.329503
0.000000 0.939513 0.730312
0.000000 0.935241 0.646113
0.273136 0.922850 0.000000
0.820584 0.869627 0.000000
0.984222 0.783780 0.230625
0.000000 0.277256 0.440192
0.000000 0.252750 0.441413
0.420356 0.179232 0.419074
0.842130 0.000000 0.246921
1.000000 0.251499 0.046143
0.000000 0.294804 0.460853
0.000000 0.298009 0.441505
0.424475 0.247715 0.425513
0.833066 0.229862 0.271702
1.000000 0.303960 0.078859
0.000000 0.343297 0.531395
0.000000 0.348516 0.512688
0.425025 0.440314 0.441962
0.825650 0.494240 0.361639
0.997436 0.452766 0.164797
0.000000 0.463539 0.708736
0.000000 0.482124 0.712062
0.355810 0.743252 0.589014
0.810117 0.680446 0.355108
0.977539 0.650965 0.334234
0.000000 0.773342 0.858213
0.000000 0.840696 0.854002
0.274784 0.924041 0.694118
0.756588 0.881712 0.236698
0.978393 0.789761 0.179934
0.000000 0.441260 0.700343
0.000000 0.435340 0.696895
0.224918 0.318669 0.711360
0.750973 0.267643 0.673274
0.980682 0.262150 0.503868
0.000000 0.448402 0.707118
0.000000 0.449836 0.696193
0.183810 0.359716 0.703334
0.741970 0.330327 0.668452
0.977234 0.308263 0.499153
0.000000 0.466773 0.732113
0.000000 0.470283 0.722194
0.188846 0.504356 0.683955
0.725032 0.492500 0.664271
0.969635 0.499336 0.531151
0.000000 0.505516 0.789059
0.000000 0.511955 0.780819
0.237369 0.567407 0.760037
0.741787 0.726986 0.699733
0.954253 0.709621 0.610101
0.000000 0.548699 0.867308
0.000000 0.560388 0.869627
0.195651 0.639307 0.876310
0.732082 0.896239 0.794461
0.945342 0.834806 0.590753
0.000000 0.544213 0.868589
0.000000 0.551293 0.864927
0.138888 0.533898 0.863584
0.604639 0.528985 0.859617
0.907347 0.558190 0.830320
0.000000 0.543755 0.867735
0.000000 0.550561 0.864286
0.018982 0.548730 0.859892
0.596704 0.544945 0.855467
0.904265 0.581506 0.829374
0.000000 0.544945 0.874479
0.000000 0.549218 0.871489
0.000000 0.584710 0.858213
0.583764 0.610254 0.850462
0.900603 0.671931 0.835233
0.000000 0.554223 0.890562
0.000000 0.558526 0.887724
0.000000 0.586938 0.880278
0.533471 0.704311 0.856474
0.897490 0.786038 0.846555
0.000000 0.565606 0.912810
0.000000 0.570825 0.911467
0.000000 0.608820 0.907744
0.600153 0.749752 0.889952
0.893523 0.878569 0.856596
