data/fiter_cube/63078869/1022673/file.cube
# Created by Adobe Lightroom plugin Export LUT (1.17.0)
# www.johnrellis.com/lightroom/exportlut.htm
# Preset: 暗调胶片街拍_02 云集
# Color profile: C:\Program Files (x86)\Common Files\Adobe\Color\Profiles\Recommended\AdobeRGB1998.icc
LUT_3D_SIZE 32
DOMAIN_MIN 0.0 0.0 0.0
DOMAIN_MAX 1.0 1.0 1.0
0.059022 0.070924 0.072145
0.059022 0.070924 0.072145
0.063172 0.071107 0.072389
0.077333 0.070405 0.072450
0.092927 0.072328 0.072511
0.106325 0.074861 0.072847
0.119814 0.077821 0.073060
0.135073 0.081392 0.072663
0.151705 0.085328 0.072724
0.170352 0.090059 0.071717
0.191226 0.096223 0.071901
0.214542 0.102815 0.071870
0.239536 0.110872 0.071839
0.266575 0.119844 0.072023
0.294926 0.129519 0.071412
0.324315 0.139620 0.069917
0.369482 0.155398 0.065248
0.410986 0.169894 0.058961
0.450202 0.183841 0.045441
0.489631 0.197513 0.025879
0.529229 0.211154 0.002289
0.568444 0.224155 0.000000
0.604913 0.235904 0.000000
0.638483 0.246494 0.000000
0.670008 0.255894 0.000000
0.700465 0.264561 0.000000
0.731563 0.273228 0.000000
0.763424 0.281895 0.000000
0.795865 0.290349 0.000000
0.828336 0.298741 0.000000
0.859800 0.307164 0.000000
0.889769 0.315892 0.000000
0.059022 0.070924 0.072145
0.059022 0.070924 0.072145
0.063783 0.071046 0.072023
0.077485 0.072328 0.072267
0.092958 0.074617 0.072663
0.106050 0.077119 0.073030
0.119722 0.079286 0.072938
0.134340 0.082612 0.072938
0.150698 0.086580 0.072663
0.169131 0.091371 0.072358
0.189609 0.097078 0.072297
0.212406 0.103639 0.072328
0.236973 0.111452 0.072389
0.263584 0.120027 0.072358
0.291325 0.129549 0.071565
0.321172 0.139773 0.070405
0.363653 0.154513 0.066194
0.403204 0.168338 0.060487
0.441077 0.181552 0.050233
0.479622 0.195224 0.031128
0.518700 0.208652 0.010193
0.557610 0.221500 0.000000
0.594629 0.233433 0.000000
0.628901 0.244114 0.000000
0.661097 0.253910 0.000000
0.692226 0.262882 0.000000
0.723934 0.271794 0.000000
0.756374 0.280522 0.000000
0.789517 0.289250 0.000000
0.822721 0.297765 0.000000
0.854917 0.306249 0.000000
0.885466 0.314916 0.000000
0.059266 0.071626 0.072786
0.059602 0.072328 0.073060
0.064393 0.072877 0.072572
0.077882 0.074922 0.072419
0.092958 0.077180 0.072816
0.105837 0.079286 0.072847
0.119234 0.081453 0.073121
0.133761 0.084443 0.072816
0.150210 0.088289 0.072541
0.168215 0.092866 0.072267
0.188540 0.098543 0.072572
0.210971 0.104921 0.072999
0.235508 0.112490 0.072755
0.261845 0.121187 0.072755
0.289342 0.130587 0.072358
0.320073 0.140963 0.070741
0.360815 0.154879 0.066682
0.399084 0.168582 0.061433
0.436225 0.181399 0.052003
0.474250 0.194736 0.034516
0.513268 0.208011 0.013092
0.552270 0.221195 0.000000
0.589532 0.233036 0.000000
0.624170 0.243931 0.000000
0.656580 0.253666 0.000000
0.687984 0.262821 0.000000
0.719905 0.271763 0.000000
0.752682 0.280522 0.000000
0.786221 0.289281 0.000000
0.819791 0.297917 0.000000
0.852323 0.306401 0.000000
0.883146 0.315007 0.000000
0.061524 0.077211 0.076448
0.062379 0.077424 0.077058
0.062715 0.078462 0.076967
0.077211 0.082368 0.074250
0.093538 0.082582 0.072999
0.106386 0.084230 0.073060
0.119509 0.085969 0.073030
0.134005 0.088441 0.073091
0.150057 0.091920 0.072877
0.168063 0.096559 0.072938
0.187961 0.101869 0.073274
0.210239 0.108370 0.073335
0.234409 0.115846 0.073457
0.260380 0.124025 0.073915
0.287755 0.133120 0.073213
0.319707 0.144045 0.071290
0.358312 0.157229 0.067414
0.394781 0.169986 0.062531
0.430274 0.182376 0.054475
0.466835 0.195163 0.039704
0.504570 0.208042 0.019135
0.542992 0.220859 0.000000
0.581048 0.233036 0.000000
0.617426 0.244419 0.000000
0.651881 0.254856 0.000000
0.685206 0.264408 0.000000
0.718502 0.273625 0.000000
0.752132 0.282811 0.000000
0.785885 0.291600 0.000000
0.819272 0.299962 0.000000
0.851347 0.308324 0.000000
0.881651 0.316655 0.000000
0.065095 0.084138 0.081300
0.065797 0.084352 0.082185
0.066468 0.084565 0.083070
0.069093 0.088685 0.080507
0.089082 0.091371 0.076448
0.105989 0.091646 0.073396
0.119539 0.092012 0.073457
0.133791 0.094331 0.073548
0.149508 0.097383 0.073701
0.167178 0.101808 0.074495
0.186923 0.106935 0.074830
0.208835 0.113039 0.074983
0.232547 0.120180 0.075166
0.258427 0.128573 0.075227
0.285924 0.137514 0.074128
0.319921 0.148959 0.072114
0.357061 0.161685 0.068574
0.393042 0.174197 0.063508
0.428260 0.186313 0.057313
0.464271 0.198795 0.041871
0.501274 0.211429 0.020935
0.539117 0.223819 0.000000
0.576959 0.236179 0.000000
0.613642 0.247379 0.000000
0.648493 0.257755 0.000000
0.682368 0.267491 0.000000
0.715877 0.276799 0.000000
0.749569 0.285679 0.000000
0.783383 0.294377 0.000000
0.816831 0.302861 0.000000
0.849058 0.311070 0.000000
0.879576 0.319188 0.000000
0.068696 0.091493 0.087160
0.069490 0.091371 0.087739
0.069825 0.091341 0.088289
0.070497 0.092744 0.088167
0.079133 0.097902 0.084321
0.099245 0.100191 0.080110
0.118959 0.101411 0.075257
0.134676 0.102144 0.075410
0.150240 0.104952 0.075929
0.167697 0.109041 0.076326
0.187503 0.113985 0.076600
0.209140 0.120119 0.076997
0.232914 0.127169 0.077119
0.258854 0.135195 0.076814
0.286137 0.143893 0.075441
0.322423 0.156344 0.073091
0.358495 0.168429 0.069429
0.393957 0.180819 0.064393
0.429023 0.192721 0.058045
0.465278 0.205142 0.043336
0.502647 0.217746 0.021668
0.541100 0.230381 0.000000
0.639734 0.264103 0.000000
0.671931 0.273259 0.000000
0.702144 0.281590 0.000000
0.731746 0.289220 0.000000
0.761013 0.296666 0.000000
0.790219 0.303899 0.000000
0.819242 0.310918 0.000000
0.847715 0.318029 0.000000
0.874876 0.325170 0.000000
0.900542 0.332586 0.013031
0.074891 0.098909 0.094575
0.075257 0.098848 0.094850
0.075898 0.098756 0.095613
0.076875 0.098604 0.096651
0.077150 0.102846 0.093660
0.090608 0.108400 0.090669
0.112367 0.111604 0.086275
0.136202 0.115541 0.079316
0.155276 0.117128 0.079347
0.175051 0.120851 0.079225
0.195743 0.126131 0.079896
0.218753 0.132448 0.079286
0.243290 0.139559 0.079072
0.269566 0.147616 0.078126
0.301793 0.158206 0.076112
0.338872 0.170901 0.072663
0.374945 0.183200 0.068208
0.410193 0.195163 0.062867
0.446326 0.207340 0.053803
0.484932 0.220432 0.035340
0.526543 0.234440 0.010559
0.570459 0.248722 0.000000
0.613672 0.262364 0.000000
0.653590 0.274266 0.000000
0.690120 0.284550 0.000000
0.723262 0.293309 0.000000
0.754513 0.301305 0.000000
0.784604 0.308568 0.000000
0.814267 0.315648 0.000000
0.842893 0.322576 0.000000
0.870420 0.329320 0.000000
0.896422 0.336553 0.005982
0.079225 0.105409 0.100465
0.079591 0.105348 0.100710
0.079927 0.105318 0.100954
0.080598 0.104952 0.101686
0.080690 0.106172 0.101808
0.084474 0.111788 0.098299
0.101442 0.117525 0.095277
0.124147 0.121981 0.091402
0.151186 0.128420 0.084291
0.172671 0.131716 0.083467
0.196750 0.135897 0.082429
0.219486 0.142092 0.081819
0.243931 0.148989 0.081270
0.270817 0.157015 0.079866
0.306188 0.169223 0.077272
0.340398 0.180636 0.074006
0.374304 0.192081 0.069734
0.408331 0.203372 0.064515
0.443305 0.215000 0.056764
0.480964 0.227665 0.040101
0.521691 0.241276 0.015259
0.564904 0.255497 0.000000
0.607630 0.268742 0.000000
0.647364 0.280522 0.000000
0.683894 0.290745 0.000000
0.717189 0.299443 0.000000
0.748714 0.307103 0.000000
0.779263 0.314397 0.000000
0.809384 0.321386 0.000000
0.838529 0.328222 0.000000
0.866453 0.334966 0.000000
0.892882 0.341985 0.003174
0.083406 0.112337 0.106325
0.083772 0.112062 0.106569
0.084199 0.111788 0.106600
0.084443 0.111482 0.107271
0.085420 0.111116 0.107942
0.084627 0.115175 0.104891
0.093324 0.121340 0.102968
0.112917 0.127932 0.100099
0.137728 0.133516 0.096071
0.167941 0.142702 0.088594
0.193088 0.147799 0.086549
0.220920 0.153201 0.084474
0.246586 0.160067 0.083070
0.279026 0.171206 0.081239
0.311955 0.182223 0.078584
0.344274 0.192905 0.075257
0.376867 0.203494 0.070863
0.409918 0.214206 0.065431
0.444007 0.225559 0.058686
0.481056 0.237766 0.042908
0.521050 0.251011 0.018372
0.563409 0.264744 0.000000
0.605432 0.277806 0.000000
0.644709 0.289281 0.000000
0.680903 0.299138 0.000000
0.714046 0.307561 0.000000
0.745541 0.315160 0.000000
0.776150 0.322148 0.000000
0.806271 0.328954 0.000000
0.835447 0.335515 0.000000
0.863371 0.341894 0.000000
0.889860 0.348516 0.006134
0.087922 0.119173 0.111971
0.087892 0.118929 0.112215
0.088258 0.118685 0.112459
0.088533 0.118410 0.112886
0.088960 0.117708 0.113161
0.089448 0.118502 0.113283
0.090761 0.124727 0.109255
0.103243 0.131716 0.107393
0.125277 0.138369 0.104433
0.152224 0.146059 0.100618
0.185763 0.157656 0.092714
0.214511 0.164797 0.088808
0.249607 0.174990 0.085969
0.285466 0.185672 0.082734
0.317479 0.196231 0.080079
0.349798 0.206851 0.076448
0.382666 0.217624 0.071687
0.415930 0.228367 0.066255
0.450019 0.239475 0.059205
0.486152 0.251194 0.043122
0.524376 0.263523 0.019776
0.564141 0.276097 0.000000
0.603357 0.287816 0.000000
0.640497 0.298344 0.000000
0.675410 0.307561 0.000000
0.708217 0.315679 0.000000
0.740230 0.323247 0.000000
0.771695 0.330388 0.000000
0.802762 0.337316 0.000000
0.832944 0.343908 0.000000
0.861692 0.350378 0.000000
0.888731 0.356970 0.018891
0.091890 0.126131 0.117891
0.091951 0.125734 0.117922
0.092287 0.125704 0.117922
0.092622 0.125246 0.118349
0.092958 0.124605 0.118807
0.093721 0.123476 0.119265
0.093050 0.128023 0.116884
0.098665 0.135256 0.114015
0.114748 0.143130 0.111971
0.139254 0.150423 0.109285
0.169162 0.160403 0.104799
0.209598 0.177218 0.096345
0.245731 0.189090 0.090639
0.282536 0.200046 0.086732
0.322057 0.211185 0.081697
0.354040 0.221439 0.077668
0.386175 0.231571 0.072999
0.418708 0.242008 0.067231
0.452064 0.252659 0.060365
0.487465 0.263859 0.046174
0.525048 0.275944 0.022766
0.564416 0.288151 0.000000
0.603357 0.299748 0.000000
0.640070 0.309911 0.000000
0.674617 0.318791 0.000000
0.706935 0.326543 0.000000
0.738399 0.333654 0.000000
0.769436 0.340337 0.000000
0.800229 0.346868 0.000000
0.830259 0.353216 0.000000
0.859007 0.359442 0.000000
0.886137 0.365789 0.026459
0.096315 0.133547 0.123720
0.096345 0.133364 0.123751
0.096376 0.132967 0.123964
0.096773 0.132570 0.123995
0.097139 0.131746 0.124453
0.097597 0.130739 0.124697
0.097566 0.131136 0.124483
0.097536 0.138430 0.120577
0.108064 0.146792 0.119112
0.127932 0.156252 0.116945
0.156771 0.165866 0.115236
0.193179 0.180758 0.110109
0.261265 0.219089 0.101411
0.308537 0.237156 0.090913
0.352300 0.251225 0.084199
0.397192 0.264012 0.075990
0.435645 0.274327 0.067933
0.467750 0.283177 0.060822
0.500084 0.292027 0.048402
0.534081 0.301457 0.028473
0.569177 0.311192 0.006012
0.603998 0.320287 0.000000
0.637110 0.328405 0.000000
0.669062 0.335760 0.000000
0.699641 0.342290 0.000000
0.729366 0.348272 0.000000
0.758206 0.353826 0.000000
0.786557 0.359106 0.000000
0.814450 0.364294 0.000000
0.841825 0.369390 0.000000
0.868009 0.374609 0.021180
0.893187 0.380224 0.069276
0.102052 0.143526 0.131777
0.102083 0.143343 0.131807
0.101869 0.143038 0.131838
0.102083 0.142153 0.131746
0.101778 0.140963 0.131655
0.102205 0.139345 0.131441
0.102388 0.137545 0.131258
0.101717 0.142428 0.129610
0.106172 0.151980 0.126772
0.121736 0.163546 0.126101
0.148501 0.177462 0.124819
0.183536 0.189639 0.123598
0.228489 0.211276 0.117128
0.283238 0.238407 0.104372
0.334417 0.259495 0.091005
0.379370 0.274601 0.083345
0.424567 0.287694 0.073915
0.467536 0.298314 0.063783
0.499428 0.306798 0.053315
0.532464 0.315526 0.034974
0.566857 0.324712 0.012299
0.601038 0.333410 0.000000
0.633631 0.341039 0.000000
0.665156 0.347967 0.000000
0.695308 0.354101 0.000000
0.724697 0.359686 0.000000
0.753536 0.364965 0.000000
0.781918 0.369940 0.000000
0.810056 0.374884 0.000000
0.837797 0.379889 0.000000
0.864439 0.384985 0.030701
0.890043 0.390387 0.072724
0.106020 0.151369 0.137636
0.105989 0.151186 0.137819
0.106142 0.150698 0.137697
0.106081 0.149905 0.137606
0.106172 0.148592 0.137392
0.106020 0.146975 0.137209
0.106813 0.145693 0.137453
0.107027 0.145998 0.137423
0.106508 0.155673 0.134005
0.116274 0.166690 0.133364
0.136294 0.180117 0.132570
0.167575 0.196048 0.130831
0.205325 0.208530 0.129885
0.253544 0.233341 0.121645
0.309514 0.261418 0.107424
0.362249 0.283452 0.090455
0.406165 0.297948 0.082582
0.450477 0.310582 0.072541
0.495583 0.321752 0.059663
0.531975 0.330724 0.041016
0.566003 0.339574 0.019501
0.599817 0.348028 0.000458
0.632166 0.355261 0.000000
0.663508 0.361822 0.000000
0.693507 0.367712 0.000000
0.722774 0.372992 0.000000
0.751492 0.377813 0.000000
0.779873 0.382574 0.000000
0.808042 0.387182 0.000000
0.835874 0.392035 0.004700
0.862638 0.396826 0.049500
0.888396 0.402136 0.079774
0.111055 0.160494 0.144747
0.111025 0.160494 0.144900
0.111116 0.160037 0.144930
0.111055 0.159304 0.144839
0.111330 0.158206 0.144778
0.111208 0.156680 0.144625
0.111421 0.154818 0.144472
0.111513 0.152621 0.144015
0.111299 0.158114 0.143069
0.113893 0.169192 0.139681
0.127840 0.182071 0.139620
0.152193 0.197391 0.138643
0.187625 0.215457 0.136690
0.227726 0.228092 0.135958
0.278965 0.255772 0.126009
0.335149 0.284215 0.110140
0.389502 0.307225 0.090028
0.433021 0.321386 0.081147
0.477790 0.334234 0.070466
0.523796 0.346014 0.054932
0.566369 0.355779 0.026459
0.599451 0.363500 0.007538
0.631220 0.370397 0.000000
0.662165 0.376501 0.000000
0.692134 0.381994 0.000000
0.721736 0.387152 0.000000
0.751217 0.392187 0.000000
0.780606 0.397070 0.000000
0.809781 0.402014 0.001038
0.838315 0.406958 0.037385
0.865599 0.411963 0.071717
0.891600 0.417334 0.096620
0.116823 0.171389 0.153109
0.116762 0.171389 0.153262
0.116884 0.170840 0.153323
0.116701 0.170016 0.152956
0.116579 0.168643 0.152804
0.116640 0.166812 0.152377
0.116670 0.164797 0.152102
0.116457 0.162203 0.151461
0.116182 0.161105 0.150668
0.116213 0.171878 0.148470
0.123384 0.184634 0.146395
0.141512 0.199374 0.146181
0.169528 0.216068 0.145144
0.208560 0.235233 0.142458
0.249393 0.246738 0.141665
0.301640 0.276158 0.130007
0.358129 0.304906 0.113039
0.414038 0.329137 0.090425
0.460090 0.344976 0.079866
0.507378 0.359350 0.067720
0.555840 0.372320 0.048432
0.602930 0.382300 0.018494
0.635462 0.388830 0.004242
0.666316 0.394659 0.000000
0.696193 0.399695 0.000000
0.725795 0.404608 0.000000
0.755215 0.409277 0.000000
0.784390 0.413855 0.010132
0.813016 0.418250 0.036805
0.840665 0.422553 0.064546
0.866972 0.426947 0.085389
0.891966 0.431678 0.107790
0.121859 0.181460 0.160708
0.121920 0.181186 0.160739
0.121889 0.180667 0.160525
0.121736 0.179538 0.160342
0.121523 0.178134 0.159792
0.121431 0.176150 0.159274
0.121035 0.173648 0.158541
0.120577 0.170718 0.157565
0.120211 0.167422 0.156435
0.120027 0.172366 0.155581
0.120729 0.185153 0.151827
0.133364 0.199161 0.152255
0.155367 0.215488 0.151827
0.187259 0.233982 0.150668
0.229221 0.254856 0.147433
0.271244 0.266636 0.146517
0.324865 0.297276 0.133852
0.381964 0.326574 0.116304
0.439063 0.351843 0.092470
0.488350 0.369360 0.077760
0.536889 0.384283 0.065187
0.585199 0.396826 0.043641
0.630396 0.405432 0.019165
0.666377 0.411200 0.009552
0.696254 0.416022 0.007477
0.725978 0.420661 0.009308
0.755581 0.425238 0.018189
0.784939 0.429603 0.035615
0.813626 0.433875 0.061463
0.841306 0.438025 0.078096
0.867643 0.442206 0.097108
0.892699 0.446937 0.119814
0.127199 0.191775 0.168460
0.127199 0.191653 0.168490
0.131319 0.199191 0.174319
0.131197 0.197726 0.173831
0.130770 0.195804 0.173129
0.130007 0.193057 0.172152
0.129519 0.189639 0.170687
0.128542 0.185580 0.169039
0.127596 0.181430 0.167208
0.126314 0.177981 0.165011
0.126894 0.190616 0.164096
0.131868 0.205631 0.161227
0.149203 0.222293 0.161807
0.176272 0.241215 0.161440
0.213413 0.262577 0.159701
0.259831 0.285252 0.156252
0.305852 0.299107 0.154665
0.362280 0.331670 0.140444
0.421668 0.361761 0.120729
0.480934 0.387610 0.094911
0.532738 0.405585 0.075654
0.581170 0.419165 0.064088
0.626368 0.428809 0.050721
0.668421 0.434791 0.038972
0.705196 0.437964 0.037751
0.732509 0.440864 0.043153
0.759670 0.443763 0.051972
0.787106 0.446845 0.063081
0.814664 0.450233 0.074983
0.841794 0.453895 0.089876
0.867735 0.457771 0.108644
0.892576 0.462196 0.130526
0.133516 0.204349 0.177737
0.134005 0.204929 0.178378
0.134493 0.205661 0.179049
0.134646 0.205386 0.179416
0.134676 0.204074 0.179080
0.134279 0.201541 0.178225
0.133608 0.198306 0.176822
0.132570 0.194125 0.175143
0.131472 0.189609 0.172946
0.130129 0.184482 0.170504
0.129580 0.188937 0.169467
0.130587 0.203372 0.166720
0.140749 0.219364 0.166232
0.161440 0.237339 0.166781
0.191806 0.257725 0.166140
0.231724 0.280400 0.164065
0.278538 0.302312 0.160800
0.327031 0.318669 0.158724
0.384802 0.352209 0.144289
0.445167 0.383093 0.124269
0.505791 0.409705 0.097444
0.560876 0.429450 0.074678
0.608667 0.442329 0.065370
0.652888 0.450935 0.059937
0.693568 0.456062 0.058137
0.732235 0.458961 0.062318
0.761379 0.461402 0.068391
0.788693 0.464271 0.076570
0.815976 0.467353 0.087892
0.842649 0.470558 0.102785
0.868193 0.474067 0.120363
0.892943 0.478370 0.142031
0.138216 0.213779 0.184604
0.138643 0.214572 0.185214
0.138949 0.214939 0.185855
0.139162 0.214694 0.186099
0.139010 0.213260 0.185794
0.138705 0.210727 0.184878
0.137789 0.207279 0.183352
0.136568 0.203006 0.181308
0.135470 0.198276 0.179110
0.133944 0.192996 0.176455
0.132296 0.187533 0.173373
0.132998 0.201022 0.173465
0.135805 0.216953 0.170138
0.151095 0.234409 0.171389
0.175326 0.253971 0.171786
0.208957 0.276005 0.171176
0.251835 0.300267 0.168917
0.300267 0.322423 0.166079
0.351141 0.341070 0.163302
0.410681 0.375799 0.148318
0.472358 0.407355 0.127871
0.534630 0.434852 0.100893
0.591211 0.454627 0.075074
0.637354 0.466041 0.070161
0.679774 0.473274 0.068910
0.719814 0.477790 0.072175
0.757717 0.480171 0.078950
0.789731 0.481819 0.088685
0.816526 0.484443 0.099947
0.842679 0.487190 0.114351
0.867918 0.490364 0.131838
0.892454 0.494453 0.152987
0.142885 0.223850 0.191623
0.143252 0.224582 0.192325
0.143893 0.225101 0.193027
0.143954 0.224704 0.193179
0.143679 0.223239 0.192782
0.143130 0.220584 0.191714
0.142245 0.216922 0.189944
0.141024 0.212345 0.187900
0.139681 0.207584 0.185611
0.137911 0.201816 0.182681
0.136202 0.195743 0.179324
0.135439 0.198672 0.178103
0.136538 0.213748 0.176730
0.143771 0.231083 0.175204
0.162753 0.250370 0.176577
0.190585 0.272129 0.177157
0.228244 0.296727 0.176699
0.275578 0.324285 0.174685
0.327733 0.348547 0.173159
0.383764 0.371923 0.170626
0.448219 0.410101 0.155581
0.513939 0.443854 0.135042
0.578027 0.471107 0.108888
0.634424 0.489052 0.083345
0.679316 0.498665 0.085451
0.721157 0.504875 0.090822
0.760525 0.508476 0.100313
0.797055 0.510033 0.112978
0.829801 0.510155 0.128359
0.854215 0.512108 0.142947
0.877928 0.514672 0.160769
0.900816 0.518608 0.182376
0.150362 0.239536 0.202853
0.150454 0.239628 0.203037
0.150668 0.239414 0.203159
0.150332 0.238346 0.202762
0.149752 0.236088 0.201846
0.148959 0.232975 0.200381
0.147860 0.229099 0.198642
0.146578 0.224338 0.196323
0.145052 0.219089 0.193698
0.143282 0.213413 0.190707
0.141360 0.206912 0.187259
0.138827 0.199893 0.183200
0.139712 0.213230 0.184024
0.141543 0.230747 0.181247
0.155001 0.250095 0.182437
0.178286 0.272160 0.184085
0.210727 0.296941 0.184909
0.253025 0.324498 0.184604
0.304906 0.354925 0.182559
0.359899 0.379583 0.181918
0.419104 0.405280 0.178561
0.484627 0.443214 0.162936
0.549676 0.474952 0.142519
0.609430 0.497688 0.118135
0.663874 0.513024 0.091768
0.707240 0.521324 0.097505
0.748501 0.526848 0.106416
0.786954 0.530083 0.118929
0.822110 0.531243 0.135531
0.853361 0.530877 0.154788
0.878111 0.532647 0.174105
0.900572 0.536431 0.195468
0.155703 0.251377 0.211032
0.155795 0.251438 0.211215
0.155917 0.251438 0.211398
0.155550 0.250156 0.210849
0.155154 0.248020 0.209964
0.154269 0.244572 0.208316
0.152926 0.240391 0.206332
0.151522 0.235477 0.203861
0.149783 0.229801 0.200992
0.147921 0.223850 0.197971
0.145602 0.217075 0.194217
0.143191 0.209384 0.189731
0.141817 0.210117 0.187747
0.143587 0.227054 0.188113
0.148440 0.246616 0.185916
0.166598 0.268376 0.188418
0.193973 0.292973 0.190524
0.230838 0.320562 0.191592
0.277653 0.351324 0.191531
0.334264 0.384955 0.189700
0.392126 0.410224 0.190524
0.455268 0.439155 0.187076
0.523064 0.477607 0.172000
0.587304 0.507164 0.152956
0.635309 0.519585 0.127321
0.689113 0.533684 0.099886
0.732357 0.541527 0.108736
0.772915 0.546685 0.121035
0.810147 0.549584 0.136751
0.843778 0.550622 0.157107
0.873838 0.551232 0.180941
0.899107 0.553429 0.206363
0.163821 0.269444 0.223239
0.163973 0.269749 0.223575
0.164126 0.269566 0.223789
0.163668 0.267857 0.223026
0.162875 0.265110 0.221561
0.161593 0.261326 0.219791
0.160006 0.256229 0.217197
0.158145 0.250523 0.214206
0.156008 0.243992 0.210758
0.153689 0.236973 0.206851
0.151003 0.229160 0.202487
0.148287 0.221012 0.197818
0.144839 0.212131 0.192477
0.145632 0.223941 0.193332
0.147890 0.242649 0.192142
0.157748 0.263890 0.191745
0.179385 0.287236 0.194430
0.210391 0.313817 0.196414
0.251072 0.343725 0.197604
0.301884 0.377203 0.197726
0.362799 0.413519 0.196201
0.422492 0.438544 0.198581
0.487648 0.469032 0.194705
0.554803 0.505394 0.179812
0.614252 0.530175 0.161746
0.666346 0.545312 0.141360
0.719356 0.557794 0.117098
0.761593 0.564446 0.125460
0.800198 0.568505 0.141329
0.835630 0.571008 0.161563
0.867124 0.572564 0.185855
0.894957 0.574456 0.213962
0.169680 0.283207 0.232425
0.170047 0.283635 0.232883
0.169924 0.283177 0.232670
0.169558 0.281712 0.232120
0.168612 0.278691 0.230686
0.167391 0.274815 0.228672
0.165927 0.269871 0.226200
0.163973 0.264073 0.223239
0.161990 0.257420 0.219699
0.159426 0.250278 0.215854
0.156680 0.242100 0.211337
0.153750 0.233585 0.206455
0.150362 0.224521 0.201053
0.148013 0.221744 0.197513
0.150362 0.240391 0.199496
0.153292 0.262181 0.196658
0.170260 0.286107 0.199832
0.196719 0.313207 0.203098
0.232944 0.343633 0.205753
0.279332 0.377661 0.207523
0.335576 0.414740 0.208103
0.401831 0.454047 0.206699
0.463661 0.477607 0.211460
0.531029 0.508873 0.207462
0.595605 0.541100 0.194034
0.651453 0.561425 0.178592
0.700862 0.573449 0.160800
0.753079 0.584283 0.140841
0.795071 0.590265 0.150698
0.831907 0.594018 0.172000
0.864469 0.596460 0.197360
0.893126 0.599176 0.226719
0.177401 0.301091 0.244236
0.177462 0.301213 0.244388
0.177401 0.300572 0.244205
0.176852 0.298741 0.243229
0.175753 0.295384 0.241489
0.174350 0.290929 0.239261
0.172457 0.285710 0.236576
0.170382 0.279332 0.233249
0.168154 0.272374 0.229526
0.165713 0.264897 0.225498
0.162844 0.256535 0.221012
0.159579 0.247684 0.215915
0.156130 0.238010 0.210239
0.152193 0.227726 0.203952
0.152651 0.237797 0.204623
0.155612 0.259159 0.205570
0.162814 0.283726 0.204074
0.184604 0.310826 0.208316
0.216098 0.341497 0.212192
0.257572 0.375616 0.215457
0.309117 0.413031 0.217624
0.370520 0.453010 0.218540
0.441260 0.493935 0.217411
0.504082 0.514580 0.224857
0.571038 0.544915 0.221103
0.631678 0.572107 0.209659
0.684901 0.589014 0.196048
0.732448 0.598596 0.179873
0.783108 0.607752 0.164645
0.823819 0.612848 0.175418
0.857908 0.616358 0.201419
0.887877 0.619654 0.231205
0.185214 0.319280 0.256016
0.185245 0.319188 0.256016
0.185031 0.318639 0.255863
0.184421 0.316747 0.254948
0.183444 0.313725 0.253452
0.182223 0.309911 0.251560
0.180789 0.305516 0.249454
0.179294 0.300328 0.247074
0.177584 0.294591 0.244327
0.175509 0.287755 0.240940
0.173159 0.280339 0.237095
0.170199 0.271611 0.232425
0.166781 0.261875 0.226902
0.162814 0.250950 0.220401
0.159121 0.243473 0.214786
0.162753 0.266728 0.219211
0.166690 0.293797 0.219028
0.181765 0.323796 0.221012
0.210971 0.357214 0.226658
0.250492 0.394202 0.231846
0.300328 0.434394 0.236362
0.360388 0.476844 0.239719
0.429480 0.519921 0.241520
0.504295 0.558679 0.242405
0.569726 0.575769 0.254490
0.632746 0.600214 0.253391
0.689693 0.621363 0.245426
0.740108 0.633631 0.234623
0.783566 0.638666 0.222080
0.828397 0.643030 0.212650
0.863920 0.645594 0.226596
0.892882 0.648951 0.257298
0.200656 0.353704 0.278721
0.200534 0.353368 0.278630
0.200381 0.352575 0.278233
0.199466 0.350286 0.277134
0.198062 0.346502 0.275120
0.196506 0.341802 0.272679
0.194553 0.336370 0.269902
0.192447 0.329839 0.266606
0.189944 0.322820 0.263066
0.187259 0.314794 0.258793
0.184146 0.305791 0.254032
0.180606 0.295964 0.248753
0.176761 0.284916 0.242374
0.172305 0.272831 0.235325
