data/fiter_cube/63078869/1022673/file.cube
# Created by Adobe Lightroom plugin Export LUT (1.17.0)
# www.johnrellis.com/lightroom/exportlut.htm
# Preset: 暗调胶片街拍_02 云集
# Color profile: C:\Program Files (x86)\Common Files\Adobe\Color\Profiles\Recommended\AdobeRGB1998.icc
LUT_3D_SIZE 5
DOMAIN_MIN 0.000000 0.000000 0.000000
DOMAIN_MAX 0.903226 0.903226 0.903226
0.059022 0.070924 0.072145
0.135073 0.081392 0.072663
0.294926 0.129519 0.071412
0.568444 0.224155 0.000000
0.795865 0.290349 0.000000
0.079225 0.105409 0.100465
0.124147 0.121981 0.091402
0.306188 0.169223 0.077272
0.564904 0.255497 0.000000
0.809384 0.321386 0.000000
0.111055 0.160494 0.144747
0.111513 0.152621 0.144015
0.278965 0.255772 0.126009
0.599451 0.363500 0.007538
0.809781 0.402014 0.001038
0.150362 0.239536 0.202853
0.146578 0.224338 0.196323
0.155001 0.250095 0.182437
0.484627 0.443214 0.162936
0.822110 0.531243 0.135531
0.213352 0.382177 0.297093
0.205234 0.358862 0.285527
0.173129 0.274754 0.237125
0.312383 0.479774 0.261357
0.769345 0.681880 0.296330
0.073335 0.104799 0.115053
0.117250 0.110719 0.128939
0.281621 0.139162 0.122438
0.518090 0.213321 0.111604
0.769741 0.284764 0.090303
0.090944 0.126864 0.117037
0.122835 0.141848 0.135622
0.293523 0.176669 0.129000
0.525353 0.245335 0.113771
0.775875 0.313054 0.098116
0.126467 0.185855 0.163363
0.134951 0.182895 0.172091
0.261387 0.251804 0.160342
0.561822 0.349340 0.125673
0.797299 0.402167 0.131594
0.172366 0.272557 0.228885
0.168856 0.256657 0.223117
0.162295 0.257633 0.201144
0.479255 0.447089 0.200900
0.817990 0.536034 0.198917
0.235538 0.415839 0.321233
0.225528 0.390784 0.308598
0.194278 0.312016 0.265080
0.312047 0.489265 0.280766
0.773007 0.692226 0.331273
0.098512 0.189822 0.218570
0.135317 0.189609 0.229709
0.255528 0.196323 0.258396
0.503014 0.203799 0.231479
0.758877 0.300969 0.251987
0.117769 0.219364 0.227604
0.155581 0.227390 0.242954
0.270085 0.221530 0.261845
0.504509 0.257206 0.241032
0.766415 0.328435 0.256443
0.155276 0.262028 0.214939
0.185000 0.275395 0.231418
0.265812 0.305791 0.269230
0.541772 0.371557 0.268223
0.784451 0.418036 0.276585
0.206851 0.353948 0.270390
0.221897 0.350042 0.284764
0.220432 0.302068 0.277867
0.475105 0.476356 0.304448
0.808133 0.558465 0.333227
0.277195 0.500664 0.367071
0.286381 0.494942 0.374548
0.264622 0.423255 0.346685
0.273686 0.457069 0.309453
0.756771 0.700130 0.396460
0.157290 0.374212 0.417792
0.211337 0.381659 0.432136
0.279606 0.320745 0.419409
0.452003 0.340429 0.436530
0.745235 0.346258 0.444465
0.178714 0.398444 0.418891
0.222080 0.401617 0.428351
0.288243 0.352636 0.424079
0.450538 0.363195 0.435584
0.740536 0.361852 0.433387
0.190890 0.447517 0.412268
0.229587 0.450599 0.419623
0.329534 0.453681 0.440894
0.481178 0.416114 0.432349
0.743343 0.484596 0.452583
0.265843 0.491371 0.373510
0.289311 0.495949 0.382513
0.357763 0.513817 0.420966
0.460731 0.538750 0.450813
0.783810 0.604944 0.486671
0.366125 0.648341 0.448219
0.377935 0.646204 0.459236
0.407630 0.633082 0.487068
0.334417 0.483131 0.413550
0.742458 0.733577 0.516533
0.375769 0.651179 0.665827
0.417670 0.657771 0.672328
0.486885 0.647211 0.674281
0.522698 0.537743 0.641535
0.692287 0.597314 0.660609
0.376928 0.661677 0.663294
0.416876 0.667109 0.669642
0.498207 0.666377 0.678218
0.526329 0.560998 0.645075
0.692866 0.609796 0.662531
0.368841 0.697017 0.658808
0.399084 0.697536 0.663722
0.508415 0.709133 0.684627
0.550011 0.642603 0.667597
0.699428 0.652461 0.673152
0.399145 0.746731 0.646571
0.421241 0.748928 0.653162
0.491035 0.760464 0.679744
0.612970 0.763943 0.711971
0.727718 0.712673 0.690364
0.470924 0.767544 0.597284
0.485695 0.769619 0.603784
0.537652 0.780240 0.629480
0.617609 0.795926 0.670619
0.714778 0.802976 0.705684
