data/fiter_cube/63078869/1022673/file.cube
# Created by Adobe Lightroom plugin Export LUT (1.17.0)
# www.johnrellis.com/lightroom/exportlut.htm
# Preset: 暗调胶片街拍_02 云集
# Color profile: C:\Program Files (x86)\Common Files\Adobe\Color\Profiles\Recommended\AdobeRGB1998.icc
LUT_3D_SIZE 8
DOMAIN_MIN 0.000000 0.000000 0.000000
DOMAIN_MAX 0.903226 0.903226 0.903226
0.059022 0.070924 0.072145
0.092927 0.072328 0.072511
0.151705 0.085328 0.072724
0.239536 0.110872 0.071839
0.369482 0.155398 0.065248
0.529229 0.211154 0.002289
0.670008 0.255894 0.000000
0.795865 0.290349 0.000000
0.065095 0.084138 0.081300
0.089082 0.091371 0.076448
0.149508 0.097383 0.073701
0.232547 0.120180 0.075166
0.357061 0.161685 0.068574
0.501274 0.211429 0.020935
0.648493 0.257755 0.000000
0.783383 0.294377 0.000000
0.083406 0.112337 0.106325
0.085420 0.111116 0.107942
0.137728 0.133516 0.096071
0.246586 0.160067 0.083070
0.376867 0.203494 0.070863
0.521050 0.251011 0.018372
0.680903 0.299138 0.000000
0.806271 0.328954 0.000000
0.102052 0.143526 0.131777
0.101778 0.140963 0.131655
0.106172 0.151980 0.126772
0.228489 0.211276 0.117128
0.424567 0.287694 0.073915
0.566857 0.324712 0.012299
0.695308 0.354101 0.000000
0.810056 0.374884 0.000000
0.121859 0.181460 0.160708
0.121523 0.178134 0.159792
0.120211 0.167422 0.156435
0.155367 0.215488 0.151827
0.324865 0.297276 0.133852
0.536889 0.384283 0.065187
0.696254 0.416022 0.007477
0.813626 0.433875 0.061463
0.142885 0.223850 0.191623
0.143679 0.223239 0.192782
0.139681 0.207584 0.185611
0.136538 0.213748 0.176730
0.228244 0.296727 0.176699
0.448219 0.410101 0.155581
0.679316 0.498665 0.085451
0.829801 0.510155 0.128359
0.169680 0.283207 0.232425
0.168612 0.278691 0.230686
0.161990 0.257420 0.219699
0.150362 0.224521 0.201053
0.170260 0.286107 0.199832
0.335576 0.414740 0.208103
0.595605 0.541100 0.194034
0.795071 0.590265 0.150698
0.213352 0.382177 0.297093
0.210788 0.374792 0.293431
0.202792 0.351904 0.281987
0.190158 0.315404 0.262913
0.172396 0.287694 0.235416
0.260594 0.434485 0.253910
0.525322 0.616846 0.277256
0.769345 0.681880 0.296330
0.061189 0.082338 0.088899
0.084596 0.084688 0.095766
0.141848 0.097444 0.094972
0.224918 0.118166 0.095979
0.347204 0.153841 0.090455
0.484138 0.198886 0.073396
0.633753 0.246036 0.011597
0.770199 0.283635 0.000000
0.068147 0.093019 0.087892
0.086122 0.101503 0.099916
0.143038 0.109194 0.098939
0.225162 0.127321 0.096986
0.343755 0.161837 0.091279
0.474678 0.204532 0.074891
0.618982 0.249424 0.015839
0.756893 0.286900 0.000000
0.088991 0.119051 0.111971
0.094881 0.121492 0.118837
0.136294 0.138796 0.111788
0.239231 0.162020 0.101350
0.353643 0.196078 0.093477
0.487587 0.238956 0.075868
0.637964 0.284154 0.018738
0.775662 0.319097 0.000000
0.107973 0.150301 0.138338
0.109071 0.148867 0.139437
0.110903 0.156374 0.136049
0.213352 0.202121 0.127016
0.376410 0.258701 0.099336
0.510674 0.296635 0.078096
0.650416 0.334874 0.036469
0.780758 0.363714 0.017121
0.128908 0.190005 0.168612
0.127901 0.185824 0.167056
0.125673 0.173831 0.162570
0.152682 0.212284 0.156497
0.305547 0.282811 0.141909
0.508263 0.366400 0.093080
0.673335 0.405158 0.068879
0.796170 0.426642 0.082094
0.147250 0.228428 0.196139
0.146273 0.224430 0.194705
0.142306 0.210056 0.188113
0.138857 0.211398 0.180087
0.223117 0.292058 0.180972
0.439796 0.405005 0.165591
0.669032 0.493568 0.109621
0.818601 0.505577 0.139803
0.171084 0.282475 0.232639
0.168673 0.275486 0.229129
0.162814 0.256657 0.219852
0.152529 0.226993 0.203403
0.168673 0.281590 0.201266
0.325902 0.404913 0.210239
0.577020 0.526696 0.196201
0.778042 0.579797 0.151858
0.213626 0.379736 0.295811
0.211978 0.374395 0.293523
0.204318 0.352697 0.282933
0.191623 0.316686 0.264225
0.178561 0.295140 0.243992
0.262089 0.439490 0.260563
0.518547 0.612116 0.280278
0.760830 0.676387 0.295842
0.076783 0.114137 0.126375
0.089296 0.115877 0.132143
0.131807 0.120150 0.142763
0.224643 0.125338 0.133669
0.354833 0.161837 0.135500
0.493172 0.207858 0.132509
0.645106 0.253239 0.122683
0.780179 0.289555 0.119112
0.084810 0.124880 0.129946
0.096742 0.127382 0.134768
0.136995 0.128328 0.143343
0.224002 0.138674 0.135866
0.346990 0.170871 0.136202
0.483742 0.213870 0.131624
0.635248 0.258152 0.120699
0.773983 0.294926 0.116976
0.098207 0.139925 0.127199
0.109102 0.146029 0.134524
0.137881 0.158389 0.149691
0.241611 0.178347 0.145632
0.363287 0.210575 0.142916
0.497047 0.249485 0.135500
0.643091 0.290288 0.125093
0.777401 0.323125 0.123415
0.118135 0.173526 0.150820
0.126986 0.178561 0.161166
0.137240 0.177005 0.172030
0.221805 0.223728 0.167453
0.389166 0.275151 0.152285
0.521172 0.310277 0.143587
0.661006 0.345800 0.136202
0.788052 0.372107 0.139376
0.141695 0.214939 0.184543
0.148104 0.217411 0.191592
0.151003 0.208408 0.193454
0.162661 0.230625 0.186557
0.317906 0.305364 0.182498
0.518517 0.381231 0.156374
0.675319 0.414099 0.151797
0.797879 0.434699 0.162173
0.164401 0.257847 0.217136
0.169467 0.258976 0.222232
0.165377 0.242527 0.215824
0.155337 0.218814 0.200961
0.223148 0.300938 0.204654
0.434333 0.409247 0.201694
0.663813 0.497292 0.175326
0.818326 0.515709 0.207095
0.193668 0.320043 0.259922
0.194064 0.315618 0.259525
0.185275 0.291905 0.247349
0.170809 0.254734 0.226322
0.172335 0.284550 0.215671
0.323186 0.411933 0.233219
0.583886 0.540948 0.236576
0.790097 0.596155 0.221744
0.236790 0.416571 0.321660
0.234104 0.408484 0.317967
0.223850 0.382910 0.304906
0.210544 0.347570 0.287022
0.184726 0.286503 0.249760
0.256321 0.437140 0.273106
0.514153 0.617823 0.303319
0.764920 0.687068 0.330785
0.090303 0.157565 0.180056
0.103792 0.161044 0.186587
0.132082 0.152346 0.193057
0.207034 0.166384 0.213199
0.344182 0.137148 0.195682
0.470527 0.202152 0.193881
0.621698 0.248600 0.195743
0.763333 0.289036 0.201144
0.100923 0.171725 0.187137
0.112490 0.173373 0.191501
0.137636 0.165286 0.198123
0.212772 0.177371 0.217411
0.343328 0.160037 0.195041
0.468757 0.213199 0.195132
0.618250 0.256779 0.195621
0.761715 0.295171 0.199710
0.108339 0.190433 0.188449
0.119203 0.193668 0.193057
0.154818 0.201572 0.207706
0.230594 0.198154 0.211460
0.350683 0.222812 0.208011
0.491676 0.260685 0.209415
0.648798 0.304356 0.214054
0.779934 0.332647 0.214511
0.134524 0.216495 0.182742
0.144106 0.221103 0.188388
0.172885 0.232547 0.212894
0.221408 0.253727 0.227848
0.370977 0.287602 0.222995
0.504723 0.319280 0.220005
0.650904 0.353826 0.219455
0.785245 0.381750 0.226322
0.161837 0.263767 0.208621
0.168063 0.264042 0.215488
0.189578 0.267796 0.238621
0.191409 0.252323 0.238437
0.325536 0.336126 0.246830
0.528832 0.405615 0.241886
0.675532 0.432532 0.243778
0.797696 0.450111 0.250584
0.186404 0.309178 0.245121
0.194888 0.315221 0.254520
0.210636 0.312505 0.269383
0.200565 0.278141 0.255039
0.232029 0.326879 0.251347
0.444129 0.437537 0.265568
0.669978 0.517815 0.265446
0.815488 0.534112 0.291264
0.215396 0.369207 0.286900
0.219821 0.369268 0.291112
0.232029 0.364874 0.301518
0.215610 0.323064 0.280400
0.194614 0.291875 0.251408
0.322362 0.430945 0.274907
0.588006 0.559808 0.295171
0.793484 0.613306 0.302403
0.267216 0.478553 0.356970
0.269749 0.476478 0.359014
0.274388 0.462989 0.360754
0.253056 0.414832 0.335790
0.217319 0.339879 0.290623
0.244907 0.427039 0.291234
0.499306 0.621515 0.336889
0.766293 0.701045 0.380224
0.107912 0.228580 0.263706
0.122927 0.231510 0.269596
0.159518 0.229557 0.279911
0.209079 0.205753 0.279515
0.307713 0.230747 0.306218
0.465797 0.195590 0.296971
0.611139 0.239078 0.280217
0.752712 0.321752 0.306065
0.118654 0.240543 0.268254
0.132967 0.246128 0.276860
0.170108 0.246921 0.289128
0.212558 0.217227 0.283360
0.308354 0.240177 0.306981
0.467536 0.206210 0.292973
0.610773 0.264805 0.285252
0.753750 0.329198 0.306920
0.133974 0.271244 0.278874
0.147799 0.274998 0.284184
0.184176 0.276829 0.293645
0.220951 0.252476 0.292119
0.319402 0.260197 0.306157
0.460853 0.250584 0.280339
0.609796 0.308843 0.291447
0.752926 0.348486 0.304234
0.147555 0.289769 0.269993
0.158022 0.291661 0.273136
0.192081 0.300481 0.286381
0.242435 0.310735 0.305974
0.342229 0.312810 0.303044
0.477974 0.335821 0.301610
0.628351 0.366827 0.305425
0.767758 0.389715 0.308080
0.180697 0.317235 0.253391
0.190158 0.321843 0.258549
0.220066 0.334295 0.274479
0.255955 0.338933 0.310307
0.314855 0.364599 0.315435
0.506401 0.415686 0.320623
0.649073 0.438514 0.320714
0.781643 0.457008 0.325231
0.210575 0.367132 0.269993
0.216526 0.367620 0.276310
0.233646 0.365576 0.294255
0.259159 0.362158 0.319921
0.240909 0.325231 0.296361
0.430732 0.452979 0.329961
0.666987 0.537835 0.354620
0.803525 0.551293 0.369482
0.246250 0.437079 0.320806
0.249882 0.434974 0.324071
0.262730 0.429816 0.335821
0.280430 0.418738 0.351293
0.246647 0.348547 0.311772
0.300938 0.427771 0.315007
0.576471 0.571374 0.355016
0.787961 0.628046 0.379706
0.296361 0.537560 0.386328
0.298375 0.534661 0.387854
0.304997 0.524437 0.392615
0.319707 0.514580 0.404974
0.279515 0.435615 0.361120
0.241611 0.386633 0.313237
0.459266 0.607385 0.367895
0.755245 0.708766 0.427008
0.150179 0.357641 0.401343
0.168887 0.360876 0.406653
0.212009 0.354772 0.409552
0.240330 0.312016 0.402228
0.313512 0.284367 0.386725
0.425055 0.319036 0.412573
0.600061 0.307622 0.423255
0.754177 0.320897 0.408392
0.154849 0.354376 0.390051
0.169924 0.355352 0.393194
0.214054 0.355779 0.401953
0.239048 0.315160 0.395666
0.309819 0.288182 0.382177
0.421057 0.323430 0.409186
0.598627 0.310643 0.418555
0.751858 0.324865 0.403632
0.177096 0.388403 0.400610
0.189151 0.387152 0.401556
0.229892 0.387701 0.409094
0.274723 0.370275 0.410407
0.319280 0.321874 0.391485
0.430671 0.351598 0.415045
0.609186 0.334722 0.412665
0.750881 0.381445 0.414801
0.184543 0.419135 0.399268
0.196597 0.418067 0.399847
0.237858 0.421241 0.408057
0.302770 0.432105 0.428382
0.341558 0.386694 0.415290
0.466011 0.397589 0.427527
0.622278 0.401068 0.413519
0.756619 0.464240 0.437201
0.204959 0.419745 0.367681
0.215335 0.422126 0.371038
0.247990 0.429358 0.382116
0.297276 0.439826 0.400275
0.351171 0.445655 0.419318
0.474586 0.452155 0.417060
0.624964 0.476661 0.423804
0.765133 0.499428 0.433478
0.242374 0.445960 0.342168
0.252689 0.452247 0.348363
0.280308 0.462654 0.361883
0.322850 0.476509 0.384436
0.351812 0.465217 0.414282
0.430182 0.502922 0.422553
0.658839 0.571527 0.456550
0.789334 0.578912 0.459266
0.299840 0.539849 0.372351
0.306493 0.542107 0.379248
0.322393 0.539849 0.395117
0.345006 0.533135 0.417121
0.364019 0.511772 0.434363
0.308598 0.420935 0.374273
0.574487 0.606256 0.443610
0.794949 0.671992 0.496223
0.351049 0.627863 0.436042
0.353399 0.625696 0.438117
0.362158 0.619562 0.446052
0.377691 0.611017 0.460334
0.385992 0.582696 0.466560
0.318486 0.467750 0.398077
0.406592 0.586084 0.408240
0.746792 0.728817 0.497871
0.222080 0.488014 0.525383
0.239353 0.491859 0.530297
0.288579 0.496651 0.540002
0.330144 0.475502 0.536370
0.355657 0.411444 0.516594
0.436439 0.383917 0.502770
0.552697 0.429328 0.525872
0.713924 0.463935 0.553735
0.224369 0.489479 0.520562
0.240391 0.492714 0.524987
0.288273 0.497963 0.535241
0.329839 0.478187 0.532006
0.353399 0.414862 0.512810
0.431678 0.385443 0.497902
0.547051 0.429084 0.520989
0.710994 0.461341 0.548852
0.240116 0.515801 0.525750
0.253544 0.516838 0.528252
0.296452 0.519768 0.536217
0.351690 0.515190 0.543359
0.366186 0.450477 0.522881
0.437842 0.413214 0.504479
0.553857 0.457404 0.528313
0.720455 0.482307 0.552239
0.250828 0.550439 0.528771
0.261723 0.549340 0.529320
0.300694 0.550683 0.535882
0.365393 0.556146 0.550011
0.402716 0.521386 0.543664
0.449897 0.462074 0.518212
0.568505 0.498329 0.539605
0.733700 0.510124 0.551934
0.251133 0.580163 0.520226
0.261387 0.579522 0.521050
0.296635 0.580041 0.526635
0.351934 0.582422 0.538598
0.423926 0.582544 0.553735
0.452674 0.513634 0.526482
0.584894 0.531670 0.540185
0.743130 0.547967 0.544884
0.284367 0.579126 0.482429
0.292760 0.580560 0.484962
0.320562 0.585779 0.494179
0.364630 0.594934 0.510918
0.419623 0.604395 0.532738
0.483955 0.610101 0.556512
0.607996 0.607507 0.551171
0.754055 0.634058 0.569268
0.332921 0.612390 0.458961
0.340673 0.615259 0.462776
0.364324 0.621973 0.473518
0.402625 0.632593 0.491768
0.451209 0.643336 0.515282
0.480812 0.625666 0.541802
0.562219 0.653559 0.550164
0.781552 0.712306 0.600549
0.417884 0.704524 0.488624
0.422309 0.704921 0.492531
0.437751 0.707759 0.507378
0.459510 0.707698 0.528283
0.483589 0.701686 0.551354
0.497322 0.678706 0.564691
0.379828 0.518120 0.454719
0.734890 0.758968 0.588739
0.375769 0.651179 0.665827
0.389746 0.654017 0.668544
0.430640 0.659937 0.674434
0.471565 0.656977 0.676875
0.476722 0.613581 0.669062
0.509239 0.556817 0.648493
0.595605 0.543755 0.646448
0.692287 0.597314 0.660609
0.374426 0.652552 0.663478
0.388098 0.655238 0.666133
0.428992 0.661311 0.672511
0.472938 0.660304 0.676143
0.481270 0.620386 0.668513
0.509331 0.561822 0.648280
0.594263 0.546777 0.645472
0.691218 0.599390 0.659968
0.375067 0.663966 0.661738
0.387427 0.665766 0.663874
0.425788 0.669673 0.669215
0.487892 0.681239 0.682185
0.506004 0.652308 0.674403
0.516960 0.587762 0.653651
0.596185 0.565820 0.648463
0.692683 0.613306 0.662806
0.368139 0.683467 0.660121
0.381231 0.685267 0.662562
0.420539 0.688777 0.668452
0.483497 0.697780 0.680842
0.535607 0.695369 0.687434
0.535332 0.634607 0.667903
0.600793 0.598718 0.655695
0.697230 0.637964 0.669551
0.371954 0.712947 0.657893
0.382116 0.713893 0.660060
0.411688 0.714107 0.665003
0.459632 0.715419 0.675044
0.537285 0.724331 0.691951
0.566888 0.695766 0.688350
0.602197 0.635859 0.662684
0.702998 0.670130 0.678370
0.386114 0.743343 0.651820
0.392706 0.743740 0.653468
0.416480 0.746181 0.660395
0.458808 0.748043 0.671015
0.517632 0.749569 0.686000
0.599695 0.757870 0.709804
0.608759 0.688441 0.677333
0.722896 0.704280 0.689387
0.427985 0.750576 0.622950
0.433845 0.751278 0.625025
0.452735 0.753140 0.631647
0.485176 0.757473 0.644434
0.529107 0.764034 0.663111
0.582727 0.772824 0.687953
0.646235 0.775235 0.711208
0.741085 0.748714 0.693477
0.470924 0.767544 0.597284
0.475135 0.767971 0.598993
0.490822 0.770596 0.606287
0.519341 0.776455 0.620264
0.557946 0.784390 0.639734
0.604730 0.793576 0.663874
0.643946 0.791135 0.690822
0.714778 0.802976 0.705684
