data/fiter_cube/29797953/1022859/file.cube
# Created by Adobe Lightroom plugin Export LUT (1.17.0)
# www.johnrellis.com/lightroom/exportlut.htm
# Preset: 电影灰蓝色_04 云集
# Color profile: C:\Program Files (x86)\Common Files\Adobe\Color\Profiles\Recommended\AdobeRGB1998.icc
LUT_3D_SIZE 5
DOMAIN_MIN 0.000000 0.000000 0.000000
DOMAIN_MAX 0.903226 0.903226 0.903226
0.069123 0.076112 0.088075
0.144228 0.091279 0.091157
0.471077 0.090700 0.070222
0.708644 0.229801 0.039124
0.829099 0.422461 0.146426
0.081147 0.117372 0.116823
0.146181 0.148653 0.104555
0.510613 0.216495 0.032593
0.716854 0.310124 0.012940
0.833097 0.461738 0.154910
0.215610 0.408362 0.308904
0.348852 0.432044 0.367071
0.509453 0.449561 0.186221
0.727840 0.483864 0.018067
0.841550 0.571130 0.187228
0.538079 0.657527 0.563622
0.584222 0.661494 0.586358
0.658228 0.668238 0.642969
0.701503 0.645777 0.395636
0.828244 0.631861 0.220340
0.684230 0.783841 0.715846
0.703365 0.787411 0.727657
0.752834 0.797971 0.765133
0.786007 0.803586 0.800534
0.818021 0.781064 0.592004
0.076661 0.093721 0.127871
0.162325 0.082307 0.158633
0.442664 0.138918 0.173953
0.689204 0.268437 0.192020
0.816861 0.443275 0.253941
0.093904 0.136080 0.152895
0.154269 0.182315 0.195987
0.485389 0.236973 0.189578
0.699489 0.336400 0.199557
0.820157 0.476875 0.262303
0.216129 0.437385 0.355077
0.352850 0.457801 0.393164
0.507683 0.469368 0.298405
0.721431 0.515618 0.234348
0.831571 0.580743 0.299321
0.540642 0.663416 0.578607
0.585840 0.666896 0.597559
0.660853 0.674495 0.647272
0.697353 0.652857 0.455543
0.824918 0.647364 0.317571
0.681209 0.785916 0.719600
0.700496 0.789303 0.730404
0.751858 0.801175 0.766629
0.789487 0.807950 0.803861
0.817288 0.784329 0.611810
0.107973 0.179507 0.296513
0.155764 0.158083 0.371557
0.536339 0.084047 0.402319
0.669276 0.306462 0.374060
0.783078 0.494820 0.449775
0.225956 0.255222 0.266026
0.239719 0.288060 0.356207
0.526146 0.264469 0.426978
0.652735 0.395544 0.412909
0.788266 0.516594 0.454719
0.300572 0.420172 0.416083
0.366155 0.448249 0.440497
0.512230 0.512078 0.499275
0.682490 0.543267 0.474434
0.803922 0.595148 0.479927
0.525628 0.678706 0.623041
0.570214 0.679225 0.628962
0.650629 0.684840 0.650324
0.689082 0.672419 0.579187
0.817472 0.692653 0.515862
0.672419 0.793149 0.737331
0.689906 0.795804 0.743648
0.738796 0.804440 0.765957
0.793759 0.816129 0.807950
0.813504 0.790829 0.657404
0.288212 0.351934 0.503502
0.311894 0.339574 0.539696
0.540093 0.227817 0.636713
0.711421 0.377996 0.593408
0.794400 0.522484 0.584955
0.390417 0.431006 0.487160
0.386786 0.424323 0.526329
0.525658 0.361486 0.624628
0.704250 0.439094 0.601404
0.788724 0.542382 0.589685
0.482490 0.499275 0.497993
0.502464 0.510826 0.506249
0.551781 0.559380 0.578454
0.686763 0.567041 0.626398
0.770901 0.600488 0.606622
0.564996 0.635340 0.622797
0.583154 0.641871 0.629450
0.628321 0.661128 0.649073
0.681086 0.686030 0.675074
0.794675 0.699825 0.646418
0.663661 0.790249 0.760952
0.677089 0.796323 0.767849
0.719448 0.814115 0.787503
0.782071 0.824552 0.806210
0.809964 0.804898 0.729519
0.553124 0.576684 0.680659
0.555383 0.568566 0.693874
0.600336 0.533806 0.738064
0.743679 0.473548 0.787625
0.822416 0.583429 0.744289
0.584741 0.608118 0.671107
0.577935 0.598199 0.684993
0.604822 0.571252 0.730495
0.738857 0.511101 0.788388
0.820676 0.600366 0.747646
0.626673 0.627192 0.617487
0.626703 0.635492 0.636622
0.630396 0.646479 0.699855
0.713039 0.609033 0.780941
0.816129 0.645960 0.758022
0.665827 0.690394 0.689570
0.669429 0.691463 0.690120
0.678523 0.691707 0.687984
0.691615 0.707362 0.729397
0.808316 0.718013 0.777890
0.696132 0.769345 0.766751
0.701839 0.772152 0.769711
0.721736 0.782315 0.780392
0.757412 0.801694 0.800534
0.810208 0.828214 0.828367
