data/fiter_cube/29797953/1022859/file.cube
# Created by Adobe Lightroom plugin Export LUT (1.17.0)
# www.johnrellis.com/lightroom/exportlut.htm
# Preset: 电影灰蓝色_04 云集
# Color profile: C:\Program Files (x86)\Common Files\Adobe\Color\Profiles\Recommended\AdobeRGB1998.icc
LUT_3D_SIZE 32
DOMAIN_MIN 0.0 0.0 0.0
DOMAIN_MAX 1.0 1.0 1.0
0.069123 0.076112 0.088075
0.070893 0.076570 0.087984
0.073274 0.077272 0.088472
0.078767 0.078492 0.088838
0.087800 0.081056 0.089815
0.100923 0.084108 0.090608
0.119722 0.087495 0.091096
0.144228 0.091279 0.091157
0.174960 0.095125 0.090608
0.212253 0.098543 0.089784
0.257328 0.100557 0.087770
0.309850 0.099611 0.084779
0.365393 0.096284 0.080629
0.419989 0.092348 0.075715
0.471077 0.090700 0.070222
0.517479 0.094423 0.063874
0.558465 0.105806 0.057099
0.597162 0.125246 0.046571
0.630488 0.149264 0.037507
0.659907 0.175448 0.031769
0.685908 0.202579 0.031708
0.708644 0.229801 0.039124
0.728542 0.256748 0.053193
0.746242 0.282963 0.066438
0.762844 0.309026 0.078828
0.779294 0.336095 0.092744
0.795804 0.364172 0.108095
0.812406 0.393072 0.125704
0.829099 0.422461 0.146426
0.845823 0.452369 0.171023
0.862699 0.482521 0.200076
0.879789 0.513268 0.234195
0.069825 0.076722 0.088594
0.070985 0.077607 0.088777
0.073548 0.078279 0.088380
0.078920 0.079896 0.089021
0.088350 0.082307 0.089723
0.101656 0.085573 0.090455
0.120516 0.089174 0.090913
0.145022 0.093111 0.090944
0.175540 0.097139 0.090669
0.213077 0.100862 0.089540
0.257969 0.102815 0.087800
0.310430 0.102358 0.084749
0.365606 0.099641 0.080568
0.419989 0.096315 0.075624
0.470924 0.095186 0.069734
0.517174 0.099458 0.063722
0.558007 0.110231 0.056916
0.596490 0.128939 0.046540
0.629480 0.151644 0.037171
0.658778 0.177035 0.030793
0.684718 0.203769 0.031006
0.707485 0.230747 0.036347
0.727535 0.257145 0.051362
0.745357 0.283146 0.065217
0.761959 0.309209 0.077790
0.778470 0.336156 0.091615
0.795010 0.363897 0.106844
0.811643 0.392889 0.124849
0.828397 0.422065 0.145449
0.845212 0.451942 0.169833
0.862150 0.482094 0.198672
0.879210 0.512657 0.232639
0.070100 0.078401 0.089845
0.071138 0.078553 0.090913
0.073365 0.080049 0.089662
0.079469 0.081147 0.089174
0.089113 0.084138 0.089845
0.102541 0.087587 0.090547
0.121675 0.091554 0.090974
0.146120 0.095613 0.090974
0.177035 0.099886 0.090333
0.214481 0.103639 0.089448
0.259434 0.106355 0.087282
0.311955 0.106203 0.084443
0.366979 0.104280 0.080171
0.421210 0.101320 0.075135
0.471717 0.101106 0.069520
0.517876 0.105562 0.062989
0.558526 0.116243 0.055482
0.596796 0.134157 0.044709
0.629419 0.156130 0.035615
0.658564 0.180911 0.029328
0.684474 0.206943 0.029664
0.707240 0.233310 0.035187
0.727260 0.259434 0.049683
0.745052 0.284977 0.064057
0.761624 0.310796 0.077241
0.778134 0.337285 0.091005
0.794705 0.364996 0.106569
0.811368 0.393774 0.124239
0.828122 0.422827 0.144961
0.844938 0.452491 0.169223
0.861875 0.482551 0.198062
0.878935 0.512993 0.232059
0.071504 0.081544 0.092592
0.073213 0.082246 0.093843
0.074189 0.082399 0.094850
0.078126 0.084871 0.092226
0.089235 0.086946 0.090425
0.104982 0.093080 0.090303
0.124331 0.097200 0.090639
0.149508 0.101686 0.090517
0.180514 0.106386 0.090059
0.218540 0.110597 0.088716
0.263767 0.113771 0.086641
0.316350 0.114900 0.083467
0.371008 0.114015 0.078950
0.424567 0.112795 0.074006
0.474800 0.113161 0.068147
0.520195 0.118166 0.061860
0.560571 0.128634 0.053010
0.598230 0.145480 0.041444
0.630152 0.165957 0.032837
0.658686 0.189364 0.027070
0.684291 0.214084 0.025666
0.706813 0.239384 0.032715
0.726864 0.264622 0.047974
0.744747 0.289799 0.063447
0.761563 0.315129 0.076387
0.778195 0.341466 0.090700
0.794858 0.368933 0.106447
0.811551 0.397284 0.124544
0.828275 0.426032 0.145235
0.845060 0.455238 0.169619
0.861875 0.484688 0.198215
0.878874 0.514641 0.231815
0.073182 0.086030 0.096162
0.074556 0.086458 0.097108
0.076387 0.087373 0.099001
0.077882 0.087373 0.100923
0.086732 0.092592 0.094850
0.103670 0.095277 0.091524
0.126192 0.104372 0.090730
0.154391 0.112856 0.089723
0.186252 0.117586 0.089082
0.224491 0.122530 0.087709
0.270481 0.126345 0.085298
0.322972 0.128542 0.081727
0.377234 0.128878 0.077455
0.430091 0.129030 0.072145
0.479500 0.131197 0.065827
0.524376 0.136538 0.059022
0.564813 0.146944 0.048402
0.601282 0.162875 0.035340
0.632410 0.181857 0.027863
0.660456 0.203403 0.022278
0.685420 0.226566 0.021302
0.707637 0.250340 0.028717
0.727352 0.274327 0.044800
0.745113 0.298375 0.062593
0.761807 0.322759 0.075868
0.778439 0.348241 0.090333
0.795010 0.375006 0.106203
0.811643 0.402533 0.124453
0.828336 0.430579 0.145266
0.845029 0.459083 0.169650
0.861814 0.487953 0.198184
0.878752 0.517388 0.231693
0.075410 0.092226 0.100862
0.076600 0.093202 0.101717
0.078462 0.094026 0.103059
0.082216 0.095338 0.106783
0.084565 0.096345 0.108461
0.100008 0.104921 0.097322
0.123659 0.106813 0.091951
0.152987 0.118471 0.090547
0.192081 0.133120 0.087892
0.233829 0.140780 0.085603
0.280888 0.145022 0.082948
0.333501 0.147982 0.079103
0.386908 0.149447 0.074250
0.438697 0.150851 0.068666
0.486976 0.153811 0.061646
0.530724 0.159731 0.052461
0.570855 0.170413 0.039246
0.605798 0.185214 0.026917
0.636103 0.202457 0.019440
0.663447 0.222263 0.013855
0.687861 0.243656 0.015198
0.709560 0.265873 0.025025
0.735958 0.298711 0.052613
0.752621 0.321050 0.068818
0.768795 0.344244 0.082795
0.784848 0.368475 0.098054
0.800900 0.393530 0.114229
0.816922 0.419226 0.132998
0.833036 0.445686 0.154360
0.849271 0.472602 0.179049
0.865537 0.500053 0.207950
0.882017 0.527886 0.240940
0.077913 0.102541 0.107454
0.079438 0.103365 0.108461
0.081422 0.104555 0.110109
0.086458 0.107668 0.114626
0.092103 0.107942 0.119936
0.096986 0.113008 0.117067
0.119936 0.123873 0.100557
0.149996 0.122438 0.092134
0.188510 0.137270 0.089509
0.237797 0.154818 0.085420
0.298711 0.173037 0.078431
0.351415 0.175692 0.073701
0.403815 0.177432 0.068605
0.454017 0.179538 0.061952
0.500206 0.183017 0.052064
0.542107 0.189334 0.037446
0.581170 0.200290 0.022889
0.614466 0.213870 0.012634
0.643519 0.229892 0.006897
0.669978 0.248203 0.003967
0.693812 0.268254 0.007599
0.715236 0.289311 0.020447
0.734432 0.310887 0.045014
0.751736 0.332616 0.065705
0.768460 0.355291 0.081209
0.784756 0.378637 0.097169
0.800870 0.402838 0.114351
0.816922 0.427588 0.133181
0.832975 0.452857 0.154421
0.849088 0.478706 0.179141
0.865293 0.505211 0.207797
0.881712 0.532189 0.240665
0.081147 0.117372 0.116823
0.082795 0.118441 0.117891
0.085206 0.120058 0.119722
0.091188 0.123171 0.123964
0.100954 0.126558 0.132204
0.106874 0.126131 0.138857
0.116182 0.137392 0.127230
0.146181 0.148653 0.104555
0.180392 0.140536 0.092042
0.228428 0.158053 0.087984
0.287785 0.177951 0.081636
0.355962 0.198611 0.071015
0.417762 0.211826 0.059144
0.466224 0.213321 0.047242
0.510613 0.216495 0.032593
0.552300 0.223026 0.016480
0.588739 0.232670 0.004242
0.620172 0.244266 0.000000
0.647883 0.258061 0.000000
0.673274 0.274052 0.000000
0.696162 0.291508 0.000000
0.716854 0.310124 0.012940
0.735531 0.329534 0.037873
0.752529 0.349248 0.064393
0.769009 0.370123 0.080262
0.785183 0.391882 0.096925
0.801175 0.414466 0.114443
0.817105 0.437751 0.133364
0.833097 0.461738 0.154910
0.849088 0.486458 0.179629
0.865232 0.511894 0.208316
0.881590 0.537865 0.240818
0.086061 0.138918 0.130373
0.088441 0.140261 0.131624
0.091096 0.142031 0.133486
0.098054 0.145449 0.137972
0.109865 0.150790 0.146700
0.121614 0.152102 0.156405
0.128573 0.152102 0.166018
0.143893 0.170199 0.140505
0.180270 0.180117 0.109743
0.216556 0.161501 0.091646
0.275456 0.181918 0.084962
0.342107 0.203006 0.076051
0.410864 0.224704 0.062196
0.476326 0.248661 0.023102
0.524437 0.257389 0.000000
0.563684 0.262821 0.000000
0.597589 0.270146 0.000000
0.627222 0.279484 0.000000
0.653529 0.290532 0.000000
0.677638 0.303838 0.000000
0.699458 0.318761 0.000000
0.719356 0.334691 0.003784
0.737331 0.351476 0.032288
0.753933 0.369024 0.062867
0.770169 0.388006 0.080537
0.786130 0.407782 0.097597
0.801938 0.428656 0.115541
0.817716 0.450233 0.134737
0.833524 0.472633 0.156222
0.849393 0.496010 0.181064
0.865385 0.520134 0.209537
0.881651 0.544823 0.241611
0.093660 0.168246 0.148623
0.096284 0.169528 0.149935
0.099733 0.171145 0.151827
0.107698 0.174929 0.156405
0.120333 0.180453 0.164492
0.138796 0.185641 0.178225
0.150698 0.185336 0.188266
0.158541 0.186252 0.199985
0.181460 0.210971 0.155703
0.222965 0.217563 0.116396
0.261570 0.190860 0.090486
0.326757 0.207065 0.080232
0.394934 0.228977 0.068788
0.462379 0.253208 0.044709
0.524498 0.280705 0.000000
0.575769 0.308354 0.000000
0.607599 0.312871 0.000000
0.635554 0.319280 0.000000
0.660365 0.327550 0.000000
0.683009 0.337652 0.000000
0.703578 0.349340 0.000000
0.722316 0.362158 0.000000
0.739376 0.376013 0.026673
0.755398 0.390875 0.061494
0.771267 0.407385 0.080385
0.786954 0.425177 0.098238
0.802670 0.444007 0.116518
0.818326 0.464027 0.136172
0.834073 0.485084 0.158206
0.849851 0.507012 0.183017
0.865843 0.529900 0.211551
0.882048 0.553460 0.243626
0.104799 0.204318 0.171206
0.107698 0.205631 0.172702
0.111727 0.207462 0.174716
0.120699 0.211154 0.179355
0.134981 0.216861 0.187350
0.155673 0.223880 0.200473
0.176303 0.226230 0.214847
0.190280 0.226383 0.227756
0.199069 0.234257 0.226749
0.229801 0.259098 0.172915
0.275547 0.260624 0.123964
0.311650 0.224460 0.089906
0.379217 0.234043 0.074220
0.447913 0.258030 0.058686
0.510460 0.284520 0.016663
0.564508 0.313359 0.000000
0.609888 0.343542 0.000000
0.643397 0.362249 0.000000
0.666743 0.366888 0.000000
0.688014 0.373541 0.000000
0.707515 0.381994 0.000000
0.725399 0.391852 0.000000
0.741787 0.402869 0.021302
0.757534 0.415381 0.061738
0.773129 0.429572 0.081666
0.788540 0.445106 0.100435
0.803922 0.461891 0.119051
0.819364 0.479957 0.138888
0.834867 0.499123 0.160983
0.850431 0.519371 0.185794
0.866239 0.540673 0.214054
0.882322 0.562860 0.245518
0.120485 0.248142 0.198978
0.123903 0.249454 0.200473
0.128695 0.251164 0.202426
0.138674 0.254948 0.207126
0.154665 0.260502 0.214939
0.176333 0.267735 0.226688
0.206180 0.274601 0.246036
0.226200 0.274418 0.259373
0.242435 0.275120 0.275486
0.252262 0.290227 0.255833
0.289281 0.312474 0.192050
0.336828 0.308476 0.133577
0.377142 0.268498 0.089448
0.441291 0.268620 0.064698
0.505425 0.294865 0.031098
0.560449 0.323583 0.000000
0.606653 0.353338 0.000000
0.645502 0.382910 0.000000
0.677913 0.411078 0.000000
0.699123 0.419257 0.000000
0.716701 0.423529 0.000000
0.732876 0.429480 0.000000
0.748043 0.437018 0.034730
0.763088 0.446571 0.069734
0.778042 0.457984 0.089815
0.792935 0.470985 0.108583
0.807828 0.485359 0.127199
0.822721 0.500999 0.147097
0.837705 0.517998 0.168917
0.852873 0.536156 0.193606
0.868284 0.555413 0.221317
0.884062 0.575708 0.252171
0.143954 0.302403 0.233402
0.147677 0.303716 0.234867
0.152987 0.305303 0.236881
0.164096 0.308537 0.241398
0.181827 0.313451 0.248936
0.205600 0.319707 0.260197
0.237125 0.326757 0.277745
0.268223 0.329168 0.296452
0.290105 0.329046 0.312108
0.307012 0.330541 0.330175
0.319310 0.353124 0.291051
0.361151 0.373114 0.217655
0.404883 0.362219 0.148196
0.427893 0.307652 0.092775
0.483711 0.296422 0.056947
0.542931 0.324193 0.009918
0.591516 0.353124 0.000000
0.632410 0.382208 0.000000
0.667140 0.410651 0.000000
0.696376 0.437140 0.000000
0.720333 0.458900 0.000000
0.735714 0.461524 0.000000
0.750515 0.466346 0.036835
0.765194 0.473274 0.072816
0.779873 0.482307 0.093202
0.794491 0.492988 0.112093
0.809110 0.505241 0.131258
0.823758 0.519036 0.151278
0.838529 0.534081 0.172915
0.853513 0.550530 0.197665
0.868742 0.568139 0.224796
0.884428 0.586877 0.255161
0.174228 0.355901 0.269413
0.178592 0.357000 0.271000
0.184176 0.358251 0.272953
0.196384 0.361059 0.277562
0.215366 0.365057 0.285008
0.240970 0.370184 0.295995
0.271580 0.376257 0.310857
0.310582 0.381689 0.333501
0.336339 0.382635 0.348913
0.358801 0.384802 0.366705
0.375555 0.388251 0.386328
0.385290 0.411627 0.325139
0.424750 0.425238 0.244846
0.460883 0.407935 0.165316
0.474922 0.347814 0.099947
0.520867 0.324224 0.046204
0.574395 0.352422 0.000000
0.617792 0.380865 0.000000
0.654902 0.409400 0.000000
0.686305 0.436408 0.000000
0.712856 0.461341 0.000000
0.735561 0.484108 0.000000
0.753384 0.496925 0.047303
0.767819 0.501549 0.078340
0.782193 0.508202 0.099214
0.796536 0.516686 0.118227
0.810849 0.526818 0.137362
0.825254 0.538567 0.157015
0.839780 0.551751 0.178866
0.854520 0.566400 0.203006
0.869596 0.582269 0.229801
0.885100 0.599359 0.259495
0.215610 0.408362 0.308904
0.220218 0.409216 0.310491
0.225834 0.410071 0.312413
0.238468 0.412299 0.316838
0.257725 0.415442 0.323888
0.283177 0.420447 0.334539
0.313390 0.426093 0.348272
0.348852 0.432044 0.367071
0.382086 0.434791 0.386694
0.405280 0.435798 0.402258
0.424170 0.437964 0.419440
0.435492 0.444068 0.427405
0.445197 0.462928 0.357427
0.480690 0.471046 0.274296
0.509453 0.449561 0.186221
0.518517 0.388159 0.110506
0.552819 0.350988 0.038117
0.601404 0.379339 0.000000
0.641138 0.407477 0.000000
0.675074 0.435157 0.000000
0.703639 0.460609 0.000000
0.727840 0.483864 0.018067
0.749233 0.505608 0.062470
0.769711 0.527581 0.086122
0.784726 0.534997 0.106874
0.798825 0.541497 0.126192
0.812985 0.549676 0.145144
0.827176 0.559625 0.165347
0.841550 0.571130 0.187228
0.856199 0.584100 0.211154
0.871153 0.598322 0.237583
0.886564 0.613947 0.266911
0.266941 0.459663 0.351446
0.271427 0.460517 0.353094
0.277134 0.461341 0.354925
0.289342 0.463264 0.359289
0.307683 0.466163 0.366003
0.331273 0.469825 0.375341
0.358618 0.474098 0.387304
0.388830 0.478950 0.402228
0.425635 0.483192 0.424140
0.448005 0.483436 0.437690
0.466835 0.484321 0.452308
0.481514 0.486152 0.468147
0.486213 0.494240 0.457435
0.496437 0.506493 0.387457
0.526909 0.509880 0.303258
0.549310 0.485939 0.210483
0.555749 0.426337 0.125612
0.579828 0.376287 0.037873
0.625391 0.405249 0.000000
0.662654 0.433326 0.000000
0.693599 0.459632 0.000000
0.719753 0.483528 0.036530
0.742184 0.505547 0.071748
0.763333 0.527520 0.094118
0.783536 0.549462 0.115969
0.801877 0.567864 0.137514
0.815671 0.574060 0.156069
0.829587 0.582025 0.176120
0.843626 0.591547 0.197604
0.857969 0.602472 0.220554
0.872618 0.614771 0.245914
0.887694 0.628534 0.274174
0.320104 0.504875 0.392615
0.323919 0.505333 0.393805
0.328954 0.505913 0.395544
0.339788 0.507286 0.399176
0.355871 0.509178 0.405127
0.376440 0.511742 0.413123
0.400549 0.514794 0.423377
0.427008 0.518242 0.435950
0.456367 0.521782 0.452338
0.483192 0.523461 0.469459
0.501030 0.523766 0.482094
0.515923 0.524712 0.495674
0.526940 0.526513 0.509880
0.527764 0.535241 0.483162
0.538323 0.542962 0.415076
0.565148 0.543267 0.332036
0.582940 0.518303 0.237980
0.588190 0.461982 0.145083
0.604456 0.401099 0.042390
0.647578 0.430488 0.002014
0.681849 0.457221 0.000000
0.710079 0.481910 0.040467
0.733974 0.504417 0.074006
0.755886 0.526360 0.097688
0.776822 0.548425 0.119600
0.796933 0.570336 0.142336
0.816037 0.591760 0.166018
0.831724 0.604456 0.187900
0.845518 0.612085 0.208530
0.859617 0.621210 0.230869
0.874113 0.631769 0.255039
0.888975 0.643885 0.282444
0.371252 0.543481 0.431128
0.374884 0.543908 0.432380
0.388037 0.550744 0.440589
0.397192 0.551568 0.443763
0.411017 0.552819 0.448829
0.428229 0.554467 0.455543
0.448371 0.556481 0.464118
0.470344 0.558862 0.474403
0.493385 0.561669 0.486885
0.519951 0.564202 0.504692
0.536767 0.564294 0.516014
0.550561 0.564569 0.527459
0.561639 0.565332 0.539422
0.569635 0.566705 0.551965
0.567803 0.574640 0.511254
0.577905 0.578668 0.445777
0.601587 0.576684 0.364477
0.615900 0.551293 0.270665
0.620142 0.498360 0.170565
0.633356 0.435920 0.060212
0.669795 0.456641 0.024292
0.700832 0.481575 0.043763
0.726467 0.504540 0.074891
0.749050 0.526329 0.099763
0.770535 0.548272 0.122927
0.791104 0.570153 0.145815
0.810697 0.591669 0.169711
0.829404 0.612482 0.194766
0.847379 0.632380 0.220706
0.861387 0.640406 0.242252
0.875578 0.649226 0.265507
0.890196 0.659602 0.291661
0.421332 0.578637 0.468971
0.425147 0.579675 0.470802
0.430060 0.580743 0.472938
0.438727 0.582147 0.476570
0.450935 0.583612 0.481483
0.465888 0.585229 0.487526
0.482887 0.586999 0.494972
0.501396 0.588983 0.503899
0.521050 0.591333 0.514580
0.542199 0.593652 0.528069
0.562066 0.594842 0.542351
0.575097 0.594873 0.552361
0.586114 0.595209 0.562890
0.594659 0.596002 0.573754
0.600244 0.597406 0.583368
0.597436 0.604059 0.532738
0.607416 0.605798 0.470039
0.628870 0.602533 0.391821
0.641169 0.577508 0.299870
0.645624 0.528649 0.196994
0.657710 0.469612 0.081910
0.687404 0.478462 0.057221
0.716335 0.502159 0.071046
0.740383 0.524102 0.095216
0.762753 0.546258 0.120577
0.784176 0.568536 0.144900
0.804654 0.590539 0.169986
0.824125 0.611963 0.196262
0.842771 0.632471 0.223148
0.860777 0.652064 0.250858
0.877195 0.667231 0.277379
0.891569 0.676020 0.302403
0.463325 0.607904 0.501793
0.466590 0.608789 0.503441
0.470710 0.609644 0.505364
0.477790 0.610773 0.508446
0.488075 0.611963 0.512749
0.500450 0.613214 0.518090
0.514763 0.614527 0.524559
0.530541 0.616052 0.532280
0.547417 0.617823 0.541588
0.564691 0.619837 0.552300
0.584619 0.621576 0.567285
0.597436 0.621790 0.576959
0.607630 0.621912 0.585840
0.616083 0.622370 0.595148
0.622461 0.623133 0.604547
0.624140 0.625544 0.601556
0.623255 0.629694 0.554223
0.632959 0.629908 0.494301
0.652674 0.626001 0.419623
0.663447 0.601648 0.330297
0.668299 0.556634 0.227146
0.678920 0.500755 0.110292
0.703883 0.499214 0.076295
0.730831 0.521813 0.091188
0.754421 0.543725 0.114321
0.776699 0.566278 0.141024
0.798032 0.588830 0.167575
0.818326 0.610834 0.195193
0.837766 0.631983 0.223301
0.856443 0.652125 0.251957
0.874540 0.671321 0.281437
0.892058 0.689815 0.312261
0.501122 0.633448 0.532433
0.503838 0.634119 0.533867
0.507195 0.634852 0.535546
0.513237 0.635706 0.538323
0.521752 0.636683 0.542138
0.532219 0.637598 0.546868
0.544335 0.638605 0.552605
0.557794 0.639765 0.559503
0.572320 0.641138 0.567712
0.587121 0.642756 0.576959
0.602686 0.644373 0.588281
0.617212 0.645380 0.599908
0.626429 0.645380 0.607477
0.634424 0.645655 0.615351
0.640955 0.646204 0.623468
0.645899 0.647120 0.631769
0.645411 0.650019 0.619104
0.646113 0.652674 0.575769
0.655726 0.652216 0.519402
0.674159 0.648188 0.448920
0.684047 0.625055 0.363500
0.689631 0.584039 0.261692
0.699428 0.531121 0.142519
0.720638 0.520867 0.096742
0.746548 0.543145 0.113252
0.770260 0.565698 0.136355
0.792538 0.588800 0.165896
0.813687 0.611536 0.195621
0.833951 0.633326 0.225315
0.853330 0.654047 0.255497
0.872038 0.673793 0.286625
0.890135 0.692775 0.318700
0.538079 0.657527 0.563622
0.540063 0.657832 0.564569
0.542351 0.658137 0.565667
0.547082 0.658564 0.567834
0.553979 0.659113 0.570977
0.562707 0.659724 0.575158
0.572930 0.660517 0.580255
0.584222 0.661494 0.586358
0.596368 0.662745 0.593469
0.608911 0.664210 0.601434
0.621363 0.665888 0.610254
0.635370 0.667323 0.621851
0.644678 0.667720 0.629450
0.651972 0.667872 0.636133
0.658228 0.668238 0.642969
0.663294 0.668910 0.650019
0.667201 0.669856 0.657465
0.665339 0.672663 0.636835
0.666987 0.674067 0.597009
0.676020 0.672694 0.544518
0.692897 0.668299 0.477577
0.701503 0.645777 0.395636
0.707515 0.607874 0.295415
0.716579 0.557885 0.175448
0.734920 0.539696 0.115023
0.760983 0.562646 0.131685
0.784756 0.585748 0.157076
0.807065 0.609155 0.188266
0.828244 0.631861 0.220340
0.848478 0.653437 0.252445
0.867948 0.673884 0.285069
0.886809 0.693599 0.318700
0.568353 0.676600 0.590021
0.569970 0.676875 0.590875
0.571923 0.677211 0.591943
0.575891 0.677577 0.593835
0.581537 0.678065 0.596643
0.588708 0.678614 0.600214
0.597070 0.679347 0.604578
0.606409 0.680262 0.609766
0.616541 0.681514 0.615869
0.627100 0.682979 0.622675
0.637751 0.684749 0.630152
0.648920 0.686580 0.639033
0.659754 0.687922 0.648371
0.666651 0.688136 0.654170
0.672969 0.688502 0.660426
0.678431 0.689082 0.667048
0.682948 0.689906 0.674037
0.686458 0.691035 0.681392
0.683680 0.693690 0.652522
0.686213 0.694209 0.615808
0.695003 0.692317 0.567895
0.710536 0.687678 0.504753
0.718044 0.665858 0.427192
0.724086 0.630549 0.330083
0.731716 0.582330 0.209689
0.748989 0.558160 0.132296
0.775448 0.581964 0.149813
0.799313 0.605737 0.178164
0.821714 0.629175 0.210636
0.842893 0.651759 0.245365
0.863340 0.673213 0.280034
0.883055 0.693812 0.315892
0.596216 0.696254 0.616175
0.597528 0.696590 0.616968
0.599145 0.696834 0.617823
0.602228 0.697200 0.619409
0.606744 0.697658 0.621698
0.612421 0.698268 0.624628
0.619196 0.698970 0.628290
0.626886 0.699916 0.632654
0.635248 0.701106 0.637629
0.644007 0.702541 0.643275
0.652979 0.704219 0.649439
0.662196 0.706142 0.656306
0.673243 0.707790 0.665919
0.681117 0.708309 0.672633
0.687282 0.708400 0.678218
0.692744 0.708675 0.684138
0.697475 0.709163 0.690486
0.701411 0.709957 0.697169
0.703212 0.711421 0.698695
0.701045 0.713466 0.667536
0.704280 0.713405 0.632624
0.712795 0.711116 0.588739
0.727260 0.706294 0.529961
0.733730 0.684840 0.456062
0.739620 0.651789 0.362463
0.747402 0.607202 0.245396
0.764126 0.577905 0.151217
0.790829 0.602502 0.170718
0.814755 0.626551 0.201389
0.837217 0.649805 0.235264
0.858640 0.672297 0.272740
0.879301 0.693904 0.310887
0.617487 0.714260 0.638025
0.618647 0.714565 0.638758
0.619959 0.714870 0.639521
0.622492 0.715267 0.640894
0.626276 0.715724 0.642908
0.631128 0.716426 0.645472
0.636896 0.717281 0.648676
0.643458 0.718349 0.652430
0.650690 0.719692 0.656825
0.658625 0.721279 0.661921
0.667048 0.723018 0.667811
0.675929 0.724971 0.674434
0.685695 0.726894 0.682643
0.695644 0.728359 0.691737
0.701747 0.728481 0.696986
0.707362 0.728725 0.702541
0.712337 0.729152 0.708461
0.716670 0.729824 0.714687
0.720241 0.730831 0.721279
0.720302 0.732631 0.714900
0.719142 0.734005 0.684382
0.722866 0.733394 0.649958
0.731228 0.730678 0.609613
0.744167 0.725399 0.556054
0.750240 0.705074 0.486213
0.756191 0.674189 0.396857
0.763668 0.632227 0.282353
0.780331 0.599023 0.172030
0.807187 0.624292 0.195468
0.831449 0.648585 0.227604
0.854276 0.671839 0.263920
0.876005 0.694484 0.305119
0.636194 0.732601 0.658808
0.637110 0.732876 0.659358
0.638148 0.733089 0.659968
0.640223 0.733425 0.661097
0.643336 0.733913 0.662715
0.647456 0.734585 0.664942
0.652522 0.735409 0.667781
0.658503 0.736477 0.671260
0.665309 0.737728 0.675441
0.672755 0.739284 0.680354
0.680812 0.741024 0.686000
0.689357 0.742947 0.692378
0.698054 0.744991 0.699428
0.708370 0.746822 0.708919
0.715724 0.747555 0.715541
0.721279 0.747738 0.720668
0.726314 0.748013 0.726009
0.730800 0.748531 0.731685
0.734676 0.749325 0.737697
0.737881 0.750393 0.743954
0.736599 0.752224 0.730434
0.736202 0.753109 0.700832
0.740383 0.752193 0.666926
0.748714 0.749355 0.628626
0.760494 0.743740 0.579950
0.766323 0.724544 0.514794
0.772488 0.695857 0.429755
0.780087 0.656641 0.318669
0.796872 0.620325 0.193881
0.823880 0.646082 0.220951
0.848692 0.670466 0.255039
0.871946 0.693965 0.295201
0.652186 0.750027 0.677668
0.652918 0.750210 0.678126
0.653895 0.750423 0.678706
0.655818 0.750790 0.679744
0.658839 0.751308 0.681453
0.662867 0.752102 0.683772
0.667872 0.753109 0.686793
0.673793 0.754421 0.690547
0.680568 0.755947 0.694942
0.688014 0.757748 0.700099
0.696010 0.759701 0.705928
0.704372 0.761868 0.712398
0.712978 0.764096 0.719417
0.722225 0.766262 0.727718
0.731685 0.768093 0.736721
0.737087 0.768246 0.741360
0.742123 0.768490 0.746212
0.746639 0.768917 0.751308
0.750698 0.769528 0.756680
0.754177 0.770382 0.762234
0.757015 0.771450 0.767971
0.754604 0.773129 0.748623
0.754849 0.773587 0.720333
0.759304 0.772488 0.687373
0.767758 0.769680 0.649683
0.778714 0.763882 0.605371
0.784298 0.745876 0.546105
0.790890 0.719326 0.465644
0.798978 0.683406 0.359808
0.818296 0.651179 0.233982
0.843870 0.671534 0.254826
0.869383 0.696071 0.291691
0.669429 0.768338 0.698146
0.670069 0.768490 0.698543
0.670893 0.768673 0.699031
0.672724 0.768948 0.700038
0.675502 0.769375 0.701625
0.679225 0.770016 0.703822
0.683864 0.770901 0.706600
0.689326 0.771969 0.710048
0.695583 0.773281 0.714168
0.702541 0.774777 0.718990
0.709957 0.776486 0.724331
0.717800 0.778378 0.730282
0.725887 0.780392 0.736751
0.734035 0.782528 0.743709
