data/fiter_cube/29797953/1022859/file.cube
# Created by Adobe Lightroom plugin Export LUT (1.17.0)
# www.johnrellis.com/lightroom/exportlut.htm
# Preset: 电影灰蓝色_04 云集
# Color profile: C:\Program Files (x86)\Common Files\Adobe\Color\Profiles\Recommended\AdobeRGB1998.icc
LUT_3D_SIZE 8
DOMAIN_MIN 0.000000 0.000000 0.000000
DOMAIN_MAX 0.903226 0.903226 0.903226
0.069123 0.076112 0.088075
0.087800 0.081056 0.089815
0.174960 0.095125 0.090608
0.365393 0.096284 0.080629
0.558465 0.105806 0.057099
0.685908 0.202579 0.031708
0.762844 0.309026 0.078828
0.829099 0.422461 0.146426
0.073182 0.086030 0.096162
0.086732 0.092592 0.094850
0.186252 0.117586 0.089082
0.377234 0.128878 0.077455
0.564813 0.146944 0.048402
0.685420 0.226566 0.021302
0.761807 0.322759 0.075868
0.828336 0.430579 0.145266
0.086061 0.138918 0.130373
0.109865 0.150790 0.146700
0.180270 0.180117 0.109743
0.410864 0.224704 0.062196
0.597589 0.270146 0.000000
0.699458 0.318761 0.000000
0.770169 0.388006 0.080537
0.833524 0.472633 0.156222
0.143954 0.302403 0.233402
0.181827 0.313451 0.248936
0.290105 0.329046 0.312108
0.404883 0.362219 0.148196
0.591516 0.353124 0.000000
0.720333 0.458900 0.000000
0.779873 0.482307 0.093202
0.838529 0.534081 0.172915
0.320104 0.504875 0.392615
0.355871 0.509178 0.405127
0.456367 0.521782 0.452338
0.526940 0.526513 0.509880
0.582940 0.518303 0.237980
0.681849 0.457221 0.000000
0.776822 0.548425 0.119600
0.845518 0.612085 0.208530
0.501122 0.633448 0.532433
0.521752 0.636683 0.542138
0.572320 0.641138 0.567712
0.626429 0.645380 0.607477
0.645411 0.650019 0.619104
0.684047 0.625055 0.363500
0.746548 0.543145 0.113252
0.833951 0.633326 0.225315
0.617487 0.714260 0.638025
0.626276 0.715724 0.642908
0.650690 0.719692 0.656825
0.685695 0.726894 0.682643
0.712337 0.729152 0.708461
0.719142 0.734005 0.684382
0.750240 0.705074 0.486213
0.807187 0.624292 0.195468
0.684230 0.783841 0.715846
0.690089 0.784878 0.719295
0.709377 0.788693 0.731716
0.738552 0.795895 0.753536
0.766781 0.800320 0.777676
0.783047 0.802609 0.795651
0.786526 0.806882 0.752010
0.818021 0.781064 0.592004
0.073121 0.082643 0.100130
0.090059 0.080598 0.106020
0.168093 0.098482 0.112001
0.353979 0.110231 0.113344
0.549432 0.128084 0.106447
0.675410 0.213260 0.107210
0.755703 0.315557 0.128939
0.823392 0.425635 0.181704
0.075624 0.089448 0.103426
0.087465 0.099977 0.114961
0.179232 0.120851 0.116213
0.368139 0.138186 0.112856
0.557488 0.162539 0.105318
0.677638 0.237369 0.105898
0.755520 0.329503 0.127901
0.822690 0.433204 0.180423
0.084993 0.151339 0.145663
0.113405 0.166293 0.161410
0.185580 0.194217 0.142153
0.412024 0.240330 0.107210
0.587030 0.273045 0.098329
0.691157 0.322698 0.104250
0.762387 0.389227 0.133455
0.827390 0.473152 0.190555
0.145754 0.313634 0.249638
0.187503 0.325933 0.265385
0.302434 0.345312 0.323613
0.401862 0.367529 0.185000
0.583886 0.359380 0.094087
0.710262 0.454475 0.104921
0.772000 0.480049 0.146822
0.832700 0.533440 0.207095
0.327886 0.511284 0.405585
0.360845 0.514458 0.415717
0.453376 0.524712 0.454017
0.527794 0.528588 0.509606
0.577905 0.518975 0.268437
0.678889 0.462837 0.103334
0.773526 0.553521 0.170840
0.841123 0.611994 0.242985
0.501122 0.633997 0.536431
0.518517 0.635370 0.543206
0.568261 0.639673 0.566674
0.624537 0.644984 0.606378
0.646723 0.649866 0.626184
0.681941 0.626703 0.384314
0.745327 0.548058 0.154513
0.831662 0.636652 0.256168
0.615076 0.713039 0.637873
0.623011 0.713771 0.641657
0.647791 0.717891 0.655451
0.682490 0.725704 0.680018
0.711818 0.729213 0.707942
0.718959 0.733700 0.688777
0.747707 0.704463 0.495308
0.804837 0.625452 0.218418
0.682155 0.783261 0.715541
0.688258 0.784451 0.719112
0.707698 0.788357 0.731350
0.737118 0.795529 0.752865
0.768368 0.802579 0.779995
0.784268 0.804166 0.796963
0.786770 0.807309 0.755550
0.816861 0.780972 0.596429
0.077760 0.100160 0.143526
0.084779 0.093965 0.166323
0.203586 0.080812 0.186252
0.356176 0.100984 0.179934
0.530694 0.174136 0.205386
0.661463 0.261143 0.221439
0.745357 0.354376 0.242435
0.814878 0.452827 0.284215
0.105257 0.122683 0.138979
0.104280 0.130922 0.166659
0.199741 0.119600 0.195865
0.347021 0.162478 0.202060
0.537865 0.203586 0.211734
0.663783 0.280339 0.223362
0.745815 0.366613 0.243229
0.815000 0.460487 0.284703
0.105989 0.163607 0.179934
0.124117 0.178775 0.193942
0.193942 0.224979 0.235874
0.393896 0.259586 0.227237
0.568536 0.297917 0.228702
0.677607 0.352941 0.234989
0.751461 0.417182 0.254215
0.818204 0.493141 0.293309
0.118807 0.349889 0.306859
0.173404 0.360845 0.315923
0.309941 0.385229 0.349126
0.416052 0.403326 0.298375
0.591852 0.415839 0.239658
0.697353 0.469520 0.260136
0.761685 0.498970 0.277989
0.824430 0.548821 0.312322
0.321660 0.528649 0.437720
0.360937 0.532616 0.446967
0.456641 0.541894 0.474739
0.542535 0.549340 0.522576
0.581231 0.540032 0.367224
0.680812 0.499550 0.243168
0.769863 0.583062 0.307805
0.832731 0.620325 0.343969
0.500725 0.641810 0.553735
0.520043 0.643214 0.560204
0.569512 0.646723 0.579065
0.623590 0.651637 0.609918
0.654719 0.655879 0.643061
0.677790 0.634821 0.448310
0.743435 0.569543 0.265293
0.828611 0.654353 0.353277
0.615106 0.718105 0.647639
0.623407 0.719020 0.651240
0.647303 0.722377 0.662501
0.680720 0.728786 0.682673
0.713436 0.733730 0.710964
0.723903 0.738247 0.709346
0.745754 0.710567 0.535454
0.805142 0.641291 0.302373
0.679225 0.785733 0.719905
0.684504 0.786404 0.722377
0.704067 0.789883 0.733333
0.734463 0.797116 0.753872
0.768093 0.805417 0.781460
0.786618 0.807736 0.799496
0.789334 0.810391 0.769406
0.816159 0.784268 0.616022
0.090974 0.144198 0.235080
0.092470 0.140078 0.260166
0.212467 0.088258 0.347906
0.434913 0.000000 0.327764
0.562463 0.149874 0.300359
0.628138 0.302434 0.336278
0.721004 0.391516 0.360937
0.795865 0.477790 0.393866
0.140475 0.188205 0.236667
0.132021 0.183902 0.262211
0.203494 0.145724 0.344182
0.432685 0.123140 0.337163
0.557275 0.198795 0.311559
0.629023 0.324712 0.344793
0.722133 0.403723 0.364630
0.796872 0.484169 0.394354
0.184237 0.226139 0.244663
0.201633 0.239414 0.255650
0.247166 0.285588 0.319158
0.422614 0.271153 0.367315
0.537102 0.326787 0.356329
0.646326 0.390723 0.370062
0.730190 0.451392 0.383825
0.802365 0.514427 0.404883
0.207858 0.328649 0.334325
0.232853 0.341650 0.345403
0.309972 0.380316 0.378454
0.422980 0.431281 0.424445
0.569238 0.457099 0.404730
0.668299 0.484199 0.402136
0.740078 0.516533 0.406043
0.808896 0.562493 0.422156
0.322179 0.533532 0.481483
0.352972 0.542199 0.490517
0.441749 0.562127 0.512535
0.536431 0.567559 0.530419
0.581964 0.565454 0.480995
0.677974 0.555657 0.414466
0.756008 0.604486 0.444770
0.818784 0.628046 0.451331
0.495918 0.654902 0.585809
0.516411 0.656733 0.590631
0.565759 0.658259 0.601007
0.619471 0.661402 0.618677
0.659876 0.665400 0.647395
0.674189 0.649165 0.530480
0.740719 0.605768 0.404791
0.824186 0.681666 0.472419
0.610529 0.725093 0.663203
0.619165 0.726223 0.666194
0.643702 0.729793 0.675196
0.677150 0.735470 0.690150
0.714107 0.741573 0.715541
0.735592 0.747158 0.742306
0.742977 0.719203 0.587274
0.803372 0.664118 0.410529
0.676417 0.791196 0.731167
0.681819 0.792050 0.733394
0.698970 0.794583 0.740566
0.727504 0.799802 0.755459
0.762051 0.807828 0.778958
0.789242 0.812985 0.802609
0.794491 0.815579 0.791318
0.815061 0.789059 0.643275
0.138643 0.220523 0.359045
0.140749 0.216251 0.378424
0.208347 0.192355 0.440314
0.457862 0.000000 0.511009
0.607294 0.176272 0.468544
0.677729 0.299901 0.437995
0.719600 0.394842 0.441352
0.767941 0.511559 0.498451
0.198276 0.266453 0.359319
0.188632 0.258183 0.378180
0.225437 0.234195 0.437659
0.455940 0.126375 0.515221
0.603937 0.224979 0.474189
0.674128 0.326146 0.444221
0.716091 0.414252 0.450019
0.769375 0.517296 0.500237
0.286259 0.309911 0.316930
0.295415 0.326360 0.341314
0.311772 0.351934 0.419654
0.430518 0.300175 0.510613
0.592523 0.340948 0.490791
0.660700 0.397009 0.462043
0.703395 0.468574 0.475593
0.774350 0.535637 0.504356
0.334600 0.383124 0.393317
0.349767 0.391730 0.400122
0.396765 0.418494 0.421027
0.456550 0.465766 0.471778
0.576410 0.468788 0.516106
0.639002 0.490761 0.495766
0.708614 0.528283 0.502434
0.786069 0.568231 0.509911
0.392493 0.497078 0.486152
0.408423 0.503319 0.491768
0.455329 0.521935 0.508995
0.514946 0.548241 0.533562
0.576898 0.574945 0.560235
0.660822 0.586053 0.538293
0.729213 0.599420 0.531395
0.799649 0.625452 0.531090
0.491463 0.634394 0.595026
0.505974 0.638453 0.599878
0.548180 0.650813 0.614771
0.602136 0.666987 0.634180
0.647120 0.667262 0.641291
0.668391 0.661128 0.602014
0.737118 0.649592 0.539544
0.816342 0.700557 0.570123
0.601251 0.733364 0.687434
0.609339 0.733852 0.688746
0.633356 0.736141 0.693324
0.666163 0.740505 0.701167
0.702419 0.745510 0.713863
0.736141 0.750973 0.740719
0.739742 0.727840 0.635370
0.801602 0.692012 0.518242
0.668666 0.796323 0.746273
0.673823 0.796902 0.747585
0.690700 0.799008 0.752377
0.717647 0.803830 0.762142
0.750515 0.809720 0.777035
0.788113 0.818082 0.803738
0.803922 0.822416 0.818845
0.812680 0.794156 0.675074
0.254673 0.324590 0.477852
0.257084 0.320043 0.490120
0.297093 0.304784 0.530144
0.439002 0.245670 0.592248
0.622065 0.202548 0.620020
0.696376 0.342321 0.572686
0.745937 0.442664 0.555077
0.789761 0.512657 0.561212
0.298528 0.359045 0.473548
0.293004 0.351476 0.485725
0.316381 0.335821 0.525719
0.437354 0.286564 0.587060
0.618189 0.244511 0.619898
0.693507 0.365087 0.574975
0.743374 0.454749 0.557519
0.787869 0.518761 0.562737
0.382300 0.416693 0.448371
0.387854 0.423957 0.464546
0.391241 0.425055 0.511803
0.445319 0.397436 0.573754
0.608667 0.355200 0.623774
0.686336 0.434852 0.585382
0.735988 0.494270 0.567590
0.782315 0.540215 0.569146
0.438880 0.452064 0.451728
0.446357 0.456519 0.454749
0.470222 0.472084 0.465034
0.501061 0.513603 0.546868
0.586633 0.486030 0.623255
0.676570 0.521172 0.602838
0.724544 0.547539 0.583062
0.770565 0.582452 0.587213
0.488838 0.527184 0.525292
0.496559 0.530968 0.528588
0.520226 0.543023 0.538628
0.552544 0.560204 0.552697
0.585382 0.586603 0.582147
0.662898 0.595453 0.619715
0.705257 0.598230 0.597375
0.769924 0.625574 0.603265
0.535515 0.612146 0.598810
0.543420 0.615290 0.601953
0.566278 0.624079 0.610803
0.597589 0.636988 0.623896
0.629114 0.651575 0.638453
0.664027 0.666865 0.654780
0.726223 0.673640 0.634974
0.795529 0.686641 0.626673
0.602899 0.705257 0.679805
0.609308 0.708034 0.683009
0.628138 0.716854 0.692866
0.655024 0.732509 0.709438
0.689418 0.752865 0.730190
0.725429 0.754116 0.735714
0.738613 0.740597 0.689570
0.803769 0.731044 0.632258
0.663172 0.796078 0.762387
0.667353 0.797757 0.764340
0.681575 0.803861 0.771328
0.706722 0.809812 0.778592
0.738796 0.814664 0.786160
0.775296 0.821164 0.799954
0.809171 0.828702 0.825772
0.810605 0.802457 0.717525
0.402960 0.445411 0.583734
0.403876 0.441291 0.591119
0.423835 0.430365 0.614984
0.486519 0.401251 0.652125
0.609888 0.330663 0.696742
0.712642 0.371649 0.697993
0.757443 0.474739 0.657404
0.809903 0.555169 0.658656
0.428351 0.467842 0.580133
0.425147 0.462165 0.587701
0.436530 0.450294 0.611780
0.490242 0.424262 0.649012
0.606287 0.363195 0.693996
0.710506 0.392493 0.698390
0.756100 0.486763 0.659297
0.808804 0.561303 0.660090
0.484657 0.513817 0.562737
0.488594 0.517082 0.573114
0.480720 0.506035 0.599207
0.505638 0.488380 0.638270
0.595819 0.450111 0.684627
0.703273 0.452796 0.699825
0.751736 0.523949 0.665644
0.805234 0.580591 0.664424
0.524071 0.522484 0.512688
0.526360 0.528954 0.523461
0.535973 0.549310 0.560937
0.547021 0.561761 0.616510
0.586725 0.543755 0.667445
0.691676 0.527947 0.702937
0.745296 0.574090 0.675685
0.799557 0.607630 0.669764
0.563836 0.575830 0.571496
0.566949 0.577417 0.572503
0.576593 0.582116 0.575250
0.588861 0.587304 0.576379
0.608759 0.617090 0.637964
0.672328 0.601953 0.703548
0.738125 0.624994 0.687861
0.791165 0.638178 0.674037
0.601251 0.635401 0.631220
0.604334 0.636774 0.632441
0.614466 0.641199 0.636316
0.628840 0.647211 0.641382
0.644312 0.652857 0.645319
0.661860 0.667475 0.664515
0.729641 0.677455 0.702327
0.776120 0.672572 0.677089
0.630304 0.692744 0.683619
0.633295 0.694179 0.685115
0.642908 0.698970 0.690181
0.657984 0.707057 0.698665
0.678401 0.718349 0.710384
0.703182 0.732235 0.724849
0.733059 0.745296 0.739040
0.795773 0.747829 0.714961
0.663508 0.769436 0.752285
0.666926 0.771237 0.754269
0.678523 0.777523 0.761074
0.698268 0.788602 0.772976
0.726162 0.804959 0.790219
0.762325 0.827115 0.812955
0.800229 0.832456 0.822202
0.809567 0.815244 0.771328
0.553124 0.576684 0.680659
0.552392 0.573571 0.684627
0.557549 0.565942 0.698268
0.578393 0.548516 0.722377
0.632868 0.513146 0.755673
0.726589 0.459419 0.789822
0.783627 0.516625 0.772885
0.822416 0.583429 0.744289
0.563653 0.587518 0.677882
0.561456 0.583795 0.681971
0.563561 0.575555 0.695796
0.581476 0.559503 0.720089
0.632319 0.526970 0.753658
0.725154 0.472450 0.789975
0.783261 0.525536 0.774350
0.821866 0.588678 0.745296
0.593439 0.615991 0.667781
0.591516 0.613947 0.671870
0.584710 0.604242 0.686458
0.592218 0.591424 0.711543
0.631037 0.567468 0.746242
0.717189 0.519097 0.787411
0.782223 0.552972 0.779568
0.820127 0.605585 0.748684
0.613123 0.627375 0.638849
0.614038 0.629572 0.644495
0.618097 0.636408 0.664179
0.614893 0.631769 0.694453
0.631525 0.616754 0.731991
0.699489 0.586938 0.776455
0.777096 0.591302 0.784665
0.817685 0.630549 0.754299
0.638972 0.642267 0.633967
0.639490 0.642206 0.633387
0.640864 0.641321 0.630640
0.641199 0.650996 0.653376
0.645624 0.661280 0.706294
0.678798 0.645930 0.758267
0.766323 0.633661 0.788998
0.814328 0.663661 0.762509
0.660792 0.680049 0.678096
0.661799 0.680323 0.678187
0.664973 0.680873 0.678035
0.669184 0.680476 0.675990
0.672175 0.676905 0.668696
0.681086 0.696681 0.723720
0.747311 0.684047 0.792874
0.809720 0.706020 0.774258
0.679896 0.723415 0.723995
0.681300 0.723995 0.724575
0.686030 0.725917 0.726406
0.693935 0.728847 0.729152
0.704341 0.732082 0.731868
0.715053 0.733211 0.731441
0.727871 0.743893 0.750393
0.803189 0.757992 0.790585
0.696132 0.769345 0.766751
0.697810 0.770169 0.767605
0.703792 0.773129 0.770748
0.714534 0.778592 0.776455
0.730282 0.786831 0.785092
0.751278 0.798276 0.796994
0.778408 0.813535 0.812711
0.810208 0.828214 0.828367
