data/fiter_cube/96143635/1022812/file.cube
# Created by Adobe Lightroom plugin Export LUT (1.17.0)
# www.johnrellis.com/lightroom/exportlut.htm
# Preset: 高雅通透灰色调人像_05 云集
# Color profile: C:\Program Files (x86)\Common Files\Adobe\Color\Profiles\Recommended\AdobeRGB1998.icc
LUT_3D_SIZE 5
DOMAIN_MIN 0.000000 0.000000 0.000000
DOMAIN_MAX 0.903226 0.903226 0.903226
0.000000 0.000000 0.000000
0.230533 0.063233 0.073365
0.418219 0.083650 0.111574
0.583093 0.119203 0.158572
0.764248 0.161501 0.208408
0.182528 0.182528 0.182528
0.206638 0.206638 0.206638
0.458625 0.237797 0.158816
0.605829 0.231968 0.190219
0.781552 0.253208 0.234501
0.355352 0.355352 0.355352
0.365362 0.365362 0.365362
0.402380 0.402380 0.402380
0.673823 0.452796 0.318517
0.826474 0.454688 0.329473
0.515007 0.515007 0.515007
0.520256 0.520256 0.520256
0.537591 0.537591 0.537591
0.567834 0.567834 0.567834
0.822110 0.634730 0.545922
0.682551 0.682551 0.682551
0.686305 0.686305 0.686305
0.697871 0.697871 0.697871
0.726070 0.726070 0.726070
0.767453 0.767453 0.767453
0.151705 0.151705 0.151705
0.190341 0.190341 0.190341
0.404608 0.186923 0.267216
0.557549 0.082124 0.223758
0.743191 0.125765 0.250309
0.217502 0.217502 0.217502
0.263676 0.263676 0.263676
0.430854 0.218814 0.248173
0.581079 0.216739 0.251896
0.759731 0.232578 0.273930
0.368322 0.368322 0.368322
0.397040 0.397040 0.397040
0.425696 0.425696 0.425696
0.657008 0.457893 0.363897
0.812314 0.447578 0.366003
0.525444 0.525444 0.525444
0.535515 0.535515 0.535515
0.551568 0.551568 0.551568
0.579950 0.579950 0.579950
0.833127 0.644709 0.554559
0.691035 0.691035 0.691035
0.694636 0.694636 0.694636
0.708949 0.708949 0.708949
0.735164 0.735164 0.735164
0.775326 0.775326 0.775326
0.298161 0.298161 0.298161
0.317327 0.317327 0.317327
0.364508 0.364508 0.364508
0.505058 0.465156 0.484535
0.735653 0.307469 0.463539
0.353826 0.353826 0.353826
0.366155 0.366155 0.366155
0.402075 0.402075 0.402075
0.533928 0.458076 0.492226
0.749294 0.282231 0.438453
0.412268 0.412268 0.412268
0.435462 0.435462 0.435462
0.489204 0.489204 0.489204
0.597589 0.417731 0.451362
0.766537 0.384924 0.422278
0.530388 0.530388 0.530388
0.544152 0.544152 0.544152
0.589593 0.589593 0.589593
0.616815 0.616815 0.616815
0.859922 0.672694 0.579858
0.695125 0.695125 0.695125
0.704921 0.704921 0.704921
0.732174 0.732174 0.732174
0.756161 0.756161 0.756161
0.794034 0.794034 0.794034
0.449042 0.449042 0.449042
0.458137 0.458137 0.458137
0.486091 0.486091 0.486091
0.522148 0.522148 0.522148
0.646998 0.646998 0.646998
0.480629 0.480629 0.480629
0.486976 0.486976 0.486976
0.507256 0.507256 0.507256
0.538628 0.538628 0.538628
0.658015 0.658015 0.658015
0.526024 0.526024 0.526024
0.539391 0.539391 0.539391
0.565179 0.565179 0.565179
0.591180 0.591180 0.591180
0.706233 0.674250 0.689784
0.575982 0.575982 0.575982
0.586206 0.586206 0.586206
0.620111 0.620111 0.620111
0.671778 0.671778 0.671778
0.791501 0.559747 0.597223
0.702724 0.702724 0.702724
0.711543 0.711543 0.711543
0.741573 0.741573 0.741573
0.795254 0.795254 0.795254
0.830777 0.830777 0.830777
0.618097 0.618097 0.618097
0.622766 0.622766 0.622766
0.637690 0.637690 0.637690
0.662989 0.662989 0.662989
0.698024 0.698024 0.698024
0.635157 0.635157 0.635157
0.639094 0.639094 0.639094
0.652399 0.652399 0.652399
0.676265 0.676265 0.676265
0.709529 0.709529 0.709529
0.679316 0.679316 0.679316
0.683345 0.683345 0.683345
0.693477 0.693477 0.693477
0.714229 0.714229 0.714229
0.744137 0.744137 0.744137
0.717556 0.717556 0.717556
0.724727 0.724727 0.724727
0.747127 0.747127 0.747127
0.774350 0.774350 0.774350
0.805264 0.805264 0.805264
0.775082 0.775082 0.775082
0.781460 0.781460 0.781460
0.801938 0.801938 0.801938
0.842466 0.842466 0.842466
0.907317 0.907317 0.907317
