data/fiter_cube/96143635/1022812/file.cube
# Created by Adobe Lightroom plugin Export LUT (1.17.0)
# www.johnrellis.com/lightroom/exportlut.htm
# Preset: 高雅通透灰色调人像_05 云集
# Color profile: C:\Program Files (x86)\Common Files\Adobe\Color\Profiles\Recommended\AdobeRGB1998.icc
LUT_3D_SIZE 8
DOMAIN_MIN 0.000000 0.000000 0.000000
DOMAIN_MAX 0.903226 0.903226 0.903226
0.000000 0.000000 0.000000
0.138247 0.052247 0.057954
0.258885 0.064454 0.077394
0.367376 0.075044 0.098116
0.466560 0.092470 0.124453
0.560388 0.112947 0.151705
0.653559 0.135836 0.178500
0.764248 0.161501 0.208408
0.109529 0.109529 0.109529
0.123415 0.123415 0.123415
0.276158 0.143465 0.094331
0.379461 0.141268 0.113191
0.475563 0.145907 0.135897
0.564813 0.155520 0.160250
0.655695 0.170077 0.185336
0.765713 0.191318 0.214511
0.207095 0.207095 0.207095
0.213413 0.213413 0.213413
0.233890 0.233890 0.233890
0.423957 0.274876 0.178134
0.514855 0.268193 0.181277
0.592157 0.260349 0.196567
0.681025 0.263828 0.216953
0.785519 0.277134 0.242832
0.306249 0.306249 0.306249
0.309392 0.309392 0.309392
0.322057 0.322057 0.322057
0.348547 0.348547 0.348547
0.523339 0.382177 0.310155
0.639368 0.398901 0.267521
0.716884 0.387213 0.275273
0.811154 0.390692 0.293858
0.403906 0.403906 0.403906
0.406104 0.406104 0.406104
0.414740 0.414740 0.414740
0.430793 0.430793 0.430793
0.450874 0.450874 0.450874
0.589532 0.477485 0.428656
0.751369 0.511223 0.368505
0.844022 0.522972 0.372869
0.492531 0.492531 0.492531
0.495735 0.495735 0.495735
0.500908 0.500908 0.500908
0.510613 0.510613 0.510613
0.524468 0.524468 0.524468
0.543420 0.543420 0.543420
0.669642 0.577874 0.541222
0.840055 0.618708 0.504997
0.581537 0.581537 0.581537
0.583215 0.583215 0.583215
0.587060 0.587060 0.587060
0.595148 0.595148 0.595148
0.606897 0.606897 0.606897
0.623774 0.623774 0.623774
0.645319 0.645319 0.645319
0.757748 0.686793 0.660212
0.682551 0.682551 0.682551
0.683619 0.683619 0.683619
0.687770 0.687770 0.687770
0.696284 0.696284 0.696284
0.704341 0.704341 0.704341
0.721035 0.721035 0.721035
0.742611 0.742611 0.742611
0.767453 0.767453 0.767453
0.095430 0.095430 0.095430
0.111666 0.111666 0.111666
0.248478 0.116182 0.164492
0.359014 0.075074 0.152590
0.456886 0.092317 0.165225
0.549493 0.109987 0.180484
0.642054 0.129854 0.198764
0.754116 0.153170 0.222568
0.126619 0.126619 0.126619
0.157565 0.157565 0.157565
0.267674 0.141909 0.159701
0.371160 0.141970 0.165408
0.466712 0.145174 0.175051
0.555718 0.153109 0.188602
0.645502 0.165316 0.205203
0.755703 0.183963 0.228061
0.216831 0.216831 0.216831
0.236423 0.236423 0.236423
0.253788 0.253788 0.253788
0.415137 0.279820 0.215061
0.504417 0.265385 0.214237
0.581689 0.257053 0.220890
0.668299 0.258640 0.233921
0.774624 0.270878 0.254856
0.314458 0.314458 0.314458
0.322454 0.322454 0.322454
0.334783 0.334783 0.334783
0.356207 0.356207 0.356207
0.525353 0.386969 0.316167
0.624994 0.391852 0.284855
0.703914 0.380865 0.288396
0.801144 0.385229 0.303777
0.412421 0.412421 0.412421
0.414282 0.414282 0.414282
0.421759 0.421759 0.421759
0.435462 0.435462 0.435462
0.453834 0.453834 0.453834
0.592523 0.480049 0.430762
0.746304 0.514427 0.378424
0.837186 0.519402 0.382177
0.496101 0.496101 0.496101
0.497627 0.497627 0.497627
0.502739 0.502739 0.502739
0.512718 0.512718 0.512718
0.527031 0.527031 0.527031
0.546380 0.546380 0.546380
0.673671 0.579980 0.542351
0.840879 0.620050 0.506371
0.582116 0.582116 0.582116
0.582879 0.582879 0.582879
0.587121 0.587121 0.587121
0.595972 0.595972 0.595972
0.608362 0.608362 0.608362
0.624781 0.624781 0.624781
0.645350 0.645350 0.645350
0.758755 0.685908 0.658503
0.682948 0.682948 0.682948
0.684321 0.684321 0.684321
0.688655 0.688655 0.688655
0.697322 0.697322 0.697322
0.708949 0.708949 0.708949
0.724208 0.724208 0.724208
0.744076 0.744076 0.744076
0.767941 0.767941 0.767941
0.172152 0.172152 0.172152
0.183078 0.183078 0.183078
0.216556 0.216556 0.216556
0.303868 0.280064 0.291752
0.453681 0.205997 0.297520
0.545769 0.142245 0.270939
0.624018 0.080293 0.245335
0.740108 0.106538 0.261448
0.209110 0.209110 0.209110
0.218387 0.218387 0.218387
0.240360 0.240360 0.240360
0.328008 0.279759 0.301915
0.464881 0.208103 0.293980
0.542809 0.148470 0.259861
0.628504 0.133455 0.251865
0.743404 0.150515 0.267430
0.246098 0.246098 0.246098
0.261540 0.261540 0.261540
0.297581 0.297581 0.297581
0.391913 0.271489 0.297581
0.481910 0.244083 0.276463
0.562615 0.240482 0.275303
0.650477 0.241855 0.279271
0.760250 0.251621 0.292149
0.321843 0.321843 0.321843
0.333837 0.333837 0.333837
0.369726 0.369726 0.369726
0.390784 0.390784 0.390784
0.537438 0.408087 0.352087
0.606500 0.383703 0.337713
0.688563 0.372869 0.333532
0.789700 0.375799 0.340734
0.417182 0.417182 0.417182
0.425299 0.425299 0.425299
0.448280 0.448280 0.448280
0.460548 0.460548 0.460548
0.476753 0.476753 0.476753
0.616754 0.501274 0.449287
0.736904 0.520104 0.417151
0.826841 0.514946 0.416388
0.502373 0.502373 0.502373
0.507500 0.507500 0.507500
0.519554 0.519554 0.519554
0.528252 0.528252 0.528252
0.541375 0.541375 0.541375
0.559442 0.559442 0.559442
0.691951 0.591638 0.550500
0.852873 0.632197 0.517632
0.590967 0.590967 0.590967
0.594446 0.594446 0.594446
0.600244 0.600244 0.600244
0.607904 0.607904 0.607904
0.619409 0.619409 0.619409
0.635676 0.635676 0.635676
0.656794 0.656794 0.656794
0.776242 0.696925 0.666682
0.691981 0.691981 0.691981
0.692714 0.692714 0.692714
0.696529 0.696529 0.696529
0.705684 0.705684 0.705684
0.716854 0.716854 0.716854
0.732174 0.732174 0.732174
0.751980 0.751980 0.751980
0.775967 0.775967 0.775967
0.255283 0.255283 0.255283
0.263615 0.263615 0.263615
0.286015 0.286015 0.286015
0.316045 0.316045 0.316045
0.386999 0.386999 0.386999
0.513024 0.365362 0.428992
0.629206 0.280430 0.407416
0.738582 0.162387 0.365454
0.284092 0.284092 0.284092
0.289128 0.289128 0.289128
0.305180 0.305180 0.305180
0.330419 0.330419 0.330419
0.398260 0.398260 0.398260
0.520714 0.364416 0.429633
0.632929 0.277226 0.402014
0.736080 0.166903 0.357549
0.320043 0.320043 0.320043
0.331029 0.331029 0.331029
0.351720 0.351720 0.351720
0.372412 0.372412 0.372412
0.433265 0.433265 0.433265
0.548333 0.361120 0.427497
0.644495 0.275883 0.382422
0.732387 0.180423 0.328069
0.358373 0.358373 0.358373
0.367437 0.367437 0.367437
0.396307 0.396307 0.396307
0.432776 0.432776 0.432776
0.502251 0.414557 0.439094
0.569177 0.346960 0.383154
0.654902 0.337621 0.374365
0.764218 0.338323 0.376593
0.425116 0.425116 0.425116
0.432105 0.432105 0.432105
0.455543 0.455543 0.455543
0.490944 0.490944 0.490944
0.511192 0.509087 0.508415
0.632959 0.519860 0.477272
0.710780 0.500938 0.458991
0.807401 0.494453 0.452125
0.507744 0.507744 0.507744
0.513756 0.513756 0.513756
0.529290 0.529290 0.529290
0.555169 0.555169 0.555169
0.567163 0.567163 0.567163
0.583185 0.583185 0.583185
0.723537 0.613214 0.565972
0.858091 0.646784 0.541802
0.593896 0.593896 0.593896
0.597833 0.597833 0.597833
0.610773 0.610773 0.610773
0.629297 0.629297 0.629297
0.640223 0.640223 0.640223
0.655055 0.655055 0.655055
0.674220 0.674220 0.674220
0.802182 0.711482 0.675837
0.695583 0.695583 0.695583
0.698512 0.698512 0.698512
0.708034 0.708034 0.708034
0.719783 0.719783 0.719783
0.730434 0.730434 0.730434
0.745205 0.745205 0.745205
0.764553 0.764553 0.764553
0.788388 0.788388 0.788388
0.340124 0.340124 0.340124
0.345190 0.345190 0.345190
0.360296 0.360296 0.360296
0.382605 0.382605 0.382605
0.413123 0.413123 0.413123
0.475563 0.475563 0.475563
0.567987 0.519860 0.543145
0.710903 0.444282 0.550988
0.359167 0.359167 0.359167
0.363256 0.363256 0.363256
0.375006 0.375006 0.375006
0.394812 0.394812 0.394812
0.422675 0.422675 0.422675
0.482521 0.482521 0.482521
0.575708 0.517510 0.545220
0.715541 0.439948 0.548180
0.399329 0.399329 0.399329
0.403906 0.403906 0.403906
0.413916 0.413916 0.413916
0.430457 0.430457 0.430457
0.451453 0.451453 0.451453
0.503349 0.503349 0.503349
0.599481 0.506859 0.548211
0.730373 0.420752 0.533349
0.427497 0.427497 0.427497
0.434455 0.434455 0.434455
0.456641 0.456641 0.456641
0.477974 0.477974 0.477974
0.493080 0.493080 0.493080
0.537774 0.537774 0.537774
0.637293 0.482582 0.539818
0.758206 0.371954 0.486702
0.462074 0.462074 0.462074
0.467659 0.467659 0.467659
0.485237 0.485237 0.485237
0.512291 0.512291 0.512291
0.538811 0.538811 0.538811
0.593194 0.522606 0.544518
0.662165 0.437903 0.474678
0.770108 0.429541 0.466590
0.510979 0.510979 0.510979
0.515496 0.515496 0.515496
0.530236 0.530236 0.530236
0.555352 0.555352 0.555352
0.588769 0.588769 0.588769
0.616083 0.610407 0.608515
0.743893 0.627558 0.582544
0.833646 0.613855 0.565026
0.597040 0.597040 0.597040
0.600336 0.600336 0.600336
0.612238 0.612238 0.612238
0.633021 0.633021 0.633021
0.661707 0.661707 0.661707
0.676081 0.676081 0.676081
0.694179 0.694179 0.694179
0.834470 0.728756 0.685145
0.696529 0.696529 0.696529
0.699092 0.699092 0.699092
0.708248 0.708248 0.708248
0.726345 0.726345 0.726345
0.746853 0.746853 0.746853
0.761013 0.761013 0.761013
0.779690 0.779690 0.779690
0.802823 0.802823 0.802823
0.428321 0.428321 0.428321
0.431525 0.431525 0.431525
0.441138 0.441138 0.441138
0.458991 0.458991 0.458991
0.479500 0.479500 0.479500
0.502098 0.502098 0.502098
0.559594 0.559594 0.559594
0.646265 0.646265 0.646265
0.439582 0.439582 0.439582
0.441993 0.441993 0.441993
0.450996 0.450996 0.450996
0.466499 0.466499 0.466499
0.485389 0.485389 0.485389
0.506950 0.506950 0.506950
0.563836 0.563836 0.563836
0.649409 0.649409 0.649409
0.472786 0.472786 0.472786
0.474556 0.474556 0.474556
0.481086 0.481086 0.481086
0.492470 0.492470 0.492470
0.507439 0.507439 0.507439
0.526177 0.526177 0.526177
0.580499 0.580499 0.580499
0.663844 0.658564 0.661219
0.500359 0.500359 0.500359
0.504601 0.504601 0.504601
0.519005 0.519005 0.519005
0.529442 0.529442 0.529442
0.542382 0.542382 0.542382
0.558373 0.558373 0.558373
0.609064 0.609064 0.609064
0.703365 0.634943 0.666773
0.522850 0.522850 0.522850
0.526909 0.526909 0.526909
0.540642 0.540642 0.540642
0.563195 0.563195 0.563195
0.580621 0.580621 0.580621
0.594720 0.594720 0.594720
0.642817 0.642817 0.642817
0.750515 0.582971 0.645838
0.551659 0.551659 0.551659
0.555688 0.555688 0.555688
0.567803 0.567803 0.567803
0.587884 0.587884 0.587884
0.614649 0.614649 0.614649
0.644160 0.644160 0.644160
0.701595 0.618463 0.643000
0.786984 0.529015 0.566705
0.603845 0.603845 0.603845
0.607568 0.607568 0.607568
0.619074 0.619074 0.619074
0.638727 0.638727 0.638727
0.666255 0.666255 0.666255
0.703151 0.703151 0.703151
0.728420 0.725643 0.724727
0.869047 0.753262 0.703456
0.701503 0.701503 0.701503
0.703914 0.703914 0.703914
0.712703 0.712703 0.712703
0.728969 0.728969 0.728969
0.752224 0.752224 0.752224
0.783505 0.783505 0.783505
0.801938 0.801938 0.801938
0.824521 0.824521 0.824521
0.515435 0.515435 0.515435
0.517052 0.517052 0.517052
0.523705 0.523705 0.523705
0.534783 0.534783 0.534783
0.549310 0.549310 0.549310
0.567437 0.567437 0.567437
0.588922 0.588922 0.588922
0.653925 0.653925 0.653925
0.524468 0.524468 0.524468
0.525811 0.525811 0.525811
0.531701 0.531701 0.531701
0.541863 0.541863 0.541863
0.556085 0.556085 0.556085
0.574121 0.574121 0.574121
0.595392 0.595392 0.595392
0.660151 0.660151 0.660151
0.545037 0.545037 0.545037
0.546410 0.546410 0.546410
0.551659 0.551659 0.551659
0.560540 0.560540 0.560540
0.573541 0.573541 0.573541
0.589837 0.589837 0.589837
0.608911 0.608911 0.608911
0.670893 0.670893 0.670893
0.574212 0.574212 0.574212
0.577142 0.577142 0.577142
0.581506 0.581506 0.581506
0.588830 0.588830 0.588830
0.600031 0.600031 0.600031
0.614099 0.614099 0.614099
0.631098 0.631098 0.631098
0.690669 0.690669 0.690669
0.595239 0.595239 0.595239
0.598688 0.598688 0.598688
0.609705 0.609705 0.609705
0.626978 0.626978 0.626978
0.635615 0.635615 0.635615
0.648737 0.648737 0.648737
0.665126 0.665126 0.665126
0.721859 0.721859 0.721859
0.621454 0.621454 0.621454
0.624231 0.624231 0.624231
0.633783 0.633783 0.633783
0.649500 0.649500 0.649500
0.671992 0.671992 0.671992
0.690455 0.690455 0.690455
0.706508 0.706508 0.706508
0.762020 0.762020 0.762020
0.651545 0.651545 0.651545
0.653742 0.653742 0.653742
0.662379 0.662379 0.662379
0.676967 0.676967 0.676967
0.699489 0.699489 0.699489
0.730007 0.730007 0.730007
0.762844 0.762844 0.762844
0.830076 0.720058 0.747524
0.710048 0.710048 0.710048
0.712703 0.712703 0.712703
0.720058 0.720058 0.720058
0.735561 0.735561 0.735561
0.759426 0.759426 0.759426
0.790951 0.790951 0.790951
0.831418 0.831418 0.831418
0.857237 0.857237 0.857237
0.618097 0.618097 0.618097
0.619257 0.619257 0.619257
0.624353 0.624353 0.624353
0.632410 0.632410 0.632410
0.643977 0.643977 0.643977
0.658869 0.658869 0.658869
0.676570 0.676570 0.676570
0.698024 0.698024 0.698024
0.624109 0.624109 0.624109
0.625147 0.625147 0.625147
0.629786 0.629786 0.629786
0.637659 0.637659 0.637659
0.648829 0.648829 0.648829
0.663416 0.663416 0.663416
0.681147 0.681147 0.681147
0.702358 0.702358 0.702358
0.640467 0.640467 0.640467
0.641474 0.641474 0.641474
0.645899 0.645899 0.645899
0.652125 0.652125 0.652125
0.662654 0.662654 0.662654
0.676570 0.676570 0.676570
0.693385 0.693385 0.693385
0.713588 0.713588 0.713588
0.664363 0.664363 0.664363
0.665126 0.665126 0.665126
0.668879 0.668879 0.668879
0.674983 0.674983 0.674983
0.684169 0.684169 0.684169
0.696742 0.696742 0.696742
0.712306 0.712306 0.712306
0.731502 0.731502 0.731502
0.688838 0.688838 0.688838
0.690761 0.690761 0.690761
0.698329 0.698329 0.698329
0.703700 0.703700 0.703700
0.712520 0.712520 0.712520
0.724544 0.724544 0.724544
0.739742 0.739742 0.739742
0.758602 0.758602 0.758602
0.711971 0.711971 0.711971
0.714260 0.714260 0.714260
0.721736 0.721736 0.721736
0.733822 0.733822 0.733822
0.751308 0.751308 0.751308
0.760220 0.760220 0.760220
0.774441 0.774441 0.774441
0.793668 0.793668 0.793668
0.740200 0.740200 0.740200
0.742306 0.742306 0.742306
0.749264 0.749264 0.749264
0.761013 0.761013 0.761013
0.778683 0.778683 0.778683
0.802792 0.802792 0.802792
0.823789 0.823789 0.823789
0.844358 0.844358 0.844358
0.775082 0.775082 0.775082
0.777096 0.777096 0.777096
0.783444 0.783444 0.783444
0.794339 0.794339 0.794339
0.811246 0.811246 0.811246
0.835233 0.835233 0.835233
0.868315 0.868315 0.868315
0.907317 0.907317 0.907317
