data/fiter_cube/96143635/1022812/file.cube
# Created by Adobe Lightroom plugin Export LUT (1.17.0)
# www.johnrellis.com/lightroom/exportlut.htm
# Preset: 高雅通透灰色调人像_05 云集
# Color profile: C:\Program Files (x86)\Common Files\Adobe\Color\Profiles\Recommended\AdobeRGB1998.icc
LUT_3D_SIZE 32
DOMAIN_MIN 0.0 0.0 0.0
DOMAIN_MAX 1.0 1.0 1.0
0.000000 0.000000 0.000000
0.054475 0.005554 0.007782
0.077607 0.014282 0.016358
0.105257 0.032807 0.036835
0.138247 0.052247 0.057954
0.170535 0.059663 0.064485
0.201358 0.061524 0.069062
0.230533 0.063233 0.073365
0.258885 0.064454 0.077394
0.286687 0.066407 0.081788
0.314031 0.067842 0.086763
0.341039 0.071199 0.092134
0.367376 0.075044 0.098116
0.393103 0.079438 0.104616
0.418219 0.083650 0.111574
0.442603 0.088106 0.118105
0.466560 0.092470 0.124453
0.489906 0.097078 0.131014
0.512932 0.102083 0.137392
0.537163 0.107454 0.144625
0.560388 0.112947 0.151705
0.583093 0.119203 0.158572
0.605951 0.125002 0.165225
0.629328 0.130373 0.172030
0.653559 0.135836 0.178500
0.678828 0.141573 0.185458
0.705562 0.147738 0.192538
0.733974 0.154147 0.200107
0.764248 0.161501 0.208408
0.796414 0.169863 0.217472
0.830594 0.179568 0.227756
0.866606 0.190616 0.239170
0.033204 0.033204 0.033204
0.044923 0.044923 0.044923
0.079408 0.054658 0.033234
0.107424 0.064149 0.050294
0.141024 0.070588 0.061982
0.173159 0.072877 0.066743
0.203525 0.074037 0.071229
0.232395 0.075410 0.074708
0.260349 0.075776 0.079072
0.287999 0.076997 0.083040
0.315282 0.078492 0.087922
0.341955 0.080842 0.093507
0.368200 0.083558 0.099458
0.393805 0.087434 0.106111
0.418677 0.091157 0.112764
0.443183 0.095308 0.119203
0.466835 0.098787 0.125734
0.490120 0.103090 0.131868
0.513024 0.107424 0.138552
0.536950 0.112612 0.145449
0.559991 0.117800 0.152377
0.582483 0.123171 0.158968
0.605158 0.128786 0.165621
0.628504 0.134035 0.172274
0.652674 0.139467 0.178744
0.677943 0.144900 0.185611
0.704646 0.151003 0.192569
0.732998 0.157198 0.200381
0.763241 0.164462 0.208560
0.795438 0.172549 0.217624
0.829587 0.182040 0.227817
0.865599 0.192966 0.239170
0.064485 0.064485 0.064485
0.066987 0.066987 0.066987
0.070497 0.070497 0.070497
0.108797 0.080232 0.065461
0.144869 0.086702 0.066651
0.176577 0.088136 0.070375
0.206424 0.088411 0.073548
0.234775 0.088960 0.077302
0.262638 0.089113 0.080873
0.290043 0.089570 0.085115
0.317113 0.090486 0.089876
0.343725 0.092409 0.095308
0.369665 0.094545 0.101411
0.395178 0.097353 0.107942
0.419959 0.100649 0.114687
0.444221 0.104005 0.120821
0.467994 0.107454 0.127230
0.491096 0.111238 0.133120
0.514031 0.114900 0.139742
0.537621 0.119570 0.146639
0.560479 0.124392 0.153231
0.582757 0.129427 0.159945
0.605402 0.134401 0.166567
0.628595 0.139193 0.173098
0.652674 0.144289 0.179660
0.677882 0.149752 0.186343
0.704524 0.155337 0.193423
0.732876 0.161654 0.201053
0.763088 0.168582 0.209232
0.795254 0.176608 0.218357
0.829374 0.185763 0.228336
0.865324 0.196750 0.239811
0.086061 0.086061 0.086061
0.087892 0.087892 0.087892
0.090394 0.090394 0.090394
0.095674 0.095674 0.095674
0.141054 0.105379 0.088075
0.184329 0.116030 0.077241
0.213138 0.114809 0.079683
0.240909 0.113497 0.082643
0.268070 0.112947 0.085725
0.294987 0.112276 0.089754
0.321569 0.112795 0.094545
0.347845 0.113283 0.100038
0.373510 0.114931 0.105989
0.398749 0.116945 0.112245
0.423255 0.118990 0.118166
0.447272 0.121340 0.124514
0.470832 0.123842 0.130556
0.493538 0.126284 0.136538
0.516503 0.129488 0.142947
0.539422 0.133455 0.149416
0.561730 0.137575 0.155917
0.583703 0.141451 0.162325
0.606165 0.145693 0.168887
0.629389 0.150179 0.175265
0.653590 0.154665 0.181735
0.679011 0.159792 0.188418
0.705745 0.164858 0.195407
0.734188 0.171145 0.203006
0.764309 0.177676 0.211276
0.796292 0.185580 0.220279
0.830076 0.194278 0.230381
0.865782 0.204685 0.241520
0.109529 0.109529 0.109529
0.110872 0.110872 0.110872
0.113008 0.113008 0.113008
0.117067 0.117067 0.117067
0.123415 0.123415 0.123415
0.167636 0.131655 0.115328
0.221561 0.143679 0.093416
0.249912 0.145968 0.091615
0.276158 0.143465 0.094331
0.302434 0.142031 0.098085
0.328466 0.141115 0.102296
0.354223 0.141115 0.107332
0.379461 0.141268 0.113191
0.404242 0.142367 0.118624
0.428504 0.143221 0.124453
0.452247 0.144564 0.130282
0.475563 0.145907 0.135897
0.497841 0.147524 0.141695
0.520897 0.150118 0.147799
0.543084 0.152773 0.153994
0.564813 0.155520 0.160250
0.586419 0.158877 0.166476
0.608667 0.162539 0.172732
0.631678 0.166140 0.179019
0.655695 0.170077 0.185336
0.680995 0.174533 0.191775
0.707607 0.179263 0.198825
0.735775 0.184878 0.206302
0.765713 0.191318 0.214511
0.797482 0.198489 0.223392
0.831174 0.207004 0.233188
0.866575 0.216983 0.244511
0.133486 0.133486 0.133486
0.134585 0.134585 0.134585
0.136110 0.136110 0.136110
0.139406 0.139406 0.139406
0.144320 0.144320 0.144320
0.150912 0.150912 0.150912
0.191897 0.159030 0.145296
0.247257 0.168399 0.123079
0.287358 0.179751 0.107607
0.312810 0.176577 0.110018
0.338170 0.174441 0.113863
0.363287 0.172885 0.118105
0.387945 0.172122 0.123079
0.412329 0.171511 0.127993
0.436042 0.171511 0.132876
0.459327 0.171511 0.138430
0.482216 0.171939 0.143557
0.504692 0.172793 0.148989
0.526970 0.174289 0.154849
0.548455 0.175937 0.160555
0.569574 0.177981 0.166598
0.590906 0.180270 0.172366
0.621637 0.186191 0.181582
0.644648 0.189212 0.187655
0.668544 0.192660 0.193820
0.693355 0.196323 0.200259
0.719478 0.200839 0.207126
0.747189 0.205936 0.214328
0.776486 0.211795 0.222477
0.807706 0.218692 0.231205
0.840543 0.226688 0.241093
0.875120 0.236301 0.252140
0.158450 0.158450 0.158450
0.159335 0.159335 0.159335
0.160586 0.160586 0.160586
0.163424 0.163424 0.163424
0.167605 0.167605 0.167605
0.173068 0.173068 0.173068
0.179507 0.179507 0.179507
0.216159 0.188113 0.177096
0.273808 0.195773 0.155032
0.325139 0.209079 0.132876
0.352453 0.212711 0.130312
0.377020 0.209659 0.133089
0.400946 0.207248 0.136965
0.424598 0.205264 0.141024
0.447669 0.203647 0.144930
0.470161 0.202457 0.149508
0.491981 0.201572 0.153841
0.514885 0.201694 0.159060
0.536248 0.202121 0.164370
0.557183 0.202701 0.169924
0.578241 0.204257 0.175448
0.600153 0.205814 0.181277
0.622980 0.208347 0.187289
0.646509 0.210727 0.193332
0.670863 0.213901 0.199741
0.696010 0.217380 0.205997
0.722164 0.221317 0.212741
0.749630 0.225925 0.219913
0.778683 0.231174 0.227817
0.809415 0.237705 0.236545
0.841947 0.245212 0.246220
0.876158 0.254337 0.257206
0.182528 0.182528 0.182528
0.183383 0.183383 0.183383
0.184329 0.184329 0.184329
0.186526 0.186526 0.186526
0.190036 0.190036 0.190036
0.194430 0.194430 0.194430
0.200076 0.200076 0.200076
0.206638 0.206638 0.206638
0.239475 0.216068 0.207462
0.298192 0.223056 0.186557
0.350561 0.235019 0.166110
0.389868 0.248203 0.151003
0.413275 0.244266 0.153140
0.436164 0.240726 0.155673
0.458625 0.237797 0.158816
0.480476 0.235233 0.162051
0.502831 0.233646 0.166232
0.524132 0.232334 0.170535
0.544274 0.231540 0.174899
0.564111 0.230838 0.179782
0.584436 0.231113 0.185000
0.605829 0.231968 0.190219
0.628138 0.233524 0.195773
0.651270 0.235355 0.201572
0.675196 0.237797 0.207340
0.699947 0.240726 0.213535
0.725765 0.244114 0.219944
0.752834 0.248203 0.226871
0.781552 0.253208 0.234501
0.811948 0.259129 0.242954
0.844144 0.266453 0.252659
0.877928 0.275029 0.263462
0.207095 0.207095 0.207095
0.207736 0.207736 0.207736
0.208652 0.208652 0.208652
0.210452 0.210452 0.210452
0.213413 0.213413 0.213413
0.217075 0.217075 0.217075
0.221866 0.221866 0.221866
0.227451 0.227451 0.227451
0.233890 0.233890 0.233890
0.262486 0.244724 0.238346
0.322484 0.250614 0.217807
0.375494 0.261418 0.198215
0.423957 0.274876 0.178134
0.449989 0.279026 0.173922
0.471626 0.274601 0.175479
0.493812 0.271397 0.178042
0.514855 0.268193 0.181277
0.534630 0.265415 0.184512
0.553429 0.262882 0.188144
0.572381 0.261112 0.192142
0.592157 0.260349 0.196567
0.613092 0.260227 0.201205
0.634913 0.260960 0.206210
0.657557 0.262150 0.211429
0.681025 0.263828 0.216953
0.705287 0.266148 0.222629
0.730678 0.269108 0.228733
0.757259 0.272679 0.235508
0.785519 0.277134 0.242832
0.815427 0.282719 0.251194
0.847105 0.289494 0.260533
0.880430 0.297765 0.271183
0.231662 0.231662 0.231662
0.232303 0.232303 0.232303
0.232944 0.232944 0.232944
0.234440 0.234440 0.234440
0.236942 0.236942 0.236942
0.240208 0.240208 0.240208
0.244236 0.244236 0.244236
0.249149 0.249149 0.249149
0.254795 0.254795 0.254795
0.261265 0.261265 0.261265
0.285466 0.272831 0.268437
0.345708 0.277806 0.248386
0.399268 0.287541 0.229648
0.448615 0.299779 0.209964
0.486763 0.312932 0.196445
0.508446 0.309758 0.197024
0.528038 0.305089 0.198703
0.546471 0.300450 0.200961
0.564172 0.296666 0.203647
0.582238 0.293584 0.206821
0.601495 0.291691 0.210239
0.621546 0.290562 0.214328
0.642573 0.290074 0.218479
0.664424 0.290471 0.222995
0.687160 0.291508 0.227909
0.710964 0.293095 0.233158
0.735836 0.295445 0.239017
0.762173 0.298741 0.245457
0.790066 0.302892 0.252598
0.819669 0.308080 0.260716
0.850980 0.314702 0.270115
0.883940 0.322545 0.280644
0.256016 0.256016 0.256016
0.256504 0.256504 0.256504
0.257145 0.257145 0.257145
0.258549 0.258549 0.258549
0.260655 0.260655 0.260655
0.263554 0.263554 0.263554
0.267094 0.267094 0.267094
0.271458 0.271458 0.271458
0.276493 0.276493 0.276493
0.282200 0.282200 0.282200
0.288487 0.288487 0.288487
0.308019 0.300755 0.298344
0.369390 0.306096 0.279728
0.424842 0.315465 0.261479
0.475105 0.326940 0.242924
0.518364 0.338689 0.223880
0.541192 0.343359 0.218723
0.558343 0.337224 0.219730
0.574975 0.331701 0.221408
0.592645 0.327550 0.223362
0.611261 0.324468 0.226047
0.630915 0.322454 0.229191
0.651423 0.321324 0.232761
0.672816 0.320867 0.236728
0.695064 0.321172 0.241062
0.718166 0.322026 0.245914
0.742428 0.323766 0.251255
0.768124 0.326482 0.257206
0.795468 0.330144 0.264012
0.824430 0.335027 0.271824
0.855161 0.341131 0.280949
0.887449 0.348577 0.291386
0.280491 0.280491 0.280491
0.280919 0.280919 0.280919
0.281498 0.281498 0.281498
0.282628 0.282628 0.282628
0.284581 0.284581 0.284581
0.287083 0.287083 0.287083
0.290288 0.290288 0.290288
0.294102 0.294102 0.294102
0.298589 0.298589 0.298589
0.303716 0.303716 0.303716
0.309850 0.309850 0.309850
0.317113 0.317113 0.317113
0.337469 0.335729 0.335210
0.400275 0.340459 0.316442
0.455970 0.348455 0.297917
0.504479 0.357916 0.279393
0.546044 0.367254 0.260288
0.575738 0.376165 0.247013
0.593469 0.373114 0.245029
0.610407 0.367498 0.245914
0.628260 0.363012 0.247318
0.646998 0.359747 0.249485
0.666560 0.357214 0.251896
0.686915 0.355749 0.255131
0.708248 0.355016 0.258762
0.730617 0.355200 0.262791
0.754055 0.356146 0.267521
0.778836 0.358038 0.272862
0.805142 0.361089 0.279301
0.833219 0.365332 0.286748
0.862943 0.370947 0.295384
0.894347 0.377966 0.305486
0.306249 0.306249 0.306249
0.306615 0.306615 0.306615
0.307012 0.307012 0.307012
0.307927 0.307927 0.307927
0.309392 0.309392 0.309392
0.311559 0.311559 0.311559
0.314275 0.314275 0.314275
0.317601 0.317601 0.317601
0.322057 0.322057 0.322057
0.327733 0.327733 0.327733
0.334142 0.334142 0.334142
0.341039 0.341039 0.341039
0.348547 0.348547 0.348547
0.362890 0.362890 0.362890
0.422370 0.367895 0.346685
0.477241 0.374548 0.328222
0.523339 0.382177 0.310155
0.563256 0.389776 0.291630
0.599878 0.398230 0.273045
0.622095 0.404334 0.267002
0.639368 0.398901 0.267521
0.657496 0.394446 0.268528
0.676448 0.391150 0.270207
0.696162 0.388739 0.272465
0.716884 0.387213 0.275273
0.738552 0.386572 0.278843
0.761318 0.386938 0.282994
0.785458 0.388220 0.287938
0.811154 0.390692 0.293858
0.838621 0.394659 0.300969
0.867704 0.399817 0.309331
0.898497 0.406439 0.319066
0.329900 0.329900 0.329900
0.330144 0.330144 0.330144
0.330510 0.330510 0.330510
0.331395 0.331395 0.331395
0.332860 0.332860 0.332860
0.335180 0.335180 0.335180
0.338170 0.338170 0.338170
0.341711 0.341711 0.341711
0.345892 0.345892 0.345892
0.350774 0.350774 0.350774
0.356268 0.356268 0.356268
0.362463 0.362463 0.362463
0.369085 0.369085 0.369085
0.375982 0.375982 0.375982
0.389136 0.389136 0.389136
0.443732 0.394720 0.376135
0.495918 0.399451 0.357427
0.540093 0.405524 0.339910
0.579706 0.412207 0.322148
0.618036 0.420508 0.304112
0.648463 0.429725 0.292210
0.668940 0.430671 0.289921
0.687221 0.426398 0.290654
0.706447 0.423133 0.292119
0.726558 0.420844 0.294163
0.747494 0.419471 0.297063
0.769650 0.419104 0.300572
0.793179 0.419928 0.304936
0.818235 0.421942 0.310460
0.844999 0.425299 0.317082
0.873381 0.430091 0.325139
0.903410 0.436316 0.334783
0.355352 0.355352 0.355352
0.355688 0.355688 0.355688
0.356023 0.356023 0.356023
0.356878 0.356878 0.356878
0.358282 0.358282 0.358282
0.359960 0.359960 0.359960
0.362432 0.362432 0.362432
0.365362 0.365362 0.365362
0.368963 0.368963 0.368963
0.373297 0.373297 0.373297
0.378271 0.378271 0.378271
0.383703 0.383703 0.383703
0.389715 0.389715 0.389715
0.395911 0.395911 0.395911
0.402380 0.402380 0.402380
0.414435 0.414435 0.414435
0.462959 0.420447 0.404700
0.512871 0.423774 0.386328
0.556023 0.428748 0.369329
0.596612 0.435584 0.352850
0.635950 0.443610 0.335821
0.673823 0.452796 0.318517
0.698726 0.462837 0.313085
0.717250 0.458625 0.313756
0.736690 0.455604 0.315160
0.757168 0.453651 0.317266
0.778836 0.452705 0.320195
0.801877 0.453071 0.324285
0.826474 0.454688 0.329473
0.852750 0.457771 0.335821
0.880644 0.462318 0.343694
0.910063 0.468299 0.353124
0.380224 0.380224 0.380224
0.380529 0.380529 0.380529
0.380896 0.380896 0.380896
0.381689 0.381689 0.381689
0.382818 0.382818 0.382818
0.384527 0.384527 0.384527
0.386664 0.386664 0.386664
0.389380 0.389380 0.389380
0.392645 0.392645 0.392645
0.396368 0.396368 0.396368
0.400671 0.400671 0.400671
0.405402 0.405402 0.405402
0.410529 0.410529 0.410529
0.415930 0.415930 0.415930
0.421607 0.421607 0.421607
0.427405 0.427405 0.427405
0.438239 0.438239 0.438239
0.480293 0.444923 0.432166
0.528740 0.447913 0.415015
0.572595 0.452979 0.399023
0.614527 0.459968 0.383734
0.654841 0.468147 0.368048
0.693812 0.477089 0.351507
0.725429 0.487068 0.340764
0.748379 0.492042 0.338598
0.768215 0.489387 0.340063
0.789242 0.487800 0.342412
0.811582 0.487617 0.345892
0.835447 0.488716 0.350439
0.860807 0.491127 0.356298
0.887694 0.495064 0.363684
0.916075 0.500481 0.372747
0.403906 0.403906 0.403906
0.404089 0.404089 0.404089
0.404395 0.404395 0.404395
0.405035 0.405035 0.405035
0.406104 0.406104 0.406104
0.407538 0.407538 0.407538
0.409491 0.409491 0.409491
0.411810 0.411810 0.411810
0.414740 0.414740 0.414740
0.418036 0.418036 0.418036
0.421973 0.421973 0.421973
0.426154 0.426154 0.426154
0.430793 0.430793 0.430793
0.435584 0.435584 0.435584
0.440620 0.440620 0.440620
0.445655 0.445655 0.445655
0.450874 0.450874 0.450874
0.460548 0.460548 0.460548
0.497292 0.468452 0.458198
0.544732 0.471992 0.443183
0.589532 0.477485 0.428656
0.632227 0.484749 0.414649
0.673243 0.492805 0.399939
0.712856 0.501732 0.384771
0.751369 0.511223 0.368505
0.777523 0.522423 0.365118
0.799161 0.523186 0.366003
0.820890 0.522423 0.368872
0.844022 0.522972 0.372869
0.868620 0.524926 0.378454
0.894713 0.528435 0.385382
0.922301 0.533410 0.393957
0.427039 0.427039 0.427039
0.427405 0.427405 0.427405
0.432105 0.432105 0.432105
0.432624 0.432624 0.432624
0.433539 0.433539 0.433539
0.434699 0.434699 0.434699
0.436194 0.436194 0.436194
0.438087 0.438087 0.438087
0.440497 0.440497 0.440497
0.443305 0.443305 0.443305
0.446509 0.446509 0.446509
0.450050 0.450050 0.450050
0.453895 0.453895 0.453895
0.457984 0.457984 0.457984
0.462287 0.462287 0.462287
0.466682 0.466682 0.466682
0.471321 0.471321 0.471321
0.476112 0.476112 0.476112
0.484627 0.484627 0.484627
0.516350 0.493477 0.485512
0.563958 0.497810 0.472236
0.609339 0.503593 0.458869
0.652644 0.511254 0.446174
0.694026 0.519646 0.433143
0.733883 0.528496 0.419226
0.772549 0.537926 0.404517
0.805142 0.548333 0.394812
0.830716 0.558068 0.393988
0.852873 0.557916 0.397192
0.876616 0.559228 0.401892
0.901854 0.561975 0.407965
0.928466 0.566247 0.415717
0.450568 0.450568 0.450568
0.451331 0.451331 0.451331
0.452125 0.452125 0.452125
0.453193 0.453193 0.453193
0.454383 0.454383 0.454383
0.455665 0.455665 0.455665
0.457008 0.457008 0.457008
0.458747 0.458747 0.458747
0.460883 0.460883 0.460883
0.463355 0.463355 0.463355
0.466194 0.466194 0.466194
0.469398 0.469398 0.469398
0.472847 0.472847 0.472847
0.476448 0.476448 0.476448
0.480293 0.480293 0.480293
0.484321 0.484321 0.484321
0.488502 0.488502 0.488502
0.492866 0.492866 0.492866
0.497597 0.497597 0.497597
0.505486 0.505486 0.505486
0.533501 0.515465 0.509331
0.581689 0.520775 0.497658
0.627771 0.527214 0.485573
0.671626 0.535485 0.474495
0.713466 0.544366 0.462989
0.753902 0.553796 0.450874
0.793118 0.563684 0.438209
0.831571 0.574121 0.424750
0.859770 0.586816 0.423255
0.884947 0.593378 0.425818
0.909239 0.595453 0.431250
0.934905 0.599054 0.438056
0.471778 0.471778 0.471778
0.472389 0.472389 0.472389
0.473213 0.473213 0.473213
0.474098 0.474098 0.474098
0.475135 0.475135 0.475135
0.476295 0.476295 0.476295
0.477607 0.477607 0.477607
0.479072 0.479072 0.479072
0.481025 0.481025 0.481025
0.483253 0.483253 0.483253
0.485908 0.485908 0.485908
0.488716 0.488716 0.488716
0.491859 0.491859 0.491859
0.495186 0.495186 0.495186
0.498634 0.498634 0.498634
0.502251 0.502251 0.502251
0.506126 0.506126 0.506126
0.510185 0.510185 0.510185
0.514580 0.514580 0.514580
0.519310 0.519310 0.519310
0.526940 0.526940 0.526940
0.551690 0.538262 0.533715
0.600641 0.544091 0.522972
0.647211 0.551110 0.512016
0.691554 0.559594 0.501793
0.733852 0.568994 0.491676
0.774746 0.579034 0.481300
0.814664 0.589715 0.470649
0.853696 0.600885 0.459510
0.888304 0.613153 0.452522
0.916289 0.627436 0.454536
0.941283 0.631312 0.460365
0.492531 0.492531 0.492531
0.493202 0.493202 0.493202
0.493904 0.493904 0.493904
0.494759 0.494759 0.494759
0.495735 0.495735 0.495735
0.496742 0.496742 0.496742
0.497871 0.497871 0.497871
0.499306 0.499306 0.499306
0.500908 0.500908 0.500908
0.502953 0.502953 0.502953
0.505241 0.505241 0.505241
0.507836 0.507836 0.507836
0.510613 0.510613 0.510613
0.513664 0.513664 0.513664
0.517052 0.517052 0.517052
0.520623 0.520623 0.520623
0.524468 0.524468 0.524468
0.528710 0.528710 0.528710
0.533288 0.533288 0.533288
0.538140 0.538140 0.538140
0.543420 0.543420 0.543420
0.551080 0.551080 0.551080
0.572625 0.563653 0.560632
0.622309 0.570214 0.551019
0.669642 0.577874 0.541222
0.714656 0.586755 0.531853
0.757748 0.596674 0.522942
0.799435 0.607385 0.514061
0.840055 0.618708 0.504997
0.879637 0.630488 0.495735
0.918090 0.642542 0.486152
0.947814 0.656825 0.487160
0.515007 0.515007 0.515007
0.515404 0.515404 0.515404
0.515740 0.515740 0.515740
0.516258 0.516258 0.516258
0.516960 0.516960 0.516960
0.517815 0.517815 0.517815
0.518883 0.518883 0.518883
0.520256 0.520256 0.520256
0.521904 0.521904 0.521904
0.523857 0.523857 0.523857
0.526177 0.526177 0.526177
0.528710 0.528710 0.528710
0.531456 0.531456 0.531456
0.534386 0.534386 0.534386
0.537591 0.537591 0.537591
0.541009 0.541009 0.541009
0.544671 0.544671 0.544671
0.548638 0.548638 0.548638
0.552972 0.552972 0.552972
0.557610 0.557610 0.557610
0.562585 0.562585 0.562585
0.567834 0.567834 0.567834
0.575006 0.575006 0.575006
0.592584 0.588190 0.586725
0.642603 0.595239 0.577996
0.690272 0.603357 0.569238
0.735927 0.612604 0.560784
0.779751 0.623316 0.553338
0.822110 0.634730 0.545922
0.863310 0.646662 0.538476
0.903166 0.658991 0.531029
0.941650 0.671534 0.523369
0.536004 0.536004 0.536004
0.536370 0.536370 0.536370
0.536767 0.536767 0.536767
0.537285 0.537285 0.537285
0.537987 0.537987 0.537987
0.538750 0.538750 0.538750
0.539757 0.539757 0.539757
0.540948 0.540948 0.540948
0.542504 0.542504 0.542504
0.544335 0.544335 0.544335
0.546563 0.546563 0.546563
0.548974 0.548974 0.548974
0.551568 0.551568 0.551568
0.554467 0.554467 0.554467
0.557549 0.557549 0.557549
0.560906 0.560906 0.560906
0.564538 0.564538 0.564538
0.568505 0.568505 0.568505
0.572778 0.572778 0.572778
0.577386 0.577386 0.577386
0.582330 0.582330 0.582330
0.587488 0.587488 0.587488
0.593042 0.593042 0.593042
0.600031 0.600031 0.600031
0.612573 0.612573 0.612573
0.662898 0.620356 0.605127
0.711055 0.629297 0.597711
0.757351 0.639216 0.590448
0.801816 0.650690 0.584497
0.844846 0.662898 0.578790
0.886442 0.675654 0.573236
0.926513 0.688746 0.567895
0.559411 0.559411 0.559411
0.559838 0.559838 0.559838
0.560143 0.560143 0.560143
0.560571 0.560571 0.560571
0.561089 0.561089 0.561089
0.561730 0.561730 0.561730
0.562585 0.562585 0.562585
0.563653 0.563653 0.563653
0.564935 0.564935 0.564935
0.566522 0.566522 0.566522
0.568353 0.568353 0.568353
0.570489 0.570489 0.570489
0.572900 0.572900 0.572900
0.575494 0.575494 0.575494
0.578302 0.578302 0.578302
0.581292 0.581292 0.581292
0.584649 0.584649 0.584649
0.588342 0.588342 0.588342
0.592401 0.592401 0.592401
0.596948 0.596948 0.596948
0.601831 0.601831 0.601831
0.606958 0.606958 0.606958
0.612390 0.612390 0.612390
0.617914 0.617914 0.617914
0.624445 0.624445 0.624445
0.637720 0.637720 0.637720
0.684901 0.647303 0.633997
0.733455 0.657038 0.627955
0.780209 0.667750 0.622217
0.825345 0.679957 0.617609
0.868742 0.693019 0.613733
0.910521 0.706661 0.610315
0.581537 0.581537 0.581537
0.581933 0.581933 0.581933
0.582269 0.582269 0.582269
0.582696 0.582696 0.582696
0.583215 0.583215 0.583215
0.583856 0.583856 0.583856
0.584741 0.584741 0.584741
0.585748 0.585748 0.585748
0.587060 0.587060 0.587060
0.588708 0.588708 0.588708
0.590570 0.590570 0.590570
0.592767 0.592767 0.592767
0.595148 0.595148 0.595148
0.597742 0.597742 0.597742
0.600580 0.600580 0.600580
0.603632 0.603632 0.603632
0.606897 0.606897 0.606897
0.610559 0.610559 0.610559
0.614557 0.614557 0.614557
0.619013 0.619013 0.619013
0.623774 0.623774 0.623774
0.628870 0.628870 0.628870
0.634150 0.634150 0.634150
0.639643 0.639643 0.639643
0.645319 0.645319 0.645319
0.651606 0.651606 0.651606
0.664485 0.664485 0.664485
0.708461 0.675959 0.664576
0.757748 0.686793 0.660212
0.805112 0.698695 0.656336
0.850736 0.711727 0.653376
0.894377 0.725887 0.651637
0.605127 0.605127 0.605127
0.605432 0.605432 0.605432
0.605676 0.605676 0.605676
0.606012 0.606012 0.606012
0.606439 0.606439 0.606439
0.607019 0.607019 0.607019
0.607782 0.607782 0.607782
0.608759 0.608759 0.608759
0.610040 0.610040 0.610040
0.611597 0.611597 0.611597
0.613397 0.613397 0.613397
0.615595 0.615595 0.615595
0.618006 0.618006 0.618006
0.620569 0.620569 0.620569
0.623346 0.623346 0.623346
0.626337 0.626337 0.626337
0.629541 0.629541 0.629541
0.633082 0.633082 0.633082
0.636988 0.636988 0.636988
0.641321 0.641321 0.641321
0.646021 0.646021 0.646021
0.650965 0.650965 0.650965
0.656245 0.656245 0.656245
0.661677 0.661677 0.661677
0.667323 0.667323 0.667323
0.673121 0.673121 0.673121
0.679286 0.679286 0.679286
0.691890 0.691890 0.691890
0.732387 0.704891 0.695369
0.782223 0.716884 0.692775
0.830014 0.729946 0.690791
0.875853 0.744015 0.689723
0.628992 0.628992 0.628992
0.629236 0.629236 0.629236
0.629511 0.629511 0.629511
0.629816 0.629816 0.629816
0.630365 0.630365 0.630365
0.631098 0.631098 0.631098
0.632105 0.632105 0.632105
0.633509 0.633509 0.633509
0.635187 0.635187 0.635187
0.637201 0.637201 0.637201
0.639460 0.639460 0.639460
0.641962 0.641962 0.641962
0.644678 0.644678 0.644678
0.647517 0.647517 0.647517
0.650477 0.650477 0.650477
0.653498 0.653498 0.653498
0.656733 0.656733 0.656733
0.660273 0.660273 0.660273
0.664179 0.664149 0.664149
0.668421 0.668421 0.668421
0.672999 0.672999 0.672999
0.677913 0.677913 0.677913
0.683009 0.683009 0.683009
0.688380 0.688380 0.688380
0.693965 0.693965 0.693965
0.699763 0.699763 0.699763
0.705837 0.705837 0.705837
0.712184 0.712184 0.712184
0.724178 0.724178 0.724178
0.760922 0.738460 0.730770
0.811032 0.751675 0.730037
0.858915 0.765805 0.730007
0.656641 0.656641 0.656641
0.656825 0.656825 0.656825
0.657008 0.657008 0.657008
0.657221 0.657221 0.657221
0.657649 0.657649 0.657649
0.658228 0.658228 0.658228
0.659144 0.659144 0.659144
0.660243 0.660243 0.660243
0.661646 0.661646 0.661646
0.663355 0.663355 0.663355
0.665278 0.665278 0.665278
0.667475 0.667475 0.667475
0.669886 0.669886 0.669886
0.672480 0.672480 0.672480
