data/fiter_cube/37639453/1023435/file.cube
# Created by Adobe Lightroom plugin Export LUT (1.17.0)
# www.johnrellis.com/lightroom/exportlut.htm
# Preset: 油管牛人_01 云集
# Color profile: C:\Program Files (x86)\Common Files\Adobe\Color\Profiles\Recommended\AdobeRGB1998.icc
LUT_3D_SIZE 8
DOMAIN_MIN 0.000000 0.000000 0.000000
DOMAIN_MAX 0.903226 0.903226 0.903226
0.010803 0.007141 0.013214
0.074220 0.009064 0.014893
0.218357 0.000000 0.007660
0.425940 0.000000 0.000000
0.601465 0.000000 0.000000
0.772457 0.000000 0.000000
0.889891 0.000000 0.000000
0.979217 0.000000 0.000000
0.014221 0.059236 0.045258
0.066560 0.062287 0.039582
0.222873 0.062562 0.008698
0.426307 0.000000 0.000000
0.598901 0.000000 0.000000
0.759823 0.000000 0.000000
0.877775 0.000000 0.000000
0.972015 0.000000 0.000000
0.000000 0.175753 0.087556
0.000000 0.181338 0.061585
0.185702 0.201755 0.040467
0.475044 0.238529 0.000000
0.657710 0.199466 0.000000
0.796109 0.188693 0.000000
0.908141 0.225742 0.000000
0.987915 0.276158 0.000000
0.000000 0.361791 0.146242
0.000000 0.360906 0.129244
0.137728 0.344335 0.083040
0.406317 0.413672 0.094545
0.700587 0.490272 0.000000
0.849302 0.487068 0.000000
0.925231 0.462409 0.000000
0.990814 0.459815 0.000000
0.000000 0.536095 0.232212
0.000000 0.534691 0.223178
0.087221 0.529808 0.181979
0.321691 0.491218 0.150576
0.577600 0.568353 0.188083
0.793820 0.631312 0.196139
0.923308 0.643671 0.152010
0.991241 0.631250 0.161776
0.000000 0.686915 0.337041
0.000000 0.695552 0.339635
0.123995 0.687037 0.315099
0.318273 0.658015 0.248478
0.491920 0.619532 0.221256
0.715328 0.701167 0.290654
0.880308 0.756435 0.355779
0.977752 0.765255 0.349371
0.000000 0.816098 0.450355
0.000000 0.816281 0.448249
0.179904 0.806546 0.428199
0.344793 0.791318 0.373144
0.490730 0.751247 0.315862
0.647517 0.746395 0.315221
0.819333 0.804776 0.407843
0.935515 0.841733 0.505882
0.006317 0.912902 0.558129
0.157443 0.910979 0.555627
0.315526 0.905486 0.548943
0.471382 0.897337 0.542565
0.532067 0.872221 0.459998
0.656245 0.849760 0.424384
0.794705 0.865080 0.474067
0.907500 0.895079 0.574395
0.021546 0.013519 0.065766
0.071656 0.011139 0.070161
0.193393 0.000000 0.065583
0.389715 0.000000 0.048341
0.568780 0.000000 0.000000
0.732082 0.000000 0.000000
0.859434 0.000000 0.000000
0.960327 0.000000 0.000000
0.019196 0.056916 0.071321
0.069123 0.066224 0.077424
0.204013 0.029633 0.072847
0.402655 0.000000 0.048707
0.576593 0.000000 0.000000
0.731899 0.000000 0.000000
0.852140 0.000000 0.000000
0.952758 0.000000 0.000000
0.000000 0.176333 0.122591
0.015656 0.187106 0.115969
0.192172 0.205173 0.099825
0.457496 0.226535 0.050019
0.626703 0.179385 0.000000
0.764401 0.156954 0.000000
0.875547 0.180331 0.000000
0.967285 0.240848 0.000000
0.000000 0.355169 0.180880
0.000000 0.358129 0.172488
0.148745 0.350958 0.132906
0.385412 0.391699 0.143587
0.653712 0.448371 0.107271
0.806394 0.444465 0.000000
0.895140 0.427436 0.000000
0.972686 0.434363 0.000000
0.000000 0.535790 0.265721
0.000000 0.532525 0.256504
0.140078 0.525658 0.230777
0.318090 0.482795 0.180758
0.553246 0.544579 0.210575
0.774014 0.611414 0.218357
0.910338 0.630182 0.189029
0.980774 0.618067 0.185306
0.000000 0.676844 0.353460
0.000000 0.675807 0.348302
0.121401 0.669032 0.326452
0.312047 0.646601 0.265415
0.482490 0.607782 0.238102
0.709163 0.694911 0.309636
0.874327 0.750637 0.370123
0.972015 0.758633 0.358709
0.000000 0.802121 0.452583
0.000000 0.798062 0.445411
0.157137 0.790982 0.428351
0.351659 0.780301 0.391119
0.484382 0.744961 0.327031
0.636774 0.735897 0.320684
0.808591 0.794156 0.406653
0.927550 0.832151 0.496132
0.000000 0.906493 0.558862
0.125978 0.905699 0.557824
0.302220 0.900908 0.551690
0.462440 0.893492 0.545220
0.550561 0.879942 0.489448
0.661585 0.853788 0.443427
0.791318 0.862181 0.478218
0.903380 0.890959 0.572900
0.004211 0.018097 0.159426
0.081727 0.003784 0.177401
0.245518 0.000000 0.197116
0.437110 0.000000 0.176181
0.559960 0.000000 0.139834
0.711025 0.000000 0.138186
0.849088 0.000000 0.118959
0.957366 0.000000 0.089418
0.000000 0.073701 0.164370
0.065644 0.072389 0.182223
0.237675 0.014343 0.201968
0.418982 0.000000 0.177829
0.547631 0.000000 0.150271
0.711696 0.000000 0.142763
0.845457 0.000000 0.120607
0.954253 0.000000 0.091066
0.000000 0.172519 0.199222
0.004974 0.187198 0.207431
0.221592 0.229526 0.228611
0.422217 0.207614 0.209995
0.605371 0.182101 0.196017
0.746761 0.164370 0.175174
0.862394 0.179232 0.149752
0.959289 0.233127 0.123018
0.000000 0.388495 0.302983
0.000000 0.392126 0.298192
0.213596 0.398566 0.282261
0.419745 0.416083 0.275608
0.674311 0.468421 0.274022
0.793759 0.443061 0.244968
0.887999 0.430915 0.216281
0.968750 0.436622 0.189792
0.000000 0.555566 0.364355
0.000000 0.556115 0.361578
0.204746 0.553124 0.347051
0.368872 0.526421 0.298100
0.579583 0.566400 0.322942
0.783108 0.624170 0.336614
0.906462 0.636194 0.325963
0.974060 0.617182 0.299840
0.000000 0.690852 0.433295
0.000000 0.690120 0.430793
0.191592 0.682856 0.414466
0.353094 0.666529 0.361547
0.492531 0.610895 0.310277
0.707668 0.693080 0.381384
0.870451 0.750057 0.437354
0.970397 0.763699 0.437964
0.000000 0.812833 0.515526
0.000000 0.809842 0.510857
0.212436 0.800504 0.493355
0.387060 0.786770 0.463630
0.497566 0.755215 0.392584
0.637812 0.735073 0.371649
0.813291 0.799802 0.468208
0.931151 0.841184 0.559045
0.000000 0.909026 0.597375
0.130495 0.906584 0.593072
0.302068 0.900755 0.585321
0.470314 0.895476 0.583215
0.562646 0.882383 0.535943
0.666224 0.858000 0.489387
0.791531 0.862394 0.512596
0.905119 0.893919 0.610010
0.000000 0.017243 0.302220
0.032807 0.000000 0.321447
0.288090 0.000000 0.375158
0.485298 0.000000 0.367895
0.659113 0.000000 0.352453
0.742702 0.000000 0.298894
0.820066 0.000000 0.243748
0.926268 0.000000 0.222934
0.000000 0.080385 0.312779
0.000000 0.079988 0.327550
0.278630 0.000000 0.375830
0.482521 0.000000 0.375067
0.651057 0.000000 0.356329
0.731807 0.000000 0.298192
0.809995 0.000000 0.239445
0.926757 0.000000 0.225986
0.000000 0.184604 0.302159
0.000000 0.194858 0.308019
0.231144 0.228550 0.359625
0.467964 0.251865 0.392370
0.624201 0.222568 0.364965
0.715358 0.133120 0.306737
0.832486 0.112001 0.283177
0.944091 0.159731 0.260838
0.000000 0.341650 0.366125
0.000000 0.353094 0.372198
0.238621 0.387793 0.391211
0.450050 0.437720 0.422492
0.612360 0.413916 0.393744
0.742855 0.395636 0.364721
0.855131 0.389685 0.336614
0.952453 0.402411 0.312230
0.000000 0.593317 0.513451
0.000000 0.595850 0.514763
0.257939 0.589807 0.496681
0.444007 0.582422 0.468238
0.605249 0.589105 0.456794
0.792294 0.636072 0.472450
0.886809 0.618677 0.443366
0.961913 0.601587 0.406378
0.000000 0.722835 0.558343
0.000000 0.728389 0.561700
0.267430 0.718105 0.544762
0.434363 0.703914 0.515282
0.545983 0.665278 0.450477
0.721950 0.707759 0.494179
0.872282 0.758663 0.541009
0.966033 0.770993 0.545098
0.000000 0.824979 0.604181
0.046265 0.824308 0.602411
0.281193 0.819486 0.592248
0.435096 0.808927 0.569848
0.542687 0.787533 0.513207
0.645991 0.741512 0.452461
0.817258 0.805295 0.551873
0.931212 0.845792 0.623774
0.182162 0.916564 0.668269
0.232303 0.915709 0.666621
0.340246 0.910887 0.656855
0.476692 0.901976 0.643488
0.608515 0.886961 0.629023
0.676295 0.866361 0.563928
0.788418 0.860807 0.558618
0.905821 0.896361 0.658015
0.000000 0.017853 0.442725
0.000000 0.000000 0.456672
0.278782 0.000000 0.498421
0.529351 0.000000 0.550347
0.689906 0.000000 0.546777
0.815061 0.075380 0.532280
0.874083 0.000000 0.469703
0.943267 0.000000 0.414771
0.000000 0.093294 0.444282
0.000000 0.094026 0.458869
0.277714 0.074311 0.499031
0.529595 0.000000 0.554009
0.685267 0.066224 0.548547
0.809873 0.170352 0.533471
0.870237 0.058259 0.469947
0.940337 0.000000 0.411597
0.000000 0.205936 0.424537
0.000000 0.217594 0.441688
0.250248 0.235508 0.482490
0.515648 0.270634 0.556847
0.667445 0.291051 0.551598
0.784909 0.299870 0.527611
0.851682 0.220706 0.461402
0.926390 0.000000 0.390906
0.000000 0.326696 0.442420
0.000000 0.334813 0.445594
0.219913 0.361486 0.458289
0.444404 0.419257 0.527184
0.648096 0.459846 0.565454
0.753506 0.426062 0.524132
0.824552 0.331334 0.442420
0.917235 0.261265 0.378424
0.000000 0.498085 0.514916
0.000000 0.504631 0.518547
0.266484 0.523674 0.528893
0.446876 0.555352 0.549157
0.615442 0.597070 0.576104
0.734127 0.564355 0.536370
0.840024 0.538323 0.496223
0.936767 0.527306 0.460395
0.000000 0.710872 0.638422
0.028595 0.712764 0.640009
0.296666 0.716548 0.643153
0.462684 0.714717 0.633265
0.586053 0.696223 0.592676
0.721859 0.707851 0.592493
0.871000 0.757748 0.628901
0.950103 0.746273 0.603723
0.136263 0.835843 0.704677
0.201968 0.833402 0.701015
0.333928 0.827054 0.690059
0.467933 0.818112 0.671382
0.584375 0.803098 0.638239
0.665583 0.765347 0.569299
0.814267 0.803922 0.626276
0.928862 0.843351 0.676570
0.245762 0.915282 0.739254
0.279789 0.913756 0.736751
0.370245 0.909056 0.728115
0.493996 0.906432 0.720150
0.600610 0.894774 0.695064
0.687098 0.876432 0.649378
0.772732 0.851347 0.597162
0.901274 0.893309 0.699306
0.000000 0.055116 0.585473
0.109041 0.035126 0.595148
0.313848 0.000000 0.623804
0.553368 0.000000 0.681270
0.724239 0.000000 0.708919
0.818875 0.194675 0.679042
0.910918 0.334905 0.672053
0.964111 0.309483 0.625330
0.000000 0.115724 0.574853
0.103487 0.115175 0.583764
0.305364 0.106142 0.614923
0.539818 0.097780 0.671595
0.715297 0.141909 0.702693
0.812284 0.240421 0.676020
0.907042 0.360601 0.671748
0.960906 0.323735 0.623041
0.000000 0.227909 0.567041
0.090333 0.233402 0.576196
0.291661 0.251255 0.609033
0.516991 0.282078 0.663447
0.707881 0.324315 0.705928
0.804227 0.368963 0.682033
0.897429 0.438361 0.675898
0.954192 0.380560 0.622278
0.000000 0.329931 0.518975
0.000000 0.334966 0.521996
0.241062 0.370245 0.569360
0.463630 0.419532 0.642206
0.698878 0.497169 0.716030
0.797116 0.521294 0.699855
0.883909 0.538018 0.684443
0.944610 0.452155 0.617365
0.000000 0.472389 0.575433
0.035645 0.476722 0.577325
0.237400 0.490394 0.583337
0.390539 0.510765 0.594141
0.602350 0.573205 0.662867
0.768734 0.626825 0.699031
0.850523 0.590173 0.659785
0.920439 0.480446 0.568719
0.047089 0.628016 0.639734
0.155459 0.633600 0.643793
0.298802 0.643885 0.649897
0.448310 0.660883 0.660426
0.596643 0.685054 0.675135
0.740383 0.727321 0.705074
0.833219 0.696803 0.666590
0.924834 0.672023 0.626520
0.217441 0.817624 0.755520
0.267491 0.820890 0.758877
0.381323 0.826841 0.765194
0.523552 0.831876 0.771847
0.644282 0.830961 0.766751
0.723568 0.811368 0.725216
0.821653 0.813291 0.718227
0.934966 0.849729 0.751461
0.358038 0.921782 0.824704
0.380957 0.920256 0.822538
0.450202 0.915801 0.815824
0.542840 0.910796 0.805814
0.631464 0.902861 0.787015
0.713100 0.890257 0.754665
0.777462 0.862882 0.692134
0.899931 0.893767 0.755306
0.165805 0.101381 0.708675
0.227024 0.099489 0.715755
0.374731 0.088319 0.735622
0.557824 0.096529 0.768643
0.737026 0.183658 0.807065
0.839109 0.243229 0.809415
0.898375 0.349035 0.771176
0.966186 0.474342 0.767025
0.159335 0.149050 0.702327
0.220127 0.149874 0.709255
0.366308 0.149660 0.729397
0.547539 0.162417 0.761715
0.727993 0.228977 0.801297
0.833616 0.277592 0.805783
0.893950 0.367742 0.768704
0.963012 0.483192 0.765072
0.121981 0.248997 0.692195
0.189639 0.252567 0.698116
0.340764 0.263859 0.718227
0.524681 0.289372 0.751980
0.708614 0.347082 0.793271
0.826200 0.391058 0.805966
0.889342 0.454810 0.774624
0.959930 0.547234 0.774777
0.000000 0.356847 0.656153
0.102724 0.360510 0.663447
0.258396 0.366094 0.691341
0.468605 0.402350 0.730648
0.670222 0.464057 0.778195
0.814908 0.527031 0.807950
0.881743 0.564904 0.784573
0.954345 0.624842 0.786435
0.000000 0.458167 0.640803
0.000000 0.458412 0.639826
0.168185 0.459541 0.638117
0.350744 0.481209 0.670649
0.586358 0.541131 0.741970
0.794675 0.639673 0.805570
0.868070 0.658442 0.790677
0.942107 0.677516 0.785122
0.000000 0.604913 0.696986
0.103670 0.606104 0.697292
0.241367 0.609827 0.698390
0.370764 0.615045 0.700313
0.500847 0.620600 0.701564
0.715114 0.692470 0.766445
0.855436 0.752224 0.802884
0.923827 0.719051 0.770779
0.205417 0.744411 0.753872
0.242741 0.746181 0.755032
0.337774 0.750576 0.757473
0.457221 0.758724 0.762264
0.587762 0.770840 0.768795
0.715572 0.791165 0.781247
0.832303 0.825315 0.806668
0.908232 0.792905 0.765713
0.336248 0.886900 0.836301
0.361791 0.887877 0.837461
0.443824 0.892760 0.843229
0.548028 0.899565 0.851286
0.661463 0.906065 0.859739
0.760555 0.907652 0.859159
0.817594 0.893706 0.823148
0.901396 0.896971 0.819913
0.337316 0.190188 0.829129
0.369787 0.191653 0.832242
0.464149 0.195956 0.840574
0.595209 0.218601 0.856229
0.734279 0.277379 0.876310
0.853269 0.365270 0.893980
0.925902 0.411902 0.892515
0.961028 0.500633 0.850858
0.328130 0.219913 0.825284
0.361089 0.221592 0.828428
0.456733 0.227298 0.837369
0.588403 0.249271 0.852995
0.728847 0.304112 0.873655
0.850675 0.389593 0.892668
0.923003 0.430304 0.891020
0.959075 0.512505 0.850492
0.287938 0.295598 0.815732
0.323796 0.298039 0.818814
0.425971 0.306126 0.827848
0.567163 0.332280 0.846250
0.712917 0.382544 0.867765
0.844633 0.468910 0.891020
0.916228 0.498024 0.889616
0.955138 0.560906 0.853391
0.168032 0.383490 0.796536
0.201907 0.379217 0.800778
0.345464 0.391547 0.811887
0.513054 0.419348 0.831815
0.678676 0.470863 0.856779
0.824125 0.555383 0.883909
0.906493 0.589319 0.889433
0.950042 0.630884 0.859739
0.000000 0.481392 0.750546
0.000000 0.482979 0.755703
0.199283 0.485267 0.771542
0.388739 0.491432 0.801755
0.601526 0.535973 0.834653
0.783230 0.620020 0.869200
0.892882 0.677943 0.888914
0.943450 0.706874 0.868132
0.000000 0.611261 0.779904
0.000000 0.609522 0.778714
0.165805 0.603418 0.775143
0.280827 0.590570 0.769039
0.438544 0.586236 0.781399
0.702480 0.664942 0.842008
0.879911 0.768124 0.892271
0.937713 0.784604 0.881010
0.188540 0.740719 0.820615
0.214664 0.740291 0.820188
0.287114 0.739010 0.818936
0.383917 0.737606 0.817624
0.494240 0.735439 0.815000
0.606928 0.730648 0.809659
0.808865 0.794247 0.859892
0.928618 0.849699 0.891447
0.336767 0.849729 0.858976
0.354894 0.850004 0.859068
0.413336 0.851225 0.859648
0.502342 0.854124 0.861234
0.604486 0.858885 0.863645
0.709926 0.866758 0.867613
0.812436 0.880735 0.875700
0.912932 0.909941 0.898589
