data/fiter_cube/37639453/1023435/file.cube
# Created by Adobe Lightroom plugin Export LUT (1.17.0)
# www.johnrellis.com/lightroom/exportlut.htm
# Preset: 油管牛人_01 云集
# Color profile: C:\Program Files (x86)\Common Files\Adobe\Color\Profiles\Recommended\AdobeRGB1998.icc
LUT_3D_SIZE 32
DOMAIN_MIN 0.0 0.0 0.0
DOMAIN_MAX 1.0 1.0 1.0
0.010803 0.007141 0.013214
0.021118 0.007752 0.013947
0.034516 0.006714 0.013703
0.056306 0.007263 0.014069
0.074220 0.009064 0.014893
0.096742 0.009430 0.015961
0.129061 0.000732 0.014466
0.170382 0.000000 0.013001
0.218357 0.000000 0.007660
0.269871 0.000000 0.000427
0.323033 0.000000 0.000000
0.375525 0.000000 0.000000
0.425940 0.000000 0.000000
0.474189 0.000000 0.000000
0.519432 0.000000 0.000000
0.561578 0.000000 0.000000
0.601465 0.000000 0.000000
0.639429 0.000000 0.000000
0.686519 0.000000 0.000000
0.732479 0.000000 0.000000
0.772457 0.000000 0.000000
0.807553 0.000000 0.000000
0.838071 0.000000 0.000000
0.865293 0.000000 0.000000
0.889891 0.000000 0.000000
0.912902 0.000000 0.000000
0.935302 0.000000 0.000000
0.957305 0.000000 0.000000
0.979217 0.000000 0.000000
1.000000 0.000000 0.000000
1.000000 0.054841 0.000000
1.000000 0.147250 0.000000
0.010315 0.014099 0.016968
0.019654 0.013764 0.016754
0.033112 0.013916 0.015320
0.056275 0.014252 0.015686
0.074220 0.016052 0.016510
0.096742 0.017609 0.016358
0.128817 0.009155 0.015991
0.169558 0.000000 0.013428
0.216892 0.000000 0.009277
0.268162 0.000000 0.000885
0.320500 0.000000 0.000000
0.372381 0.000000 0.000000
0.422889 0.000000 0.000000
0.470527 0.000000 0.000000
0.515343 0.000000 0.000000
0.557519 0.000000 0.000000
0.597040 0.000000 0.000000
0.635126 0.000000 0.000000
0.681666 0.000000 0.000000
0.726375 0.000000 0.000000
0.765682 0.000000 0.000000
0.800687 0.000000 0.000000
0.831357 0.000000 0.000000
0.858824 0.000000 0.000000
0.883940 0.000000 0.000000
0.907500 0.000000 0.000000
0.930388 0.000000 0.000000
0.952880 0.000000 0.000000
0.975250 0.000000 0.000000
0.997589 0.000000 0.000000
1.000000 0.034882 0.000000
1.000000 0.142428 0.000000
0.010803 0.022065 0.021729
0.018830 0.023133 0.020325
0.029297 0.022553 0.021180
0.054627 0.023865 0.019287
0.073945 0.026642 0.018891
0.096498 0.029419 0.018677
0.128847 0.023133 0.016999
0.169741 0.000427 0.014405
0.216800 0.000000 0.009125
0.267765 0.000000 0.000580
0.319738 0.000000 0.000000
0.371740 0.000000 0.000000
0.421698 0.000000 0.000000
0.469520 0.000000 0.000000
0.514183 0.000000 0.000000
0.556207 0.000000 0.000000
0.595605 0.000000 0.000000
0.633600 0.000000 0.000000
0.680018 0.000000 0.000000
0.723903 0.000000 0.000000
0.762905 0.000000 0.000000
0.797696 0.000000 0.000000
0.828489 0.000000 0.000000
0.855985 0.000000 0.000000
0.881224 0.000000 0.000000
0.904845 0.000000 0.000000
0.927947 0.000000 0.000000
0.950683 0.000000 0.000000
0.973266 0.000000 0.000000
0.995758 0.000000 0.000000
1.000000 0.057832 0.000000
1.000000 0.145602 0.000000
0.013123 0.037751 0.031189
0.022065 0.038605 0.031983
0.031403 0.038239 0.031769
0.050050 0.039704 0.031128
0.071382 0.048280 0.028107
0.097749 0.054078 0.023896
0.131258 0.050904 0.020722
0.172854 0.032319 0.016510
0.220127 0.000000 0.009430
0.271244 0.000000 0.000336
0.322972 0.000000 0.000000
0.374182 0.000000 0.000000
0.423743 0.000000 0.000000
0.470924 0.000000 0.000000
0.515221 0.000000 0.000000
0.556909 0.000000 0.000000
0.595911 0.000000 0.000000
0.633356 0.000000 0.000000
0.679774 0.000000 0.000000
0.721218 0.000000 0.000000
0.758816 0.000000 0.000000
0.792874 0.000000 0.000000
0.823911 0.000000 0.000000
0.852323 0.000000 0.000000
0.878752 0.000000 0.000000
0.903624 0.000000 0.000000
0.927489 0.000000 0.000000
0.950652 0.000000 0.000000
0.973266 0.000000 0.000000
0.995544 0.000000 0.000000
1.000000 0.095949 0.000000
1.000000 0.160983 0.000000
0.014221 0.059236 0.045258
0.020691 0.059754 0.044984
0.028199 0.060273 0.039246
0.049775 0.059724 0.039857
0.066560 0.062287 0.039582
0.089601 0.069062 0.033936
0.131258 0.075288 0.023713
0.175113 0.073121 0.016815
0.222873 0.062562 0.008698
0.273594 0.018128 0.000000
0.325536 0.000000 0.000000
0.376776 0.000000 0.000000
0.426307 0.000000 0.000000
0.473396 0.000000 0.000000
0.517693 0.000000 0.000000
0.559625 0.000000 0.000000
0.598901 0.000000 0.000000
0.639399 0.000000 0.000000
0.684138 0.000000 0.000000
0.723720 0.000000 0.000000
0.759823 0.000000 0.000000
0.792874 0.000000 0.000000
0.823178 0.000000 0.000000
0.851408 0.000000 0.000000
0.877775 0.000000 0.000000
0.902678 0.000000 0.000000
0.926543 0.000000 0.000000
0.949523 0.000000 0.000000
0.972015 0.000000 0.000000
0.994171 0.049409 0.000000
1.000000 0.132174 0.000000
1.000000 0.182589 0.000000
0.011780 0.075288 0.058961
0.017151 0.076112 0.057343
0.025635 0.076814 0.053773
0.044495 0.077028 0.046845
0.066133 0.076600 0.047028
0.083345 0.082307 0.046265
0.116213 0.092439 0.039307
0.170321 0.103578 0.021332
0.230564 0.104982 0.003571
0.282017 0.094026 0.000000
0.333715 0.073701 0.000000
0.384802 0.011109 0.000000
0.433783 0.000000 0.000000
0.480568 0.000000 0.000000
0.524865 0.000000 0.000000
0.566613 0.000000 0.000000
0.605707 0.000000 0.000000
0.649592 0.000000 0.000000
0.691981 0.000000 0.000000
0.730282 0.000000 0.000000
0.765408 0.000000 0.000000
0.797848 0.000000 0.000000
0.869505 0.000000 0.000000
0.893858 0.000000 0.000000
0.915984 0.000000 0.000000
0.936584 0.000000 0.000000
0.956359 0.057099 0.000000
0.975616 0.112612 0.000000
0.994812 0.151614 0.000000
1.000000 0.186191 0.000000
1.000000 0.219272 0.000000
1.000000 0.251164 0.000000
0.000000 0.103334 0.068513
0.005005 0.104158 0.066804
0.011872 0.105470 0.064576
0.027222 0.107515 0.055909
0.062837 0.105715 0.052277
0.083894 0.107912 0.051972
0.113497 0.118563 0.048493
0.160250 0.133089 0.037385
0.228672 0.147250 0.005493
0.302525 0.151125 0.000000
0.362646 0.141665 0.000000
0.413825 0.123934 0.000000
0.461769 0.100282 0.000000
0.506981 0.065583 0.000000
0.548821 0.000000 0.000000
0.587671 0.000000 0.000000
0.627436 0.000000 0.000000
0.674006 0.000000 0.000000
0.714717 0.000000 0.000000
0.752438 0.000000 0.000000
0.788510 0.000000 0.000000
0.822843 0.000000 0.000000
0.854826 0.000000 0.000000
0.883879 0.000000 0.000000
0.909758 0.067140 0.000000
0.932494 0.109071 0.000000
0.953185 0.139986 0.000000
0.972717 0.166598 0.000000
0.992004 0.192874 0.000000
1.000000 0.219120 0.000000
1.000000 0.245914 0.000000
1.000000 0.273686 0.000000
0.000000 0.135897 0.077058
0.000000 0.136538 0.075257
0.000000 0.137667 0.072541
0.007141 0.140139 0.066255
0.041169 0.139803 0.055634
0.077913 0.136629 0.055421
0.106844 0.142916 0.052979
0.146212 0.157259 0.046906
0.201480 0.173404 0.031281
0.275975 0.188388 0.000000
0.352789 0.193027 0.000000
0.422858 0.189883 0.000000
0.471901 0.174807 0.000000
0.516320 0.157229 0.000000
0.557397 0.138491 0.000000
0.595850 0.118349 0.000000
0.641413 0.104219 0.000000
0.683467 0.091646 0.000000
0.721004 0.083162 0.000000
0.756466 0.078920 0.000000
0.790707 0.085451 0.000000
0.823667 0.100496 0.000000
0.854429 0.120180 0.000000
0.882506 0.140505 0.000000
0.907744 0.160189 0.000000
0.930144 0.178805 0.000000
0.950652 0.196536 0.000000
0.970153 0.214145 0.000000
0.989380 0.233677 0.000000
1.000000 0.254368 0.000000
1.000000 0.276738 0.000000
1.000000 0.300420 0.000000
0.000000 0.175753 0.087556
0.000000 0.176333 0.085695
0.000000 0.177432 0.082704
0.000000 0.179446 0.076081
0.000000 0.181338 0.061585
0.062562 0.177707 0.057313
0.099916 0.172702 0.056611
0.136599 0.184787 0.051759
0.185702 0.201755 0.040467
0.248447 0.218692 0.024262
0.326421 0.233585 0.000000
0.403082 0.238926 0.000000
0.475044 0.238529 0.000000
0.530053 0.230564 0.000000
0.570214 0.215793 0.000000
0.614832 0.206729 0.000000
0.657710 0.199466 0.000000
0.695888 0.193027 0.000000
0.730434 0.187869 0.000000
0.763638 0.185977 0.000000
0.796109 0.188693 0.000000
0.827359 0.194705 0.000000
0.856748 0.203586 0.000000
0.883696 0.214450 0.000000
0.908141 0.225742 0.000000
0.929900 0.237003 0.000000
0.949950 0.248844 0.000000
0.969085 0.261692 0.000000
0.987915 0.276158 0.000000
1.000000 0.292302 0.000000
1.000000 0.310338 0.000000
1.000000 0.330266 0.000000
0.000000 0.219516 0.099245
0.000000 0.220066 0.097353
0.000000 0.220493 0.094362
0.000000 0.222232 0.087861
0.000000 0.224369 0.076875
0.003326 0.222080 0.059846
0.085512 0.216770 0.059480
0.127047 0.211582 0.058839
0.172030 0.228733 0.051179
0.228977 0.247105 0.036835
0.296330 0.263890 0.022309
0.374487 0.278294 0.000000
0.449561 0.284459 0.000000
0.519493 0.286564 0.000000
0.587579 0.291630 0.000000
0.636225 0.287022 0.000000
0.676448 0.280400 0.000000
0.712062 0.273808 0.000000
0.744350 0.268772 0.000000
0.774929 0.265171 0.000000
0.804410 0.264469 0.000000
0.832609 0.266514 0.000000
0.859220 0.270146 0.000000
0.883970 0.275425 0.000000
0.906859 0.281743 0.000000
0.928008 0.288914 0.000000
0.947967 0.296422 0.000000
0.967285 0.306096 0.000000
0.986328 0.317754 0.000000
1.000000 0.331426 0.000000
1.000000 0.347021 0.000000
1.000000 0.364477 0.000000
0.000000 0.262211 0.111910
0.000000 0.262547 0.109865
0.000000 0.263310 0.107210
0.000000 0.264378 0.101045
0.000000 0.266148 0.091127
0.000000 0.267094 0.071717
0.057435 0.262181 0.064027
0.114900 0.255619 0.063050
0.159976 0.255070 0.060639
0.212039 0.273594 0.055299
0.275029 0.292790 0.043854
0.345129 0.309422 0.031678
0.424323 0.325719 0.000000
0.503593 0.337987 0.000000
0.575677 0.346654 0.000000
0.641108 0.354223 0.000000
0.691859 0.356817 0.000000
0.724453 0.347845 0.000000
0.754421 0.340093 0.000000
0.783108 0.334661 0.000000
0.810880 0.331701 0.000000
0.837613 0.330938 0.000000
0.863096 0.332403 0.000000
0.886778 0.334813 0.000000
0.908690 0.338170 0.000000
0.928923 0.342077 0.000000
0.948028 0.346441 0.000000
0.966644 0.352697 0.000000
0.985107 0.360815 0.000000
1.000000 0.370977 0.000000
1.000000 0.383185 0.000000
1.000000 0.397925 0.000000
0.000000 0.306188 0.125856
0.000000 0.306676 0.124239
0.000000 0.307225 0.121981
0.000000 0.307927 0.116152
0.000000 0.309300 0.107668
0.000000 0.310979 0.096498
0.000000 0.307958 0.072602
0.095888 0.301579 0.071107
0.149203 0.293706 0.069398
0.198062 0.299260 0.067048
0.256168 0.318608 0.065156
0.328099 0.342718 0.062593
0.441871 0.395422 0.078370
0.526238 0.417792 0.062593
0.601465 0.432685 0.000000
0.668635 0.444038 0.000000
0.725338 0.450568 0.000000
0.770199 0.452857 0.000000
0.800046 0.446052 0.000000
0.823392 0.435828 0.000000
0.845884 0.427985 0.000000
0.867521 0.422034 0.000000
0.887938 0.417700 0.000000
0.907439 0.415167 0.000000
0.925811 0.413397 0.000000
0.943359 0.412879 0.000000
0.960174 0.413458 0.000000
0.976684 0.415656 0.000000
0.993286 0.419623 0.000000
1.000000 0.425940 0.000000
1.000000 0.434394 0.000000
1.000000 0.445289 0.000000
0.000000 0.361791 0.146242
0.000000 0.361913 0.144472
0.000000 0.361639 0.142245
0.000000 0.361242 0.136995
0.000000 0.360906 0.129244
0.000000 0.360540 0.118776
0.000000 0.358984 0.097017
0.067567 0.352087 0.085206
0.137728 0.344335 0.083040
0.190951 0.336980 0.080385
0.251743 0.356115 0.082704
0.324651 0.384436 0.087221
0.406317 0.413672 0.094545
0.488869 0.440009 0.104128
0.569360 0.464210 0.102358
0.640192 0.480385 0.062593
0.700587 0.490272 0.000000
0.750973 0.494881 0.000000
0.793881 0.496895 0.000000
0.828214 0.497810 0.000000
0.849302 0.487068 0.000000
0.869780 0.478737 0.000000
0.889067 0.471870 0.000000
0.907652 0.466621 0.000000
0.925231 0.462409 0.000000
0.942077 0.459388 0.000000
0.958343 0.457801 0.000000
0.974517 0.457923 0.000000
0.990814 0.459815 0.000000
1.000000 0.464149 0.000000
1.000000 0.470771 0.000000
1.000000 0.479774 0.000000
0.000000 0.401740 0.162661
0.000000 0.401862 0.161105
0.000000 0.401404 0.159091
0.000000 0.401190 0.154910
0.000000 0.400336 0.147768
0.000000 0.399695 0.139345
0.000000 0.399298 0.129458
0.000000 0.396765 0.102419
0.122744 0.392432 0.100801
0.184573 0.387091 0.098878
0.238224 0.380346 0.096437
0.304997 0.405921 0.102724
0.379187 0.432868 0.110719
0.458320 0.459998 0.119905
0.537346 0.486519 0.131075
0.608453 0.507317 0.137087
0.672450 0.521477 0.108644
0.726040 0.529412 0.074006
0.772519 0.533684 0.000000
0.813352 0.536248 0.000000
0.847379 0.537591 0.000000
0.872862 0.534569 0.000000
0.891234 0.525505 0.000000
0.909087 0.518120 0.000000
0.925994 0.512078 0.000000
0.942229 0.507103 0.000000
0.957977 0.503410 0.000000
0.973693 0.501640 0.000000
0.989563 0.501671 0.000000
1.000000 0.504112 0.000000
1.000000 0.509026 0.000000
1.000000 0.516350 0.000000
0.000000 0.443671 0.182132
0.000000 0.444129 0.180911
0.000000 0.444312 0.179263
0.000000 0.444739 0.175723
0.000000 0.445197 0.170596
0.000000 0.445624 0.163943
0.000000 0.446479 0.156741
0.000000 0.445563 0.135592
0.104555 0.440345 0.122774
0.175540 0.433722 0.119997
0.232334 0.426154 0.116457
0.286656 0.424506 0.115206
0.355535 0.450111 0.124117
0.429145 0.475929 0.134249
0.504356 0.501183 0.145754
0.577081 0.525719 0.157046
0.642878 0.545922 0.168185
0.700282 0.558099 0.145174
0.749813 0.565301 0.122255
0.793271 0.570001 0.097780
0.831724 0.573083 0.063355
0.865293 0.574731 0.000000
0.892241 0.575677 0.004852
0.910552 0.567987 0.000000
0.926879 0.560235 0.000000
0.942779 0.553948 0.000000
0.958495 0.549340 0.000000
0.974243 0.546624 0.000000
0.990234 0.546014 0.000000
1.000000 0.547723 0.000000
1.000000 0.551781 0.000000
1.000000 0.558221 0.056275
0.000000 0.493690 0.207370
0.000000 0.494270 0.206882
0.000000 0.494331 0.205600
0.000000 0.494301 0.202274
0.000000 0.494270 0.198001
0.000000 0.494118 0.192416
0.000000 0.494392 0.186130
0.000000 0.494453 0.178439
0.086763 0.489998 0.148623
0.169009 0.482521 0.144747
0.228855 0.473579 0.140291
0.280552 0.462989 0.135103
0.335241 0.466316 0.135805
0.402747 0.489418 0.145449
0.472663 0.512596 0.156008
0.542290 0.535607 0.166964
0.609949 0.559075 0.178958
0.671412 0.578973 0.196109
0.725521 0.591241 0.178317
0.772915 0.599817 0.161501
0.814572 0.605768 0.145510
0.851194 0.609583 0.129549
0.883085 0.611505 0.111604
0.909422 0.612390 0.109255
0.930449 0.610742 0.114870
0.945830 0.603082 0.109834
0.960967 0.596887 0.106630
0.976104 0.592737 0.105715
0.991485 0.590448 0.106142
1.000000 0.590082 0.110018
1.000000 0.591882 0.118379
1.000000 0.596002 0.129305
0.000000 0.536095 0.232212
0.000000 0.536065 0.231296
0.000000 0.535668 0.229984
0.000000 0.535302 0.227115
0.000000 0.534691 0.223178
0.000000 0.533959 0.217807
0.000000 0.533410 0.212070
0.000000 0.532494 0.205203
0.087221 0.529808 0.181979
0.156924 0.522759 0.166842
0.221012 0.513725 0.162295
0.274388 0.503471 0.157198
0.321691 0.491218 0.150576
0.379156 0.501732 0.154818
0.445411 0.524041 0.165835
0.511986 0.545983 0.176699
0.577600 0.568353 0.188083
0.640864 0.590723 0.200748
0.698177 0.609857 0.221561
0.749172 0.622675 0.209873
0.793820 0.631312 0.196139
0.832883 0.637171 0.184573
0.867094 0.640833 0.173648
0.897093 0.643030 0.161501
0.923308 0.643671 0.152010
0.944854 0.644404 0.160983
0.961425 0.640101 0.162600
0.976226 0.634760 0.161532
0.991241 0.631250 0.161776
1.000000 0.629725 0.165255
1.000000 0.630396 0.171603
1.000000 0.633173 0.181216
0.000000 0.576562 0.257908
0.000000 0.577264 0.257511
0.000000 0.605768 0.276158
0.000000 0.605066 0.273838
0.000000 0.603632 0.269780
0.000000 0.601526 0.264164
0.000000 0.599207 0.257694
0.000000 0.596460 0.249638
0.141268 0.593500 0.240360
0.166445 0.586389 0.205020
0.233158 0.575982 0.199313
0.288212 0.563989 0.192447
0.335698 0.549767 0.184054
0.377783 0.533776 0.174777
0.439246 0.551629 0.184024
0.503441 0.573175 0.195773
0.566461 0.594415 0.207736
0.626886 0.615076 0.221042
0.684596 0.635157 0.235599
0.736355 0.652064 0.257420
0.782498 0.663783 0.253056
0.822721 0.670954 0.242405
0.857755 0.675532 0.233219
0.888243 0.677852 0.224704
0.914946 0.678248 0.214908
0.938781 0.677516 0.204349
0.959014 0.676661 0.204807
0.976928 0.676234 0.211978
0.991028 0.670924 0.210788
1.000000 0.667933 0.212772
1.000000 0.667109 0.218051
1.000000 0.668299 0.225803
0.000000 0.622705 0.289494
0.000000 0.626459 0.291539
0.000000 0.629938 0.293278
0.000000 0.632715 0.293492
0.000000 0.633967 0.291600
0.000000 0.633326 0.287633
0.000000 0.631373 0.281376
0.000000 0.628626 0.273747
0.132876 0.625727 0.265354
0.172488 0.620783 0.238590
0.222416 0.611627 0.219913
0.280186 0.600031 0.213077
0.329534 0.586481 0.204959
0.372534 0.570977 0.195651
0.413672 0.559014 0.188205
0.475532 0.579858 0.199741
0.536858 0.600427 0.211490
0.596094 0.620569 0.224918
0.653223 0.640406 0.239628
0.708034 0.660121 0.255344
0.756985 0.676570 0.278691
0.801633 0.689754 0.281895
0.839689 0.697200 0.273930
0.872740 0.701869 0.267308
0.901396 0.704158 0.260777
0.926909 0.704891 0.253758
0.949981 0.704738 0.245914
0.970916 0.704524 0.241459
0.989014 0.705653 0.251987
1.000000 0.704829 0.259098
1.000000 0.702724 0.263432
1.000000 0.702724 0.269932
0.000000 0.655421 0.312871
0.000000 0.658778 0.315312
0.000000 0.661921 0.317021
0.000000 0.664240 0.317235
0.000000 0.665248 0.315373
0.000000 0.664546 0.311742
0.000000 0.662654 0.305943
0.000000 0.660029 0.298802
0.126833 0.657099 0.290257
0.196323 0.653590 0.279179
0.211917 0.646784 0.241794
0.272953 0.635981 0.234562
0.324102 0.623316 0.226444
0.369085 0.608972 0.217319
0.408270 0.592706 0.207004
0.452430 0.588708 0.204013
0.511894 0.608759 0.216220
0.569940 0.628321 0.229465
0.626215 0.647730 0.243839
0.680629 0.667109 0.260136
0.732601 0.686152 0.277775
0.778653 0.702235 0.302495
0.821134 0.715877 0.313146
0.856718 0.723079 0.307469
0.887419 0.727260 0.301884
0.914427 0.729427 0.297032
0.938628 0.730434 0.291966
0.960937 0.730922 0.287358
0.981903 0.731380 0.282811
1.000000 0.732845 0.290684
1.000000 0.735683 0.305791
1.000000 0.734890 0.312383
0.000000 0.686915 0.337041
0.000000 0.689754 0.338933
0.000000 0.692561 0.340459
0.000000 0.694697 0.341039
0.000000 0.695552 0.339635
0.000000 0.694728 0.335729
0.000000 0.692775 0.330297
0.000000 0.690181 0.323461
0.123995 0.687037 0.315099
0.196139 0.683558 0.305730
0.223087 0.678584 0.276616
0.264958 0.669581 0.256504
0.318273 0.658015 0.248478
0.364843 0.644892 0.239200
0.406104 0.630274 0.229007
0.442786 0.614069 0.217929
0.491920 0.619532 0.221256
0.550195 0.640101 0.235935
0.607233 0.660609 0.252354
0.662654 0.681086 0.270390
0.715328 0.701167 0.290654
0.765225 0.720668 0.312413
0.808377 0.736141 0.339452
0.847745 0.749844 0.358495
0.880308 0.756435 0.355779
0.908598 0.760342 0.353124
0.933654 0.762631 0.351720
0.956481 0.764065 0.350317
0.977752 0.765255 0.349371
0.997803 0.766323 0.349279
1.000000 0.767666 0.352392
1.000000 0.770901 0.369940
0.000000 0.728817 0.371435
0.000000 0.730007 0.372168
0.000000 0.730831 0.372564
0.000000 0.730953 0.371191
0.000000 0.730404 0.368902
0.000000 0.728908 0.364874
0.000000 0.726894 0.359594
0.000000 0.724483 0.353185
0.134737 0.722011 0.345861
0.205386 0.719112 0.337346
0.257115 0.715694 0.325200
0.267155 0.709468 0.286076
0.321904 0.699092 0.278050
0.369543 0.687037 0.268406
0.412055 0.673610 0.258091
0.450050 0.658625 0.246494
0.483925 0.642603 0.234318
0.536339 0.655879 0.244663
0.591821 0.675288 0.261143
0.645472 0.694331 0.279057
0.696681 0.712856 0.298314
0.745174 0.730678 0.319219
0.790372 0.747555 0.341253
0.828824 0.760464 0.367407
0.864744 0.772976 0.391791
0.894774 0.778836 0.390570
0.921477 0.782681 0.389563
0.945525 0.785428 0.390082
0.967651 0.787686 0.392004
0.988342 0.789578 0.394263
1.000000 0.791409 0.396918
1.000000 0.793545 0.400732
0.000000 0.756954 0.395666
0.000000 0.758083 0.396307
0.000000 0.758907 0.396521
0.000000 0.759152 0.395819
0.000000 0.758511 0.393317
0.000000 0.757015 0.389715
0.000000 0.754818 0.384497
0.000000 0.752224 0.378302
0.141390 0.749477 0.371069
0.209323 0.746548 0.363226
0.264042 0.743160 0.353796
0.283726 0.738613 0.324346
0.317967 0.730434 0.302007
0.367041 0.719814 0.293034
0.410651 0.707790 0.282536
0.450233 0.694789 0.271977
0.485847 0.680659 0.259983
0.519341 0.667536 0.249241
0.574487 0.686671 0.266178
0.627741 0.705501 0.284794
0.678828 0.723842 0.304845
0.727382 0.741482 0.326513
0.772824 0.758267 0.349523
0.814878 0.774014 0.373449
0.845090 0.780056 0.390906
0.878569 0.792203 0.421088
0.907073 0.798123 0.421942
0.932616 0.802365 0.423468
0.955901 0.805722 0.426184
0.977447 0.808713 0.430732
0.997772 0.811673 0.436469
1.000000 0.815183 0.444526
0.000000 0.792538 0.428595
0.000000 0.793698 0.429419
0.000000 0.794247 0.429786
0.000000 0.793912 0.428443
0.000000 0.792691 0.425757
0.000000 0.790707 0.421729
0.000000 0.788052 0.416358
0.070008 0.784848 0.410010
0.163943 0.781277 0.402472
0.224216 0.777432 0.393896
0.275273 0.773068 0.384283
0.314641 0.768368 0.369360
0.319005 0.762264 0.329198
0.367041 0.751980 0.319615
0.409979 0.740230 0.308415
0.448829 0.727382 0.296635
0.484321 0.713741 0.284276
0.516930 0.699519 0.271397
0.554101 0.694423 0.267002
0.607141 0.712856 0.285740
0.658259 0.731014 0.305913
0.706844 0.748470 0.327642
0.752132 0.764553 0.350469
0.793942 0.779294 0.373327
0.831937 0.792630 0.396551
0.863523 0.801968 0.421210
0.894224 0.813565 0.457588
0.920745 0.819028 0.459541
0.944823 0.823362 0.463050
0.967132 0.827176 0.468208
0.988098 0.831174 0.476631
1.000000 0.835721 0.487587
0.000000 0.816098 0.450355
0.000000 0.817197 0.451362
0.000000 0.817685 0.451667
0.000000 0.817350 0.450477
0.000000 0.816281 0.448249
0.000000 0.814542 0.444800
0.000000 0.812253 0.440253
0.102724 0.809537 0.434699
0.179904 0.806546 0.428199
0.237278 0.803311 0.420996
0.286473 0.799771 0.412940
0.331701 0.795712 0.403479
0.344793 0.791318 0.373144
0.371984 0.783993 0.349523
0.415167 0.774044 0.339269
0.454505 0.763058 0.327916
0.490730 0.751247 0.315862
0.524437 0.738918 0.303288
0.555962 0.726375 0.290745
0.597131 0.729183 0.294591
0.647517 0.746395 0.315221
0.695308 0.762783 0.337621
0.740017 0.778073 0.360357
0.781430 0.792050 0.383978
0.819333 0.804776 0.407843
0.853849 0.816434 0.431769
0.882780 0.824796 0.456947
0.910552 0.835447 0.496498
0.935515 0.841733 0.505882
0.958526 0.846799 0.512779
0.980224 0.851926 0.522881
1.000000 0.857420 0.536248
0.000000 0.841520 0.475807
0.000000 0.842161 0.476478
0.000000 0.842191 0.476173
0.000000 0.841550 0.475105
0.000000 0.840146 0.472389
0.000000 0.838285 0.469032
0.000000 0.835874 0.464576
0.134920 0.833219 0.459480
0.200168 0.830350 0.453620
0.252232 0.827451 0.447578
0.299718 0.824155 0.440375
0.343633 0.820737 0.432715
0.376684 0.816831 0.418219
0.378271 0.812467 0.379339
0.420294 0.803891 0.369482
0.459144 0.794278 0.358343
0.495186 0.783963 0.346929
0.529076 0.773098 0.334386
0.561242 0.762142 0.322301
0.591669 0.751034 0.309911
0.635920 0.760128 0.322179
0.683162 0.775570 0.344518
0.727443 0.790005 0.367620
0.768551 0.803250 0.391485
0.806363 0.815335 0.415503
0.840818 0.826383 0.439948
0.872251 0.836637 0.464820
0.899626 0.844968 0.490333
0.924193 0.853971 0.530480
0.948028 0.861357 0.547143
0.970489 0.867552 0.558099
0.991638 0.873777 0.571862
0.000000 0.863249 0.498238
0.000000 0.863554 0.498573
0.000000 0.863554 0.498512
0.000000 0.863066 0.497444
0.000000 0.862150 0.495766
0.000000 0.861082 0.493538
0.107637 0.860105 0.491371
0.180819 0.859098 0.488777
0.237491 0.858091 0.486397
0.288060 0.856992 0.483528
0.335180 0.855589 0.480262
0.379156 0.853727 0.476143
0.420508 0.851255 0.471321
0.430579 0.848936 0.443946
0.451881 0.844114 0.421820
0.488075 0.836728 0.411902
0.522393 0.828458 0.400671
0.555047 0.819760 0.388800
0.586816 0.810819 0.376989
0.617334 0.801785 0.364935
0.646540 0.792569 0.352514
0.691341 0.805234 0.374914
0.733700 0.817533 0.398840
0.772885 0.828855 0.423438
0.808835 0.839200 0.448341
0.841550 0.848722 0.473762
0.871489 0.857633 0.499428
0.898772 0.866026 0.524620
0.923705 0.874052 0.549950
0.944671 0.881498 0.589624
0.966552 0.889525 0.612665
0.987640 0.896391 0.626764
0.000000 0.893339 0.534569
0.000000 0.893462 0.534600
0.000000 0.893187 0.534295
0.000000 0.892454 0.532952
0.072602 0.891295 0.531182
0.139651 0.889830 0.528923
0.190646 0.888273 0.526482
0.237125 0.886534 0.523644
0.281315 0.884703 0.520562
0.324224 0.882719 0.517601
0.365270 0.880400 0.514153
0.404913 0.877806 0.510307
0.442939 0.874693 0.505669
0.469429 0.871519 0.493690
