data/fiter_cube/37639453/1023435/file.cube
# Created by Adobe Lightroom plugin Export LUT (1.17.0)
# www.johnrellis.com/lightroom/exportlut.htm
# Preset: 油管牛人_01 云集
# Color profile: C:\Program Files (x86)\Common Files\Adobe\Color\Profiles\Recommended\AdobeRGB1998.icc
LUT_3D_SIZE 5
DOMAIN_MIN 0.000000 0.000000 0.000000
DOMAIN_MAX 0.903226 0.903226 0.903226
0.010803 0.007141 0.013214
0.170382 0.000000 0.013001
0.519432 0.000000 0.000000
0.807553 0.000000 0.000000
0.979217 0.000000 0.000000
0.000000 0.135897 0.077058
0.146212 0.157259 0.046906
0.557397 0.138491 0.000000
0.823667 0.100496 0.000000
0.989380 0.233677 0.000000
0.000000 0.443671 0.182132
0.000000 0.445563 0.135592
0.504356 0.501183 0.145754
0.865293 0.574731 0.000000
0.990234 0.546014 0.000000
0.000000 0.728817 0.371435
0.000000 0.724483 0.353185
0.412055 0.673610 0.258091
0.745174 0.730678 0.319219
0.967651 0.787686 0.392004
0.006317 0.912902 0.558129
0.275364 0.907073 0.550683
0.482612 0.880949 0.489082
0.685695 0.844144 0.415259
0.907500 0.895079 0.574395
0.022339 0.018830 0.124178
0.184207 0.000000 0.154726
0.473762 0.000000 0.114107
0.747585 0.000000 0.089906
0.953674 0.000000 0.000000
0.000000 0.133089 0.158175
0.170169 0.178012 0.182620
0.508263 0.115541 0.152438
0.773465 0.000000 0.115114
0.960479 0.179873 0.026703
0.000000 0.464118 0.294865
0.132692 0.465736 0.280308
0.489815 0.482704 0.260075
0.837949 0.554467 0.247440
0.976440 0.535393 0.212528
0.000000 0.735378 0.446326
0.139925 0.731380 0.433814
0.435645 0.688685 0.342931
0.743221 0.728847 0.388678
0.963134 0.787808 0.454932
0.073304 0.913695 0.593408
0.283665 0.907866 0.586114
0.541985 0.889677 0.569451
0.695186 0.852995 0.468299
0.909087 0.897856 0.611048
0.000000 0.016297 0.375097
0.214603 0.000000 0.422644
0.592584 0.000000 0.457343
0.798459 0.000000 0.400549
0.928435 0.000000 0.296513
0.000000 0.169192 0.366949
0.190616 0.188479 0.414343
0.583948 0.220432 0.474434
0.775051 0.144320 0.399207
0.919554 0.000000 0.297154
0.000000 0.423285 0.444221
0.196811 0.448096 0.456489
0.537407 0.519860 0.501305
0.766293 0.477028 0.443397
0.945312 0.468269 0.389837
0.000000 0.760525 0.629419
0.244083 0.750637 0.613519
0.517144 0.730465 0.568353
0.748867 0.735805 0.556603
0.954955 0.788754 0.596551
0.198825 0.913664 0.699275
0.324376 0.910979 0.693660
0.539544 0.897673 0.667720
0.697963 0.861540 0.585565
0.901427 0.892546 0.672663
0.000000 0.062837 0.609491
0.270054 0.000000 0.638788
0.658106 0.000000 0.728878
0.839261 0.231235 0.701717
0.964691 0.357305 0.664851
0.000000 0.200595 0.597314
0.255650 0.213626 0.626764
0.629755 0.265690 0.714076
0.827329 0.349340 0.701411
0.955718 0.401801 0.660731
0.000000 0.385657 0.552087
0.153597 0.397223 0.555505
0.517327 0.476326 0.660304
0.798947 0.564965 0.710140
0.934722 0.509209 0.647364
0.120180 0.663111 0.673823
0.271885 0.667903 0.675319
0.519829 0.694301 0.691279
0.764706 0.753353 0.731533
0.917815 0.698268 0.657313
0.368170 0.920226 0.837949
0.455055 0.919341 0.839506
0.607660 0.910887 0.822446
0.743618 0.892027 0.774075
0.899016 0.893248 0.769009
0.337316 0.190188 0.829129
0.435798 0.193881 0.837766
0.665217 0.242588 0.865904
0.871794 0.376867 0.893645
0.961028 0.500633 0.850858
0.304448 0.275883 0.819577
0.408972 0.283360 0.828916
0.647333 0.331212 0.858946
0.864958 0.453712 0.891295
0.956664 0.547967 0.852995
0.064576 0.437842 0.776303
0.246372 0.438392 0.790951
0.554864 0.475410 0.832120
0.838987 0.610773 0.884154
0.946654 0.667689 0.863279
0.000000 0.647120 0.792233
0.175235 0.642756 0.789334
0.361700 0.623865 0.779904
0.728573 0.697505 0.844999
0.935515 0.801144 0.883421
0.336767 0.849729 0.858976
0.395270 0.850797 0.859434
0.552575 0.856229 0.862364
0.735988 0.869505 0.869078
0.912932 0.909941 0.898589
