data/fiter_cube/93231427/1022696/file.cube
# Created by Adobe Lightroom plugin Export LUT (1.17.0)
# www.johnrellis.com/lightroom/exportlut.htm
# Preset: 工业风黑金_08 云集后期
# Color profile: C:\Program Files (x86)\Common Files\Adobe\Color\Profiles\Recommended\AdobeRGB1998.icc
LUT_3D_SIZE 32
DOMAIN_MIN 0.0 0.0 0.0
DOMAIN_MAX 1.0 1.0 1.0
0.038849 0.084810 0.102724
0.042908 0.084627 0.102724
0.048829 0.084291 0.102937
0.059907 0.085481 0.103243
0.070375 0.087037 0.103700
0.081361 0.088899 0.104524
0.095338 0.091066 0.104982
0.111635 0.094057 0.105501
0.130495 0.097688 0.105806
0.152224 0.101503 0.106081
0.176059 0.106264 0.105776
0.202060 0.111269 0.105562
0.229526 0.116854 0.105196
0.258488 0.122621 0.104646
0.288060 0.128695 0.103670
0.318608 0.134524 0.102205
0.349981 0.140230 0.100496
0.382849 0.145815 0.098360
0.417395 0.151095 0.095979
0.455329 0.156497 0.092622
0.500786 0.161868 0.087922
0.565545 0.169039 0.079408
0.625727 0.175540 0.070039
0.682338 0.181430 0.059480
0.734218 0.186191 0.043305
0.782406 0.191562 0.030701
0.829282 0.196963 0.030091
0.874846 0.204318 0.046632
0.919738 0.214633 0.070497
0.963775 0.229129 0.096101
1.000000 0.250309 0.128298
1.000000 0.280186 0.167208
0.039612 0.085054 0.103182
0.042176 0.085267 0.103151
0.048188 0.085603 0.103090
0.059480 0.086763 0.103639
0.069001 0.088441 0.104067
0.080323 0.090211 0.104677
0.094148 0.092470 0.105165
0.109895 0.095247 0.105715
0.128389 0.098695 0.106020
0.149752 0.102663 0.106081
0.173068 0.107149 0.106081
0.198611 0.112428 0.105898
0.225589 0.117861 0.105379
0.254124 0.123751 0.104616
0.283268 0.129580 0.103761
0.313237 0.135500 0.102632
0.344335 0.140871 0.101045
0.376806 0.146609 0.098817
0.410986 0.151736 0.096620
0.448585 0.157076 0.093446
0.493660 0.162539 0.088746
0.555749 0.169528 0.081025
0.614191 0.175723 0.071839
0.670039 0.181033 0.062226
0.721859 0.186007 0.047852
0.770718 0.190616 0.033204
0.818357 0.195987 0.028382
0.865019 0.202945 0.041505
0.910948 0.212467 0.065919
0.956085 0.226291 0.091066
0.999786 0.246464 0.122652
1.000000 0.274876 0.160952
0.039612 0.085969 0.104067
0.041962 0.086152 0.104250
0.047028 0.086885 0.103944
0.058412 0.088411 0.103792
0.068086 0.090028 0.104433
0.079194 0.091859 0.104829
0.092622 0.093843 0.105318
0.108003 0.096986 0.105867
0.126467 0.100221 0.105989
0.147341 0.104280 0.106264
0.170565 0.108827 0.106264
0.195865 0.113771 0.105928
0.222751 0.119295 0.105653
0.250858 0.125399 0.104921
0.279698 0.131441 0.104097
0.309728 0.136904 0.102815
0.340490 0.142519 0.101289
0.372717 0.147829 0.099184
0.406744 0.153384 0.096773
0.444160 0.158541 0.093721
0.489326 0.164309 0.089326
0.550134 0.171237 0.081514
0.607996 0.177188 0.072847
0.663142 0.182559 0.063569
0.715053 0.187289 0.050172
0.764004 0.192020 0.034607
0.812131 0.197055 0.028901
0.859403 0.203677 0.039765
0.906126 0.212772 0.064332
0.951812 0.226230 0.088594
0.996033 0.245609 0.119997
1.000000 0.273350 0.157717
0.039399 0.087739 0.105989
0.042542 0.088533 0.106386
0.046601 0.090455 0.106477
0.056367 0.091096 0.106355
0.066255 0.092866 0.105196
0.077241 0.094636 0.105562
0.090303 0.097261 0.105806
0.105837 0.100038 0.106355
0.123720 0.103334 0.106508
0.144533 0.107424 0.106600
0.167208 0.112306 0.106600
0.192050 0.117342 0.106264
0.218418 0.123049 0.106020
0.246128 0.128939 0.105165
0.274937 0.134646 0.104372
0.304387 0.140414 0.103151
0.334997 0.145876 0.101717
0.366949 0.151278 0.099702
0.400427 0.156497 0.097475
0.436957 0.161898 0.094392
0.482368 0.167605 0.090120
0.540276 0.174655 0.083009
0.597040 0.180575 0.074922
0.652583 0.186282 0.065370
0.706813 0.190982 0.053132
0.758328 0.196017 0.036774
0.808530 0.201541 0.029236
0.857176 0.208408 0.040192
0.904417 0.217716 0.064515
0.950103 0.230716 0.088472
0.993957 0.249241 0.119203
1.000000 0.275425 0.156191
0.040528 0.090303 0.108736
0.043915 0.091035 0.108888
0.047456 0.092348 0.109651
0.055787 0.094179 0.109255
0.064210 0.096040 0.108827
0.074769 0.098207 0.107393
0.087037 0.100893 0.106752
0.101717 0.103822 0.107088
0.119387 0.107393 0.106996
0.139284 0.111879 0.107088
0.161654 0.116609 0.107118
0.185763 0.122316 0.106813
0.211826 0.127932 0.106386
0.239353 0.133883 0.105776
0.268223 0.139681 0.104799
0.298131 0.145327 0.103639
0.329107 0.151064 0.102174
0.361364 0.156558 0.100404
0.395087 0.161837 0.097932
0.431617 0.167056 0.094942
0.477913 0.173220 0.090547
0.533806 0.180392 0.084047
0.589319 0.186526 0.075929
0.644343 0.192325 0.066926
0.698787 0.197757 0.055512
0.751247 0.202792 0.039338
0.802060 0.208499 0.031373
0.851408 0.214847 0.039948
0.899107 0.223789 0.063539
0.945312 0.236149 0.086946
0.989715 0.253849 0.117494
1.000000 0.278935 0.154086
0.044221 0.092988 0.111360
0.046021 0.093751 0.111727
0.048188 0.095033 0.112276
0.053315 0.098543 0.113680
0.061738 0.098543 0.113405
0.072969 0.101930 0.111727
0.085817 0.105013 0.109773
0.098939 0.108370 0.108339
0.115358 0.112306 0.107790
0.134859 0.117006 0.107881
0.156863 0.122408 0.107668
0.180819 0.128023 0.107393
0.206363 0.133883 0.106996
0.233768 0.140017 0.106416
0.262394 0.145968 0.105440
0.292332 0.151766 0.104280
0.323583 0.157351 0.102602
0.355749 0.163180 0.100832
0.389746 0.168795 0.098604
0.426825 0.174136 0.095583
0.475196 0.181186 0.090974
0.531273 0.188693 0.084413
0.653590 0.208743 0.065736
0.712581 0.216709 0.052522
0.765713 0.223850 0.039124
0.814450 0.230625 0.036316
0.859892 0.237797 0.051026
0.902983 0.246616 0.069795
0.944579 0.257725 0.091859
0.984833 0.272923 0.119020
1.000000 0.293370 0.151034
1.000000 0.320897 0.188754
0.046784 0.097200 0.115267
0.049042 0.098146 0.115602
0.050843 0.099367 0.116304
0.056367 0.102174 0.117494
0.062318 0.107546 0.116060
0.071260 0.106844 0.118379
0.086519 0.111177 0.115602
0.101747 0.115175 0.112886
0.118349 0.119234 0.111269
0.136416 0.124849 0.109743
0.157961 0.130861 0.108766
0.182681 0.137118 0.108339
0.208743 0.143374 0.107790
0.236210 0.149569 0.106905
0.264744 0.155673 0.105867
0.294224 0.161257 0.104677
0.325170 0.166934 0.102968
0.357610 0.172610 0.101137
0.392157 0.178225 0.098726
0.430701 0.184237 0.095521
0.487495 0.193881 0.089693
0.551873 0.203677 0.081941
0.617578 0.213443 0.071687
0.683345 0.222629 0.060639
0.744015 0.231235 0.046357
0.798001 0.239017 0.039277
0.846769 0.246708 0.050050
0.891814 0.255222 0.067445
0.934997 0.265599 0.088808
0.975982 0.279667 0.114992
1.000000 0.298436 0.146548
1.000000 0.324102 0.183444
0.050385 0.101869 0.118959
0.051728 0.102571 0.119295
0.054414 0.103944 0.119966
0.059388 0.106355 0.121126
0.063661 0.112337 0.122927
0.075013 0.115938 0.119631
0.084169 0.115969 0.122560
0.100954 0.120882 0.119326
0.117403 0.125429 0.116152
0.135805 0.130159 0.114137
0.155673 0.135897 0.112245
0.177005 0.142580 0.110201
0.200992 0.149447 0.108858
0.228061 0.155886 0.108003
0.256138 0.162295 0.106783
0.285252 0.168215 0.105653
0.316014 0.174166 0.104005
0.348119 0.180056 0.101991
0.382513 0.185977 0.099702
0.422614 0.192844 0.096498
0.478279 0.202914 0.090944
0.539788 0.213138 0.083558
0.603510 0.223056 0.074525
0.667689 0.232822 0.063874
0.728603 0.241520 0.051728
0.783383 0.249607 0.042939
0.833371 0.257206 0.049897
0.880034 0.265202 0.066194
0.924620 0.275212 0.086366
0.966979 0.288365 0.111757
1.000000 0.306035 0.142885
1.000000 0.330205 0.179538
0.055482 0.107698 0.123354
0.056550 0.108583 0.123842
0.059083 0.109621 0.124331
0.061952 0.112123 0.125582
0.067353 0.116548 0.127413
0.073671 0.124239 0.127474
0.089326 0.125765 0.126009
0.100160 0.127810 0.127657
0.118776 0.132753 0.123690
0.136019 0.137545 0.119692
0.155978 0.142763 0.117281
0.177066 0.148653 0.114992
0.199466 0.155245 0.112551
0.222446 0.162234 0.109957
0.248264 0.169162 0.107973
0.277134 0.175418 0.106661
0.307561 0.181765 0.105013
0.339605 0.187839 0.103090
0.373785 0.194247 0.100832
0.417090 0.202640 0.097475
0.470466 0.212833 0.092439
0.529900 0.223484 0.085359
0.591913 0.234165 0.076783
0.654963 0.244480 0.066712
0.715969 0.253758 0.056916
0.771420 0.262028 0.048096
0.822538 0.269627 0.051820
0.870298 0.277562 0.066346
0.915770 0.287236 0.085389
0.959167 0.299596 0.110475
1.000000 0.316136 0.140780
1.000000 0.338964 0.176913
0.059693 0.114900 0.128511
0.060883 0.115450 0.129000
0.062409 0.116640 0.129458
0.065309 0.118990 0.130495
0.070832 0.123079 0.132235
0.076722 0.131350 0.134768
0.085023 0.138521 0.129519
0.104341 0.137057 0.133852
0.119356 0.141726 0.133486
0.138735 0.146395 0.128511
0.156893 0.150607 0.123659
0.176883 0.155550 0.120455
0.198978 0.161624 0.117769
0.221958 0.168032 0.114931
0.246006 0.175021 0.111879
0.270787 0.182376 0.108553
0.300053 0.189395 0.106325
0.332372 0.196170 0.104311
0.366369 0.202945 0.102052
0.412726 0.213260 0.098451
0.463874 0.223697 0.093812
0.520165 0.234440 0.087312
0.578912 0.244968 0.079500
0.638758 0.255192 0.070436
0.698421 0.264652 0.061280
0.754238 0.273289 0.052857
0.807095 0.281376 0.054414
0.857450 0.289921 0.065888
0.905577 0.299870 0.084535
0.951415 0.312474 0.109590
0.994781 0.329168 0.140749
1.000000 0.351843 0.177737
0.063874 0.122530 0.134249
0.065034 0.123232 0.134524
0.066407 0.124361 0.134920
0.069337 0.126864 0.136049
0.074403 0.130861 0.137881
0.081727 0.136660 0.140261
0.089723 0.147494 0.141360
0.107485 0.153841 0.134005
0.121889 0.151980 0.144503
0.141756 0.157839 0.140139
0.161624 0.161868 0.133822
0.179507 0.165347 0.127871
0.199008 0.169650 0.123964
0.221958 0.175479 0.120760
0.245975 0.181765 0.117342
0.270542 0.188632 0.113863
0.296117 0.195804 0.110048
0.322606 0.203433 0.105837
0.359960 0.212253 0.103182
0.404669 0.222477 0.099886
0.453834 0.233249 0.095369
0.508202 0.244724 0.089387
0.566522 0.256046 0.081880
0.626032 0.267094 0.073579
0.685634 0.277440 0.065064
0.742123 0.286595 0.059083
0.795651 0.295018 0.058839
0.846586 0.303777 0.067475
0.895628 0.313725 0.084535
0.942626 0.325780 0.108949
0.987152 0.341894 0.139559
1.000000 0.363622 0.176303
0.068330 0.131807 0.140810
0.069825 0.132631 0.141054
0.070985 0.133822 0.141573
0.074495 0.136263 0.142641
0.079469 0.140078 0.144472
0.086885 0.145724 0.146883
0.094575 0.156466 0.150393
0.106905 0.165957 0.147097
0.132906 0.169589 0.143709
0.146242 0.171359 0.155947
0.167514 0.176120 0.147982
0.187198 0.179019 0.140291
0.218296 0.189609 0.134951
0.237339 0.192538 0.129091
0.261906 0.198154 0.124849
0.287205 0.204257 0.120699
0.313207 0.210697 0.116396
0.342290 0.218936 0.111421
0.380774 0.231022 0.105684
0.424720 0.243595 0.099794
0.477546 0.256413 0.094362
0.534447 0.269261 0.087953
0.592401 0.281407 0.080415
0.651270 0.292973 0.072511
0.709041 0.303777 0.065583
0.763546 0.313298 0.063661
0.814847 0.322271 0.067384
0.863401 0.331060 0.079713
0.909667 0.341161 0.098268
0.954223 0.353491 0.123568
0.996307 0.369574 0.154421
1.000000 0.391363 0.191775
0.075624 0.145327 0.150515
0.076844 0.146059 0.150912
0.078401 0.146914 0.151247
0.081788 0.149416 0.152346
0.086915 0.152956 0.154055
0.094179 0.158297 0.156374
0.103761 0.165438 0.159426
0.113069 0.179294 0.161776
0.126131 0.188724 0.150607
0.162203 0.190494 0.158083
0.178683 0.196292 0.169680
0.201816 0.200259 0.159609
0.222660 0.202640 0.149599
0.241062 0.204257 0.140139
0.258824 0.206149 0.132723
0.284733 0.212039 0.128481
0.312016 0.218784 0.123751
0.346746 0.229007 0.119020
0.382605 0.239628 0.113527
0.420661 0.251194 0.106569
0.462287 0.264012 0.098024
0.515953 0.277440 0.091371
0.572229 0.290227 0.084535
0.630213 0.302434 0.077089
0.688350 0.314000 0.070100
0.743923 0.324376 0.066865
0.796780 0.333867 0.069154
0.847166 0.343359 0.079408
0.895567 0.353674 0.096895
0.942138 0.366217 0.121370
0.986389 0.382055 0.152102
1.000000 0.403479 0.189853
0.081514 0.156466 0.159091
0.083040 0.157107 0.159426
0.084321 0.158236 0.159884
0.087831 0.160311 0.160922
0.093141 0.163973 0.162448
0.100374 0.168856 0.164920
0.109926 0.175692 0.168154
0.119081 0.188296 0.172396
0.133059 0.200076 0.170260
0.156558 0.209049 0.156619
0.189517 0.210971 0.174624
0.209323 0.218723 0.182254
0.231724 0.221073 0.170138
0.251255 0.221744 0.157961
0.267918 0.221408 0.146426
0.284184 0.222080 0.137240
0.316258 0.230838 0.132876
0.348699 0.239536 0.128115
0.382361 0.248692 0.122347
0.418647 0.259037 0.115785
0.458228 0.270848 0.107973
0.501884 0.284398 0.097780
0.553185 0.298497 0.088624
0.610834 0.311772 0.081758
0.669612 0.324498 0.075013
0.726650 0.336065 0.071015
0.781155 0.346685 0.072206
0.833524 0.356970 0.080781
0.883879 0.368078 0.097566
0.932372 0.380957 0.121614
0.978393 0.397101 0.152346
1.000000 0.418524 0.190555
0.088685 0.168673 0.168887
0.090303 0.169528 0.169192
0.091493 0.170382 0.169619
0.094911 0.172580 0.170687
0.100008 0.175875 0.172244
0.107149 0.180606 0.174655
0.116670 0.187106 0.177890
0.127718 0.196078 0.181979
0.138003 0.212619 0.185641
0.155550 0.223270 0.177066
0.191714 0.230014 0.172000
0.217258 0.233066 0.195407
0.242405 0.242588 0.196231
0.263615 0.242924 0.181460
0.283177 0.242618 0.167636
0.303777 0.244083 0.155398
0.319005 0.243473 0.143893
0.349523 0.250675 0.138399
0.381506 0.258610 0.132601
0.416083 0.267796 0.126070
0.454078 0.278416 0.118685
0.495827 0.290898 0.109590
0.540581 0.304753 0.098238
0.590387 0.319768 0.086305
0.649622 0.333776 0.079866
0.709102 0.347143 0.075196
0.766964 0.359808 0.075959
0.823056 0.372351 0.084382
0.877195 0.385443 0.101503
0.928832 0.400366 0.126894
0.977569 0.418524 0.159670
1.000000 0.441993 0.200656
0.096620 0.181949 0.179812
0.097932 0.182834 0.180331
0.099519 0.183841 0.180819
0.102785 0.185946 0.182040
0.108278 0.189395 0.183780
0.115541 0.194217 0.186313
0.124758 0.200748 0.189578
0.136538 0.208927 0.193912
0.147524 0.224247 0.199649
0.162631 0.237980 0.198642
0.179202 0.249424 0.181003
0.229221 0.254643 0.192050
0.254032 0.263676 0.222934
0.279057 0.268956 0.212161
0.303807 0.270634 0.197086
0.323827 0.269505 0.180972
0.339422 0.266697 0.165103
0.348791 0.262058 0.149935
0.380072 0.269230 0.143862
0.414405 0.277745 0.137423
0.451789 0.287999 0.130159
0.493507 0.300084 0.121523
0.538231 0.313817 0.111574
0.585687 0.328893 0.099275
0.636591 0.345495 0.084504
0.698207 0.360998 0.080140
0.758358 0.375433 0.080720
0.816434 0.389685 0.089265
0.872129 0.404028 0.106813
0.924651 0.419623 0.132143
0.973816 0.437934 0.164981
1.000000 0.461128 0.205753
0.104982 0.195529 0.191562
0.105989 0.196262 0.191928
0.107637 0.197269 0.192477
0.111086 0.199405 0.193576
0.116243 0.202792 0.195407
0.123507 0.207523 0.197940
0.132967 0.213779 0.201266
0.144228 0.221561 0.205478
0.157168 0.232517 0.210819
0.168521 0.251652 0.216129
0.187930 0.263096 0.208743
0.215610 0.273259 0.189334
0.269139 0.282811 0.216342
0.301640 0.301579 0.252171
0.326116 0.302770 0.233280
0.345983 0.299657 0.213626
0.361425 0.294377 0.193942
0.373175 0.288426 0.174807
0.380774 0.281743 0.157321
0.410010 0.287419 0.149294
0.446265 0.296696 0.142245
0.486275 0.307805 0.134096
0.530114 0.320806 0.124758
0.577020 0.335515 0.114199
0.626947 0.351904 0.101411
0.680049 0.370336 0.085573
0.742397 0.387213 0.084871
0.803555 0.403418 0.092805
0.861906 0.419562 0.109499
0.917021 0.436713 0.135378
0.968475 0.456336 0.169253
1.000000 0.480812 0.211673
0.114015 0.210483 0.204746
0.115480 0.211429 0.205356
0.121950 0.219791 0.212406
0.125460 0.221897 0.213565
0.131106 0.225162 0.215335
0.138460 0.229770 0.217807
0.147860 0.235874 0.221103
0.159060 0.243351 0.225010
0.172885 0.252750 0.230076
0.185153 0.270237 0.236667
0.202914 0.287663 0.237583
0.224338 0.304845 0.223178
0.279149 0.317876 0.220676
0.334874 0.333989 0.258579
0.369177 0.353521 0.288029
0.388983 0.348425 0.262425
0.403754 0.339696 0.236973
0.414252 0.329351 0.212161
0.421820 0.319249 0.188968
0.426947 0.309819 0.167758
0.454658 0.313909 0.157015
0.494209 0.324346 0.148898
0.537499 0.336584 0.139864
0.583062 0.350408 0.130007
0.630793 0.365484 0.118776
0.681178 0.382330 0.105837
0.732540 0.400702 0.092226
0.792264 0.417762 0.096803
0.851591 0.434730 0.113039
0.908385 0.453132 0.138399
0.961700 0.473793 0.172580
1.000000 0.498817 0.215915
0.125704 0.228305 0.220768
0.127291 0.230076 0.222202
0.129671 0.231968 0.223606
0.133944 0.234958 0.225681
0.139651 0.238987 0.228061
0.147219 0.243992 0.230930
0.156588 0.249882 0.234165
0.167697 0.257237 0.238193
0.183169 0.268498 0.244999
0.200137 0.284123 0.253483
0.215610 0.309697 0.262547
0.239628 0.325261 0.257237
0.262516 0.341009 0.233097
0.334173 0.354528 0.250889
0.381445 0.370489 0.294499
0.415808 0.387610 0.309697
0.430365 0.377234 0.279393
0.440772 0.364508 0.250431
0.448554 0.351781 0.223423
0.454597 0.340246 0.198428
0.459174 0.329778 0.175448
0.485786 0.332921 0.162478
0.528710 0.344945 0.153964
0.574243 0.358465 0.144869
0.622217 0.373510 0.134951
0.673335 0.390509 0.124025
0.725765 0.409216 0.113100
0.779751 0.430060 0.103243
0.840726 0.449561 0.116640
0.899931 0.469520 0.142000
0.955200 0.491524 0.176699
1.000000 0.517662 0.221317
0.135927 0.244541 0.235813
0.137789 0.246586 0.237247
0.140505 0.248692 0.238926
0.144686 0.252293 0.241459
0.151339 0.257084 0.244785
0.159854 0.263066 0.248600
0.170352 0.270390 0.253178
0.183047 0.279271 0.258488
0.197971 0.289952 0.264927
0.215518 0.302739 0.272404
0.231083 0.325444 0.281834
0.250767 0.346319 0.284215
0.276555 0.361852 0.271946
0.311467 0.374640 0.245914
0.389319 0.392554 0.283818
0.433417 0.413031 0.335058
0.462440 0.421546 0.330694
0.472999 0.406775 0.296544
0.480507 0.391211 0.264683
0.486305 0.376471 0.235477
0.491371 0.363622 0.208774
0.496742 0.353002 0.184176
0.521233 0.354559 0.168551
0.566674 0.367773 0.160098
0.614466 0.382635 0.151003
0.665461 0.399390 0.141329
0.718013 0.417914 0.131777
0.772274 0.438727 0.124178
0.828092 0.462287 0.120974
0.889006 0.484199 0.144411
0.946532 0.507530 0.179355
0.999023 0.534691 0.224704
0.150607 0.267369 0.256840
0.152926 0.269474 0.258579
0.155581 0.272129 0.260624
0.160311 0.275639 0.263188
0.166934 0.280613 0.266423
0.175204 0.286229 0.269993
0.185397 0.292882 0.274083
0.197604 0.301030 0.278874
0.212131 0.311070 0.284672
0.228855 0.322820 0.291539
0.246189 0.339513 0.299657
0.261204 0.367163 0.308934
0.285222 0.381720 0.302281
0.301488 0.398260 0.274479
0.369818 0.410498 0.272282
0.445502 0.433417 0.319768
0.496925 0.467170 0.385382
0.513878 0.459510 0.355352
0.523888 0.443122 0.318547
0.532189 0.426886 0.284794
0.538659 0.411414 0.253330
0.545006 0.398138 0.224460
0.552270 0.387488 0.197574
0.576440 0.388159 0.178561
0.627375 0.404517 0.170748
0.680690 0.422736 0.162692
0.735225 0.442390 0.156069
0.790524 0.464240 0.152041
0.846372 0.488716 0.153170
0.901549 0.515953 0.163241
0.958495 0.541650 0.202243
1.000000 0.571496 0.252506
0.170565 0.297124 0.284489
0.172091 0.298711 0.285801
0.174533 0.300450 0.286992
0.178653 0.303380 0.289006
0.184878 0.307439 0.291539
0.192935 0.312596 0.294591
0.202914 0.319066 0.298405
0.215000 0.327031 0.303136
0.229648 0.336919 0.308934
0.246677 0.348852 0.315953
0.266148 0.362860 0.324010
0.282353 0.388647 0.334051
0.302312 0.411505 0.336522
0.328893 0.427283 0.323644
0.353643 0.442176 0.289921
0.442969 0.461036 0.312352
0.516381 0.488746 0.369665
0.564446 0.523278 0.430915
0.573114 0.505272 0.387549
0.579309 0.484077 0.345220
0.584131 0.463813 0.306706
0.587793 0.444831 0.271214
0.591577 0.428717 0.238956
0.597467 0.416297 0.209537
0.618402 0.414527 0.186801
0.671778 0.432624 0.179599
0.727047 0.452674 0.173800
0.783474 0.474952 0.170779
0.840269 0.499886 0.172793
0.896208 0.527611 0.182834
0.950591 0.558129 0.206363
1.000000 0.589288 0.257877
0.185946 0.321294 0.307286
0.187869 0.323095 0.308690
0.190066 0.325048 0.310185
0.194461 0.328038 0.312169
0.200626 0.332006 0.314641
0.208225 0.336736 0.317357
0.217868 0.342718 0.320775
0.229465 0.350103 0.324926
0.243565 0.359350 0.330236
0.260136 0.370672 0.336767
0.279118 0.383886 0.344396
0.297673 0.403601 0.353552
0.313268 0.434668 0.363989
0.338933 0.450233 0.356603
0.365881 0.466957 0.334539
0.408515 0.479011 0.302464
0.509850 0.506981 0.353948
0.573724 0.535576 0.420294
0.618128 0.566125 0.461952
0.624506 0.545342 0.416022
0.629603 0.522484 0.371466
0.633936 0.500206 0.329351
0.637903 0.480171 0.291081
0.642817 0.463386 0.256291
0.637720 0.442542 0.220768
0.657099 0.439338 0.194522
0.712917 0.459571 0.189242
0.770108 0.482124 0.186679
0.828122 0.507256 0.188632
0.885527 0.535485 0.198245
0.941314 0.567651 0.218997
0.994781 0.603540 0.259495
0.207553 0.355047 0.339147
0.209689 0.357336 0.340948
0.212039 0.359197 0.342351
0.216007 0.361730 0.343969
0.221836 0.365087 0.345861
0.229129 0.369268 0.348058
0.238346 0.374517 0.350744
0.249424 0.381079 0.354223
0.262760 0.389166 0.358495
0.278386 0.399054 0.363836
0.296147 0.410864 0.370245
0.316381 0.424659 0.377722
0.331762 0.452491 0.387366
0.351568 0.476509 0.389166
0.378393 0.490669 0.375006
0.391943 0.506310 0.333288
0.474861 0.518700 0.333379
0.570672 0.549889 0.397742
0.623835 0.579004 0.468727
0.660700 0.600305 0.487129
0.666407 0.578454 0.440070
0.670802 0.554650 0.394079
0.674220 0.530602 0.349279
0.677241 0.508568 0.307836
0.680751 0.489815 0.270146
0.687068 0.475685 0.236515
0.706294 0.471778 0.206760
0.762783 0.493721 0.204410
0.820768 0.518730 0.206638
0.878660 0.547051 0.216464
0.935180 0.579583 0.237003
0.988861 0.617731 0.272374
0.222293 0.380804 0.363806
0.224704 0.383062 0.365698
0.227146 0.385046 0.367163
0.231022 0.387579 0.368780
0.236667 0.390845 0.370642
0.244022 0.394934 0.372808
0.253330 0.400275 0.375616
0.264530 0.406897 0.379095
0.277958 0.415198 0.383612
0.294011 0.425452 0.389410
0.312139 0.437537 0.396063
0.332952 0.451606 0.403967
0.352422 0.473548 0.413275
0.369024 0.506340 0.423590
0.395941 0.521324 0.414862
0.426398 0.536217 0.394141
0.453376 0.549767 0.352270
0.556725 0.572992 0.384558
0.644923 0.608515 0.458045
0.697200 0.647517 0.541711
0.715511 0.647913 0.527276
0.718898 0.623743 0.477699
0.721584 0.597406 0.427832
0.724208 0.571557 0.379950
0.727657 0.547814 0.334417
0.732845 0.528405 0.293736
0.741665 0.514580 0.258030
0.766873 0.514183 0.229038
0.822263 0.537652 0.229557
0.880980 0.567102 0.241459
0.937926 0.600916 0.264439
0.991608 0.640711 0.302831
0.240116 0.412177 0.394202
0.242283 0.414099 0.395789
0.244327 0.415625 0.396857
0.247868 0.417700 0.397955
0.253208 0.420294 0.399176
0.260319 0.423865 0.400793
0.269261 0.428565 0.403082
0.280217 0.434577 0.406165
0.293797 0.442634 0.410407
0.309819 0.452552 0.415839
0.328344 0.464271 0.422431
0.349676 0.478248 0.430335
0.372992 0.494270 0.438972
0.390814 0.525200 0.449439
0.413031 0.550713 0.451637
0.443000 0.564935 0.437537
0.464729 0.580835 0.402655
0.516960 0.590814 0.370733
0.633051 0.625635 0.440253
0.708095 0.661982 0.520012
0.757473 0.707668 0.608850
0.759823 0.687282 0.561730
0.761593 0.661982 0.511131
0.763760 0.634638 0.459205
0.766690 0.607996 0.408881
0.771328 0.584192 0.361852
0.779171 0.565209 0.319310
0.790768 0.552209 0.282322
0.820493 0.555108 0.255558
0.874540 0.580560 0.260410
0.932250 0.614923 0.284001
0.986572 0.655299 0.322911
0.256535 0.441779 0.423285
0.258427 0.443366 0.424475
0.260594 0.444800 0.425422
0.264317 0.446845 0.426642
0.270054 0.450172 0.428443
0.278202 0.454780 0.431128
0.289158 0.461555 0.435370
0.302647 0.470253 0.440833
0.319402 0.481209 0.447822
0.339025 0.494209 0.456245
0.361639 0.509178 0.465736
0.386969 0.525994 0.476265
0.414801 0.544030 0.487251
0.439399 0.571160 0.499336
0.460639 0.606958 0.511650
0.490578 0.622644 0.502800
0.523369 0.637140 0.483101
0.540307 0.652735 0.436316
0.630640 0.668666 0.444617
0.734524 0.706691 0.533684
0.789395 0.739651 0.614923
0.824216 0.773007 0.674556
0.823117 0.749752 0.624506
0.823270 0.723568 0.572320
0.825132 0.696010 0.518944
0.829679 0.669551 0.466407
0.837613 0.646693 0.417609
0.849577 0.629480 0.374517
0.866178 0.618708 0.337591
0.900450 0.626368 0.316747
0.950958 0.656519 0.334020
1.000000 0.698116 0.378210
0.291051 0.492988 0.473457
0.292699 0.494179 0.474403
0.294591 0.495125 0.474922
0.298161 0.496742 0.475593
0.303807 0.499275 0.476661
0.311681 0.503166 0.478523
0.321935 0.508507 0.481422
0.335149 0.515679 0.485389
0.351049 0.524804 0.490730
0.369879 0.535943 0.497292
0.391424 0.548516 0.504723
0.415839 0.562951 0.513146
0.442145 0.578576 0.522210
0.468666 0.597131 0.531823
