data/fiter_cube/93231427/1022696/file.cube
# Created by Adobe Lightroom plugin Export LUT (1.17.0)
# www.johnrellis.com/lightroom/exportlut.htm
# Preset: 工业风黑金_08 云集后期
# Color profile: C:\Program Files (x86)\Common Files\Adobe\Color\Profiles\Recommended\AdobeRGB1998.icc
LUT_3D_SIZE 5
DOMAIN_MIN 0.000000 0.000000 0.000000
DOMAIN_MAX 0.903226 0.903226 0.903226
0.038849 0.084810 0.102724
0.111635 0.094057 0.105501
0.288060 0.128695 0.103670
0.565545 0.169039 0.079408
0.919738 0.214633 0.070497
0.050385 0.101869 0.118959
0.100954 0.120882 0.119326
0.256138 0.162295 0.106783
0.539788 0.213138 0.083558
0.924620 0.275212 0.086366
0.088685 0.168673 0.168887
0.127718 0.196078 0.181979
0.283177 0.242618 0.167636
0.495827 0.290898 0.109590
0.877195 0.385443 0.101503
0.170565 0.297124 0.284489
0.215000 0.327031 0.303136
0.353643 0.442176 0.289921
0.587793 0.444831 0.271214
0.840269 0.499886 0.172793
0.314336 0.528496 0.509239
0.361242 0.552209 0.522179
0.492287 0.629450 0.552758
0.837797 0.795193 0.656001
0.910979 0.724544 0.495186
0.080537 0.130129 0.143191
0.142885 0.142306 0.148959
0.288579 0.178683 0.128023
0.505455 0.244907 0.090455
0.877958 0.291814 0.072419
0.098909 0.157015 0.163058
0.145998 0.178286 0.167880
0.288853 0.200595 0.144961
0.503380 0.257420 0.104707
0.872160 0.324743 0.079774
0.135439 0.215396 0.212009
0.179416 0.235660 0.219516
0.323217 0.292607 0.225284
0.502800 0.308354 0.156497
0.854032 0.415290 0.105989
0.226322 0.344945 0.331579
0.269871 0.367376 0.342473
0.399786 0.476173 0.375647
0.610956 0.481178 0.322454
0.844236 0.512596 0.213993
0.354528 0.550866 0.534905
0.397650 0.570092 0.543450
0.551843 0.655116 0.592187
0.838041 0.805905 0.659510
0.919615 0.749783 0.537743
0.222904 0.284886 0.288853
0.271244 0.308721 0.298863
0.443183 0.325261 0.315679
0.627344 0.335302 0.240269
0.883330 0.408667 0.178622
0.258885 0.320623 0.319249
0.296941 0.336553 0.323278
0.438209 0.356634 0.334569
0.620630 0.356909 0.258793
0.885039 0.422553 0.189914
0.296208 0.378241 0.374334
0.331884 0.390661 0.375433
0.448585 0.443000 0.389075
0.617243 0.427253 0.314611
0.880827 0.471321 0.235752
0.366613 0.477455 0.468299
0.396857 0.485847 0.466743
0.508751 0.535546 0.481605
0.688899 0.606256 0.486763
0.867491 0.565301 0.330755
0.507774 0.646143 0.637476
0.532067 0.655177 0.638849
0.604883 0.680781 0.635950
0.755703 0.795071 0.641596
0.918120 0.786313 0.614862
0.472053 0.528588 0.531151
0.506493 0.544793 0.536736
0.605249 0.592340 0.548760
0.764248 0.582116 0.548974
0.937163 0.608911 0.496284
0.490974 0.545434 0.543877
0.517174 0.555932 0.545129
0.606317 0.596948 0.553826
0.754788 0.593439 0.555108
0.928954 0.609796 0.494545
0.520073 0.581353 0.576562
0.545006 0.591150 0.577783
0.622889 0.624964 0.583673
0.748806 0.647913 0.594568
0.925902 0.637964 0.510338
0.590539 0.657404 0.648829
0.605280 0.660578 0.645167
0.665705 0.685328 0.648310
0.766323 0.734676 0.662074
0.917510 0.688655 0.537499
0.706416 0.777554 0.775967
0.716793 0.781521 0.775906
0.752102 0.796475 0.777249
0.809628 0.816464 0.765957
0.935607 0.863432 0.757198
0.801907 0.821408 0.823026
0.812406 0.826596 0.823941
0.846555 0.844205 0.827756
0.889952 0.866270 0.844907
0.978729 0.861509 0.835447
0.806607 0.827329 0.829648
0.816495 0.832090 0.830442
0.849210 0.848722 0.833829
0.894530 0.873472 0.847868
0.978607 0.867643 0.841855
0.817105 0.843900 0.850950
0.823880 0.846677 0.850828
0.853880 0.861173 0.853025
0.903502 0.888548 0.860685
0.978485 0.887297 0.863066
0.841306 0.875517 0.889464
0.846860 0.877958 0.889647
0.865599 0.886076 0.889952
0.905943 0.905425 0.892424
0.977813 0.921904 0.902098
0.874052 0.916747 0.941436
0.878264 0.918822 0.942016
0.893553 0.926543 0.944335
0.924132 0.942626 0.949584
0.979492 0.974731 0.963134
