data/fiter_cube/93231427/1022696/file.cube
# Created by Adobe Lightroom plugin Export LUT (1.17.0)
# www.johnrellis.com/lightroom/exportlut.htm
# Preset: 工业风黑金_08 云集后期
# Color profile: C:\Program Files (x86)\Common Files\Adobe\Color\Profiles\Recommended\AdobeRGB1998.icc
LUT_3D_SIZE 8
DOMAIN_MIN 0.000000 0.000000 0.000000
DOMAIN_MAX 0.903226 0.903226 0.903226
0.038849 0.084810 0.102724
0.070375 0.087037 0.103700
0.130495 0.097688 0.105806
0.229526 0.116854 0.105196
0.349981 0.140230 0.100496
0.500786 0.161868 0.087922
0.734218 0.186191 0.043305
0.919738 0.214633 0.070497
0.040528 0.090303 0.108736
0.064210 0.096040 0.108827
0.119387 0.107393 0.106996
0.211826 0.127932 0.106386
0.329107 0.151064 0.102174
0.477913 0.173220 0.090547
0.698787 0.197757 0.055512
0.899107 0.223789 0.063539
0.055482 0.107698 0.123354
0.067353 0.116548 0.127413
0.118776 0.132753 0.123690
0.199466 0.155245 0.112551
0.307561 0.181765 0.105013
0.470466 0.212833 0.092439
0.715969 0.253758 0.056916
0.915770 0.287236 0.085389
0.075624 0.145327 0.150515
0.086915 0.152956 0.154055
0.126131 0.188724 0.150607
0.222660 0.202640 0.149599
0.312016 0.218784 0.123751
0.462287 0.264012 0.098024
0.688350 0.314000 0.070100
0.895567 0.353674 0.096895
0.104982 0.195529 0.191562
0.116243 0.202792 0.195407
0.157168 0.232517 0.210819
0.269139 0.282811 0.216342
0.361425 0.294377 0.193942
0.446265 0.296696 0.142245
0.626947 0.351904 0.101411
0.861906 0.419562 0.109499
0.150607 0.267369 0.256840
0.166934 0.280613 0.266423
0.212131 0.311070 0.284672
0.285222 0.381720 0.302281
0.496925 0.467170 0.385382
0.538659 0.411414 0.253330
0.627375 0.404517 0.170748
0.846372 0.488716 0.153170
0.222293 0.380804 0.363806
0.236667 0.390845 0.370642
0.277958 0.415198 0.383612
0.352422 0.473548 0.413275
0.453376 0.549767 0.352270
0.715511 0.647913 0.527276
0.727657 0.547814 0.334417
0.822263 0.537652 0.229557
0.314336 0.528496 0.509239
0.327581 0.534905 0.512566
0.378271 0.561486 0.527703
0.474525 0.615808 0.560479
0.546075 0.680049 0.557488
0.771878 0.759609 0.569879
0.882658 0.808865 0.685176
0.910979 0.724544 0.495186
0.056733 0.099275 0.117678
0.074708 0.102205 0.119051
0.127932 0.115938 0.114626
0.209689 0.144106 0.110079
0.319249 0.170047 0.103609
0.468055 0.194003 0.092012
0.679744 0.217868 0.061067
0.882902 0.236515 0.060243
0.059510 0.105287 0.122713
0.074403 0.112886 0.124636
0.128664 0.124666 0.120882
0.207401 0.147768 0.113436
0.309270 0.175174 0.104494
0.454139 0.200137 0.093782
0.652827 0.223636 0.066560
0.860472 0.242069 0.053559
0.069337 0.123262 0.135470
0.085756 0.132815 0.139193
0.133547 0.152010 0.139773
0.209903 0.166903 0.126192
0.301579 0.191012 0.112703
0.439307 0.225223 0.096590
0.650507 0.260472 0.068757
0.870573 0.291112 0.069703
0.090700 0.158999 0.161532
0.104311 0.165957 0.164157
0.143801 0.200504 0.174929
0.226291 0.212711 0.163760
0.311406 0.223789 0.136172
0.432410 0.254887 0.113710
0.618036 0.302556 0.079255
0.849332 0.346868 0.080934
0.122988 0.210391 0.204837
0.133272 0.214542 0.206088
0.171939 0.240787 0.220066
0.272282 0.293217 0.221439
0.353826 0.295659 0.204074
0.433143 0.294194 0.153262
0.603265 0.343328 0.117037
0.830991 0.413092 0.100343
0.165743 0.276341 0.265446
0.177340 0.283635 0.269718
0.218204 0.310552 0.285374
0.286717 0.377844 0.309850
0.481910 0.454871 0.371313
0.537652 0.416419 0.265324
0.620172 0.403998 0.181704
0.829007 0.479591 0.158358
0.224796 0.373175 0.357122
0.234104 0.377295 0.358556
0.273869 0.402106 0.372656
0.350896 0.456580 0.404822
0.440467 0.544457 0.361639
0.705470 0.642512 0.527245
0.709346 0.537469 0.333349
0.795163 0.519982 0.224979
0.311742 0.518486 0.500389
0.326665 0.527276 0.506157
0.376806 0.554742 0.522454
0.471565 0.609461 0.556115
0.573999 0.699733 0.585504
0.770718 0.765164 0.573053
0.882200 0.811429 0.691524
0.903532 0.719387 0.493141
0.094484 0.147433 0.157504
0.110842 0.155123 0.159731
0.175570 0.162600 0.164767
0.260929 0.177829 0.147341
0.359014 0.204715 0.133150
0.495796 0.247013 0.114137
0.679591 0.294347 0.068330
0.891142 0.319036 0.084108
0.105013 0.158175 0.164645
0.120302 0.165072 0.166506
0.171908 0.174136 0.170962
0.256626 0.185794 0.153750
0.355077 0.210422 0.139071
0.483772 0.247166 0.118502
0.658320 0.294377 0.071473
0.878477 0.322576 0.081270
0.118441 0.180667 0.183536
0.134279 0.187167 0.185214
0.178195 0.207095 0.189975
0.259800 0.216403 0.176181
0.364294 0.235599 0.158450
0.486610 0.264317 0.133639
0.650263 0.311559 0.086183
0.868467 0.350652 0.086976
0.137758 0.211521 0.209903
0.153597 0.218906 0.213260
0.198215 0.239719 0.220249
0.282994 0.276829 0.228824
0.371923 0.276677 0.191348
0.490455 0.296635 0.162875
0.653254 0.339544 0.122683
0.857389 0.397040 0.100160
0.169009 0.257908 0.251804
0.184848 0.266117 0.256077
0.232273 0.290105 0.267155
0.304967 0.349615 0.285344
0.412360 0.358099 0.269780
0.482185 0.337987 0.204349
0.640314 0.374182 0.167941
0.839475 0.443030 0.132692
0.216007 0.324865 0.313634
0.230228 0.331823 0.317235
0.270298 0.350042 0.323980
0.338384 0.397498 0.350622
0.501427 0.481849 0.375616
0.563714 0.454871 0.316838
0.639704 0.428962 0.225223
0.846342 0.501427 0.207858
0.277379 0.422614 0.407568
0.287480 0.425330 0.407233
0.321508 0.438514 0.409949
0.391669 0.483680 0.435035
0.486152 0.566033 0.443458
0.735744 0.685603 0.586633
0.736385 0.579126 0.390539
0.828885 0.556573 0.276097
0.357488 0.549248 0.534600
0.363470 0.548760 0.531243
0.406378 0.567987 0.539544
0.502220 0.624781 0.576440
0.600855 0.701534 0.613336
0.734524 0.762448 0.554437
0.894804 0.836606 0.733547
0.912718 0.745022 0.535973
0.168093 0.228641 0.233463
0.185061 0.237552 0.237919
0.233310 0.260655 0.245212
0.341772 0.264408 0.257176
0.446387 0.270817 0.221164
0.553643 0.289921 0.189944
0.696498 0.327337 0.155215
0.867399 0.385931 0.102998
0.186404 0.245212 0.246769
0.199313 0.250950 0.248508
0.244266 0.272221 0.255467
0.344213 0.277531 0.266026
0.445045 0.279789 0.228244
0.548089 0.294957 0.195529
0.688350 0.329107 0.159365
0.862333 0.386633 0.105531
0.201663 0.265385 0.264714
0.216464 0.272404 0.267674
0.260288 0.292882 0.274632
0.338262 0.308782 0.285100
0.447608 0.312657 0.253391
0.563622 0.327581 0.222568
0.717769 0.362127 0.185458
0.880339 0.412116 0.135317
0.232425 0.308293 0.305272
0.244572 0.312505 0.305821
0.285801 0.329168 0.309453
0.355718 0.361791 0.319188
0.447944 0.361089 0.291142
0.554498 0.361547 0.251957
0.697322 0.383368 0.209476
0.872740 0.436500 0.169314
0.262028 0.352209 0.345708
0.273136 0.355505 0.345617
0.314244 0.372564 0.350622
0.389410 0.410620 0.366430
0.496651 0.458595 0.379156
0.559625 0.416968 0.297063
0.698024 0.430701 0.252140
0.869688 0.478187 0.217838
0.302861 0.412421 0.402564
0.322423 0.425666 0.412360
0.359655 0.439124 0.414557
0.425208 0.468177 0.423102
0.517357 0.539971 0.440497
0.630793 0.542657 0.420722
0.691249 0.488045 0.305486
0.871000 0.538964 0.282475
0.360693 0.496834 0.484962
0.372808 0.502312 0.487526
0.410285 0.517388 0.492103
0.471077 0.542229 0.497505
0.564202 0.607568 0.533043
0.755123 0.711360 0.599298
0.769009 0.639918 0.477363
0.853269 0.597711 0.346838
0.466712 0.622950 0.612207
0.474861 0.625849 0.612573
0.495583 0.630335 0.608148
0.547265 0.649989 0.610224
0.642786 0.704768 0.641444
0.733913 0.780087 0.631250
0.913664 0.873472 0.796872
0.922271 0.779263 0.595789
0.285588 0.348638 0.352331
0.301152 0.357214 0.357275
0.342748 0.375769 0.362646
0.407599 0.405615 0.381323
0.546563 0.391424 0.378363
0.649226 0.386419 0.325109
0.758938 0.400855 0.283391
0.900908 0.444282 0.255283
0.301427 0.363134 0.364477
0.318212 0.373388 0.371313
0.356695 0.389685 0.375189
0.415564 0.414862 0.383551
0.543023 0.399207 0.382635
0.648585 0.394903 0.331365
0.758572 0.407263 0.288487
0.899779 0.447486 0.257572
0.324285 0.388098 0.386572
0.337163 0.394232 0.389105
0.368414 0.405127 0.388769
0.427070 0.430304 0.392859
0.531518 0.423835 0.396368
0.634791 0.414862 0.345342
0.748409 0.421973 0.300298
0.889464 0.452308 0.259251
0.340185 0.413794 0.411353
0.349859 0.416754 0.410895
0.386694 0.431800 0.414282
0.448768 0.459663 0.421576
0.532372 0.476478 0.431769
0.637629 0.463233 0.381689
0.747738 0.454658 0.324559
0.891417 0.472694 0.268528
0.369512 0.455818 0.451270
0.380438 0.460151 0.452338
0.414740 0.472389 0.453529
0.473976 0.497078 0.458534
0.546349 0.529229 0.464790
0.628962 0.511986 0.417517
0.737148 0.492500 0.351690
0.886351 0.511986 0.301427
0.397040 0.496376 0.489204
0.406622 0.499733 0.489662
0.435248 0.508080 0.488167
0.488136 0.529198 0.492103
0.556939 0.559716 0.498604
0.677943 0.623957 0.527855
0.736660 0.560967 0.411048
0.889708 0.582818 0.369299
0.469917 0.581140 0.572015
0.476112 0.582269 0.570733
0.501244 0.590173 0.569940
0.546593 0.607477 0.572015
0.606439 0.630854 0.572473
0.696864 0.703212 0.585779
0.791592 0.697993 0.567041
0.865263 0.636957 0.423590
0.565820 0.682338 0.675074
0.569665 0.682856 0.673671
0.583978 0.685756 0.669703
0.623835 0.704036 0.675685
0.664149 0.715755 0.666743
0.753414 0.783871 0.706508
0.913939 0.881468 0.809293
0.923033 0.806577 0.651270
0.455909 0.513725 0.516655
0.467048 0.518822 0.518212
0.493294 0.526177 0.514153
0.548577 0.550774 0.518364
0.598932 0.556115 0.537591
0.731838 0.548241 0.518669
0.829526 0.552575 0.477089
0.936584 0.576379 0.450507
0.444648 0.502770 0.504234
0.453071 0.505760 0.504112
0.483253 0.517510 0.505058
0.537774 0.542168 0.510216
0.591760 0.554894 0.530602
0.724086 0.547631 0.516716
0.824735 0.553338 0.477119
0.932982 0.575616 0.449042
0.475959 0.532067 0.529503
0.481209 0.532586 0.527367
0.506340 0.541039 0.525933
0.555901 0.562402 0.529259
0.612909 0.586175 0.541070
0.723201 0.571954 0.533440
0.823301 0.573907 0.492836
0.931823 0.587793 0.457649
0.494759 0.555291 0.550927
0.500175 0.555871 0.548760
0.528618 0.567041 0.549889
0.585901 0.596185 0.561486
0.650660 0.628351 0.569970
0.734829 0.622431 0.572503
0.828733 0.613825 0.524651
0.935180 0.611810 0.474098
0.508476 0.576593 0.570977
0.516808 0.579950 0.571618
0.544305 0.590997 0.573419
0.590936 0.611444 0.578027
0.646998 0.636255 0.582116
0.717617 0.650904 0.591028
0.809659 0.630610 0.532647
0.921813 0.614740 0.464454
0.536370 0.611109 0.603540
0.547417 0.617090 0.606958
0.572045 0.626642 0.608179
0.611353 0.642359 0.610132
0.660029 0.662654 0.612268
0.729519 0.698543 0.624750
0.801297 0.674189 0.565362
0.919463 0.658412 0.494759
0.606165 0.681636 0.672786
0.614466 0.685969 0.675166
0.632074 0.692103 0.674861
0.661738 0.703548 0.675349
0.700740 0.718715 0.674983
0.753140 0.741024 0.675410
0.839017 0.784939 0.692531
0.903532 0.720912 0.555047
0.682429 0.760525 0.757412
0.684382 0.760555 0.756069
0.693202 0.762448 0.753140
0.713924 0.770748 0.753262
0.739254 0.778805 0.748135
0.777798 0.791531 0.739437
0.856382 0.857969 0.748806
0.933318 0.851804 0.734798
0.611109 0.649500 0.646448
0.617823 0.652461 0.646937
0.640314 0.662531 0.648676
0.679530 0.681849 0.653681
0.726497 0.705318 0.658045
0.765927 0.692958 0.681819
0.864836 0.699641 0.659236
0.954009 0.726497 0.650019
0.616175 0.653956 0.649866
0.622461 0.656641 0.650294
0.643885 0.666102 0.651698
0.680049 0.682948 0.654719
0.727474 0.707057 0.660029
0.766415 0.698726 0.683528
0.864591 0.703487 0.662348
0.953826 0.729274 0.652308
0.628809 0.666285 0.660517
0.634516 0.668696 0.660822
0.654292 0.677333 0.662074
0.688136 0.692866 0.664637
0.733181 0.715328 0.669459
0.769741 0.717433 0.689357
0.863951 0.716609 0.672999
0.953277 0.738369 0.659907
0.645655 0.685023 0.678553
0.649531 0.686030 0.677668
0.667384 0.693660 0.678584
0.698848 0.707790 0.680781
0.741299 0.728359 0.684932
0.781765 0.745937 0.698939
0.863310 0.737819 0.690761
0.952575 0.751980 0.670558
0.664302 0.707332 0.700832
0.668971 0.709224 0.701045
0.684810 0.715816 0.701717
0.710658 0.726772 0.702785
0.748684 0.744045 0.705348
0.797269 0.769284 0.711696
0.862882 0.765682 0.715145
0.951202 0.769009 0.682673
0.689296 0.736172 0.730282
0.693324 0.737789 0.730434
0.707088 0.743526 0.731044
0.729885 0.753170 0.732204
0.761501 0.767147 0.734096
0.804898 0.787930 0.738186
0.861997 0.801877 0.748074
0.947814 0.788907 0.694850
0.717922 0.768856 0.764706
0.721340 0.770230 0.764889
0.732906 0.775143 0.765591
0.752621 0.783810 0.767117
0.781155 0.796933 0.769924
0.819699 0.815854 0.774929
0.869932 0.842985 0.784390
0.938567 0.816129 0.711757
0.773709 0.828489 0.833280
0.776272 0.829709 0.833677
0.784817 0.833829 0.835019
0.799405 0.840848 0.837095
0.820401 0.850858 0.839414
0.848234 0.863554 0.840421
0.885924 0.879911 0.837797
0.953246 0.914153 0.849607
0.801907 0.821408 0.823026
0.805020 0.822934 0.823270
0.815854 0.828305 0.824216
0.834592 0.837827 0.826230
0.859983 0.851560 0.829679
0.887083 0.867033 0.838224
0.919036 0.853269 0.854734
0.978729 0.861509 0.835447
0.803525 0.823331 0.825071
0.806577 0.824765 0.825284
0.817197 0.830014 0.826200
0.835630 0.839353 0.828122
0.860746 0.852873 0.831510
0.888426 0.868833 0.839017
0.918853 0.855314 0.856565
0.978668 0.863371 0.837369
0.807828 0.829038 0.831785
0.810666 0.830411 0.831968
0.820768 0.835294 0.832761
0.838468 0.844205 0.834470
0.862882 0.857115 0.837583
0.892210 0.874083 0.842710
0.918090 0.862364 0.863127
0.978546 0.869657 0.844022
0.812375 0.837278 0.842924
0.815061 0.838560 0.843076
0.824735 0.843137 0.843717
0.841794 0.851499 0.845182
0.865568 0.863798 0.847837
0.894560 0.880125 0.852659
0.917266 0.877165 0.871366
0.978515 0.880278 0.855436
0.823117 0.851774 0.860441
0.825040 0.852598 0.860441
0.831662 0.855314 0.860288
0.842985 0.859892 0.859800
0.866758 0.871733 0.861997
0.896422 0.887907 0.866514
0.921630 0.898466 0.880766
0.978424 0.895537 0.872129
0.837278 0.870329 0.883024
0.838987 0.871031 0.883055
0.844816 0.873533 0.883116
0.855131 0.877928 0.883146
0.870726 0.884611 0.883055
0.897368 0.897795 0.885374
0.932219 0.918151 0.892485
0.978027 0.915892 0.895201
0.854520 0.892363 0.910491
0.856016 0.893034 0.910582
0.861082 0.895384 0.910948
0.870298 0.899596 0.911528
0.884459 0.906188 0.912474
0.904631 0.915831 0.913939
0.934630 0.931334 0.917449
0.976532 0.942657 0.926574
0.874052 0.916747 0.941436
0.875303 0.917357 0.941619
0.879698 0.919524 0.942229
0.887846 0.923644 0.943450
0.900481 0.930114 0.945434
0.918547 0.939635 0.948547
0.944396 0.953796 0.953582
0.979492 0.974731 0.963134
