data/fiter_cube/67355442/1023291/file.cube
# Created by Adobe Lightroom plugin Export LUT (1.17.0)
# www.johnrellis.com/lightroom/exportlut.htm
# Preset: 日系A通透明亮[云集]-8 红润
# Color profile: C:\Program Files (x86)\Common Files\Adobe\Color\Profiles\Recommended\AdobeRGB1998.icc
LUT_3D_SIZE 5
DOMAIN_MIN 0.000000 0.000000 0.000000
DOMAIN_MAX 0.903226 0.903226 0.903226
0.000000 0.000000 0.000000
0.346105 0.000000 0.000000
0.670893 0.000000 0.000000
0.859251 0.000000 0.000000
1.000000 0.000000 0.000000
0.000000 0.293126 0.029694
0.273411 0.307958 0.000000
0.645655 0.296452 0.036561
0.847257 0.284794 0.000000
0.995605 0.278233 0.078889
0.000000 0.557275 0.000000
0.000000 0.532708 0.000000
0.559716 0.586084 0.000000
0.811734 0.586175 0.223056
0.962615 0.566308 0.307836
0.000000 0.729397 0.122103
0.000000 0.720546 0.000000
0.343084 0.675746 0.098878
0.735317 0.745418 0.000000
0.950408 0.733639 0.268070
0.000000 0.878569 0.310643
0.000000 0.876738 0.286534
0.268742 0.857206 0.210361
0.571801 0.825101 0.293309
0.864591 0.879973 0.000000
0.000000 0.024353 0.385351
0.347509 0.000000 0.408484
0.671931 0.000000 0.307897
0.860502 0.000000 0.194766
1.000000 0.000000 0.130587
0.000000 0.304631 0.357885
0.270634 0.284855 0.361486
0.654871 0.201907 0.290043
0.849332 0.189639 0.237736
0.997864 0.233249 0.181765
0.000000 0.592737 0.282170
0.058717 0.583856 0.271336
0.575433 0.593805 0.203342
0.803342 0.592187 0.397589
0.964385 0.560937 0.337255
0.000000 0.742306 0.285191
0.000000 0.736385 0.272984
0.358099 0.690883 0.211337
0.742550 0.748074 0.000000
0.951263 0.732418 0.277073
0.000000 0.878477 0.319677
0.000000 0.875456 0.289311
0.283665 0.854215 0.211734
0.577173 0.825223 0.290135
0.869505 0.880247 0.000000
0.000000 0.032319 0.669306
0.259800 0.000000 0.680354
0.632380 0.000000 0.699519
0.832700 0.000000 0.628504
0.994690 0.000000 0.530053
0.000000 0.242741 0.645441
0.195193 0.218326 0.660090
0.614740 0.000000 0.691371
0.825071 0.000000 0.619379
0.991333 0.000000 0.511864
0.000000 0.557000 0.620874
0.000000 0.552300 0.621546
0.517693 0.529168 0.627771
0.790555 0.506340 0.585199
0.967590 0.472999 0.512383
0.000000 0.782467 0.576654
0.000000 0.777829 0.570336
0.388861 0.745327 0.536675
0.736385 0.745266 0.516533
0.926604 0.743343 0.617670
0.000000 0.898650 0.523156
0.000000 0.895232 0.512139
0.288457 0.876951 0.472786
0.561761 0.830289 0.423011
0.877104 0.883604 0.331945
0.181765 0.115084 0.830442
0.313420 0.000000 0.832761
0.553307 0.000000 0.842649
0.784604 0.000000 0.846433
0.969970 0.000000 0.798550
0.127443 0.254032 0.817899
0.281712 0.230228 0.821164
0.535729 0.079866 0.833616
0.777279 0.000000 0.842283
0.967376 0.000000 0.792203
0.000000 0.484840 0.768154
0.141360 0.474647 0.774136
0.455238 0.439246 0.797360
0.746426 0.387396 0.823209
0.956359 0.310613 0.762783
0.000000 0.710353 0.765682
0.000000 0.706508 0.764950
0.331762 0.691127 0.760922
0.683528 0.684901 0.764340
0.924681 0.670680 0.727016
0.000000 0.927642 0.746212
0.000000 0.929992 0.741238
0.000000 0.918944 0.716854
0.576349 0.876432 0.672419
0.880827 0.885344 0.679591
0.356115 0.236576 0.955505
0.406531 0.209323 0.955230
0.540337 0.000000 0.955657
0.707301 0.000000 0.958282
0.900114 0.000000 0.953338
0.336278 0.312535 0.948943
0.389197 0.292943 0.949004
0.528130 0.208164 0.950225
0.699275 0.000000 0.953674
0.897032 0.000000 0.950774
0.241917 0.484016 0.928588
0.299382 0.466682 0.930510
0.471717 0.422522 0.933532
0.667720 0.331182 0.940154
0.888762 0.151125 0.944152
0.000000 0.662959 0.898314
0.161715 0.655634 0.896605
0.373632 0.629450 0.892973
0.605432 0.595178 0.912627
0.878538 0.567864 0.931273
0.000000 0.838193 0.894102
0.000000 0.836454 0.893431
0.000000 0.830961 0.892271
0.526848 0.822843 0.887785
0.862058 0.846921 0.891051
