data/fiter_cube/67355442/1023291/file.cube
# Created by Adobe Lightroom plugin Export LUT (1.17.0)
# www.johnrellis.com/lightroom/exportlut.htm
# Preset: 日系A通透明亮[云集]-8 红润
# Color profile: C:\Program Files (x86)\Common Files\Adobe\Color\Profiles\Recommended\AdobeRGB1998.icc
LUT_3D_SIZE 32
DOMAIN_MIN 0.0 0.0 0.0
DOMAIN_MAX 1.0 1.0 1.0
0.000000 0.000000 0.000000
0.050477 0.000000 0.001038
0.078309 0.000000 0.000702
0.116915 0.000000 0.001099
0.170687 0.000000 0.000000
0.230045 0.000000 0.000000
0.289708 0.000000 0.000000
0.346105 0.000000 0.000000
0.400488 0.000000 0.000000
0.452247 0.000000 0.000000
0.501976 0.000000 0.000000
0.548669 0.000000 0.000000
0.592401 0.000000 0.000000
0.633387 0.000000 0.000000
0.670893 0.000000 0.000000
0.704829 0.000000 0.000000
0.735653 0.000000 0.000000
0.763607 0.000000 0.000000
0.789181 0.000000 0.000000
0.813199 0.000000 0.000000
0.836454 0.000000 0.000000
0.859251 0.000000 0.000000
0.881712 0.000000 0.000000
0.903746 0.000000 0.000000
0.925353 0.000000 0.000000
0.946349 0.000000 0.000000
0.966705 0.000000 0.000000
0.986389 0.000000 0.000000
1.000000 0.000000 0.000000
1.000000 0.000000 0.000000
1.000000 0.000000 0.000000
1.000000 0.000000 0.000000
0.000000 0.044587 0.003967
0.035462 0.044556 0.000000
0.070222 0.042908 0.010285
0.109682 0.051911 0.012940
0.164248 0.042023 0.010010
0.224918 0.000000 0.003815
0.285863 0.000000 0.000000
0.343511 0.000000 0.000000
0.398627 0.000000 0.000000
0.451087 0.000000 0.000000
0.501091 0.000000 0.000000
0.548241 0.000000 0.000000
0.592126 0.000000 0.000000
0.633234 0.000000 0.000000
0.670893 0.000000 0.000000
0.704952 0.000000 0.000000
0.735683 0.000000 0.000000
0.763760 0.000000 0.000000
0.789242 0.000000 0.000000
0.813291 0.000000 0.000000
0.836545 0.000000 0.000000
0.859312 0.000000 0.000000
0.881804 0.000000 0.000000
0.903899 0.000000 0.000000
0.925383 0.000000 0.000000
0.946349 0.000000 0.000000
0.966705 0.000000 0.000000
0.986358 0.000000 0.000000
1.000000 0.000000 0.000000
1.000000 0.000000 0.000000
1.000000 0.000000 0.000000
1.000000 0.000000 0.000000
0.000000 0.074037 0.009949
0.023255 0.071443 0.007721
0.067842 0.072755 0.000000
0.103395 0.076112 0.020935
0.155673 0.079683 0.026825
0.217868 0.069032 0.018524
0.280552 0.009857 0.007568
0.339635 0.000000 0.000000
0.395727 0.000000 0.000000
0.448951 0.000000 0.000000
0.499550 0.000000 0.000000
0.547051 0.000000 0.000000
0.591272 0.000000 0.000000
0.632654 0.000000 0.000000
0.670283 0.000000 0.000000
0.704555 0.000000 0.000000
0.735348 0.000000 0.000000
0.763424 0.000000 0.000000
0.789029 0.000000 0.000000
0.813016 0.000000 0.000000
0.836332 0.000000 0.000000
0.859129 0.000000 0.000000
0.881590 0.000000 0.000000
0.903655 0.000000 0.000000
0.925170 0.000000 0.000000
0.946136 0.000000 0.000000
0.966491 0.000000 0.000000
0.986145 0.000000 0.000000
1.000000 0.000000 0.000000
1.000000 0.000000 0.000000
1.000000 0.000000 0.000000
1.000000 0.000000 0.000000
0.000000 0.109041 0.023560
0.001953 0.108248 0.010559
0.056519 0.104219 0.020356
0.100923 0.109804 0.000000
0.151217 0.113222 0.017090
0.201297 0.114595 0.047913
0.267735 0.105348 0.031617
0.330205 0.081941 0.014618
0.388647 0.009583 0.000000
0.443732 0.000000 0.000000
0.495583 0.000000 0.000000
0.543969 0.000000 0.000000
0.588769 0.000000 0.000000
0.630518 0.000000 0.000000
0.668788 0.000000 0.000000
0.703120 0.000000 0.000000
0.734279 0.000000 0.000000
0.762478 0.000000 0.000000
0.788113 0.000000 0.000000
0.812253 0.000000 0.000000
0.835660 0.000000 0.000000
0.858488 0.000000 0.000000
0.880980 0.000000 0.000000
0.903014 0.000000 0.000000
0.924468 0.000000 0.000000
0.945403 0.000000 0.000000
0.965698 0.000000 0.000000
0.985351 0.000000 0.000000
1.000000 0.000000 0.000000
1.000000 0.000000 0.000000
1.000000 0.000000 0.000000
1.000000 0.000000 0.000000
0.000000 0.153597 0.039521
0.000000 0.153201 0.027680
0.020966 0.149630 0.014527
0.082582 0.143252 0.030396
0.140780 0.156649 0.000000
0.207279 0.161044 0.000000
0.253391 0.155337 0.045411
0.314855 0.149508 0.042298
0.377234 0.135073 0.019226
0.434943 0.114565 0.000000
0.488808 0.085420 0.000000
0.538628 0.021515 0.000000
0.584649 0.000000 0.000000
0.627161 0.000000 0.000000
0.665949 0.000000 0.000000
0.700710 0.000000 0.000000
0.732052 0.000000 0.000000
0.760464 0.000000 0.000000
0.786252 0.000000 0.000000
0.810575 0.000000 0.000000
0.834104 0.000000 0.000000
0.857084 0.000000 0.000000
0.879637 0.000000 0.000000
0.901701 0.000000 0.000000
0.923247 0.000000 0.000000
0.944152 0.000610 0.000000
0.964446 0.033967 0.000000
0.984161 0.052064 0.000000
1.000000 0.065522 0.000000
1.000000 0.072389 0.000000
1.000000 0.076600 0.000000
1.000000 0.081666 0.022461
0.000000 0.200748 0.045472
0.000000 0.200595 0.039002
0.000000 0.197879 0.003967
0.062104 0.190585 0.014252
0.113069 0.189670 0.015290
0.183749 0.207767 0.000000
0.266331 0.215183 0.000000
0.312016 0.203037 0.000000
0.359289 0.198642 0.059785
0.421363 0.190677 0.033814
0.478218 0.179538 0.006470
0.530449 0.166964 0.000000
0.577935 0.155062 0.000000
0.621759 0.144564 0.000000
0.661402 0.137209 0.000000
0.696864 0.132174 0.000000
0.728634 0.129610 0.000000
0.757382 0.129213 0.000000
0.783322 0.130037 0.000000
0.807889 0.132906 0.000000
0.831632 0.136355 0.000000
0.854795 0.139956 0.000000
0.875029 0.140200 0.000000
0.897368 0.144228 0.000000
0.919127 0.148013 0.000000
0.940337 0.151431 0.000000
0.960937 0.153689 0.000000
0.980865 0.156588 0.000000
1.000000 0.157778 0.000000
1.000000 0.159060 0.000000
1.000000 0.159976 0.024720
1.000000 0.160647 0.068147
0.000000 0.247379 0.040284
0.000000 0.247074 0.035126
0.000000 0.244877 0.003479
0.000000 0.238804 0.000000
0.089265 0.229038 0.009369
0.147066 0.237644 0.000000
0.227848 0.258030 0.000000
0.322026 0.270298 0.000000
0.367041 0.254063 0.000000
0.411536 0.247410 0.018677
0.461677 0.246098 0.062623
0.516869 0.240452 0.037476
0.566644 0.234318 0.007416
0.612268 0.229496 0.000000
0.653742 0.225467 0.000000
0.690303 0.222751 0.000000
0.723018 0.220706 0.000000
0.752285 0.219547 0.000000
0.778714 0.218051 0.000000
0.803616 0.218112 0.000000
0.827481 0.218845 0.000000
0.850675 0.219120 0.000000
0.873350 0.220249 0.000000
0.895506 0.220951 0.000000
0.917144 0.221286 0.000000
0.938231 0.221805 0.000000
0.958831 0.222416 0.000000
0.978790 0.222446 0.000000
0.998138 0.222416 0.009918
1.000000 0.222202 0.054994
1.000000 0.221317 0.077394
1.000000 0.220859 0.096559
0.000000 0.293126 0.029694
0.000000 0.292515 0.018433
0.000000 0.290501 0.000000
0.000000 0.285679 0.000000
0.053193 0.277409 0.000000
0.117220 0.266484 0.000183
0.185885 0.286778 0.000000
0.273411 0.307958 0.000000
0.378058 0.326543 0.000000
0.422278 0.308354 0.000000
0.465034 0.299870 0.000000
0.505791 0.300114 0.070222
0.554864 0.300267 0.075837
0.602441 0.298161 0.061921
0.645655 0.296452 0.036561
0.683528 0.294621 0.009247
0.717159 0.292485 0.000000
0.747036 0.290471 0.000000
0.774044 0.288548 0.000000
0.799435 0.287022 0.000000
0.823697 0.286107 0.000000
0.847257 0.284794 0.000000
0.870115 0.284581 0.000000
0.892515 0.283452 0.000000
0.914305 0.282414 0.000000
0.935485 0.282109 0.007141
0.956146 0.280797 0.036011
0.976196 0.279515 0.063081
0.995605 0.278233 0.078889
1.000000 0.276738 0.093629
1.000000 0.275151 0.108370
1.000000 0.273564 0.123049
0.000000 0.336706 0.011566
0.000000 0.335332 0.000000
0.000000 0.333837 0.000000
0.000000 0.329778 0.000000
0.000000 0.322728 0.000000
0.093751 0.313237 0.000000
0.152560 0.313420 0.000000
0.227665 0.334508 0.000000
0.319310 0.356023 0.000000
0.425360 0.377783 0.000000
0.474647 0.362768 0.000000
0.515038 0.352422 0.000000
0.553216 0.351324 0.017762
0.589868 0.357305 0.108858
0.635065 0.357977 0.097932
0.674647 0.357183 0.088319
0.709407 0.355230 0.079622
0.740352 0.353002 0.072389
0.768093 0.350286 0.066529
0.794125 0.347784 0.062318
0.818906 0.345830 0.061158
0.842863 0.343603 0.061463
0.866056 0.341772 0.064485
0.888640 0.339910 0.069947
0.910643 0.337987 0.076265
0.932036 0.335821 0.084535
0.952819 0.333654 0.093263
0.972961 0.331548 0.103487
0.992462 0.329046 0.113863
1.000000 0.326482 0.125124
1.000000 0.324010 0.136904
1.000000 0.321660 0.149599
0.000000 0.377691 0.000000
0.000000 0.376501 0.000000
0.000000 0.375097 0.000000
0.000000 0.371832 0.000000
0.000000 0.365911 0.000000
0.050324 0.357733 0.000000
0.126925 0.347326 0.000000
0.191562 0.358892 0.000000
0.271275 0.380499 0.000000
0.363867 0.402075 0.000000
0.469429 0.425330 0.000000
0.523735 0.415351 0.000000
0.561578 0.404791 0.000000
0.596765 0.402411 0.000000
0.629297 0.406928 0.103120
0.663569 0.411566 0.135409
0.699855 0.410529 0.127321
0.731991 0.408270 0.120638
0.760678 0.405554 0.115572
0.787503 0.402502 0.112032
0.813016 0.399847 0.110201
0.837522 0.397070 0.110170
0.861265 0.394202 0.111391
0.884215 0.391516 0.114229
0.906493 0.388525 0.118502
0.928069 0.385748 0.123842
0.949004 0.382452 0.130312
0.969268 0.379400 0.137911
0.988830 0.376043 0.146212
1.000000 0.372625 0.155367
1.000000 0.369390 0.165652
1.000000 0.366033 0.176577
0.000000 0.417762 0.000000
0.000000 0.416754 0.000000
0.000000 0.415259 0.000000
0.000000 0.412299 0.000000
0.000000 0.406897 0.000000
0.000000 0.399786 0.000000
0.101320 0.390448 0.000000
0.160311 0.381537 0.000000
0.232303 0.402380 0.000000
0.314763 0.424079 0.000000
0.407599 0.445411 0.000000
0.510674 0.469673 0.000000
0.569055 0.465553 0.000000
0.604089 0.454688 0.000000
0.636255 0.450782 0.000000
0.665034 0.452155 0.087861
0.690761 0.457252 0.161135
0.722316 0.457374 0.165621
0.752285 0.454749 0.159518
0.780148 0.451667 0.155276
0.806394 0.448615 0.152590
0.831479 0.445258 0.151431
0.855650 0.442054 0.151858
0.878935 0.438636 0.153384
0.901488 0.435218 0.156313
0.923369 0.431312 0.160006
0.944518 0.427466 0.164950
0.964935 0.423682 0.171115
0.984710 0.419654 0.177859
1.000000 0.415473 0.185885
1.000000 0.411566 0.194614
1.000000 0.407965 0.204776
0.000000 0.456550 0.000000
0.000000 0.455634 0.000000
0.000000 0.454444 0.000000
0.000000 0.451789 0.000000
0.000000 0.447242 0.000000
0.000000 0.440497 0.000000
0.053620 0.431891 0.000000
0.139254 0.421241 0.000000
0.199466 0.422461 0.000000
0.273838 0.443549 0.000000
0.357641 0.464790 0.000000
0.449012 0.485512 0.000000
0.541772 0.503899 0.000000
0.607660 0.508873 0.000000
0.639734 0.497749 0.000000
0.668452 0.491646 0.000000
0.694301 0.490394 0.065553
0.717556 0.492622 0.155947
0.740688 0.495857 0.201480
0.769863 0.493507 0.196017
0.797208 0.490700 0.192355
0.823087 0.487678 0.190311
0.848020 0.484138 0.189609
0.871946 0.480690 0.190127
0.895018 0.476661 0.191806
0.917266 0.472694 0.194583
0.938720 0.468452 0.198459
0.959472 0.464057 0.203220
0.979461 0.459785 0.209262
0.998749 0.455238 0.216068
1.000000 0.450935 0.223911
1.000000 0.446723 0.232883
0.000000 0.491615 0.000000
0.000000 0.490791 0.000000
0.000000 0.489784 0.000000
0.000000 0.487526 0.000000
0.000000 0.483833 0.000000
0.000000 0.477913 0.000000
0.000000 0.470375 0.000000
0.109865 0.461067 0.000000
0.173739 0.449622 0.000000
0.238041 0.460395 0.000000
0.314153 0.480842 0.000000
0.398016 0.501244 0.000000
0.487037 0.520958 0.000000
0.576745 0.540581 0.000000
0.646052 0.550408 0.000000
0.674464 0.538201 0.000000
0.700221 0.530266 0.000000
0.723293 0.526696 0.014588
0.744228 0.526513 0.152560
0.764187 0.529381 0.215824
0.788785 0.529808 0.233860
0.815549 0.526848 0.230442
0.841062 0.523705 0.228763
0.865507 0.520012 0.228183
0.888975 0.515984 0.228702
0.911528 0.511620 0.230259
0.933318 0.507042 0.233127
0.954253 0.502495 0.236912
0.974456 0.497719 0.241642
0.993866 0.492927 0.247593
1.000000 0.488197 0.254429
1.000000 0.483711 0.262455
0.000000 0.525902 0.000000
0.000000 0.525139 0.000000
0.000000 0.524193 0.000000
0.000000 0.522087 0.000000
0.000000 0.518822 0.000000
0.000000 0.513878 0.000000
0.000000 0.506828 0.000000
0.065827 0.498238 0.000000
0.152773 0.487892 0.000000
0.207523 0.476692 0.000000
0.277989 0.496407 0.000000
0.355108 0.516442 0.000000
0.438300 0.535912 0.000000
0.524712 0.554986 0.000000
0.609125 0.573907 0.000000
0.679896 0.586572 0.000000
0.705531 0.573449 0.000000
0.728664 0.564416 0.000000
0.749691 0.559106 0.000000
0.769558 0.557580 0.150332
0.788418 0.558923 0.218967
0.807034 0.562219 0.271092
0.833310 0.559380 0.268101
0.858274 0.555932 0.266392
0.882200 0.551934 0.265812
0.905150 0.547478 0.266361
0.927245 0.542840 0.268009
0.948455 0.537957 0.270756
0.968872 0.533104 0.274571
0.988495 0.528161 0.279423
1.000000 0.523308 0.285527
1.000000 0.518608 0.292668
0.000000 0.557275 0.000000
0.000000 0.556634 0.000000
0.000000 0.555840 0.000000
0.000000 0.553948 0.000000
0.000000 0.551049 0.000000
0.000000 0.546624 0.000000
0.000000 0.540459 0.000000
0.000000 0.532708 0.000000
0.126284 0.523491 0.000000
0.190616 0.512505 0.000000
0.246738 0.510704 0.000000
0.318029 0.529992 0.000000
0.395270 0.549096 0.000000
0.477363 0.567895 0.000000
0.559716 0.586084 0.000000
0.638331 0.603510 0.000000
0.710262 0.618555 0.000000
0.733425 0.604791 0.000000
0.754696 0.594781 0.000000
0.774716 0.588800 0.000000
0.793606 0.586084 0.149447
0.811734 0.586175 0.223056
0.829068 0.588464 0.281224
0.850340 0.588617 0.304875
0.874784 0.584924 0.303258
0.898131 0.580743 0.302678
0.920531 0.576104 0.303258
0.942016 0.571313 0.305028
0.962615 0.566308 0.307836
0.982452 0.561273 0.311711
1.000000 0.556237 0.316808
1.000000 0.551293 0.323033
0.000000 0.586511 0.000000
0.000000 0.585931 0.000000
0.000000 0.585077 0.000000
0.000000 0.583429 0.000000
0.000000 0.580652 0.000000
0.000000 0.577050 0.000000
0.000000 0.571405 0.000000
0.000000 0.564355 0.000000
0.090608 0.555901 0.000000
0.171115 0.546075 0.000000
0.225559 0.534813 0.000000
0.285771 0.542473 0.000000
0.357519 0.560967 0.000000
0.434760 0.579400 0.000000
0.513817 0.596948 0.000000
0.590997 0.613764 0.000000
0.664424 0.629908 0.000000
0.733822 0.644862 0.000000
0.759182 0.632959 0.000000
0.779477 0.622705 0.000000
0.798489 0.616114 0.000000
0.816709 0.612451 0.149264
0.834012 0.611444 0.228061
0.850584 0.612421 0.288518
0.866423 0.615106 0.340642
0.890288 0.611292 0.339055
0.913115 0.606867 0.338537
0.934936 0.602258 0.339300
0.955871 0.597375 0.341131
0.975982 0.592340 0.344182
0.995270 0.587304 0.348394
1.000000 0.582452 0.353948
0.000000 0.613855 0.000000
0.000000 0.613306 0.000000
0.000000 0.612726 0.000000
0.000000 0.611170 0.000000
0.000000 0.608789 0.000000
0.000000 0.605463 0.000000
0.000000 0.600610 0.000000
0.000000 0.594232 0.000000
0.000000 0.586419 0.000000
0.149172 0.577447 0.000000
0.210880 0.567163 0.000000
0.258976 0.556146 0.000000
0.325078 0.572137 0.000000
0.397040 0.589960 0.000000
0.472236 0.606867 0.000000
0.546868 0.623011 0.000000
0.618830 0.638605 0.000000
0.688045 0.653712 0.000000
0.754726 0.668360 0.000000
0.783780 0.659266 0.000000
0.803250 0.648798 0.000000
0.821622 0.641566 0.000000
0.839017 0.637140 0.150484
0.855558 0.634943 0.233585
0.871336 0.634760 0.296452
0.886381 0.636316 0.350164
0.905150 0.635706 0.374273
0.927398 0.631342 0.373968
0.948669 0.626673 0.374853
0.969116 0.621790 0.376837
0.988647 0.616907 0.380316
1.000000 0.612024 0.384985
0.000000 0.638788 0.006104
0.000000 0.638300 0.000000
0.000000 0.636316 0.000000
0.000000 0.634913 0.000000
0.000000 0.632868 0.000000
0.000000 0.629938 0.000000
0.000000 0.626032 0.000000
0.000000 0.620447 0.000000
0.000000 0.613611 0.000000
0.121645 0.605524 0.000000
0.193729 0.596277 0.000000
0.246311 0.586389 0.000000
0.295872 0.582116 0.000000
0.363531 0.599298 0.000000
0.434333 0.615747 0.000000
0.506157 0.631342 0.000000
0.576562 0.646571 0.000000
0.644160 0.661280 0.000000
0.709468 0.675410 0.000000
0.774350 0.690120 0.000000
0.806729 0.683497 0.000000
0.825650 0.672755 0.000000
0.843381 0.664973 0.000000
0.860105 0.659724 0.152560
0.875883 0.656611 0.239200
0.890990 0.655573 0.304295
0.905364 0.656214 0.359808
0.919219 0.658595 0.408606
0.940978 0.654292 0.408545
0.961730 0.649683 0.409796
0.981628 0.644953 0.412207
1.000000 0.640314 0.416205
0.000000 0.661952 0.050813
0.000000 0.661402 0.028931
0.000000 0.660670 0.000000
0.000000 0.659327 0.000000
0.000000 0.657404 0.000000
0.000000 0.654871 0.000000
0.000000 0.651575 0.000000
0.000000 0.646632 0.000000
0.000000 0.640558 0.000000
0.085664 0.633448 0.000000
0.175479 0.625605 0.000000
0.233860 0.616815 0.000000
0.281559 0.607019 0.000000
0.335393 0.610163 0.000000
0.402136 0.625971 0.000000
0.471015 0.641047 0.000000
0.539269 0.655726 0.000000
0.605310 0.669978 0.000000
0.669093 0.683742 0.000000
0.731075 0.697017 0.000000
0.794217 0.711635 0.000000
0.829618 0.706996 0.000000
0.847868 0.695827 0.000000
0.864805 0.687343 0.000000
0.880735 0.681209 0.155673
0.895842 0.677333 0.245762
0.910124 0.675410 0.312902
0.923766 0.675288 0.369940
0.936767 0.677028 0.420508
0.953887 0.676112 0.442329
0.974182 0.671748 0.444068
0.993652 0.667384 0.447242
0.000000 0.684901 0.073915
0.000000 0.684474 0.067323
0.000000 0.683742 0.047852
0.000000 0.682643 0.000000
0.000000 0.680873 0.000000
0.000000 0.678676 0.000000
0.000000 0.675807 0.000000
0.000000 0.671565 0.000000
0.000000 0.666407 0.000000
0.000000 0.660456 0.000000
0.154269 0.653529 0.000000
0.219944 0.645655 0.000000
0.271702 0.636835 0.000000
0.315740 0.627222 0.054841
0.374212 0.636591 0.000000
0.439857 0.651148 0.000000
0.505852 0.665217 0.000000
0.570123 0.678920 0.000000
0.632258 0.692287 0.000000
0.692622 0.705226 0.000000
0.751675 0.717708 0.000000
0.813474 0.732296 0.000000
0.851591 0.729274 0.000000
0.869108 0.717556 0.000000
0.885374 0.708400 0.000000
0.900572 0.701595 0.159213
0.914916 0.696956 0.252811
0.928496 0.694301 0.322026
0.941405 0.693568 0.380560
0.953704 0.694820 0.432380
0.966278 0.697414 0.475502
0.986206 0.693477 0.478065
0.000000 0.707271 0.091890
0.000000 0.706783 0.084993
0.000000 0.706264 0.075990
0.000000 0.705257 0.046571
0.000000 0.703822 0.000000
0.000000 0.701930 0.000000
0.000000 0.699672 0.000000
0.000000 0.696559 0.000000
0.000000 0.691981 0.000000
0.000000 0.686641 0.000000
0.127413 0.680446 0.000000
0.204562 0.673304 0.000000
0.260838 0.665400 0.000000
0.307988 0.656672 0.059754
0.349859 0.647852 0.091707
0.412360 0.661738 0.040833
0.475746 0.675166 0.000000
0.538231 0.688228 0.000000
0.598627 0.700984 0.000000
0.657313 0.713466 0.000000
0.714412 0.725582 0.000000
0.770901 0.737331 0.000000
0.831632 0.751888 0.000000
0.872221 0.750057 0.000000
0.889006 0.737819 0.000000
0.904570 0.728084 0.000000
0.919066 0.720638 0.162997
0.932738 0.715358 0.259648
0.945678 0.712154 0.331090
0.957977 0.710994 0.391211
0.969757 0.711910 0.444495
0.981201 0.715236 0.492714
0.000000 0.729397 0.122103
0.000000 0.729091 0.117952
0.000000 0.728695 0.112459
0.000000 0.727932 0.099519
0.000000 0.726711 0.073518
0.000000 0.725124 0.000000
0.000000 0.723110 0.000000
0.000000 0.720546 0.000000
0.000000 0.716670 0.000000
0.000000 0.711788 0.000000
0.088899 0.706111 0.000000
0.186007 0.699641 0.000000
0.248478 0.692409 0.000000
0.299077 0.684443 0.068513
0.343084 0.675746 0.098878
0.388006 0.672633 0.110292
0.448859 0.685389 0.077821
0.509483 0.697871 0.000000
0.568109 0.710109 0.000000
0.625208 0.722072 0.000000
0.680720 0.733852 0.000000
0.735317 0.745418 0.000000
0.789639 0.756558 0.000000
0.848142 0.769955 0.000000
0.892454 0.770657 0.000000
0.908659 0.757809 0.000000
0.923552 0.747433 0.000000
0.937407 0.739467 0.168551
0.950408 0.733639 0.268070
0.962768 0.729976 0.341497
0.974517 0.728511 0.403601
0.985809 0.729335 0.458259
0.000000 0.751705 0.153414
0.000000 0.751431 0.150118
0.000000 0.751064 0.145998
0.000000 0.750332 0.136019
0.000000 0.749264 0.119081
0.000000 0.747860 0.091310
0.000000 0.746029 0.009552
0.000000 0.743832 0.000000
0.000000 0.740871 0.000000
0.000000 0.736446 0.000000
0.000000 0.731228 0.000000
0.164279 0.725368 0.000000
0.234440 0.718746 0.027924
0.289525 0.711391 0.082094
0.336187 0.703456 0.108614
0.377203 0.694911 0.130678
0.425299 0.696529 0.130678
0.483711 0.708309 0.104311
0.540795 0.719875 0.051087
0.596277 0.731350 0.000000
0.650233 0.742641 0.000000
0.703029 0.753780 0.000000
0.755215 0.764736 0.000000
0.807675 0.775326 0.000000
0.862791 0.786557 0.000000
0.910674 0.790127 0.000000
0.927672 0.777310 0.000000
0.941955 0.766415 0.000000
0.955200 0.757931 0.175692
0.967681 0.751675 0.277775
0.979553 0.747738 0.353552
0.990570 0.745876 0.416968
0.000000 0.773098 0.182895
0.000000 0.772854 0.180240
0.000000 0.772519 0.176608
0.000000 0.771908 0.168704
0.000000 0.770962 0.155673
0.000000 0.769711 0.136233
0.000000 0.768093 0.106813
0.000000 0.766171 0.044312
0.000000 0.763790 0.000000
0.000000 0.760098 0.000000
0.000000 0.755428 0.000000
0.136172 0.750088 0.000000
0.218448 0.744045 0.067536
0.278233 0.737331 0.097475
0.328222 0.730068 0.120760
0.371893 0.722255 0.141207
0.410468 0.713893 0.159762
0.461311 0.719661 0.152255
0.516686 0.730617 0.129793
0.570428 0.741512 0.094392
0.622797 0.752285 0.000000
0.673915 0.762966 0.000000
0.724269 0.773617 0.000000
0.774533 0.784024 0.000000
0.825376 0.794064 0.000000
0.877989 0.803677 0.000000
0.926452 0.808225 0.000000
0.945953 0.796292 0.000000
0.959747 0.784939 0.000000
0.972534 0.776089 0.184421
0.984436 0.769497 0.288731
0.995392 0.764981 0.366064
0.000000 0.794736 0.212955
0.000000 0.794461 0.210758
0.000000 0.794186 0.207736
0.000000 0.793637 0.201083
0.000000 0.792752 0.190097
0.000000 0.791653 0.174563
0.000000 0.790188 0.152834
0.000000 0.788418 0.121798
0.000000 0.786282 0.068238
0.000000 0.783566 0.000000
0.000000 0.779232 0.000000
0.097322 0.774289 0.059663
0.199802 0.768673 0.090517
0.265385 0.762509 0.114656
0.319036 0.755734 0.135134
0.365270 0.748531 0.153841
0.406195 0.740719 0.171603
0.442390 0.732601 0.188174
0.494972 0.741909 0.174807
0.547082 0.752193 0.154757
0.597833 0.762448 0.125521
0.647456 0.772671 0.075135
0.696193 0.782895 0.000000
0.744381 0.793027 0.000000
0.792905 0.802945 0.000000
0.842344 0.812406 0.000000
0.893462 0.821103 0.000000
0.941985 0.826139 0.000000
0.963684 0.814847 0.000000
0.977111 0.803250 0.000000
0.989075 0.793759 0.193942
1.000000 0.786679 0.300328
0.000000 0.815793 0.239811
0.000000 0.815763 0.239841
0.000000 0.815610 0.238163
0.000000 0.815122 0.232425
0.000000 0.814359 0.223239
0.000000 0.813413 0.210086
0.000000 0.812100 0.192416
0.000000 0.810452 0.169100
0.000000 0.808530 0.136599
0.000000 0.806271 0.085237
0.000000 0.802884 0.061707
0.000000 0.798306 0.090425
0.176944 0.793118 0.113069
0.250889 0.787350 0.133028
0.308598 0.781094 0.151431
0.357885 0.774319 0.168765
0.401038 0.767178 0.185519
0.439368 0.759579 0.201297
0.476356 0.754421 0.212680
0.526818 0.764096 0.198795
0.576013 0.773800 0.180331
0.624018 0.783536 0.155154
0.671199 0.793332 0.117647
0.717678 0.803128 0.010346
0.764096 0.812772 0.000000
0.811093 0.822080 0.000000
0.859342 0.830838 0.000000
0.909270 0.838865 0.000000
0.957671 0.844205 0.000000
0.981140 0.833249 0.000000
0.993683 0.820981 0.000000
1.000000 0.811246 0.205753
0.000000 0.836698 0.263157
0.000000 0.836698 0.263157
0.000000 0.836667 0.263157
0.000000 0.836728 0.263157
0.000000 0.836088 0.255894
0.000000 0.835142 0.244572
0.000000 0.833890 0.229526
0.000000 0.832364 0.210208
0.000000 0.830533 0.184878
0.000000 0.828428 0.151675
0.000000 0.825986 0.101747
0.000000 0.821744 0.116182
0.146426 0.816892 0.134401
0.232914 0.811490 0.151705
0.295995 0.805600 0.168246
0.348455 0.799344 0.184451
0.394079 0.792660 0.200259
0.434485 0.785672 0.215640
0.470558 0.778347 0.230716
0.508659 0.776608 0.236454
0.556268 0.785763 0.223239
0.602808 0.795041 0.206210
0.648402 0.804379 0.183566
0.693324 0.813809 0.152346
0.738064 0.823117 0.101900
0.782895 0.832242 0.000000
0.828672 0.840940 0.000000
0.876036 0.849058 0.000000
0.924590 0.856168 0.000000
0.972412 0.861479 0.000000
0.997406 0.850706 0.000000
1.000000 0.838315 0.000000
0.000000 0.857237 0.286259
0.000000 0.857237 0.286259
0.000000 0.857237 0.286259
0.000000 0.857298 0.286381
0.000000 0.857359 0.286442
0.000000 0.856687 0.278264
0.000000 0.855619 0.265232
0.000000 0.854276 0.248661
0.000000 0.852659 0.228000
0.000000 0.850797 0.201694
0.000000 0.848661 0.168032
0.000000 0.845762 0.141207
0.104646 0.841306 0.157198
0.213107 0.836362 0.172641
