data/fiter_cube/67355442/1023291/file.cube
# Created by Adobe Lightroom plugin Export LUT (1.17.0)
# www.johnrellis.com/lightroom/exportlut.htm
# Preset: 日系A通透明亮[云集]-8 红润
# Color profile: C:\Program Files (x86)\Common Files\Adobe\Color\Profiles\Recommended\AdobeRGB1998.icc
LUT_3D_SIZE 8
DOMAIN_MIN 0.000000 0.000000 0.000000
DOMAIN_MAX 0.903226 0.903226 0.903226
0.000000 0.000000 0.000000
0.170687 0.000000 0.000000
0.400488 0.000000 0.000000
0.592401 0.000000 0.000000
0.735653 0.000000 0.000000
0.836454 0.000000 0.000000
0.925353 0.000000 0.000000
1.000000 0.000000 0.000000
0.000000 0.153597 0.039521
0.140780 0.156649 0.000000
0.377234 0.135073 0.019226
0.584649 0.000000 0.000000
0.732052 0.000000 0.000000
0.834104 0.000000 0.000000
0.923247 0.000000 0.000000
1.000000 0.065522 0.000000
0.000000 0.336706 0.011566
0.000000 0.322728 0.000000
0.319310 0.356023 0.000000
0.553216 0.351324 0.017762
0.709407 0.355230 0.079622
0.818906 0.345830 0.061158
0.910643 0.337987 0.076265
0.992462 0.329046 0.113863
0.000000 0.491615 0.000000
0.000000 0.483833 0.000000
0.173739 0.449622 0.000000
0.487037 0.520958 0.000000
0.700221 0.530266 0.000000
0.788785 0.529808 0.233860
0.888975 0.515984 0.228702
0.974456 0.497719 0.241642
0.000000 0.613855 0.000000
0.000000 0.608789 0.000000
0.000000 0.586419 0.000000
0.325078 0.572137 0.000000
0.618830 0.638605 0.000000
0.803250 0.648798 0.000000
0.871336 0.634760 0.296452
0.948669 0.626673 0.374853
0.000000 0.707271 0.091890
0.000000 0.703822 0.000000
0.000000 0.691981 0.000000
0.260838 0.665400 0.000000
0.475746 0.675166 0.000000
0.714412 0.725582 0.000000
0.889006 0.737819 0.000000
0.945678 0.712154 0.331090
0.000000 0.794736 0.212955
0.000000 0.792752 0.190097
0.000000 0.786282 0.068238
0.199802 0.768673 0.090517
0.406195 0.740719 0.171603
0.597833 0.762448 0.125521
0.792905 0.802945 0.000000
0.963684 0.814847 0.000000
0.000000 0.878569 0.310643
0.000000 0.878721 0.310796
0.000000 0.875303 0.268711
0.000000 0.866056 0.180819
0.380652 0.846067 0.238865
0.532555 0.820951 0.296574
0.696345 0.849607 0.246036
0.864591 0.879973 0.000000
0.000000 0.016480 0.203098
0.188022 0.000000 0.212619
0.414618 0.000000 0.164950
0.601617 0.000000 0.105074
0.739956 0.000000 0.068513
0.838956 0.000000 0.000000
0.926574 0.000000 0.000000
1.000000 0.000000 0.000000
0.000000 0.169436 0.187381
0.149722 0.157626 0.188022
0.403571 0.045106 0.150057
0.594293 0.000000 0.117922
0.735897 0.000000 0.088289
0.835935 0.000000 0.053986
0.924163 0.000000 0.000000
1.000000 0.124483 0.000000
0.000000 0.362310 0.152773
0.000000 0.361883 0.144198
0.338201 0.367651 0.087648
0.553246 0.361273 0.200259
0.714412 0.346807 0.163943
0.821347 0.335851 0.139864
0.912108 0.338476 0.120760
0.992889 0.338933 0.121096
0.000000 0.509941 0.141817
0.000000 0.508965 0.131411
0.186893 0.475685 0.094972
0.499550 0.528740 0.000000
0.701625 0.532219 0.118044
0.792508 0.530419 0.265721
0.890623 0.518059 0.242985
0.975189 0.500908 0.245182
0.000000 0.624506 0.155581
0.000000 0.622705 0.142245
0.000000 0.601892 0.000000
0.329564 0.574609 0.091768
0.625544 0.642206 0.000000
0.804318 0.649226 0.000000
0.872465 0.635920 0.296971
0.949371 0.627558 0.376226
0.000000 0.713802 0.184817
0.000000 0.711482 0.165438
0.000000 0.699763 0.000000
0.267796 0.670649 0.090791
0.481056 0.676509 0.041932
0.718502 0.726375 0.000000
0.889708 0.737453 0.000000
0.946227 0.712276 0.333135
0.000000 0.795132 0.221195
0.000000 0.793210 0.196231
0.000000 0.785977 0.052705
0.214603 0.767483 0.096010
0.410864 0.739559 0.173434
0.602014 0.763272 0.122499
0.795743 0.803647 0.000000
0.964538 0.814572 0.000000
0.000000 0.878630 0.310704
0.000000 0.878691 0.310735
0.000000 0.874937 0.264805
0.055756 0.865476 0.182406
0.383307 0.844907 0.238926
0.533684 0.820157 0.296727
0.698054 0.849882 0.244846
0.866392 0.880308 0.000000
0.000000 0.022980 0.436042
0.100160 0.000000 0.446235
0.394965 0.000000 0.463050
0.591974 0.000000 0.405341
0.731044 0.000000 0.353155
0.832181 0.000000 0.299168
0.926207 0.000000 0.214969
1.000000 0.000000 0.174502
0.000000 0.136629 0.423560
0.000000 0.122377 0.434119
0.379034 0.000000 0.458228
0.588128 0.000000 0.400000
0.727993 0.000000 0.349065
0.830564 0.000000 0.290166
0.923888 0.000000 0.227146
1.000000 0.000000 0.187900
0.000000 0.345312 0.405890
0.000000 0.342626 0.407935
0.311009 0.325933 0.410803
0.561486 0.297215 0.378485
0.711910 0.251560 0.333165
0.819181 0.246189 0.303136
0.912810 0.252873 0.268925
0.995239 0.268284 0.232609
0.000000 0.550896 0.364416
0.000000 0.549737 0.359503
0.207340 0.531609 0.344152
0.506096 0.526177 0.315709
0.673945 0.534600 0.423011
0.793332 0.513573 0.383398
0.892027 0.493812 0.345251
0.977050 0.478309 0.310185
0.000000 0.648280 0.325444
0.000000 0.647059 0.322576
0.112428 0.636500 0.313664
0.350469 0.595178 0.274662
0.630518 0.644068 0.246921
0.793454 0.643824 0.326635
0.862333 0.640772 0.450507
0.951690 0.620935 0.411566
0.000000 0.727718 0.320256
0.000000 0.726314 0.318181
0.000000 0.718959 0.307958
0.271672 0.694362 0.240421
0.476539 0.673854 0.253483
0.723079 0.729671 0.175753
0.886748 0.734768 0.195102
0.944213 0.711940 0.386175
0.000000 0.803494 0.329900
0.000000 0.802213 0.326818
0.000000 0.796475 0.313451
0.186770 0.780911 0.216251
0.415930 0.749416 0.247684
0.602197 0.762783 0.224399
0.800931 0.804837 0.000000
0.965240 0.811521 0.000000
0.000000 0.880858 0.344121
0.000000 0.880797 0.341863
0.000000 0.876158 0.313939
0.054505 0.866423 0.206607
0.389166 0.843931 0.246891
0.537346 0.818357 0.297765
0.702663 0.850217 0.240940
0.871427 0.880644 0.000000
0.000000 0.021454 0.606744
0.000000 0.000000 0.611414
0.331304 0.000000 0.628626
0.568536 0.000000 0.639033
0.713039 0.000000 0.597406
0.816617 0.000000 0.546960
0.912261 0.000000 0.492103
1.000000 0.000000 0.410285
0.000000 0.134737 0.597620
0.000000 0.119326 0.603052
0.311528 0.000000 0.621576
0.561791 0.000000 0.636378
0.710201 0.000000 0.594354
0.814298 0.000000 0.544060
0.910643 0.000000 0.488319
1.000000 0.000000 0.403082
0.000000 0.293553 0.556023
0.000000 0.290654 0.566217
0.247929 0.268254 0.594629
0.534752 0.191806 0.624109
0.696590 0.173465 0.580896
0.803464 0.147921 0.532097
0.902892 0.000000 0.471870
0.995911 0.000000 0.385016
0.000000 0.495033 0.562951
0.000000 0.494209 0.563836
0.142672 0.487434 0.564263
0.457496 0.470832 0.570733
0.664424 0.460670 0.552514
0.782406 0.431586 0.510613
0.887327 0.417792 0.471809
0.978546 0.407385 0.427100
0.000000 0.676387 0.548943
0.000000 0.678157 0.548791
0.000000 0.677424 0.543725
0.377050 0.647028 0.521263
0.617639 0.631952 0.504540
0.753689 0.647150 0.587884
0.861723 0.627283 0.550317
0.954192 0.599847 0.502678
0.000000 0.751522 0.497475
0.000000 0.749996 0.495003
0.000000 0.743465 0.487251
0.305028 0.724727 0.469184
0.482704 0.683619 0.426551
0.718624 0.727596 0.431739
0.869230 0.727657 0.482277
0.929412 0.720790 0.566888
0.000000 0.818692 0.471351
0.000000 0.817472 0.468696
0.000000 0.812039 0.458076
0.243320 0.798459 0.437232
0.411261 0.771115 0.374731
0.586236 0.755795 0.381384
0.800961 0.806638 0.344213
0.958190 0.807004 0.331609
0.000000 0.891478 0.460243
0.000000 0.890471 0.456550
0.000000 0.886473 0.442481
0.201633 0.876524 0.423835
0.352544 0.859312 0.341344
0.532799 0.829770 0.369055
0.697353 0.849088 0.340002
0.876738 0.882078 0.201266
0.000000 0.055940 0.720668
0.090211 0.000000 0.722591
0.314641 0.000000 0.730495
0.513207 0.000000 0.745052
0.682795 0.000000 0.747311
0.800748 0.000000 0.716854
0.896666 0.000000 0.675074
0.986969 0.000000 0.623743
0.000000 0.140932 0.714717
0.035218 0.126650 0.716793
0.301366 0.000000 0.725429
0.504356 0.000000 0.741146
0.678920 0.000000 0.745510
0.798734 0.000000 0.714961
0.895079 0.000000 0.672572
0.986053 0.000000 0.620172
0.000000 0.277165 0.694850
0.000000 0.271244 0.698482
0.250706 0.250980 0.708492
0.472145 0.189242 0.725948
0.664302 0.000000 0.738125
0.790860 0.000000 0.707698
0.889281 0.000000 0.663233
0.982818 0.000000 0.606439
0.000000 0.437293 0.664240
0.000000 0.434119 0.663752
0.171695 0.422766 0.665644
0.406439 0.407172 0.693660
0.631647 0.380133 0.721523
0.773373 0.371344 0.690120
0.877379 0.341222 0.642512
0.976471 0.260044 0.575952
0.000000 0.606775 0.667201
0.000000 0.605554 0.667262
0.000000 0.600031 0.666957
0.342351 0.586572 0.664759
0.569787 0.578820 0.672480
0.744411 0.575921 0.660853
0.855314 0.551629 0.621790
0.955962 0.534691 0.584588
0.000000 0.754849 0.663844
0.000000 0.755489 0.663996
0.000000 0.756405 0.663416
0.211948 0.754696 0.657923
0.506035 0.729641 0.632105
0.706264 0.714443 0.623743
0.833951 0.733944 0.687617
0.929625 0.713863 0.654353
0.000000 0.841581 0.622095
0.000000 0.840696 0.620356
0.000000 0.836179 0.613031
0.000000 0.824277 0.595422
0.425360 0.800046 0.565332
0.579126 0.757198 0.529503
0.797116 0.804990 0.547723
0.941894 0.801724 0.578546
0.000000 0.906859 0.586297
0.000000 0.906126 0.583764
0.000000 0.902770 0.573968
0.000000 0.894285 0.551568
0.368505 0.877195 0.524102
0.519341 0.849882 0.475654
0.679744 0.842954 0.481361
0.876860 0.884672 0.443458
0.142123 0.100160 0.808408
0.203037 0.078401 0.809293
0.335485 0.000000 0.812985
0.484901 0.000000 0.819669
0.632929 0.000000 0.830716
0.765743 0.000000 0.827756
0.882963 0.000000 0.809445
0.973053 0.000000 0.767025
0.130983 0.162692 0.804837
0.193729 0.150973 0.805875
0.327855 0.089937 0.809720
0.478920 0.000000 0.816922
0.628748 0.000000 0.828428
0.763485 0.000000 0.826627
0.881804 0.000000 0.808103
0.972320 0.000000 0.765011
0.000000 0.280156 0.790829
0.124880 0.274876 0.792203
0.290715 0.253178 0.796872
0.453986 0.201999 0.805447
0.611597 0.044678 0.818753
0.754391 0.000000 0.821408
0.876768 0.000000 0.802457
0.969207 0.000000 0.756985
0.000000 0.420081 0.761227
0.000000 0.415900 0.763607
0.202762 0.398993 0.772274
0.399817 0.378424 0.783413
0.575921 0.346288 0.799405
0.736172 0.303075 0.810910
0.866697 0.259159 0.789517
0.963378 0.177981 0.739590
0.000000 0.557946 0.746853
0.000000 0.555291 0.746151
0.092683 0.545129 0.743679
0.329747 0.526482 0.740810
0.516991 0.515648 0.767666
0.709987 0.505150 0.795254
0.851591 0.484291 0.766659
0.953582 0.444770 0.712673
0.000000 0.691188 0.747189
0.000000 0.689906 0.746853
0.000000 0.685389 0.745968
0.238804 0.676204 0.743893
0.461524 0.663294 0.740047
0.661555 0.664668 0.747219
0.823606 0.663783 0.735958
0.930358 0.643336 0.699794
0.000000 0.826291 0.750698
0.000000 0.826535 0.750484
0.000000 0.827481 0.749477
0.000000 0.828031 0.745266
0.359075 0.827573 0.733761
0.606897 0.801053 0.706050
0.790158 0.792782 0.707149
0.914000 0.812619 0.762081
0.000000 0.926970 0.713680
0.000000 0.926574 0.711910
0.000000 0.924315 0.705440
0.000000 0.917723 0.691066
0.237827 0.903655 0.666102
0.534783 0.876646 0.641382
0.669398 0.836332 0.615656
0.879271 0.885557 0.638331
0.270359 0.163729 0.890288
0.299229 0.153597 0.891142
0.380011 0.099733 0.891936
0.486793 0.000000 0.893950
0.602197 0.000000 0.898009
0.721340 0.000000 0.904448
0.836698 0.000000 0.897490
0.958953 0.000000 0.888884
0.260105 0.202548 0.885039
0.289647 0.194339 0.885893
0.371679 0.157076 0.887144
0.480079 0.000000 0.889586
0.596551 0.000000 0.893828
0.716487 0.000000 0.900420
0.832517 0.000000 0.893919
0.955230 0.000000 0.885100
0.225650 0.300816 0.877256
0.258030 0.295171 0.877653
0.346868 0.273808 0.878843
0.461830 0.229587 0.881956
0.582849 0.135134 0.886778
0.706905 0.000000 0.894865
0.828183 0.000000 0.891539
0.954681 0.000000 0.882353
0.121736 0.419135 0.860624
0.165194 0.412696 0.861448
0.283574 0.398138 0.863401
0.420539 0.374823 0.868040
0.555016 0.336553 0.874754
0.688533 0.277379 0.885313
0.819730 0.203128 0.886778
0.951141 0.000000 0.873869
0.000000 0.541619 0.826902
0.071229 0.538048 0.826627
0.210910 0.526635 0.830350
0.342687 0.504631 0.839902
0.498695 0.479744 0.851713
0.653040 0.454139 0.865537
0.802762 0.421485 0.874693
0.941985 0.368627 0.855802
0.000000 0.653468 0.821622
0.000000 0.651514 0.821073
0.000000 0.644068 0.819150
0.269444 0.629877 0.815915
0.433265 0.607752 0.809598
0.608179 0.605798 0.834928
0.786099 0.603906 0.860136
0.929046 0.577020 0.830686
0.000000 0.764828 0.819944
0.000000 0.764279 0.820066
0.000000 0.761227 0.819211
0.000000 0.755550 0.817624
0.363226 0.745876 0.813870
0.561273 0.736049 0.807889
0.748836 0.744991 0.814603
0.906096 0.748928 0.803983
0.000000 0.901366 0.830320
0.000000 0.901793 0.830014
0.000000 0.904540 0.829831
0.000000 0.906859 0.826230
0.092988 0.907713 0.817411
0.478798 0.907164 0.801297
0.703914 0.877958 0.772946
0.884123 0.880949 0.789639
0.356115 0.236576 0.955505
0.372259 0.229404 0.955688
0.421790 0.199100 0.955138
0.497108 0.124453 0.955352
0.585809 0.000000 0.955993
0.682033 0.000000 0.957580
0.788144 0.000000 0.961028
0.900114 0.000000 0.953338
0.350164 0.261173 0.952819
0.366461 0.254856 0.953063
0.416846 0.227939 0.952819
0.492622 0.168276 0.953002
0.582208 0.000000 0.953887
0.679194 0.000000 0.955718
0.785855 0.000000 0.959258
0.898497 0.000000 0.951904
0.327581 0.332616 0.946654
0.344671 0.327703 0.946777
0.397650 0.307286 0.946471
0.478492 0.270390 0.948028
0.570916 0.196658 0.949187
0.670436 0.000000 0.951293
0.779904 0.000000 0.955749
0.895781 0.000000 0.949706
0.271000 0.427008 0.937255
0.292851 0.423651 0.937591
0.356023 0.409308 0.937804
0.446143 0.383368 0.939147
0.547295 0.340764 0.941314
0.653651 0.270329 0.944701
0.769070 0.105684 0.950439
0.891905 0.000000 0.946746
0.220554 0.541161 0.917479
0.239750 0.537774 0.918364
0.295232 0.523125 0.920562
0.379889 0.494057 0.925780
0.501488 0.465553 0.928649
0.622614 0.425147 0.933379
0.749905 0.367010 0.941070
0.885557 0.306950 0.941375
0.093416 0.638483 0.898680
0.137758 0.635981 0.898009
0.230503 0.627314 0.896208
0.330449 0.611566 0.896422
0.442329 0.589502 0.905180
0.580560 0.566766 0.916106
0.727596 0.547631 0.927825
0.880552 0.524834 0.934325
0.000000 0.734035 0.894438
0.000000 0.732601 0.894041
0.000000 0.727474 0.892882
0.206516 0.718318 0.891356
0.379583 0.704738 0.888548
0.532921 0.688655 0.883299
0.697871 0.690303 0.902708
0.874144 0.692195 0.920867
0.000000 0.838193 0.894102
0.000000 0.837613 0.893828
0.000000 0.835935 0.893339
0.000000 0.833036 0.892790
0.258915 0.828458 0.891417
0.479622 0.823697 0.888701
0.666712 0.822080 0.884123
0.862058 0.846921 0.891051
