data/fiter_cube/57993848/1023158/file.cube
# Created by Adobe Lightroom plugin Export LUT (1.17.0)
# www.johnrellis.com/lightroom/exportlut.htm
# Preset: 萌宠摄影后期_05 云集
# Color profile: C:\Program Files (x86)\Common Files\Adobe\Color\Profiles\Recommended\AdobeRGB1998.icc
LUT_3D_SIZE 8
DOMAIN_MIN 0.000000 0.000000 0.000000
DOMAIN_MAX 0.903226 0.903226 0.903226
0.096407 0.098817 0.128511
0.110994 0.104646 0.133333
0.163577 0.119661 0.140169
0.286656 0.153597 0.149874
0.529595 0.205051 0.160311
0.790707 0.278386 0.187320
0.919432 0.369696 0.255650
0.987823 0.483742 0.375280
0.101289 0.116213 0.133791
0.111360 0.116121 0.137484
0.163851 0.130831 0.140810
0.276158 0.166018 0.149966
0.508415 0.220157 0.159854
0.752987 0.280766 0.179477
0.902281 0.363622 0.239719
0.981903 0.476051 0.358862
0.111818 0.181125 0.142641
0.126101 0.180819 0.144594
0.164401 0.184451 0.158206
0.316594 0.237613 0.155947
0.553155 0.291325 0.161044
0.776455 0.346136 0.186038
0.922881 0.428443 0.268070
0.988800 0.525292 0.393530
0.129458 0.322087 0.151949
0.150149 0.322210 0.154238
0.218753 0.336522 0.164981
0.364599 0.383429 0.212039
0.651026 0.445808 0.208133
0.824704 0.451118 0.205356
0.927672 0.495979 0.285924
0.986542 0.565728 0.403540
0.177310 0.505943 0.157321
0.203861 0.503136 0.160037
0.284947 0.501518 0.169558
0.449287 0.538811 0.204471
0.615930 0.552331 0.291447
0.810117 0.573754 0.314672
0.920165 0.572473 0.318151
0.983429 0.615076 0.415900
0.281102 0.667903 0.181491
0.319615 0.678553 0.190311
0.400549 0.672816 0.201358
0.523796 0.668574 0.226627
0.699062 0.688136 0.308019
0.812711 0.685817 0.435279
0.912963 0.703609 0.499733
0.974517 0.713222 0.523369
0.426642 0.794156 0.270939
0.450416 0.794430 0.276829
0.511711 0.786435 0.284092
0.608087 0.776577 0.303716
0.730343 0.772335 0.360021
0.852018 0.782986 0.468666
0.905150 0.779629 0.585290
0.955077 0.797543 0.652705
0.587854 0.874846 0.418250
0.600763 0.873198 0.420081
0.646479 0.868772 0.430823
0.721279 0.863401 0.456184
0.779904 0.845884 0.456855
0.873350 0.850187 0.546288
0.935210 0.862242 0.648585
0.954925 0.859159 0.735012
0.099855 0.101717 0.138094
0.102480 0.104738 0.140505
0.149081 0.125032 0.152407
0.252689 0.160494 0.167361
0.471962 0.210819 0.182742
0.719844 0.266972 0.203433
0.886503 0.351415 0.257481
0.973510 0.464973 0.365209
0.098299 0.115145 0.142672
0.111452 0.118959 0.146273
0.154025 0.136202 0.154726
0.256077 0.172152 0.167330
0.468116 0.224277 0.181674
0.705348 0.277043 0.199985
0.872953 0.350622 0.246952
0.966552 0.456641 0.348425
0.109285 0.175051 0.152041
0.125307 0.176364 0.156649
0.160586 0.183474 0.170718
0.291997 0.227665 0.170199
0.494759 0.279149 0.181491
0.724086 0.331945 0.202243
0.886625 0.401648 0.260105
0.973205 0.499794 0.373022
0.125826 0.301671 0.164645
0.146181 0.303868 0.168215
0.205997 0.316533 0.178134
0.310002 0.341588 0.216831
0.553399 0.397009 0.209567
0.755245 0.416815 0.207523
0.892790 0.465919 0.270054
0.972076 0.541405 0.381537
0.171054 0.491859 0.176028
0.195468 0.487068 0.177798
0.269352 0.481514 0.185458
0.408179 0.506035 0.214725
0.560052 0.518517 0.287755
0.775540 0.551354 0.306249
0.903288 0.555932 0.310460
0.974487 0.602472 0.407111
0.263706 0.649866 0.195956
0.289952 0.649287 0.199100
0.369238 0.645624 0.208621
0.492287 0.645777 0.231662
0.675105 0.672908 0.310613
0.800778 0.678004 0.438819
0.906035 0.696742 0.497139
0.969604 0.703853 0.514397
0.399603 0.778103 0.267887
0.416449 0.774441 0.267796
0.482033 0.768948 0.277134
0.585718 0.763638 0.300786
0.715084 0.763149 0.358099
0.840696 0.774228 0.462440
0.895567 0.769039 0.573205
0.949554 0.786435 0.635676
0.568811 0.868345 0.411688
0.584710 0.867643 0.416144
0.633173 0.863798 0.428077
0.710994 0.859037 0.454353
0.790616 0.850950 0.482338
0.874937 0.851652 0.557977
0.933074 0.860136 0.648524
0.952514 0.855467 0.730465
0.107729 0.106264 0.164370
0.109712 0.109377 0.167514
0.114778 0.116548 0.162661
0.186160 0.136355 0.196689
0.468055 0.238224 0.241123
0.715023 0.304082 0.280186
0.883330 0.394903 0.344244
0.968383 0.509789 0.445716
0.113985 0.120302 0.167391
0.117525 0.126497 0.171908
0.120180 0.127626 0.168978
0.222110 0.160769 0.200290
0.457588 0.249271 0.238590
0.701839 0.309728 0.273625
0.874876 0.393683 0.333867
0.965332 0.506645 0.436530
0.100740 0.176059 0.184512
0.116609 0.185428 0.187350
0.169406 0.203372 0.203983
0.288121 0.247013 0.220249
0.500053 0.303685 0.245853
0.722744 0.358404 0.278294
0.879850 0.430426 0.338994
0.965301 0.528710 0.439643
0.094881 0.313390 0.193057
0.127687 0.322271 0.202914
0.208225 0.328588 0.221561
0.331792 0.365881 0.273411
0.564202 0.405341 0.264439
0.756893 0.437659 0.287968
0.891417 0.493080 0.353521
0.967315 0.571374 0.452857
0.135195 0.490913 0.218418
0.177768 0.491554 0.226413
0.272007 0.491524 0.239902
0.416632 0.514916 0.272313
0.584894 0.538750 0.357244
0.776761 0.559503 0.363073
0.899260 0.562066 0.365515
0.968383 0.621363 0.466316
0.242405 0.649500 0.249882
0.275669 0.649195 0.255467
0.363531 0.644160 0.267369
0.479591 0.638117 0.283421
0.658595 0.663386 0.356573
0.787045 0.673152 0.474922
0.897887 0.695491 0.520165
0.966613 0.709255 0.542473
0.397620 0.780362 0.326879
0.417700 0.777493 0.328435
0.481270 0.769741 0.333989
0.579889 0.760952 0.349889
0.703792 0.757198 0.393652
0.835050 0.771603 0.494942
0.894804 0.774105 0.606226
0.950622 0.796689 0.666102
0.568811 0.866514 0.450050
0.578271 0.864591 0.448280
0.623957 0.859831 0.455726
0.708186 0.857023 0.484932
0.786374 0.848692 0.507836
0.871214 0.850004 0.576349
0.930968 0.860380 0.666438
0.951904 0.858671 0.746883
0.120821 0.111666 0.209018
0.123751 0.115541 0.213993
0.131777 0.127810 0.223758
0.125826 0.125765 0.183291
0.190188 0.141360 0.225437
0.497230 0.173495 0.307134
0.839689 0.384741 0.405127
0.947234 0.538079 0.510399
0.129946 0.131930 0.215366
0.132235 0.135225 0.219486
0.140230 0.146792 0.231846
0.130404 0.134127 0.189212
0.222232 0.160250 0.244083
0.556695 0.202884 0.310033
0.844877 0.425299 0.418250
0.946471 0.538415 0.506462
0.125032 0.156649 0.225437
0.140871 0.171664 0.230350
0.171115 0.214969 0.257053
0.181064 0.192721 0.241978
0.426551 0.273869 0.303685
0.703090 0.396735 0.378027
0.869657 0.483070 0.448829
0.953826 0.574670 0.525994
0.064637 0.309056 0.273106
0.095491 0.319219 0.275578
0.191989 0.354223 0.294163
0.347936 0.385809 0.336950
0.536370 0.411719 0.345342
0.726528 0.457130 0.383215
0.871275 0.519036 0.443854
0.954955 0.603143 0.528130
0.000000 0.496223 0.287175
0.094087 0.497200 0.287419
0.256535 0.511467 0.321996
0.419013 0.523308 0.354162
0.608331 0.562646 0.450080
0.774197 0.566552 0.432654
0.888853 0.589258 0.464210
0.958709 0.648493 0.540215
0.121920 0.662440 0.294804
0.210788 0.671382 0.319310
0.365759 0.664179 0.363439
0.498024 0.656550 0.380957
0.667659 0.672419 0.442512
0.794614 0.688106 0.547021
0.893736 0.702510 0.563714
0.962554 0.712459 0.575616
0.355383 0.781216 0.385290
0.402319 0.779934 0.405005
0.486915 0.775845 0.422980
0.589929 0.769345 0.437232
0.704402 0.760616 0.462287
0.834318 0.774868 0.551080
0.892454 0.780148 0.649348
0.948455 0.800809 0.690059
0.591669 0.865629 0.521599
0.605341 0.864988 0.524163
0.640467 0.861845 0.524804
0.703151 0.856626 0.531975
0.781125 0.848203 0.550134
0.863157 0.847471 0.601801
0.926543 0.859709 0.689143
0.950042 0.861662 0.767117
0.143771 0.120333 0.281682
0.146944 0.124361 0.287083
0.156924 0.137514 0.302647
0.159609 0.150912 0.276097
0.132906 0.130465 0.197330
0.168673 0.132204 0.219211
0.466865 0.150820 0.360052
0.871122 0.273136 0.480507
0.152499 0.141238 0.285496
0.156008 0.145205 0.292210
0.165957 0.157687 0.308293
0.167910 0.167178 0.284703
0.136049 0.135866 0.201144
0.188632 0.143435 0.236790
0.521447 0.168460 0.377752
0.885832 0.326085 0.487037
0.170962 0.185733 0.293339
0.181979 0.203525 0.305913
0.197726 0.223239 0.327092
0.202853 0.230381 0.318395
0.148623 0.159182 0.216678
0.301061 0.205203 0.309178
0.690303 0.276341 0.422156
0.917357 0.502861 0.533745
0.116121 0.234836 0.328985
0.134127 0.244572 0.334020
0.218357 0.300298 0.359258
0.325017 0.386908 0.411109
0.362921 0.340429 0.379980
0.675166 0.462379 0.463661
0.841947 0.552789 0.529473
0.934997 0.625605 0.590692
0.000000 0.465919 0.392554
0.000000 0.475319 0.396246
0.195682 0.504997 0.407446
0.417914 0.546075 0.455024
0.592706 0.557885 0.494118
0.739803 0.560632 0.492988
0.861143 0.600885 0.534356
0.942168 0.660822 0.595422
0.000000 0.636164 0.399756
0.103975 0.637873 0.401587
0.255100 0.641108 0.408148
0.461372 0.647028 0.457588
0.615900 0.648798 0.486305
0.781308 0.687007 0.593133
0.882872 0.694240 0.589471
0.951934 0.716915 0.619318
0.251438 0.775326 0.434546
0.285100 0.773800 0.436713
0.388800 0.771023 0.451453
0.570428 0.762661 0.510155
0.678157 0.755581 0.518822
0.813931 0.766171 0.585870
0.884642 0.779965 0.682521
0.943267 0.795163 0.700160
0.472847 0.864652 0.508171
0.492500 0.863066 0.512200
0.583825 0.855222 0.545769
0.695491 0.851652 0.589807
0.760098 0.846464 0.590112
0.841001 0.840177 0.617151
0.916258 0.854246 0.704158
0.945251 0.859922 0.780972
0.191592 0.127810 0.396521
0.195651 0.131716 0.401099
0.207523 0.145052 0.413611
0.242222 0.171237 0.452705
0.190646 0.169833 0.326696
0.135714 0.129580 0.203861
0.135500 0.117342 0.187259
0.431556 0.089815 0.387457
0.195621 0.149294 0.389166
0.198825 0.152621 0.393225
0.213291 0.165164 0.410925
0.243900 0.189700 0.444800
0.194980 0.180972 0.328710
0.137575 0.132937 0.206027
0.145113 0.121523 0.198611
0.465095 0.092744 0.401862
0.230625 0.216007 0.407050
0.233982 0.219211 0.410529
0.249607 0.232456 0.426917
0.283818 0.259403 0.460304
0.228031 0.231205 0.359503
0.145693 0.146822 0.216312
0.197330 0.145174 0.251774
0.613275 0.132113 0.461372
0.226413 0.252201 0.411566
0.245914 0.264988 0.413245
0.305730 0.323613 0.445747
0.375036 0.381140 0.496407
0.330999 0.351659 0.439185
0.165042 0.180117 0.240391
0.424018 0.248508 0.397467
0.825528 0.367071 0.540856
0.098390 0.365270 0.459998
0.132509 0.373266 0.464912
0.229587 0.404150 0.483406
0.404059 0.474311 0.522210
0.539727 0.546715 0.552056
0.590936 0.488746 0.520226
0.819669 0.590661 0.590326
0.923033 0.696925 0.676112
0.000000 0.619837 0.520195
0.000000 0.627893 0.524620
0.233829 0.644221 0.530968
0.431220 0.663722 0.548119
0.646815 0.679469 0.595850
0.779751 0.692470 0.637598
0.868620 0.695857 0.640436
0.937499 0.732906 0.683894
0.222812 0.773220 0.536584
0.266819 0.774319 0.540002
0.377234 0.772549 0.547601
0.525170 0.770352 0.567651
0.693721 0.765866 0.616724
0.794339 0.763424 0.636652
0.883940 0.790097 0.733150
0.942077 0.795010 0.725551
0.442664 0.861418 0.573449
0.462135 0.859892 0.575433
0.526268 0.855497 0.584466
0.626520 0.851316 0.607050
0.754879 0.842435 0.659998
0.819150 0.838834 0.660945
0.902831 0.849332 0.726467
0.941680 0.862425 0.805295
0.286076 0.118410 0.529015
0.293248 0.122347 0.535271
0.309209 0.136995 0.546654
0.341100 0.162905 0.569329
0.373724 0.198825 0.585168
0.216312 0.174350 0.366033
0.137057 0.125246 0.209140
0.111604 0.106020 0.157168
0.282841 0.144228 0.517876
0.289494 0.147494 0.523857
0.305577 0.159701 0.536278
0.335332 0.182712 0.557885
0.372259 0.216190 0.579095
0.217197 0.181216 0.363928
0.137606 0.126955 0.209262
0.114199 0.107301 0.160830
0.311131 0.212192 0.523186
0.315465 0.215396 0.526574
0.330632 0.226596 0.537713
0.362463 0.249454 0.560143
0.409857 0.285100 0.590539
0.242252 0.215671 0.386847
0.141543 0.133791 0.214328
0.129152 0.112215 0.181521
0.333837 0.272160 0.520470
0.343755 0.284459 0.524804
0.380346 0.323430 0.543603
0.418616 0.349920 0.569024
0.472938 0.389593 0.602136
0.310674 0.293248 0.443244
0.150393 0.148196 0.225315
0.190036 0.129976 0.250675
0.238834 0.313024 0.535271
0.261784 0.322210 0.534783
0.340368 0.357275 0.537865
0.460700 0.432746 0.562585
0.545983 0.500359 0.607813
0.449928 0.431708 0.528954
0.167422 0.177798 0.245426
0.465217 0.220310 0.437385
0.094331 0.502434 0.583307
0.140291 0.506371 0.585290
0.246738 0.520439 0.592950
0.392737 0.547631 0.609583
0.582025 0.597467 0.637934
0.725002 0.669703 0.677333
0.702571 0.565789 0.602716
0.884672 0.661433 0.680323
0.118929 0.747738 0.640589
0.179873 0.749905 0.642420
0.307286 0.753994 0.645228
0.464576 0.760128 0.653071
0.633478 0.764920 0.669642
0.789364 0.773648 0.714504
0.874083 0.785855 0.756252
0.930846 0.789364 0.757382
0.376684 0.854124 0.643275
0.400153 0.853330 0.644862
0.481117 0.852323 0.654597
0.586145 0.848417 0.668482
0.701015 0.843259 0.690852
0.810269 0.841337 0.731441
0.878080 0.840635 0.749172
0.937926 0.867002 0.835721
0.438544 0.075959 0.671595
0.443244 0.084016 0.674739
0.451392 0.107790 0.678798
0.473365 0.144076 0.692103
0.505211 0.192020 0.710597
0.481880 0.206577 0.669398
0.258885 0.166018 0.428168
0.147799 0.120455 0.234958
0.434852 0.116457 0.663600
0.439643 0.122042 0.666926
0.449470 0.138338 0.672450
0.470558 0.167453 0.685115
0.503593 0.210330 0.704677
0.484138 0.222324 0.668238
0.259403 0.171359 0.426947
0.147341 0.121309 0.233249
0.441566 0.196414 0.653437
0.445563 0.199985 0.656001
0.453925 0.210330 0.660334
0.483803 0.236698 0.679957
0.517388 0.272618 0.699672
0.512566 0.282780 0.679927
0.276432 0.193576 0.440894
0.148348 0.124178 0.233677
0.456947 0.276127 0.642786
0.468330 0.291691 0.647486
0.479774 0.301640 0.654231
0.507286 0.324773 0.671260
0.546777 0.360540 0.694972
0.584222 0.397925 0.712917
0.323705 0.241489 0.479530
0.151736 0.129976 0.237125
0.429572 0.300664 0.622095
0.445991 0.308812 0.622797
0.475532 0.342535 0.632837
0.534173 0.409644 0.657954
0.581018 0.450446 0.684627
0.640040 0.503014 0.718532
0.423560 0.336156 0.546532
0.156832 0.140566 0.241978
0.197726 0.378912 0.665400
0.229496 0.384497 0.663783
0.321263 0.405585 0.660487
0.453803 0.445228 0.658198
0.606195 0.518029 0.667659
0.707942 0.609125 0.722744
0.636255 0.542870 0.661006
0.168032 0.161166 0.253117
0.178561 0.640986 0.717037
0.208316 0.641413 0.717128
0.293278 0.643091 0.718563
0.418494 0.649714 0.723873
0.560571 0.658991 0.729946
0.717678 0.686915 0.744045
0.841276 0.763149 0.790433
0.663600 0.501823 0.601617
0.295842 0.843778 0.760769
0.317967 0.843015 0.760189
0.392340 0.841367 0.759976
0.506157 0.839414 0.762142
0.636255 0.837064 0.767422
0.761685 0.838407 0.779385
0.863890 0.845548 0.810819
0.929595 0.864103 0.856229
