data/fiter_cube/57993848/1023158/file.cube
# Created by Adobe Lightroom plugin Export LUT (1.17.0)
# www.johnrellis.com/lightroom/exportlut.htm
# Preset: 萌宠摄影后期_05 云集
# Color profile: C:\Program Files (x86)\Common Files\Adobe\Color\Profiles\Recommended\AdobeRGB1998.icc
LUT_3D_SIZE 5
DOMAIN_MIN 0.000000 0.000000 0.000000
DOMAIN_MAX 0.903226 0.903226 0.903226
0.096407 0.098817 0.128511
0.145907 0.114870 0.138552
0.387823 0.176730 0.155001
0.834012 0.300511 0.200717
0.987823 0.483742 0.375280
0.108797 0.160403 0.140505
0.146792 0.161410 0.151888
0.420020 0.243626 0.156680
0.826749 0.350469 0.200900
0.990753 0.522087 0.397345
0.147829 0.417060 0.154879
0.219974 0.408545 0.162753
0.500023 0.478584 0.248539
0.849882 0.507744 0.242191
0.984283 0.587243 0.405890
0.323919 0.711879 0.201877
0.407630 0.709621 0.214908
0.631067 0.708003 0.277958
0.843900 0.713008 0.476661
0.969268 0.737484 0.557000
0.587854 0.874846 0.418250
0.631556 0.869993 0.426581
0.737911 0.849821 0.440192
0.892210 0.852842 0.572015
0.954925 0.859159 0.735012
0.105013 0.105013 0.155489
0.111604 0.113588 0.156924
0.331640 0.198367 0.206485
0.754116 0.304204 0.262699
0.966766 0.486275 0.411810
0.101381 0.155520 0.171145
0.149203 0.173922 0.184817
0.369726 0.250614 0.213474
0.763516 0.348882 0.264012
0.967803 0.512444 0.419074
0.122225 0.397833 0.196841
0.208896 0.395026 0.209903
0.435096 0.439551 0.286625
0.805997 0.483070 0.278477
0.971862 0.594141 0.448432
0.306096 0.704311 0.261295
0.397101 0.702113 0.276402
0.615229 0.697932 0.327184
0.832181 0.708614 0.508659
0.964355 0.736782 0.572808
0.584558 0.871733 0.451850
0.627924 0.866941 0.458869
0.752773 0.855253 0.492226
0.892760 0.854765 0.599359
0.954223 0.862211 0.751064
0.131014 0.115908 0.242374
0.139834 0.128573 0.256840
0.130037 0.128756 0.191653
0.381476 0.165164 0.312322
0.931395 0.483864 0.510185
0.151644 0.165560 0.252995
0.166629 0.190005 0.273014
0.143954 0.154604 0.208743
0.581048 0.254063 0.360571
0.940429 0.583642 0.557366
0.000000 0.383398 0.327977
0.151858 0.415198 0.338201
0.468452 0.474037 0.413947
0.769314 0.519158 0.448920
0.948486 0.634058 0.563989
0.138247 0.692042 0.358831
0.287144 0.689357 0.374975
0.574853 0.681422 0.441291
0.822507 0.715480 0.597314
0.954314 0.729793 0.606958
0.526848 0.863676 0.506126
0.618952 0.857481 0.546777
0.730159 0.850889 0.559014
0.872709 0.845212 0.627955
0.946532 0.858366 0.769314
0.203952 0.127840 0.419165
0.218570 0.140505 0.435126
0.267918 0.183993 0.477516
0.135958 0.128695 0.204715
0.283848 0.115785 0.311864
0.230167 0.193271 0.422522
0.244663 0.205081 0.438148
0.307317 0.252110 0.496101
0.141817 0.139315 0.212192
0.379187 0.126131 0.365576
0.189792 0.272068 0.441505
0.269291 0.315465 0.452613
0.438819 0.441779 0.527947
0.211307 0.223301 0.290654
0.812284 0.396765 0.545892
0.000000 0.661585 0.556146
0.204990 0.669306 0.557244
0.536461 0.695277 0.586725
0.808316 0.717739 0.668879
0.933776 0.742794 0.696895
0.430060 0.859922 0.590112
0.499916 0.856657 0.599420
0.677333 0.849424 0.638514
0.836667 0.839872 0.684810
0.940246 0.862455 0.810941
0.438544 0.075959 0.671595
0.448096 0.100740 0.676997
0.488380 0.166751 0.700954
0.436683 0.193637 0.623133
0.147799 0.120455 0.234958
0.441840 0.176120 0.658534
0.452583 0.188296 0.665034
0.496101 0.234592 0.691646
0.456916 0.241062 0.630610
0.148287 0.123323 0.234134
0.447333 0.285222 0.630365
0.473610 0.320226 0.640833
0.535637 0.382208 0.673487
0.578302 0.419806 0.689143
0.154055 0.134432 0.239567
0.150912 0.439185 0.682277
0.230228 0.439155 0.680598
0.502983 0.504326 0.679286
0.746487 0.652064 0.738552
0.172457 0.169802 0.257267
0.295842 0.843778 0.760769
0.368994 0.841764 0.759762
0.570520 0.838224 0.764309
0.789487 0.839536 0.784726
0.929595 0.864103 0.856229
