data/fiter_cube/57993848/1023158/file.cube
# Created by Adobe Lightroom plugin Export LUT (1.17.0)
# www.johnrellis.com/lightroom/exportlut.htm
# Preset: 萌宠摄影后期_05 云集
# Color profile: C:\Program Files (x86)\Common Files\Adobe\Color\Profiles\Recommended\AdobeRGB1998.icc
LUT_3D_SIZE 32
DOMAIN_MIN 0.0 0.0 0.0
DOMAIN_MAX 1.0 1.0 1.0
0.096407 0.098817 0.128511
0.097658 0.099397 0.129183
0.099123 0.100191 0.130007
0.103670 0.102205 0.131533
0.110994 0.104646 0.133333
0.120180 0.107546 0.135012
0.131746 0.110903 0.136690
0.145907 0.114870 0.138552
0.163577 0.119661 0.140169
0.185306 0.125856 0.142214
0.212497 0.133700 0.144564
0.245945 0.143099 0.147127
0.286656 0.153597 0.149874
0.334600 0.164828 0.152285
0.387823 0.176730 0.155001
0.445411 0.188724 0.157229
0.529595 0.205051 0.160311
0.611017 0.221775 0.163912
0.679286 0.239078 0.169131
0.738888 0.257633 0.176852
0.790707 0.278386 0.187320
0.834012 0.300511 0.200717
0.868345 0.323095 0.216739
0.896208 0.346166 0.235050
0.919432 0.369696 0.255650
0.939574 0.394476 0.278843
0.957549 0.421424 0.306340
0.973663 0.450965 0.338231
0.987823 0.483742 0.375280
0.999908 0.520195 0.417639
1.000000 0.560479 0.464393
1.000000 0.603754 0.513695
0.096864 0.100313 0.129305
0.097658 0.100435 0.129641
0.099489 0.101137 0.130282
0.104036 0.103151 0.131655
0.111360 0.105562 0.133425
0.120516 0.108431 0.135103
0.131624 0.111849 0.136812
0.145632 0.115846 0.138491
0.162814 0.120699 0.140108
0.183963 0.126833 0.142061
0.210361 0.134493 0.144594
0.242863 0.143740 0.147066
0.282139 0.154055 0.149783
0.328588 0.165255 0.152377
0.380621 0.176974 0.154818
0.437140 0.189059 0.156924
0.518486 0.204929 0.160006
0.596674 0.221042 0.163363
0.663966 0.237064 0.168093
0.724086 0.254856 0.174777
0.777096 0.274205 0.184329
0.822446 0.295506 0.196445
0.858610 0.317479 0.211429
0.888182 0.340032 0.228855
0.912840 0.363378 0.248447
0.934112 0.387884 0.271489
0.953185 0.414618 0.298100
0.970184 0.444129 0.329595
0.985168 0.476844 0.366491
0.997955 0.513329 0.408881
1.000000 0.553521 0.455665
1.000000 0.597009 0.505638
0.097475 0.102480 0.130220
0.098573 0.102541 0.130556
0.099367 0.102419 0.131075
0.104555 0.104555 0.132082
0.111940 0.106935 0.133516
0.120974 0.109773 0.135348
0.131868 0.113191 0.136904
0.145449 0.117189 0.138582
0.162295 0.122072 0.140383
0.183261 0.127993 0.142153
0.209140 0.135927 0.144533
0.241123 0.145144 0.146883
0.279820 0.155642 0.149630
0.325444 0.166995 0.152255
0.376898 0.178897 0.154788
0.432837 0.190616 0.156863
0.513634 0.206882 0.159731
0.589075 0.222293 0.163058
0.655726 0.237583 0.167422
0.715999 0.254795 0.173800
0.769863 0.273899 0.182589
0.816312 0.294682 0.194400
0.853574 0.316045 0.208927
0.884001 0.338262 0.225650
0.909239 0.361120 0.245151
0.931121 0.385443 0.267460
0.950744 0.411963 0.294011
0.968231 0.441413 0.325475
0.983703 0.473976 0.362097
0.996857 0.510185 0.404273
1.000000 0.550256 0.451148
1.000000 0.593622 0.501091
0.099123 0.107851 0.131991
0.100526 0.108125 0.132113
0.102144 0.108095 0.132601
0.104402 0.108186 0.133761
0.112306 0.110842 0.134981
0.122347 0.113222 0.135592
0.133242 0.116457 0.137301
0.146700 0.120546 0.138827
0.163180 0.125521 0.140597
0.183719 0.131716 0.142336
0.209232 0.139864 0.144686
0.240543 0.149264 0.147189
0.278355 0.159915 0.149783
0.323247 0.171298 0.152438
0.373754 0.183230 0.154726
0.432959 0.196170 0.157137
0.509545 0.212009 0.159884
0.581201 0.226505 0.162844
0.645380 0.241062 0.166537
0.704280 0.256809 0.172457
0.757931 0.274327 0.180362
0.805295 0.294041 0.191104
0.844938 0.315007 0.205020
0.877836 0.337346 0.221897
0.905394 0.360845 0.241825
0.928923 0.386084 0.265385
0.949645 0.413367 0.292882
0.967681 0.443153 0.325048
0.983337 0.475624 0.361730
0.996460 0.511284 0.403754
1.000000 0.550256 0.449653
1.000000 0.592401 0.498482
0.101289 0.116213 0.133791
0.102358 0.116274 0.134127
0.104250 0.116426 0.134401
0.107790 0.116732 0.135500
0.111360 0.116121 0.137484
0.121035 0.119478 0.138369
0.134005 0.122042 0.138216
0.147829 0.125826 0.139223
0.163851 0.130831 0.140810
0.183780 0.137423 0.142702
0.208560 0.145357 0.144900
0.239048 0.155093 0.147372
0.276158 0.166018 0.149966
0.320165 0.177768 0.152468
0.370428 0.190097 0.154849
0.435431 0.204868 0.157382
0.508415 0.220157 0.159854
0.578332 0.234806 0.162814
0.641810 0.248783 0.166537
0.700221 0.264103 0.171786
0.752987 0.280766 0.179477
0.800107 0.299229 0.189914
0.840238 0.319127 0.203555
0.873930 0.340734 0.219974
0.902281 0.363622 0.239719
0.926543 0.388312 0.263096
0.947662 0.415198 0.290501
0.966033 0.444160 0.322087
0.981903 0.476051 0.358862
0.995270 0.511009 0.400366
1.000000 0.549279 0.446082
1.000000 0.590845 0.494636
0.103273 0.126925 0.136049
0.104891 0.126894 0.136355
0.106508 0.127077 0.136477
0.110079 0.127138 0.137240
0.115419 0.127901 0.138888
0.119905 0.126528 0.141482
0.132143 0.131319 0.142611
0.148013 0.135103 0.141756
0.166842 0.139040 0.141390
0.186465 0.145815 0.143191
0.211124 0.154269 0.145418
0.241459 0.164370 0.147951
0.278202 0.175540 0.150271
0.322057 0.187869 0.152773
0.373632 0.200870 0.155032
0.442329 0.217288 0.157717
0.512200 0.232364 0.160311
0.580468 0.246555 0.162936
0.643244 0.260685 0.166567
0.701411 0.275669 0.172152
0.754299 0.292149 0.180179
0.801938 0.310246 0.190890
0.896330 0.372839 0.239658
0.919799 0.394781 0.261814
0.939513 0.417334 0.285924
0.956512 0.440986 0.312352
0.971344 0.466163 0.341711
0.984283 0.493416 0.374548
0.995483 0.523400 0.411139
1.000000 0.556451 0.451118
1.000000 0.592004 0.493294
1.000000 0.628656 0.536095
0.106172 0.143526 0.138491
0.107820 0.143343 0.138643
0.109560 0.143465 0.139071
0.113802 0.143618 0.139651
0.119783 0.144167 0.140932
0.127657 0.145693 0.143343
0.133333 0.143404 0.146670
0.150179 0.150790 0.148226
0.170871 0.156832 0.146975
0.196506 0.163272 0.145968
0.225559 0.171817 0.146883
0.258793 0.183108 0.149325
0.298405 0.195102 0.151553
0.344244 0.207523 0.153780
0.410010 0.224979 0.156435
0.479225 0.241093 0.158785
0.547784 0.255772 0.161257
0.612818 0.269718 0.164431
0.673243 0.284092 0.169192
0.730800 0.299901 0.176699
0.785153 0.318791 0.187411
0.833616 0.340246 0.202976
0.873564 0.364019 0.223178
0.905577 0.389075 0.247440
0.930999 0.414923 0.275029
0.951080 0.440192 0.303777
0.967529 0.465919 0.334417
0.981323 0.492775 0.367498
0.993194 0.522118 0.404028
1.000000 0.553948 0.443519
1.000000 0.588556 0.485328
1.000000 0.624720 0.528405
0.108797 0.160403 0.140505
0.110323 0.160555 0.140627
0.112367 0.160311 0.140932
0.116487 0.160281 0.141634
0.122530 0.160159 0.142489
0.130648 0.161929 0.144503
0.140475 0.164340 0.147433
0.146792 0.161410 0.151888
0.167666 0.171267 0.154238
0.192935 0.180026 0.152743
0.224277 0.189334 0.151461
0.262242 0.198184 0.149905
0.301701 0.210056 0.151980
0.358007 0.227451 0.154421
0.420020 0.243626 0.156680
0.483406 0.258152 0.158755
0.547478 0.271702 0.161135
0.609277 0.284733 0.163912
0.668025 0.298070 0.168612
0.724453 0.312993 0.175662
0.778195 0.330388 0.186099
0.826749 0.350469 0.200900
0.867247 0.372290 0.220066
0.899779 0.395514 0.243412
0.925933 0.419471 0.269810
0.946685 0.443458 0.298222
0.963836 0.467842 0.328161
0.978302 0.493660 0.360937
0.990753 0.522087 0.397345
1.000000 0.552972 0.436713
1.000000 0.586969 0.478950
1.000000 0.622583 0.522026
0.111818 0.181125 0.142641
0.113313 0.181125 0.142947
0.115511 0.181033 0.143221
0.119783 0.180972 0.143771
0.126101 0.180819 0.144594
0.134218 0.181552 0.146181
0.144594 0.184451 0.148836
0.156741 0.188296 0.152438
0.164401 0.184451 0.158206
0.190616 0.198428 0.162081
0.222324 0.210300 0.159976
0.262699 0.222843 0.157992
0.316594 0.237613 0.155947
0.375128 0.250980 0.154818
0.432990 0.265507 0.156893
0.492287 0.278691 0.158755
0.553155 0.291325 0.161044
0.612177 0.303441 0.163973
0.668879 0.315923 0.168612
0.723903 0.329992 0.175723
0.776455 0.346136 0.186038
0.824247 0.364569 0.200443
0.864195 0.384680 0.219211
0.896635 0.406073 0.242161
0.922881 0.428443 0.268070
0.943847 0.450690 0.295842
0.961273 0.473823 0.325536
0.976104 0.498390 0.357733
0.988800 0.525292 0.393530
0.999542 0.554925 0.432410
1.000000 0.587457 0.473854
1.000000 0.622034 0.516716
0.115023 0.205875 0.144900
0.116732 0.205722 0.145174
0.118685 0.205570 0.145327
0.123323 0.205356 0.145876
0.129854 0.205173 0.146822
0.138033 0.204898 0.148043
0.148989 0.207645 0.150454
0.162081 0.211917 0.153841
0.177432 0.217472 0.158297
0.186648 0.213107 0.165896
0.224613 0.235691 0.172519
0.268986 0.253056 0.169955
0.321660 0.268315 0.166842
0.380835 0.280949 0.162844
0.444221 0.290410 0.158083
0.504631 0.302159 0.158572
0.565515 0.314885 0.160739
0.623713 0.326848 0.164340
0.678523 0.338689 0.169528
0.730617 0.351385 0.176699
0.779812 0.365759 0.187015
0.823789 0.381537 0.201175
0.861173 0.398535 0.218387
0.892241 0.416815 0.239506
0.917906 0.436316 0.263951
0.939361 0.456855 0.290379
0.957519 0.478706 0.319951
0.973175 0.502647 0.352667
0.986664 0.529168 0.389075
0.998016 0.558465 0.428840
1.000000 0.590936 0.471565
1.000000 0.625452 0.515496
0.118379 0.233066 0.147066
0.119997 0.233036 0.147341
0.122316 0.232975 0.147616
0.127016 0.232883 0.148135
0.134096 0.232944 0.149020
0.142855 0.233005 0.150301
0.153750 0.234409 0.152193
0.168124 0.239567 0.155459
0.186648 0.248417 0.160281
0.209751 0.260075 0.166690
0.224094 0.257603 0.177188
0.273198 0.282353 0.185519
0.325444 0.298924 0.181155
0.384009 0.312779 0.176242
0.446143 0.323491 0.170809
0.510124 0.331395 0.164950
0.573053 0.338170 0.160342
0.628840 0.349187 0.163912
0.681575 0.359869 0.169375
0.732021 0.371405 0.177066
0.779751 0.384619 0.187259
0.822995 0.399115 0.201480
0.859922 0.414801 0.218997
0.890684 0.431556 0.240055
0.916197 0.449531 0.264042
0.937438 0.468116 0.290135
0.955474 0.488258 0.318853
0.971160 0.510277 0.350713
0.984741 0.534997 0.386145
0.996307 0.562768 0.425299
1.000000 0.593683 0.467506
1.000000 0.627131 0.511406
0.122408 0.265385 0.149203
0.123964 0.265354 0.149477
0.126619 0.265324 0.149722
0.131533 0.265293 0.150210
0.138918 0.265385 0.151217
0.148928 0.266880 0.152499
0.161471 0.269871 0.154452
0.178164 0.276921 0.157687
0.199283 0.286870 0.162478
0.224735 0.298222 0.168643
0.253941 0.309606 0.176547
0.272160 0.306126 0.189639
0.401892 0.380957 0.216617
0.470558 0.395911 0.208591
0.538170 0.405463 0.200168
0.601282 0.410498 0.191836
0.657984 0.412024 0.184268
0.708309 0.410986 0.178042
0.751583 0.414557 0.181643
0.791714 0.423072 0.192660
0.828061 0.432654 0.206638
0.860136 0.443641 0.223209
0.887480 0.455756 0.242863
0.911254 0.469520 0.264714
0.931640 0.484627 0.289311
0.949218 0.500969 0.315831
0.964416 0.518761 0.344030
0.977661 0.538506 0.375128
0.989197 0.560723 0.409186
0.999176 0.585962 0.446235
1.000000 0.614130 0.485603
1.000000 0.644556 0.526635
0.129458 0.322087 0.151949
0.131868 0.322393 0.152132
0.134676 0.322087 0.152438
0.140963 0.322087 0.153170
0.150149 0.322210 0.154238
0.162081 0.322210 0.155489
0.176394 0.323217 0.157321
0.193881 0.325811 0.160037
0.218753 0.336522 0.164981
0.250156 0.350134 0.171450
0.289281 0.366888 0.180117
0.333104 0.382696 0.192538
0.364599 0.383429 0.212039
0.452430 0.416907 0.231632
0.526421 0.433448 0.224033
0.592798 0.442512 0.216098
0.651026 0.445808 0.208133
0.701411 0.445716 0.201053
0.746944 0.444190 0.195438
0.789212 0.443030 0.191806
0.824704 0.451118 0.205356
0.856321 0.460426 0.221897
0.883421 0.470863 0.241001
0.907103 0.482765 0.262608
0.927672 0.495979 0.285924
0.945434 0.510491 0.311650
0.960937 0.526696 0.339361
0.974578 0.544915 0.369879
0.986542 0.565728 0.403540
0.996979 0.589715 0.440589
1.000000 0.616815 0.480201
1.000000 0.646601 0.521904
0.137667 0.370184 0.153597
0.140169 0.370336 0.153780
0.143343 0.369604 0.154177
0.149844 0.368597 0.154971
0.159792 0.367102 0.155917
0.172427 0.365881 0.157259
0.187625 0.365576 0.159091
0.205692 0.366064 0.161440
0.229679 0.372717 0.165560
0.262364 0.385565 0.171725
0.302220 0.401221 0.179995
0.350103 0.419471 0.190951
0.398077 0.433387 0.206241
0.431067 0.432013 0.229038
0.520043 0.461952 0.253513
0.586847 0.473335 0.244602
0.644312 0.477974 0.236057
0.694820 0.478676 0.228122
0.740566 0.477668 0.221561
0.783108 0.476661 0.216831
0.821408 0.475502 0.214359
0.854032 0.478889 0.222049
0.881041 0.487831 0.240757
0.904662 0.498329 0.262089
0.925170 0.510033 0.285374
0.943053 0.523186 0.310674
0.958679 0.537865 0.338231
0.972473 0.554772 0.368566
0.984741 0.574121 0.401617
0.995392 0.596857 0.438453
1.000000 0.622889 0.478401
1.000000 0.651514 0.520012
0.147829 0.417060 0.154879
0.150362 0.417365 0.155154
0.153872 0.416388 0.155337
0.160861 0.414862 0.155978
0.171206 0.412543 0.157290
0.184817 0.410101 0.158480
0.200870 0.408881 0.160494
0.219974 0.408545 0.162753
0.242161 0.409827 0.165591
0.275883 0.422187 0.171786
0.316533 0.437171 0.179843
0.364691 0.454231 0.190433
0.419135 0.472145 0.204105
0.467689 0.482582 0.222995
0.500023 0.478584 0.248539
0.583459 0.503105 0.278477
0.641810 0.509819 0.268803
0.691432 0.511284 0.259922
0.736568 0.510918 0.252476
0.778592 0.509972 0.246799
0.816373 0.508873 0.243626
0.849882 0.507744 0.242191
0.878904 0.506523 0.242710
0.902464 0.514519 0.261875
0.923003 0.524987 0.285191
0.941161 0.537194 0.311009
0.957275 0.551385 0.339605
0.971618 0.567864 0.371069
0.984283 0.587243 0.405890
0.995178 0.610010 0.444495
1.000000 0.636011 0.485756
1.000000 0.664393 0.528374
0.161013 0.463539 0.155886
0.164218 0.463905 0.156405
0.167758 0.463569 0.156558
0.175753 0.462806 0.157259
0.187350 0.461433 0.158572
0.202487 0.460151 0.159976
0.220706 0.459663 0.162203
0.241917 0.459876 0.164553
0.266239 0.460853 0.167849
0.297215 0.466743 0.172732
0.338079 0.479377 0.180941
0.384924 0.493233 0.191409
0.435859 0.507134 0.204471
0.490211 0.520714 0.220127
0.532769 0.524987 0.241459
0.560021 0.517113 0.268132
0.635554 0.537011 0.304021
0.687739 0.541588 0.295262
0.733761 0.542840 0.287327
0.776516 0.543389 0.281895
0.814847 0.543206 0.278721
0.848417 0.542657 0.277409
0.877287 0.541741 0.277989
0.902586 0.541283 0.280308
0.924285 0.544579 0.290929
0.942138 0.555718 0.317388
0.957977 0.568841 0.346349
0.972076 0.584283 0.378027
0.984314 0.602441 0.413092
0.994903 0.623438 0.450538
1.000000 0.647303 0.490364
1.000000 0.673426 0.531426
0.177310 0.505943 0.157321
0.180270 0.505791 0.157717
0.183841 0.505180 0.158083
0.191867 0.504234 0.158846
0.203861 0.503136 0.160037
0.219364 0.501854 0.161685
0.238254 0.501244 0.163699
0.259953 0.500999 0.166445
0.284947 0.501518 0.169558
0.312444 0.502586 0.173190
0.352331 0.513024 0.181186
0.398718 0.525841 0.191623
0.449287 0.538811 0.204471
0.502373 0.551049 0.220310
0.555657 0.562066 0.238682
0.592157 0.561944 0.262638
0.615930 0.552331 0.291447
0.683375 0.568902 0.333532
0.730495 0.572381 0.325261
0.772396 0.573510 0.318578
0.810117 0.573754 0.314672
0.843290 0.573358 0.312566
0.872129 0.572717 0.312627
0.897581 0.572412 0.314580
0.920165 0.572473 0.318151
0.940398 0.573419 0.323980
0.956909 0.583459 0.348394
0.971038 0.598016 0.380682
0.983429 0.615076 0.415900
0.994110 0.635004 0.453529
1.000000 0.657984 0.493690
1.000000 0.683223 0.535088
0.198550 0.550256 0.160067
0.202365 0.551263 0.160403
0.231144 0.590143 0.165896
0.239872 0.589136 0.166873
0.253422 0.587152 0.168063
0.269841 0.584710 0.169924
0.289891 0.582086 0.172335
0.312932 0.579675 0.175021
0.339361 0.577874 0.178622
0.368505 0.576654 0.183047
0.403174 0.578424 0.189425
0.449897 0.587610 0.201907
0.498756 0.596246 0.216709
0.548913 0.604486 0.233951
0.598657 0.611810 0.253849
0.646937 0.618463 0.275761
0.675746 0.613825 0.303593
0.694423 0.602228 0.334447
0.749050 0.614130 0.380529
0.787808 0.615595 0.375433
0.820615 0.614496 0.368994
0.850248 0.613306 0.365423
0.876463 0.611963 0.363592
0.899626 0.610681 0.363897
0.920073 0.609400 0.364843
0.938598 0.608667 0.367834
0.955596 0.609033 0.372778
0.970764 0.613458 0.386023
0.982696 0.628443 0.419532
0.993194 0.646906 0.456794
1.000000 0.668330 0.496223
1.000000 0.691981 0.537011
0.230137 0.601709 0.166201
0.236790 0.606348 0.167330
0.244266 0.610986 0.168795
0.256138 0.614405 0.170596
0.271611 0.616297 0.172641
0.289097 0.615869 0.174868
0.309392 0.614313 0.177279
0.332219 0.612268 0.180331
0.358282 0.610498 0.183749
0.386725 0.608942 0.187991
0.417670 0.607813 0.192905
0.458686 0.612879 0.203525
0.505180 0.620203 0.218143
0.552819 0.627192 0.235111
0.600366 0.633387 0.254276
0.646448 0.638880 0.275639
0.690791 0.644007 0.299321
0.714687 0.637720 0.328099
0.732052 0.627008 0.360021
0.780117 0.637842 0.407630
0.814969 0.640070 0.408148
0.844755 0.640192 0.404456
0.871183 0.639796 0.402533
0.894530 0.639338 0.402502
0.915160 0.638636 0.403540
0.933776 0.638514 0.406470
0.950805 0.639216 0.411475
0.966522 0.641444 0.419348
0.981109 0.645716 0.430945
0.992432 0.659541 0.460945
1.000000 0.679530 0.499977
1.000000 0.701930 0.540581
0.254673 0.635523 0.172335
0.260990 0.639399 0.174075
0.268223 0.643427 0.175784
0.279423 0.646326 0.178012
0.294438 0.647944 0.180087
0.311559 0.647547 0.182254
0.331273 0.646052 0.184848
0.353491 0.644221 0.187778
0.378943 0.642542 0.191318
0.406928 0.640925 0.195438
0.437171 0.639582 0.200595
0.470008 0.638819 0.207065
0.514427 0.645075 0.221897
0.560082 0.650935 0.239109
0.605585 0.656184 0.257786
0.649958 0.660853 0.278843
0.692927 0.665278 0.301427
0.733730 0.669795 0.326543
0.753658 0.662562 0.357092
0.769772 0.653071 0.390265
0.809812 0.662501 0.438727
0.840696 0.665797 0.445014
0.866911 0.666529 0.443183
0.889952 0.666804 0.442786
0.910460 0.666712 0.443397
0.928832 0.666865 0.445716
0.945678 0.667628 0.449775
0.961212 0.669886 0.456825
0.975647 0.673976 0.467353
0.988861 0.680140 0.481483
1.000000 0.689937 0.501946
1.000000 0.710933 0.542351
0.281102 0.667903 0.181491
0.286931 0.671382 0.183536
0.294255 0.674739 0.185306
0.305211 0.677333 0.187961
0.319615 0.678553 0.190311
0.335912 0.678157 0.192447
0.354864 0.676631 0.194766
0.376074 0.674708 0.197635
0.400549 0.672816 0.201358
0.427436 0.670924 0.205447
0.456458 0.669123 0.210422
0.487007 0.667170 0.216037
0.523796 0.668574 0.226627
0.567529 0.673671 0.243839
0.611688 0.678431 0.263005
0.655634 0.683131 0.284092
0.699062 0.688136 0.308019
0.740658 0.693355 0.334691
0.779751 0.699153 0.363897
0.797391 0.692744 0.398901
0.812711 0.685817 0.435279
0.845212 0.695552 0.485512
0.871000 0.700282 0.497322
0.893309 0.702174 0.497932
0.912963 0.703609 0.499733
0.930541 0.704799 0.502342
0.946441 0.706416 0.506767
0.961059 0.709041 0.513542
0.974517 0.713222 0.523369
0.986755 0.719112 0.536370
0.997772 0.726833 0.552636
1.000000 0.736965 0.573022
0.323919 0.711879 0.201877
0.328161 0.713191 0.202976
0.332952 0.714168 0.204349
0.341466 0.714565 0.205844
0.353643 0.714168 0.207340
0.368536 0.712886 0.209567
0.386450 0.711360 0.211643
0.407630 0.709621 0.214908
0.431708 0.708156 0.218814
0.458595 0.706661 0.223423
0.487526 0.705318 0.229221
0.517693 0.703517 0.235233
0.548241 0.701045 0.241428
0.589105 0.704341 0.258091
0.631067 0.708003 0.277958
0.672572 0.711421 0.299626
0.712978 0.714931 0.323247
0.751644 0.718654 0.349615
0.787625 0.722866 0.377905
0.820645 0.727657 0.408026
0.832578 0.719844 0.442298
0.843900 0.713008 0.476661
0.868620 0.720699 0.522240
0.889433 0.724788 0.535119
0.908446 0.726467 0.535546
0.925719 0.728176 0.537591
0.941466 0.730343 0.541680
0.955962 0.733303 0.547997
0.969268 0.737484 0.557000
0.981353 0.743069 0.568994
0.992218 0.750484 0.584497
1.000000 0.760342 0.604364
0.353918 0.739590 0.218235
0.357977 0.740780 0.219791
0.362921 0.741787 0.221286
0.371160 0.742061 0.222751
0.382269 0.741634 0.224674
0.396307 0.740352 0.226444
0.412879 0.738613 0.228702
0.432471 0.736690 0.231296
0.455207 0.734737 0.234897
0.480476 0.732998 0.239384
0.507897 0.731289 0.244633
0.536522 0.729335 0.251011
0.565820 0.726864 0.257328
0.598596 0.725765 0.267643
0.638911 0.728847 0.287266
0.678798 0.731746 0.309392
0.717922 0.734737 0.333227
0.755215 0.737972 0.359503
0.790311 0.741665 0.387854
0.822324 0.745968 0.417731
0.849424 0.749996 0.449256
0.859648 0.743496 0.483223
0.869200 0.738064 0.516381
0.889189 0.745480 0.559747
0.902739 0.744411 0.565789
0.919799 0.746639 0.567132
0.935576 0.749355 0.570733
0.950042 0.752560 0.576410
0.963317 0.756863 0.584833
0.975433 0.762539 0.596399
0.986328 0.770230 0.612085
0.995727 0.780362 0.632746
0.397620 0.773373 0.248539
0.401862 0.774533 0.250584
0.406256 0.775082 0.252140
0.413245 0.774807 0.253025
0.422827 0.773739 0.254002
0.435126 0.772000 0.255222
0.449866 0.769741 0.256748
0.467170 0.767147 0.258274
0.487251 0.764309 0.260594
0.509606 0.761532 0.264195
0.533776 0.758572 0.268223
0.559716 0.755734 0.272953
0.586572 0.752560 0.278538
0.613672 0.748989 0.284428
0.647181 0.748562 0.298589
0.683528 0.749752 0.318822
0.719203 0.751095 0.340795
0.754086 0.753109 0.365148
0.787808 0.755947 0.392035
0.819333 0.759731 0.421424
0.847745 0.764370 0.452399
0.870237 0.767697 0.483619
0.878691 0.761837 0.515587
0.886229 0.756558 0.546197
0.902037 0.762448 0.585412
0.916625 0.766476 0.601862
0.931701 0.769253 0.604181
0.945556 0.772396 0.608576
0.958404 0.776486 0.615869
0.970153 0.782132 0.626917
0.980835 0.789548 0.641840
0.990204 0.799405 0.661707
0.426642 0.794156 0.270939
0.430884 0.795132 0.273106
0.434913 0.795651 0.274449
0.441627 0.795346 0.275731
0.450416 0.794430 0.276829
0.461799 0.792874 0.278080
0.475990 0.790951 0.279576
0.492653 0.788754 0.281346
0.511711 0.786435 0.284092
0.533440 0.784115 0.287694
0.556695 0.781704 0.292332
0.582025 0.779232 0.297704
0.608087 0.776577 0.303716
0.634363 0.773587 0.309850
0.661006 0.770321 0.317052
0.696010 0.771267 0.337743
0.730343 0.772335 0.360021
0.763516 0.773861 0.384283
0.795438 0.776120 0.410834
0.825223 0.779202 0.439246
0.852018 0.782986 0.468666
0.875456 0.787320 0.498299
0.892790 0.789487 0.527581
0.899351 0.784207 0.557031
0.905150 0.779629 0.585290
0.917479 0.784878 0.622461
0.929412 0.789303 0.641291
0.942718 0.792996 0.645594
0.955077 0.797543 0.652705
0.966430 0.803220 0.662898
0.976715 0.810575 0.677150
0.985809 0.820096 0.695857
0.461952 0.816037 0.300816
0.465522 0.816587 0.302312
0.468544 0.816678 0.303319
0.473915 0.816068 0.303960
0.481483 0.814847 0.304265
0.491432 0.813169 0.304936
0.503929 0.811154 0.305669
0.518975 0.808988 0.307408
0.536767 0.806729 0.309941
0.556847 0.804532 0.313573
0.579095 0.802243 0.318120
0.602991 0.800076 0.323644
0.627832 0.797665 0.329961
0.652979 0.794919 0.336492
0.677882 0.791714 0.342992
0.706111 0.789944 0.355444
0.738582 0.790524 0.377142
0.770016 0.791470 0.400671
0.800320 0.793149 0.426062
0.828489 0.795590 0.453407
0.854063 0.798764 0.481697
0.876646 0.802426 0.509911
0.896239 0.806455 0.537530
0.909789 0.807797 0.565087
0.914885 0.802976 0.592798
0.919402 0.799008 0.619806
0.929168 0.803738 0.654810
0.939147 0.808408 0.674983
0.950958 0.812741 0.680568
0.962066 0.818509 0.689937
0.972168 0.825711 0.703029
0.981140 0.834928 0.720577
0.494209 0.834195 0.329290
0.496925 0.834470 0.330602
0.499794 0.834470 0.331548
0.504631 0.834043 0.332280
0.512505 0.833219 0.333257
0.523033 0.832303 0.335363
0.536797 0.831510 0.338384
0.553460 0.830777 0.343053
0.573053 0.830076 0.348730
0.594812 0.829435 0.355657
0.618372 0.828672 0.363745
0.643030 0.827726 0.372168
0.668025 0.826444 0.381109
0.692805 0.824643 0.389654
0.716854 0.822354 0.397559
0.739712 0.819547 0.404883
0.768002 0.819059 0.423926
0.796506 0.819577 0.447028
0.823362 0.820706 0.471443
0.847990 0.822538 0.496925
0.870329 0.825010 0.522911
0.890043 0.827970 0.548913
0.907134 0.831205 0.574609
0.921813 0.834684 0.600183
0.931060 0.835172 0.625910
0.934386 0.831022 0.651453
0.937469 0.827787 0.675502
0.944488 0.831601 0.705348
0.952026 0.836271 0.725521
0.961730 0.841062 0.732357
0.970947 0.847959 0.744045
0.979187 0.856779 0.760067
0.550469 0.859312 0.382483
0.552514 0.859373 0.383520
0.554559 0.859159 0.383764
0.558434 0.858488 0.384039
0.564569 0.857481 0.384405
0.572992 0.856229 0.385321
0.583917 0.854917 0.386999
0.597528 0.853513 0.389929
0.613519 0.852079 0.393500
0.631495 0.850614 0.398352
0.650935 0.848936 0.403876
0.671717 0.847227 0.410010
0.693111 0.845274 0.416693
0.714717 0.843076 0.423529
