data/fiter_cube/15997792/1023466/file.cube
# Created by Adobe Lightroom plugin Export LUT (1.17.0)
# www.johnrellis.com/lightroom/exportlut.htm
# Preset: 日系A通透明亮[云集]-7
# Color profile: C:\Program Files (x86)\Common Files\Adobe\Color\Profiles\Recommended\AdobeRGB1998.icc
LUT_3D_SIZE 5
DOMAIN_MIN 0.000000 0.000000 0.000000
DOMAIN_MAX 0.903226 0.903226 0.903226
0.088136 0.088136 0.088136
0.284550 0.089815 0.087709
0.565148 0.103243 0.091585
0.835447 0.135683 0.115419
1.000000 0.178531 0.159640
0.080262 0.279240 0.088167
0.270115 0.276768 0.091035
0.610956 0.323095 0.097475
0.856718 0.318212 0.131380
1.000000 0.315251 0.180148
0.022644 0.535424 0.086641
0.261723 0.535576 0.086244
0.531151 0.546197 0.082704
0.871855 0.606317 0.167422
1.000000 0.569146 0.252873
0.000000 0.780087 0.074372
0.239902 0.779690 0.075563
0.500206 0.775998 0.076722
0.748226 0.769070 0.079652
1.000000 0.780270 0.224765
0.000000 0.970886 0.121859
0.223606 0.969482 0.123079
0.464454 0.962066 0.121004
0.699977 0.957885 0.138216
0.931090 0.950103 0.163882
0.086641 0.087465 0.264378
0.268376 0.095125 0.266453
0.514855 0.104707 0.263432
0.789792 0.123354 0.271580
0.997894 0.187778 0.289342
0.090150 0.273411 0.266239
0.263310 0.272709 0.263706
0.546105 0.290227 0.277073
0.816129 0.306065 0.290043
1.000000 0.321263 0.306920
0.000000 0.531334 0.263920
0.240818 0.533501 0.248905
0.518242 0.534905 0.247196
0.864866 0.610895 0.347967
1.000000 0.581384 0.383948
0.000000 0.777859 0.252598
0.221317 0.778317 0.243626
0.494179 0.774228 0.243442
0.745449 0.766873 0.243656
0.999969 0.785519 0.361151
0.000000 0.969970 0.255863
0.222080 0.968475 0.258152
0.467628 0.965148 0.261540
0.701839 0.959106 0.268254
0.932097 0.950774 0.283146
0.086427 0.092164 0.505821
0.262455 0.093843 0.506859
0.512657 0.068879 0.508843
0.762631 0.059998 0.502708
0.967742 0.154757 0.490059
0.000000 0.266728 0.509606
0.245212 0.258183 0.509850
0.517113 0.251133 0.513939
0.759792 0.262303 0.500603
0.965942 0.300755 0.498329
0.000000 0.529168 0.514153
0.222599 0.530297 0.513878
0.507073 0.527520 0.507378
0.789395 0.574609 0.558953
0.983612 0.589380 0.578241
0.000000 0.770809 0.497353
0.203006 0.768948 0.492927
0.488197 0.766842 0.494148
0.741329 0.762600 0.494484
0.992584 0.820127 0.648157
0.000000 0.964691 0.475013
0.214267 0.964477 0.476692
0.480323 0.960906 0.492683
0.705440 0.954803 0.493843
0.930144 0.946960 0.500267
0.078614 0.094636 0.741115
0.254704 0.090822 0.741421
0.499580 0.060090 0.745602
0.750149 0.000000 0.744656
0.956939 0.114870 0.713710
0.000000 0.250858 0.742702
0.234318 0.249241 0.743740
0.492988 0.242741 0.744594
0.747341 0.233463 0.742306
0.953643 0.269780 0.712825
0.000000 0.503960 0.741787
0.200717 0.501671 0.742000
0.484321 0.502098 0.741512
0.743893 0.505089 0.740688
0.948363 0.519097 0.721462
0.000000 0.761013 0.740414
0.184787 0.759945 0.739223
0.478248 0.758450 0.738064
0.732570 0.750210 0.732784
0.960754 0.797940 0.788815
0.000000 0.960388 0.704433
0.212100 0.959442 0.704860
0.476600 0.956481 0.709804
0.720485 0.949737 0.724819
0.930480 0.943420 0.725948
0.089418 0.103853 0.947997
0.249119 0.101442 0.947814
0.478645 0.089052 0.946715
0.714076 0.076295 0.945220
0.950347 0.109377 0.943450
0.009613 0.249851 0.948425
0.238437 0.249149 0.948241
0.475929 0.247593 0.947112
0.714382 0.251896 0.945800
0.950347 0.271397 0.943786
0.000000 0.484627 0.946990
0.234440 0.486488 0.946990
0.486336 0.497292 0.945922
0.719600 0.504326 0.944793
0.947631 0.514061 0.942535
0.000000 0.724971 0.942657
0.239933 0.726284 0.942901
0.491493 0.730098 0.942473
0.732784 0.742916 0.940398
0.941985 0.747646 0.939239
0.091096 0.960479 0.939300
0.260685 0.960266 0.939605
0.499458 0.957580 0.938933
0.734554 0.953338 0.938689
0.940093 0.947265 0.939849
