data/fiter_cube/15997792/1023466/file.cube
# Created by Adobe Lightroom plugin Export LUT (1.17.0)
# www.johnrellis.com/lightroom/exportlut.htm
# Preset: 日系A通透明亮[云集]-7
# Color profile: C:\Program Files (x86)\Common Files\Adobe\Color\Profiles\Recommended\AdobeRGB1998.icc
LUT_3D_SIZE 32
DOMAIN_MIN 0.0 0.0 0.0
DOMAIN_MAX 1.0 1.0 1.0
0.088136 0.088136 0.088136
0.100282 0.088136 0.088075
0.115145 0.088045 0.088441
0.144472 0.088014 0.088075
0.179385 0.088350 0.087861
0.214633 0.088411 0.087678
0.249699 0.088899 0.087831
0.284550 0.089815 0.087709
0.320073 0.090730 0.088075
0.357092 0.092744 0.088441
0.395727 0.093385 0.089143
0.436072 0.095430 0.089784
0.478279 0.097444 0.090120
0.521324 0.099916 0.090761
0.565148 0.103243 0.091585
0.608026 0.105928 0.092561
0.648707 0.108797 0.093690
0.687098 0.112795 0.096345
0.723354 0.118135 0.099153
0.764401 0.123598 0.103883
0.801450 0.129244 0.109407
0.835447 0.135683 0.115419
0.866545 0.141909 0.121248
0.895232 0.148409 0.127382
0.921996 0.154421 0.133059
0.947204 0.159976 0.139467
0.971374 0.166384 0.145693
0.994629 0.172396 0.152224
1.000000 0.178531 0.159640
1.000000 0.185153 0.166781
1.000000 0.192020 0.174533
1.000000 0.199619 0.182986
0.087861 0.100099 0.088228
0.099611 0.100679 0.088411
0.115114 0.101045 0.088136
0.145052 0.102388 0.087892
0.180301 0.102785 0.087617
0.215488 0.102785 0.087465
0.250584 0.102358 0.087373
0.285252 0.103151 0.088136
0.320592 0.104250 0.088197
0.357397 0.105043 0.088960
0.395972 0.106386 0.088991
0.436347 0.107851 0.089662
0.478157 0.109926 0.090059
0.520928 0.112123 0.090730
0.564538 0.114656 0.091646
0.607233 0.117494 0.092897
0.647639 0.120027 0.094362
0.686000 0.123537 0.096803
0.722652 0.127749 0.099825
0.762844 0.133425 0.103761
0.799527 0.138460 0.109194
0.833310 0.144350 0.114290
0.864256 0.149447 0.120516
0.892973 0.154910 0.126772
0.919860 0.160586 0.132662
0.945251 0.166018 0.138888
0.969635 0.171298 0.145022
0.993011 0.177249 0.151736
1.000000 0.183139 0.158694
1.000000 0.189273 0.166140
1.000000 0.195804 0.173556
1.000000 0.202884 0.182071
0.087190 0.115816 0.088319
0.100404 0.116121 0.087617
0.114961 0.116335 0.087953
0.144625 0.118410 0.087892
0.181338 0.119417 0.087739
0.216922 0.119448 0.087526
0.251682 0.118929 0.087495
0.286259 0.118471 0.088350
0.321630 0.119081 0.088441
0.358312 0.119570 0.089204
0.396979 0.120974 0.089448
0.437324 0.122621 0.089540
0.479042 0.124422 0.089906
0.521843 0.126772 0.091341
0.565270 0.129427 0.091951
0.607813 0.131441 0.093263
0.648310 0.134646 0.094575
0.686305 0.137362 0.096864
0.723445 0.140475 0.100069
0.762966 0.145602 0.104402
0.799161 0.149783 0.109773
0.832792 0.155032 0.114900
0.863645 0.159792 0.120912
0.892302 0.164492 0.126650
0.919158 0.169589 0.132601
0.944488 0.173983 0.139101
0.968933 0.179202 0.145174
0.992370 0.184512 0.151736
1.000000 0.189609 0.158907
1.000000 0.195560 0.165927
1.000000 0.201419 0.173404
1.000000 0.208133 0.182040
0.085969 0.145235 0.087587
0.099580 0.145418 0.087465
0.115389 0.145480 0.087221
0.143191 0.145663 0.087434
0.178561 0.146975 0.087617
0.219730 0.149630 0.086885
0.255314 0.148501 0.087404
0.290074 0.147555 0.087984
0.325292 0.147402 0.088441
0.362127 0.147494 0.088869
0.400763 0.148379 0.089662
0.440955 0.149813 0.089937
0.482521 0.151858 0.090700
0.525078 0.154330 0.091768
0.568383 0.155673 0.092439
0.610681 0.158358 0.093324
0.650629 0.160739 0.095003
0.688350 0.162631 0.097353
0.725856 0.165408 0.100862
0.764065 0.169314 0.105043
0.799435 0.172671 0.109987
0.832334 0.176120 0.115450
0.863035 0.179904 0.121706
0.891844 0.183474 0.127626
0.919036 0.187564 0.133639
0.944762 0.191287 0.139986
0.969360 0.195407 0.146365
0.992889 0.200137 0.153170
1.000000 0.204776 0.160098
1.000000 0.209476 0.167208
1.000000 0.214481 0.174563
1.000000 0.220157 0.182895
0.084352 0.178744 0.087037
0.098238 0.178653 0.087251
0.114046 0.178561 0.087007
0.141421 0.178561 0.087312
0.174807 0.178256 0.087617
0.210117 0.178317 0.087495
0.252689 0.182223 0.088014
0.295048 0.184787 0.088289
0.330449 0.183108 0.088930
0.367407 0.183017 0.089570
0.406012 0.183566 0.089723
0.446235 0.184787 0.090974
0.487709 0.186404 0.091402
0.530236 0.188449 0.092592
0.573541 0.190219 0.093263
0.615473 0.192142 0.094148
0.655268 0.193912 0.096315
0.692622 0.195590 0.098360
0.731197 0.197818 0.102174
0.767910 0.200198 0.106996
0.802243 0.202701 0.111879
0.834440 0.205386 0.117220
0.864591 0.207950 0.123232
0.893034 0.210422 0.129580
0.919951 0.213046 0.135500
0.945556 0.215915 0.141665
0.969970 0.218936 0.148226
0.993286 0.222019 0.154788
1.000000 0.225559 0.161776
1.000000 0.229129 0.168917
1.000000 0.233219 0.176516
1.000000 0.237644 0.184482
0.082795 0.212009 0.086793
0.096315 0.211948 0.087007
0.111910 0.211826 0.087098
0.138888 0.211490 0.087251
0.171481 0.211185 0.087617
0.206271 0.210910 0.087404
0.240452 0.209689 0.088075
0.284459 0.215457 0.088685
0.331823 0.221500 0.089570
0.375860 0.224460 0.089815
0.414740 0.224369 0.091005
0.455116 0.225223 0.091524
0.496376 0.226627 0.092866
0.539178 0.228428 0.092958
0.582055 0.229923 0.094057
0.623499 0.231479 0.095125
0.662470 0.232059 0.097780
0.700374 0.233463 0.100008
0.738735 0.235264 0.104341
0.774289 0.236606 0.109194
0.807675 0.237858 0.114290
0.839139 0.239170 0.120577
0.885801 0.246830 0.132692
0.912535 0.248569 0.139284
0.937499 0.250065 0.146395
0.961089 0.251469 0.152682
0.983551 0.253208 0.159152
1.000000 0.255009 0.165927
1.000000 0.257298 0.172671
1.000000 0.259525 0.179690
1.000000 0.262455 0.187015
1.000000 0.265568 0.194736
0.081209 0.247196 0.086824
0.094697 0.247074 0.087068
0.110597 0.246860 0.087190
0.137392 0.246708 0.087617
0.169741 0.246342 0.087770
0.204288 0.245731 0.087984
0.239445 0.245335 0.088411
0.272190 0.242496 0.089509
0.319585 0.251072 0.089448
0.371038 0.260655 0.091249
0.427741 0.271244 0.091646
0.472602 0.273777 0.092409
0.514458 0.274418 0.093416
0.557183 0.275456 0.094301
0.598901 0.275914 0.095003
0.638300 0.276005 0.097383
0.676081 0.275883 0.099184
0.715785 0.276921 0.103273
0.752621 0.277562 0.108278
0.787289 0.278019 0.113741
0.820584 0.278660 0.119936
0.852384 0.279118 0.127077
0.882567 0.280247 0.134035
0.910826 0.281132 0.141299
0.937072 0.281987 0.148684
0.961212 0.282567 0.155978
0.983795 0.283299 0.162539
1.000000 0.284092 0.169284
1.000000 0.284947 0.175937
1.000000 0.286351 0.182956
1.000000 0.287724 0.189700
1.000000 0.289769 0.197086
0.080262 0.279240 0.088167
0.093050 0.279026 0.088197
0.108278 0.279057 0.088563
0.134737 0.278660 0.088533
0.166537 0.278386 0.088746
0.200565 0.277836 0.089296
0.235203 0.277348 0.090150
0.270115 0.276768 0.091035
0.302922 0.274571 0.092409
0.350744 0.284123 0.092073
0.406012 0.297185 0.093111
0.465766 0.310796 0.094179
0.527703 0.323430 0.095857
0.570275 0.323705 0.095705
0.610956 0.323095 0.097475
0.649592 0.322148 0.099092
0.689021 0.321782 0.102968
0.726986 0.321691 0.106538
0.761440 0.320623 0.111849
0.794247 0.319585 0.118257
0.826078 0.319005 0.124361
0.856718 0.318212 0.131380
0.885832 0.317937 0.138735
0.913207 0.317388 0.146181
0.938811 0.316930 0.152926
0.962493 0.316564 0.160250
0.984680 0.315923 0.166751
1.000000 0.315496 0.173465
1.000000 0.315251 0.180148
1.000000 0.315312 0.186618
1.000000 0.316014 0.193545
1.000000 0.316747 0.200992
0.079988 0.311650 0.090425
0.092744 0.311681 0.090364
0.107515 0.311589 0.090791
0.133059 0.311315 0.090761
0.164462 0.310979 0.091035
0.197604 0.310643 0.091096
0.232151 0.310216 0.091432
0.266575 0.309880 0.092348
0.301701 0.309545 0.092683
0.335210 0.308019 0.094392
0.382513 0.317815 0.093751
0.441352 0.334142 0.094728
0.504387 0.350774 0.096010
0.570977 0.367041 0.097963
0.625849 0.374701 0.100740
0.666163 0.373632 0.103151
0.704677 0.371801 0.107332
0.739864 0.369696 0.111452
0.771939 0.366308 0.118349
0.803220 0.363836 0.124117
0.833555 0.361730 0.130282
0.862821 0.359503 0.137575
0.890837 0.357702 0.144533
0.917205 0.356023 0.152071
0.941955 0.354376 0.159365
0.964935 0.352422 0.166171
0.986603 0.350744 0.172457
1.000000 0.349096 0.178866
1.000000 0.347784 0.185489
1.000000 0.346685 0.192142
1.000000 0.346044 0.198795
1.000000 0.345647 0.205814
0.078859 0.345159 0.091829
0.091859 0.345068 0.091829
0.106081 0.344945 0.091737
0.131930 0.344762 0.091707
0.162905 0.344549 0.091981
0.195956 0.344244 0.092042
0.229801 0.343786 0.092775
0.264225 0.343511 0.093416
0.299199 0.343389 0.093721
0.334356 0.343389 0.094240
0.368261 0.342138 0.095644
0.414252 0.350988 0.095491
0.476295 0.370550 0.095064
0.542107 0.389960 0.096559
0.612451 0.409796 0.100038
0.677760 0.424475 0.107668
0.721736 0.425422 0.113405
0.754574 0.420478 0.118990
0.784939 0.415564 0.125368
0.814176 0.410590 0.132235
0.842679 0.406500 0.138613
0.870146 0.402838 0.145144
0.896269 0.399054 0.152438
0.921233 0.395819 0.159152
0.944823 0.392493 0.165927
0.967071 0.389471 0.172946
0.988251 0.386511 0.179110
1.000000 0.383948 0.185183
1.000000 0.381659 0.191928
1.000000 0.379614 0.198428
1.000000 0.378058 0.205142
1.000000 0.376654 0.212345
0.076326 0.379004 0.092927
0.089387 0.379034 0.092592
0.103853 0.379004 0.093019
0.130007 0.378912 0.092683
0.161074 0.378668 0.093263
0.194034 0.378546 0.093294
0.228153 0.378424 0.093874
0.262486 0.378515 0.094148
0.297551 0.378393 0.094209
0.333074 0.378424 0.094667
0.368383 0.378546 0.095369
0.403235 0.377874 0.095949
0.448066 0.385931 0.095460
0.515770 0.410529 0.094575
0.586145 0.433661 0.096345
0.652583 0.451728 0.102266
0.713619 0.464576 0.113283
0.767666 0.472877 0.128054
0.796780 0.465675 0.134646
0.824521 0.458869 0.140536
0.851530 0.452766 0.147372
0.877653 0.447150 0.154391
0.902800 0.442267 0.161227
0.926665 0.437385 0.168338
0.949371 0.432959 0.174807
0.970794 0.428412 0.181155
0.991058 0.424201 0.187747
1.000000 0.420325 0.193606
1.000000 0.416754 0.200107
1.000000 0.413611 0.206363
1.000000 0.410773 0.212528
1.000000 0.408515 0.219883
0.073365 0.414466 0.093721
0.087068 0.414435 0.093172
0.102571 0.414374 0.093294
0.127596 0.414343 0.093782
0.158968 0.414343 0.093996
0.192660 0.414221 0.093782
0.226749 0.414252 0.094301
0.261631 0.414282 0.094057
0.296788 0.414496 0.094484
0.332403 0.414618 0.094362
0.369360 0.416175 0.094697
0.407233 0.418463 0.094697
0.455818 0.430274 0.094026
0.497932 0.434699 0.093477
0.570947 0.463111 0.091768
0.640497 0.485481 0.096345
0.703700 0.501457 0.108583
0.759731 0.511650 0.124666
0.809110 0.517510 0.143526
0.848539 0.517662 0.159213
0.872740 0.508446 0.165682
0.896086 0.500175 0.172549
0.918578 0.492439 0.178347
0.940185 0.485359 0.184817
0.960754 0.478645 0.191318
0.980438 0.472480 0.197147
0.999207 0.466560 0.202762
1.000000 0.461067 0.208591
1.000000 0.455970 0.214176
1.000000 0.451392 0.219944
1.000000 0.447333 0.225864
1.000000 0.443610 0.232517
0.065949 0.454994 0.092714
0.080690 0.454932 0.092714
0.097322 0.454658 0.092714
0.125246 0.454322 0.092775
0.157595 0.453956 0.092653
0.191379 0.453529 0.092866
0.226352 0.453223 0.092470
0.261448 0.453162 0.093294
0.298436 0.454994 0.092653
0.336126 0.457618 0.092470
0.374640 0.460517 0.092470
0.414099 0.463539 0.091829
0.453956 0.466712 0.091676
0.493935 0.469337 0.091005
0.532219 0.470039 0.091066
0.603510 0.497871 0.090120
0.670741 0.519341 0.096651
0.730556 0.533867 0.112917
0.783505 0.543023 0.131533
0.831113 0.548760 0.151369
0.873686 0.552026 0.172213
0.902983 0.546899 0.185092
0.924315 0.537438 0.191196
0.944915 0.528618 0.197208
0.964599 0.520409 0.203281
0.983459 0.512688 0.208530
1.000000 0.505516 0.214054
1.000000 0.498878 0.219211
1.000000 0.492561 0.224369
1.000000 0.486854 0.230137
1.000000 0.481666 0.235660
1.000000 0.476967 0.242161
0.052613 0.491676 0.091096
0.073182 0.491676 0.091066
0.091524 0.491676 0.091188
0.120851 0.491920 0.090913
0.154238 0.492195 0.090944
0.189975 0.492805 0.090486
0.225986 0.493599 0.090425
0.262211 0.494667 0.090486
0.299290 0.496010 0.090517
0.337011 0.497963 0.090059
0.375494 0.500175 0.089479
0.414588 0.502800 0.089235
0.454108 0.505333 0.088472
0.493660 0.507530 0.087709
0.532891 0.509148 0.086610
0.569421 0.508141 0.086610
0.632685 0.529534 0.088838
0.697017 0.549889 0.097902
0.754421 0.563561 0.116762
0.805844 0.572595 0.137667
0.851957 0.578210 0.159304
0.892882 0.581231 0.181827
0.929046 0.582330 0.204562
0.950317 0.573205 0.211978
0.969207 0.563500 0.217105
0.987213 0.554284 0.222263
1.000000 0.545678 0.227451
1.000000 0.537682 0.232151
1.000000 0.530236 0.237003
1.000000 0.523308 0.242069
1.000000 0.517144 0.248081
1.000000 0.511406 0.254063
0.022644 0.535424 0.086641
0.061372 0.535515 0.087129
0.083131 0.535393 0.086763
0.115175 0.535363 0.086946
0.151522 0.535088 0.087007
0.187869 0.535058 0.086915
0.224674 0.535119 0.086732
0.261723 0.535576 0.086244
0.299168 0.536461 0.085939
0.337194 0.537804 0.085725
0.375341 0.539574 0.085328
0.414313 0.541588 0.084169
0.453376 0.543572 0.084047
0.492439 0.545190 0.083650
0.531151 0.546197 0.082704
0.569146 0.546380 0.082399
0.603998 0.543847 0.083711
0.659205 0.559014 0.087037
0.721614 0.578607 0.099245
0.777615 0.592157 0.120058
0.827481 0.601007 0.143404
0.871855 0.606317 0.167422
0.910979 0.608911 0.190585
0.945586 0.609644 0.214084
0.973785 0.607050 0.233433
0.991150 0.596582 0.238315
1.000000 0.586755 0.243107
1.000000 0.577600 0.248203
1.000000 0.569146 0.252873
1.000000 0.561364 0.257939
1.000000 0.554162 0.263737
1.000000 0.547448 0.269718
0.000000 0.576593 0.082734
0.030884 0.576776 0.082490
0.071687 0.576715 0.082368
0.108980 0.576623 0.082277
0.146426 0.576440 0.082918
0.185397 0.576257 0.081941
0.222873 0.576379 0.082002
0.260685 0.576745 0.081758
0.298680 0.577264 0.081910
0.336675 0.577935 0.081575
0.374853 0.578820 0.080873
0.413245 0.579767 0.080568
0.451484 0.580529 0.079988
0.489509 0.581079 0.080079
0.527489 0.581079 0.079530
0.564874 0.580804 0.078859
0.601770 0.580194 0.078126
0.635798 0.577142 0.080690
0.684382 0.586908 0.086000
0.745846 0.606744 0.101564
0.800809 0.620294 0.122805
0.849363 0.628992 0.149508
0.892149 0.633936 0.175113
0.929686 0.636225 0.200473
0.962554 0.636561 0.224918
0.991241 0.635523 0.249180
1.000000 0.629053 0.262699
1.000000 0.618647 0.267002
1.000000 0.608820 0.271550
1.000000 0.599695 0.276005
1.000000 0.591089 0.280491
1.000000 0.583246 0.285954
0.000000 0.613733 0.079591
0.000000 0.613703 0.079225
0.055177 0.613550 0.079500
0.101076 0.613336 0.079194
0.141512 0.613092 0.079255
0.180819 0.612879 0.079316
0.219699 0.612665 0.078340
0.257603 0.612696 0.078431
0.295811 0.612818 0.078004
0.333623 0.613214 0.078248
0.371740 0.613794 0.077852
0.409766 0.614405 0.077272
0.447700 0.614893 0.077302
0.485451 0.615106 0.077516
0.522972 0.614954 0.076661
0.559777 0.614282 0.076356
0.596399 0.613306 0.076875
0.632685 0.612390 0.075959
0.666926 0.609583 0.078126
0.709010 0.614191 0.083070
0.769223 0.633753 0.102419
0.822660 0.646876 0.125490
0.869474 0.655085 0.154513
0.910643 0.659632 0.181735
0.946593 0.661433 0.209079
0.977905 0.661341 0.234745
1.000000 0.659937 0.259617
1.000000 0.657710 0.283665
1.000000 0.648249 0.291173
1.000000 0.637995 0.295048
1.000000 0.628290 0.299107
1.000000 0.619196 0.304143
0.000000 0.648951 0.076570
0.000000 0.649195 0.076265
0.029450 0.659815 0.077058
0.094240 0.659510 0.077516
0.138125 0.659083 0.077119
0.179599 0.658381 0.076600
0.218967 0.657771 0.077333
0.257939 0.657130 0.076753
0.296452 0.656703 0.076539
0.334783 0.656489 0.076631
0.372961 0.656336 0.076905
0.410986 0.656214 0.076356
0.448707 0.655787 0.077058
0.486336 0.655207 0.076112
0.523339 0.654353 0.076753
0.560052 0.653162 0.076051
0.596399 0.651820 0.075471
0.632319 0.650263 0.075410
0.668055 0.648737 0.075288
0.702541 0.646296 0.075746
0.738125 0.645167 0.080262
0.796445 0.663722 0.105348
0.847684 0.675807 0.131991
0.892241 0.682887 0.161624
0.930907 0.686244 0.191501
0.964446 0.687037 0.219181
0.993530 0.685939 0.245670
1.000000 0.683711 0.271031
1.000000 0.680720 0.295476
1.000000 0.676265 0.316258
1.000000 0.665370 0.319585
1.000000 0.655177 0.323980
0.000000 0.685145 0.075380
0.000000 0.686488 0.075776
0.000000 0.687831 0.075044
0.085451 0.688808 0.075471
0.132265 0.689357 0.075654
0.173709 0.689296 0.076570
0.214115 0.688869 0.075837
0.253056 0.688258 0.075990
0.291783 0.687861 0.075532
0.329686 0.687495 0.075624
0.367712 0.687221 0.075502
0.405463 0.686915 0.074983
0.442847 0.686427 0.075288
0.479988 0.685695 0.074769
0.516686 0.684749 0.075166
0.553033 0.683528 0.074800
0.589075 0.682063 0.074311
0.624781 0.680568 0.073823
0.660304 0.679103 0.074311
0.695888 0.677760 0.073426
0.731136 0.676295 0.074098
0.763180 0.672389 0.076326
0.818479 0.689082 0.105501
0.868101 0.700557 0.135409
0.911009 0.706996 0.166842
0.948119 0.709834 0.198062
0.980163 0.710140 0.226993
1.000000 0.708644 0.255009
1.000000 0.706020 0.281865
1.000000 0.702541 0.307103
1.000000 0.698634 0.331792
1.000000 0.691249 0.346044
0.000000 0.716091 0.073304
0.000000 0.717250 0.073915
0.000000 0.718441 0.074342
0.075654 0.719356 0.075196
0.126162 0.719844 0.074372
0.168643 0.719753 0.075105
0.209323 0.719326 0.075166
0.248478 0.718776 0.074311
0.286809 0.718349 0.074678
0.324895 0.717922 0.074311
0.362646 0.717647 0.074342
0.399969 0.717342 0.075105
0.437293 0.716670 0.074037
0.474098 0.715969 0.074800
0.510552 0.714931 0.074128
0.546624 0.713680 0.074098
0.582361 0.712245 0.073915
0.617914 0.710750 0.073732
0.653315 0.709285 0.072755
0.688655 0.707973 0.072145
0.723842 0.706844 0.073426
0.759457 0.706172 0.072694
0.791684 0.702632 0.076204
0.840848 0.714443 0.105379
0.888548 0.725032 0.139315
0.929747 0.730648 0.171298
0.965087 0.732815 0.204379
0.995514 0.732509 0.235264
1.000000 0.730495 0.264744
1.000000 0.727260 0.292454
1.000000 0.723110 0.318486
1.000000 0.718593 0.344335
0.000000 0.746242 0.072786
0.000000 0.747311 0.073793
0.000000 0.748440 0.073915
0.065309 0.749233 0.073762
0.119692 0.749630 0.074189
0.163485 0.749538 0.074983
0.204410 0.749081 0.074800
0.243778 0.748592 0.073671
0.282078 0.748013 0.074708
0.319982 0.747524 0.073854
0.357366 0.747127 0.074250
0.394629 0.746609 0.074006
0.431434 0.745998 0.073518
0.468055 0.745266 0.074189
0.504417 0.744350 0.073945
0.540398 0.743404 0.074128
0.576379 0.742428 0.074525
0.612146 0.741543 0.073732
0.647883 0.740688 0.074495
0.683589 0.740078 0.074525
0.719356 0.739498 0.075349
0.755093 0.739040 0.076539
0.791104 0.738979 0.076936
0.823850 0.736019 0.080781
0.867308 0.743099 0.109926
0.912902 0.752560 0.147951
0.951995 0.757137 0.182742
0.985290 0.758328 0.217136
1.000000 0.757168 0.249973
1.000000 0.754238 0.280827
1.000000 0.750027 0.309819
1.000000 0.745357 0.337377
0.000000 0.780087 0.074372
0.000000 0.780514 0.074769
0.000000 0.780911 0.075502
0.052186 0.781033 0.075868
0.114565 0.780941 0.075196
0.159609 0.780575 0.075685
0.200565 0.780117 0.075624
0.239902 0.779690 0.075563
0.278630 0.779324 0.075349
0.316350 0.778958 0.075502
0.353765 0.778683 0.076478
0.390936 0.778317 0.076509
0.427741 0.777737 0.076143
0.464210 0.776974 0.076295
0.500206 0.775998 0.076722
0.536065 0.774929 0.077180
0.571740 0.773892 0.077241
0.607355 0.772824 0.076600
0.642664 0.771817 0.077821
0.677974 0.770840 0.077607
0.713222 0.769955 0.078462
0.748226 0.769070 0.079652
0.783169 0.768154 0.080720
0.818509 0.767697 0.081239
0.851255 0.765103 0.084077
0.889372 0.767849 0.109712
0.933013 0.776242 0.152377
0.970245 0.779965 0.189639
1.000000 0.780270 0.224765
1.000000 0.778195 0.259434
1.000000 0.774502 0.291020
1.000000 0.770108 0.320897
0.000000 0.808652 0.076173
0.000000 0.809110 0.076204
0.000000 0.809476 0.076844
0.030182 0.809628 0.077211
0.108278 0.809537 0.076631
0.154269 0.809140 0.077211
0.196109 0.808621 0.076997
0.235203 0.808103 0.077180
0.273747 0.807584 0.076997
0.311498 0.807156 0.077668
0.348821 0.806790 0.077882
0.385657 0.806332 0.077577
0.422065 0.805783 0.077729
0.458381 0.805051 0.078004
0.494240 0.804227 0.078401
0.529961 0.803311 0.078584
0.565423 0.802396 0.079713
0.600855 0.801511 0.079103
0.636011 0.800656 0.080354
0.671260 0.799863 0.081636
0.706355 0.799069 0.082887
0.741390 0.798398 0.084199
0.776272 0.797696 0.086061
0.810941 0.796963 0.086976
0.843412 0.794095 0.085725
0.876829 0.792447 0.086641
0.910613 0.791623 0.108888
0.952392 0.798978 0.155489
0.987732 0.801724 0.195254
1.000000 0.801175 0.231937
1.000000 0.798550 0.267521
1.000000 0.794797 0.299901
0.000000 0.839902 0.082155
0.000000 0.840360 0.082429
0.000000 0.840635 0.082216
0.014984 0.840574 0.082826
0.104677 0.840269 0.082643
0.151278 0.839719 0.082795
0.192935 0.838956 0.082094
0.232395 0.838102 0.081544
0.270634 0.837247 0.081605
0.307958 0.836423 0.080751
0.344732 0.835599 0.081453
0.381018 0.834775 0.081788
0.417151 0.833951 0.081849
0.452888 0.832914 0.082155
0.488228 0.831724 0.081788
0.523461 0.830350 0.081575
0.558373 0.829068 0.081880
0.593256 0.827878 0.082033
0.628107 0.826993 0.082643
0.663050 0.826261 0.083803
0.697963 0.825711 0.085298
0.732753 0.825101 0.087892
0.767269 0.824338 0.089448
0.801480 0.823392 0.091249
0.835294 0.822232 0.092531
0.869108 0.821164 0.094362
0.903502 0.820584 0.094545
0.933288 0.816526 0.110445
0.972656 0.822477 0.160830
1.000000 0.824033 0.202640
1.000000 0.822751 0.240177
1.000000 0.819821 0.275883
0.000000 0.866270 0.084688
0.000000 0.866728 0.085542
0.000000 0.866972 0.086244
0.000000 0.866941 0.086244
0.100069 0.866606 0.086397
0.147219 0.866148 0.086244
0.189059 0.865537 0.086366
0.228458 0.864836 0.085451
0.266545 0.864164 0.085725
0.303685 0.863523 0.086244
0.340276 0.862852 0.086244
0.376654 0.862242 0.086397
0.412604 0.861540 0.086732
0.448188 0.860716 0.086641
0.483406 0.859709 0.087922
0.518425 0.858579 0.087343
0.553246 0.857420 0.087953
0.587884 0.856382 0.088685
0.622553 0.855497 0.089418
0.657221 0.854765 0.091524
0.691829 0.854124 0.093141
0.726345 0.853452 0.095491
0.760678 0.852720 0.097383
0.794644 0.851835 0.099397
0.828397 0.850797 0.101778
0.861753 0.849577 0.103456
0.895018 0.848295 0.105989
0.930571 0.849271 0.106355
0.957855 0.843259 0.116182
0.993957 0.847196 0.168795
1.000000 0.847776 0.213077
1.000000 0.845884 0.251377
0.000000 0.893187 0.091829
0.000000 0.893462 0.092561
0.000000 0.893553 0.092348
0.000000 0.893370 0.091737
0.096223 0.892912 0.092378
0.144533 0.892363 0.091310
0.186007 0.891691 0.091279
0.225284 0.890959 0.090852
0.262882 0.890288 0.090913
0.299748 0.889677 0.090974
0.336187 0.889036 0.091310
0.372137 0.888548 0.092348
0.407843 0.887938 0.092622
0.443214 0.887205 0.093385
0.478218 0.886259 0.093843
0.512871 0.885222 0.093965
0.547417 0.884092 0.094423
0.581842 0.882994 0.095583
0.616175 0.882078 0.096254
0.650507 0.881376 0.098390
0.684840 0.880674 0.099886
0.719051 0.880034 0.102022
0.753017 0.879301 0.105348
0.786740 0.878477 0.107362
0.820249 0.877470 0.109957
0.853513 0.876310 0.112428
0.886656 0.875120 0.114870
0.919432 0.873838 0.117403
0.955749 0.876066 0.117556
0.982361 0.870176 0.129274
1.000000 0.871000 0.174746
1.000000 0.870787 0.220249
0.000000 0.918425 0.098238
0.000000 0.918578 0.098299
0.000000 0.918639 0.098634
0.000000 0.918517 0.098054
0.094148 0.918303 0.098146
0.142885 0.918029 0.098604
0.184207 0.917937 0.099245
0.223453 0.917876 0.099825
0.261295 0.917906 0.101045
0.298253 0.918059 0.102632
0.334752 0.918120 0.104250
0.370855 0.918181 0.105409
0.406500 0.918090 0.107210
0.441901 0.917784 0.108766
0.476905 0.917174 0.109743
0.511467 0.916320 0.110811
0.545830 0.915312 0.111788
0.580072 0.914275 0.112764
0.614221 0.913359 0.114260
0.648341 0.912566 0.116182
0.682338 0.911803 0.118227
0.716274 0.911040 0.121187
0.749935 0.910155 0.123201
0.783413 0.909209 0.126040
0.816709 0.908110 0.129458
0.849882 0.906889 0.132021
0.882933 0.905608 0.134371
0.915679 0.904326 0.137758
0.947997 0.903105 0.141543
0.984741 0.906401 0.142885
1.000000 0.900298 0.155856
1.000000 0.898100 0.191989
0.000000 0.947112 0.112581
0.000000 0.947204 0.113130
0.000000 0.947112 0.112703
0.021637 0.946899 0.112551
0.102022 0.946532 0.112367
0.146212 0.946105 0.112337
0.186038 0.945739 0.112367
0.223728 0.945342 0.112856
0.260624 0.945006 0.113313
0.297032 0.944671 0.114412
0.332647 0.944305 0.115175
0.368078 0.943969 0.115908
0.403021 0.943450 0.117220
0.437781 0.942840 0.118044
