data/fiter_cube/15997792/1023466/file.cube
# Created by Adobe Lightroom plugin Export LUT (1.17.0)
# www.johnrellis.com/lightroom/exportlut.htm
# Preset: 日系A通透明亮[云集]-7
# Color profile: C:\Program Files (x86)\Common Files\Adobe\Color\Profiles\Recommended\AdobeRGB1998.icc
LUT_3D_SIZE 8
DOMAIN_MIN 0.000000 0.000000 0.000000
DOMAIN_MAX 0.903226 0.903226 0.903226
0.088136 0.088136 0.088136
0.179385 0.088350 0.087861
0.320073 0.090730 0.088075
0.478279 0.097444 0.090120
0.648707 0.108797 0.093690
0.801450 0.129244 0.109407
0.921996 0.154421 0.133059
1.000000 0.178531 0.159640
0.084352 0.178744 0.087037
0.174807 0.178256 0.087617
0.330449 0.183108 0.088930
0.487709 0.186404 0.091402
0.655268 0.193912 0.096315
0.802243 0.202701 0.111879
0.919951 0.213046 0.135500
1.000000 0.225559 0.161776
0.079988 0.311650 0.090425
0.164462 0.310979 0.091035
0.301701 0.309545 0.092683
0.504387 0.350774 0.096010
0.704677 0.371801 0.107332
0.833555 0.361730 0.130282
0.941955 0.354376 0.159365
1.000000 0.347784 0.185489
0.065949 0.454994 0.092714
0.157595 0.453956 0.092653
0.298436 0.454994 0.092653
0.453956 0.466712 0.091676
0.670741 0.519341 0.096651
0.873686 0.552026 0.172213
0.964599 0.520409 0.203281
1.000000 0.492561 0.224369
0.000000 0.613733 0.079591
0.141512 0.613092 0.079255
0.295811 0.612818 0.078004
0.447700 0.614893 0.077302
0.596399 0.613306 0.076875
0.769223 0.633753 0.102419
0.946593 0.661433 0.209079
1.000000 0.648249 0.291173
0.000000 0.746242 0.072786
0.119692 0.749630 0.074189
0.282078 0.748013 0.074708
0.431434 0.745998 0.073518
0.576379 0.742428 0.074525
0.719356 0.739498 0.075349
0.867308 0.743099 0.109926
1.000000 0.757168 0.249973
0.000000 0.866270 0.084688
0.100069 0.866606 0.086397
0.266545 0.864164 0.085725
0.412604 0.861540 0.086732
0.553246 0.857420 0.087953
0.691829 0.854124 0.093141
0.828397 0.850797 0.101778
0.957855 0.843259 0.116182
0.000000 0.970886 0.121859
0.105165 0.970397 0.122255
0.259739 0.969207 0.124239
0.400275 0.968170 0.129183
0.532280 0.960845 0.123537
0.666590 0.958404 0.134401
0.799863 0.955627 0.149386
0.931090 0.950103 0.163882
0.086702 0.087617 0.172244
0.173831 0.085908 0.172671
0.301640 0.101900 0.168582
0.450538 0.113039 0.173861
0.623468 0.115358 0.176303
0.779202 0.132448 0.183200
0.905333 0.156497 0.194308
1.000000 0.181155 0.208469
0.083131 0.175814 0.172457
0.171969 0.176516 0.172061
0.307744 0.182193 0.175967
0.463844 0.187106 0.177890
0.634211 0.192355 0.179477
0.784512 0.202121 0.186099
0.905516 0.213291 0.196139
1.000000 0.226169 0.209934
0.086244 0.308019 0.168521
0.164309 0.308690 0.168124
0.299321 0.308232 0.167575
0.499336 0.349767 0.188907
0.682063 0.362341 0.194705
0.814145 0.355566 0.202060
0.924498 0.350164 0.214450
1.000000 0.346899 0.229526
0.067628 0.449500 0.166720
0.151705 0.450111 0.162387
0.294835 0.452613 0.162173
0.443824 0.456916 0.161929
0.654932 0.506950 0.177401
0.857176 0.544030 0.239170
0.948211 0.513939 0.251072
1.000000 0.491218 0.264866
0.000000 0.610895 0.156954
0.127779 0.609766 0.153109
0.288975 0.608118 0.152071
0.439918 0.606806 0.151217
0.586694 0.603784 0.149325
0.762600 0.628077 0.169223
0.941192 0.660121 0.262730
1.000000 0.649042 0.331273
0.000000 0.741360 0.146242
0.100374 0.741207 0.146487
0.273838 0.739986 0.145815
0.424994 0.739315 0.146059
0.571374 0.737575 0.146578
0.716304 0.736599 0.147372
0.865507 0.741482 0.170932
1.000000 0.757076 0.292332
0.000000 0.860136 0.148775
0.076783 0.858824 0.148104
0.258854 0.857328 0.147768
0.407568 0.856413 0.149142
0.549767 0.853849 0.150851
0.688228 0.850370 0.153017
0.823667 0.846128 0.156435
0.952941 0.838560 0.163516
0.000000 0.967712 0.169833
0.094545 0.967681 0.170535
0.256229 0.966827 0.172335
0.398108 0.966064 0.176516
0.534447 0.963378 0.180240
0.667414 0.959258 0.184756
0.799100 0.954681 0.192203
0.929503 0.948394 0.201419
0.086122 0.087770 0.297490
0.165194 0.089693 0.298039
0.300877 0.098573 0.298741
0.440803 0.106935 0.298070
0.592889 0.089631 0.296849
0.743862 0.097963 0.297093
0.884916 0.149874 0.310185
0.996124 0.192935 0.320958
0.092103 0.172030 0.298192
0.165652 0.171908 0.298528
0.299687 0.173037 0.298100
0.438025 0.175723 0.296056
0.592157 0.165560 0.294224
0.749874 0.181186 0.302007
0.886870 0.209842 0.313390
0.996551 0.237858 0.324071
0.088502 0.306279 0.298222
0.163241 0.307164 0.298253
0.294560 0.305516 0.294743
0.456245 0.319921 0.307622
0.636194 0.333318 0.317906
0.782925 0.342321 0.326268
0.904509 0.350347 0.334813
1.000000 0.357244 0.343389
0.050721 0.450355 0.297276
0.145052 0.452216 0.296117
0.283604 0.456886 0.287419
0.444678 0.459846 0.287572
0.669306 0.518212 0.334783
0.830961 0.536370 0.377142
0.931609 0.520348 0.381384
1.000000 0.505943 0.384863
0.000000 0.609064 0.297276
0.108034 0.609918 0.293004
0.269596 0.611139 0.279210
0.434852 0.610620 0.278996
0.589197 0.607965 0.278141
0.773281 0.637049 0.312047
0.941802 0.678523 0.421302
1.000000 0.664820 0.453620
0.000000 0.740414 0.286870
0.071626 0.740780 0.283146
0.257023 0.740200 0.273472
0.416571 0.738064 0.273289
0.566369 0.735500 0.273045
0.712947 0.733852 0.274144
0.868315 0.744442 0.302953
1.000000 0.769070 0.428229
0.000000 0.860990 0.281041
0.038331 0.860319 0.278386
0.249668 0.858274 0.273808
0.402411 0.855833 0.273808
0.546349 0.852689 0.273838
0.686885 0.849912 0.275975
0.825040 0.847562 0.280125
0.958007 0.843503 0.293553
0.000000 0.967376 0.282322
0.076631 0.966644 0.281865
0.254459 0.965148 0.285069
0.398779 0.965301 0.289860
0.534630 0.962402 0.292088
0.668086 0.958862 0.295476
0.800046 0.954742 0.301427
0.930571 0.949126 0.308354
0.086946 0.090944 0.431922
0.164004 0.093294 0.433631
0.296941 0.096345 0.434546
0.438605 0.091981 0.435401
0.590570 0.070436 0.439246
0.732784 0.068025 0.434607
0.858366 0.106691 0.427680
0.970062 0.160891 0.426978
0.079591 0.168917 0.436225
0.160464 0.168856 0.436255
0.295872 0.167330 0.436164
0.439277 0.162264 0.436408
0.591638 0.154879 0.438941
0.731075 0.157412 0.432929
0.856138 0.176486 0.427192
0.968536 0.212314 0.428504
0.061738 0.303960 0.435279
0.146395 0.302556 0.435706
0.282383 0.295201 0.435767
0.439246 0.294041 0.437476
0.593347 0.298344 0.437629
0.733120 0.306493 0.435615
0.861326 0.324895 0.440620
0.979797 0.354772 0.455665
0.000000 0.451545 0.439002
0.131289 0.452552 0.439307
0.277379 0.454627 0.439857
0.435615 0.453559 0.435950
0.620691 0.483619 0.466316
0.766812 0.498421 0.482094
0.890990 0.510399 0.495949
0.991913 0.515984 0.504021
0.000000 0.609735 0.443030
0.080659 0.609247 0.440864
0.260563 0.609522 0.434485
0.424231 0.610315 0.427924
0.587366 0.607813 0.427405
0.784726 0.658534 0.502586
0.926818 0.701076 0.584222
1.000000 0.680232 0.576471
0.000000 0.742031 0.430457
0.031373 0.744747 0.430793
0.253025 0.743130 0.424781
0.413794 0.741329 0.421668
0.566979 0.738521 0.421363
0.713680 0.735225 0.421271
0.876493 0.757046 0.472602
1.000000 0.796994 0.601099
0.000000 0.859739 0.417975
0.001617 0.860044 0.417456
0.248905 0.859831 0.415778
0.406622 0.858366 0.418799
0.550164 0.855283 0.418555
0.689631 0.851652 0.419043
0.825864 0.847929 0.420874
0.960815 0.848844 0.448585
0.000000 0.967987 0.412696
0.086458 0.967926 0.413092
0.257908 0.966644 0.415045
0.409308 0.964172 0.425544
0.541161 0.961242 0.426520
0.672145 0.957794 0.428656
0.802579 0.953948 0.433387
0.931548 0.949065 0.439490
0.083986 0.093050 0.577935
0.162081 0.093324 0.578820
0.296391 0.090242 0.578943
0.438209 0.076387 0.579675
0.589715 0.000000 0.585260
0.726986 0.000000 0.575494
0.852110 0.083314 0.563195
0.965209 0.146700 0.553979
0.061585 0.165530 0.579828
0.153719 0.165133 0.581048
0.293034 0.161379 0.580926
0.436530 0.152804 0.579950
0.589715 0.137057 0.585595
0.726680 0.142397 0.574914
0.851774 0.164340 0.563226
0.964477 0.202426 0.555016
0.000000 0.298253 0.581018
0.110933 0.294957 0.581506
0.273259 0.288273 0.581628
0.431952 0.285954 0.584131
0.587762 0.281315 0.584344
0.722133 0.289372 0.570947
0.847959 0.304112 0.563226
0.960418 0.324437 0.559014
0.000000 0.449165 0.583520
0.086641 0.448157 0.583581
0.260472 0.445167 0.584588
0.421149 0.440192 0.584497
0.585077 0.439734 0.583001
0.718898 0.449592 0.573663
0.844053 0.459297 0.573144
0.956939 0.467811 0.573877
0.000000 0.601129 0.583948
0.000000 0.601678 0.584222
0.251102 0.602289 0.583612
0.417273 0.602167 0.582116
0.575158 0.595636 0.575372
0.746365 0.633631 0.617609
0.873136 0.647822 0.634516
0.975647 0.653040 0.642512
0.000000 0.733700 0.568536
0.000000 0.733577 0.567651
0.240055 0.732052 0.564263
0.404059 0.730129 0.561883
0.558648 0.727138 0.561883
0.707118 0.727626 0.564233
0.885313 0.780392 0.652064
0.994293 0.821653 0.734463
0.000000 0.855680 0.553979
0.000000 0.855131 0.553033
0.241154 0.853910 0.551507
0.402258 0.852445 0.553307
0.551843 0.850095 0.558099
0.689174 0.847318 0.558068
0.823270 0.843870 0.557977
0.962158 0.856718 0.607691
0.000000 0.963226 0.540063
0.048615 0.962799 0.539940
0.249210 0.961456 0.540520
0.406409 0.961486 0.548974
0.550011 0.957824 0.559503
0.676814 0.954528 0.560204
0.804166 0.950927 0.562463
0.930541 0.946410 0.566064
0.080171 0.094453 0.713405
0.158907 0.094301 0.713558
0.291234 0.089265 0.712306
0.432105 0.075013 0.714931
0.576379 0.013001 0.716976
0.721706 0.000000 0.716304
0.846983 0.028290 0.699519
0.960113 0.128450 0.683101
0.050233 0.162631 0.711086
0.148318 0.161563 0.710964
0.285679 0.157748 0.710597
0.428779 0.150454 0.713588
0.573541 0.137148 0.714748
0.719661 0.119265 0.714412
0.845365 0.145205 0.698146
0.958862 0.186282 0.682734
0.000000 0.286351 0.715480
0.090578 0.285924 0.715572
0.268956 0.284520 0.716060
0.421851 0.282078 0.716640
0.570825 0.278325 0.715724
0.719173 0.274937 0.714443
0.844053 0.291966 0.697993
0.957061 0.315312 0.685145
0.000000 0.438422 0.717556
0.035584 0.436805 0.717037
0.252750 0.433173 0.717189
0.415167 0.432990 0.719112
0.570886 0.434455 0.718624
0.720180 0.436347 0.716640
0.842802 0.448829 0.701869
0.954772 0.459693 0.692714
0.000000 0.584222 0.713039
0.000000 0.584039 0.713161
0.244419 0.583124 0.713313
0.409644 0.583307 0.713161
0.564965 0.583276 0.711208
0.711116 0.582391 0.709346
0.834531 0.588708 0.701564
0.947662 0.594507 0.699977
0.000000 0.728908 0.708919
0.000000 0.730037 0.709773
0.234928 0.730312 0.709743
0.404730 0.729702 0.709071
0.557733 0.726741 0.706783
0.702846 0.721279 0.703090
0.862425 0.765103 0.752590
0.964538 0.773404 0.764065
0.000000 0.854520 0.692653
0.000000 0.854887 0.692958
0.243503 0.853727 0.692226
0.404273 0.851560 0.692195
0.552178 0.848295 0.692927
0.693477 0.844358 0.696193
0.823850 0.841825 0.695613
0.968750 0.882048 0.778683
0.000000 0.961273 0.671748
0.047852 0.960754 0.671565
0.250553 0.959289 0.671778
0.402106 0.957733 0.674647
0.546502 0.954742 0.680201
0.685756 0.950713 0.691005
0.808804 0.947997 0.692958
0.930785 0.944335 0.695094
0.077699 0.095125 0.831662
0.154696 0.094087 0.831479
0.283879 0.089845 0.832212
0.419806 0.076814 0.832914
0.557366 0.033661 0.832273
0.696498 0.000000 0.831479
0.836973 0.000000 0.830747
0.952514 0.094728 0.810636
0.050202 0.160800 0.834195
0.145968 0.159792 0.833921
0.280461 0.156588 0.834165
0.418097 0.149935 0.834257
0.557366 0.140017 0.834012
0.697963 0.129305 0.833646
0.839078 0.123690 0.833066
0.954314 0.174350 0.812833
0.000000 0.280034 0.834043
0.100923 0.279545 0.834073
0.264530 0.278691 0.834318
0.410346 0.276646 0.834104
0.553826 0.274846 0.833951
0.696345 0.274052 0.833219
0.837369 0.275395 0.831815
0.951537 0.301335 0.811612
0.000000 0.420020 0.832975
0.000000 0.419074 0.833005
0.248203 0.418189 0.833524
0.403357 0.418585 0.832822
0.550561 0.419989 0.832242
0.693904 0.422309 0.831052
0.833951 0.425513 0.829313
0.947997 0.440131 0.811551
0.000000 0.565515 0.832181
0.000000 0.565545 0.832547
0.244999 0.565393 0.833066
0.405035 0.566583 0.832700
0.555413 0.570642 0.831846
0.695552 0.571801 0.830869
0.832975 0.573297 0.829587
0.944762 0.581811 0.814725
0.000000 0.708492 0.830259
0.000000 0.708400 0.830289
0.240635 0.708278 0.830259
0.401495 0.708125 0.829740
0.550866 0.708003 0.829007
0.694850 0.709804 0.826932
0.827420 0.709743 0.825711
0.939574 0.716274 0.819669
0.000000 0.848173 0.826749
0.000000 0.847898 0.826535
0.235538 0.847623 0.826413
0.397009 0.846677 0.826108
0.548119 0.845487 0.826200
0.691279 0.842985 0.825681
0.822568 0.837003 0.822782
0.955718 0.876005 0.867704
0.000000 0.960021 0.804623
0.084779 0.959808 0.804654
0.257023 0.957763 0.803708
0.404150 0.955718 0.804166
0.549126 0.953063 0.806699
0.687495 0.949340 0.811246
0.817441 0.945037 0.819272
0.932250 0.942992 0.821500
0.089418 0.103853 0.947997
0.157656 0.102907 0.947723
0.280980 0.100618 0.947784
0.412207 0.094026 0.947112
0.545617 0.084718 0.946380
0.680385 0.076326 0.945525
0.815335 0.080934 0.944274
0.950347 0.109377 0.943450
0.077882 0.164157 0.948608
0.152346 0.163424 0.948333
0.278416 0.161685 0.948272
0.411017 0.158541 0.947753
0.545342 0.154757 0.946990
0.680629 0.153811 0.946105
0.816037 0.159762 0.945037
0.951049 0.178378 0.944213
0.000000 0.281773 0.948699
0.131777 0.281590 0.948547
0.270909 0.281651 0.948669
0.407111 0.280827 0.947448
0.543999 0.281682 0.946777
0.680659 0.285496 0.946166
0.816281 0.292729 0.945037
0.950439 0.307317 0.944060
0.000000 0.417029 0.947662
0.130343 0.418250 0.947387
0.271916 0.419287 0.947326
0.409583 0.420691 0.946593
0.546471 0.423468 0.945708
0.682582 0.428931 0.944823
0.816526 0.435645 0.943725
0.948486 0.443946 0.942870
0.000000 0.554101 0.946105
0.115846 0.554131 0.945892
0.272679 0.556298 0.945830
0.418524 0.560845 0.945251
0.558709 0.569390 0.944366
0.689174 0.572869 0.943694
0.818540 0.577081 0.942687
0.946227 0.582940 0.941741
0.000000 0.691768 0.943999
0.125948 0.692256 0.944121
0.279240 0.694026 0.944274
0.422034 0.696376 0.944091
0.563195 0.700893 0.943206
0.699275 0.709468 0.941161
0.820462 0.710689 0.939757
0.942321 0.714534 0.939147
0.000000 0.827024 0.941253
0.138827 0.827298 0.941375
0.283421 0.827848 0.941588
0.424262 0.828519 0.941436
0.564935 0.829892 0.941009
0.700343 0.832212 0.940276
0.828794 0.838376 0.938903
0.940581 0.841886 0.939086
0.091096 0.960479 0.939300
0.165133 0.960540 0.939483
0.294102 0.960082 0.939574
0.430518 0.958587 0.939147
0.568109 0.956573 0.938811
0.702174 0.954040 0.938689
0.829984 0.950866 0.938811
0.940093 0.947265 0.939849
