data/fiter_cube/39179523/1023433/file.cube
# Created by Adobe Lightroom plugin Export LUT (1.17.0)
# www.johnrellis.com/lightroom/exportlut.htm
# Preset: 日系大师人物肖像_07 云集
# Color profile: C:\Program Files (x86)\Common Files\Adobe\Color\Profiles\Recommended\AdobeRGB1998.icc
LUT_3D_SIZE 32
DOMAIN_MIN 0.0 0.0 0.0
DOMAIN_MAX 1.0 1.0 1.0
0.065797 0.073579 0.078614
0.065797 0.073579 0.078614
0.065797 0.073579 0.078614
0.066285 0.073518 0.078614
0.074952 0.072511 0.078798
0.094606 0.068452 0.078859
0.128878 0.056184 0.079500
0.172854 0.006287 0.079591
0.220279 0.000000 0.075074
0.268223 0.000000 0.071138
0.317906 0.000000 0.066011
0.368719 0.000000 0.057130
0.420966 0.000000 0.036255
0.474128 0.000000 0.004578
0.528283 0.000000 0.000000
0.583246 0.000000 0.000000
0.637781 0.000000 0.000000
0.688716 0.000000 0.000000
0.736690 0.000000 0.000000
0.783658 0.000000 0.000000
0.828824 0.000000 0.000000
0.871946 0.000000 0.000000
0.912016 0.000000 0.000000
0.948363 0.000000 0.000000
0.980468 0.000000 0.000000
1.000000 0.000000 0.000000
1.000000 0.000000 0.000000
1.000000 0.000000 0.000000
1.000000 0.000000 0.004913
1.000000 0.000000 0.080323
1.000000 0.000000 0.112184
1.000000 0.000000 0.138338
0.065797 0.073579 0.078614
0.065797 0.073579 0.078614
0.065797 0.073579 0.078614
0.066773 0.073457 0.078614
0.075410 0.072450 0.078798
0.094911 0.068391 0.078859
0.129091 0.056031 0.079500
0.172519 0.013001 0.076509
0.218906 0.000000 0.074495
0.267094 0.000000 0.070405
0.316411 0.000000 0.065095
0.367071 0.000000 0.055146
0.419043 0.000000 0.033509
0.472267 0.000000 0.001801
0.526055 0.000000 0.000000
0.580865 0.000000 0.000000
0.635309 0.000000 0.000000
0.686397 0.000000 0.000000
0.734646 0.000000 0.000000
0.781033 0.000000 0.000000
0.825895 0.000000 0.000000
0.869017 0.000000 0.000000
0.909209 0.000000 0.000000
0.945922 0.000000 0.000000
0.978363 0.000000 0.000000
1.000000 0.000000 0.000000
1.000000 0.000000 0.000000
1.000000 0.000000 0.000000
1.000000 0.000000 0.000000
1.000000 0.000000 0.074830
1.000000 0.000000 0.108339
1.000000 0.000000 0.134768
0.065797 0.073579 0.078614
0.065797 0.073579 0.078614
0.065797 0.073579 0.078614
0.066773 0.073457 0.078614
0.075837 0.072389 0.078798
0.095583 0.068666 0.078492
0.128786 0.061677 0.077607
0.171450 0.040375 0.075898
0.217899 0.004608 0.073274
0.265660 0.000000 0.069306
0.314885 0.000000 0.063752
0.365545 0.000000 0.052155
0.417395 0.000000 0.029236
0.470436 0.000000 0.000000
0.524285 0.000000 0.000000
0.579156 0.000000 0.000000
0.633631 0.000000 0.000000
0.684779 0.000000 0.000000
0.733333 0.000000 0.000000
0.779446 0.000000 0.000000
0.824277 0.000000 0.000000
0.867399 0.000000 0.000000
0.907652 0.000000 0.000000
0.944488 0.000000 0.000000
0.977111 0.000000 0.000000
1.000000 0.000000 0.000000
1.000000 0.000000 0.000000
1.000000 0.000000 0.000000
1.000000 0.000000 0.000000
1.000000 0.000000 0.070344
1.000000 0.000000 0.105837
1.000000 0.000000 0.133364
0.065614 0.074769 0.078523
0.065614 0.074769 0.078523
0.065553 0.075166 0.078492
0.067445 0.075257 0.078462
0.075807 0.076204 0.078187
0.095125 0.076539 0.077913
0.128115 0.075685 0.076661
0.170169 0.072450 0.074403
0.216251 0.066194 0.071382
0.263798 0.058289 0.066773
0.312810 0.038849 0.060487
0.363287 0.011109 0.045167
0.414954 0.000000 0.018341
0.467750 0.000000 0.000000
0.521691 0.000000 0.000000
0.576410 0.000000 0.000000
0.631006 0.000000 0.000000
0.682246 0.000000 0.000000
0.731197 0.000000 0.000000
0.776761 0.000000 0.000000
0.821195 0.000000 0.000000
0.864195 0.000000 0.000000
0.904814 0.000000 0.000000
0.942138 0.000000 0.000000
0.975463 0.000000 0.000000
1.000000 0.000000 0.000000
1.000000 0.000000 0.000000
1.000000 0.000000 0.000000
1.000000 0.000000 0.000000
1.000000 0.000000 0.064240
1.000000 0.000000 0.100954
1.000000 0.000000 0.129122
0.064729 0.082979 0.077852
0.064637 0.083314 0.077852
0.064576 0.083650 0.077821
0.069245 0.084382 0.077638
0.076753 0.083314 0.077882
0.093355 0.086366 0.077119
0.126436 0.092988 0.075135
0.167575 0.097261 0.072175
0.213596 0.099611 0.068269
0.260533 0.101106 0.062715
0.309575 0.100740 0.052949
0.359777 0.100435 0.031281
0.411231 0.100221 0.003326
0.464088 0.099275 0.000000
0.517998 0.097230 0.000000
0.572900 0.095064 0.000000
0.627924 0.090364 0.000000
0.679683 0.071687 0.000000
0.729427 0.014374 0.000000
0.774777 0.000000 0.000000
0.818936 0.000000 0.000000
0.861875 0.000000 0.000000
0.902525 0.000000 0.000000
0.940124 0.000000 0.000000
0.973754 0.000000 0.000000
1.000000 0.000000 0.000000
1.000000 0.000000 0.000000
1.000000 0.000000 0.000000
1.000000 0.000000 0.000000
1.000000 0.000000 0.045502
1.000000 0.000000 0.093965
1.000000 0.000000 0.122866
0.061555 0.101869 0.076020
0.061433 0.102419 0.075990
0.061219 0.103212 0.075898
0.070192 0.105104 0.075471
0.086732 0.106172 0.074861
0.097292 0.101656 0.075410
0.122316 0.107546 0.073976
0.164981 0.120607 0.069154
0.210880 0.129915 0.063752
0.257786 0.135866 0.055390
0.306401 0.140688 0.037079
0.356481 0.144778 0.012451
0.407782 0.148165 0.000000
0.460670 0.150820 0.000000
0.514366 0.153414 0.000000
0.569482 0.154726 0.000000
0.624689 0.153872 0.000000
0.678248 0.145541 0.000000
0.727565 0.135164 0.000000
0.773007 0.121248 0.000000
0.817258 0.103273 0.000000
0.860502 0.077119 0.000000
0.916411 0.024720 0.000000
0.952453 0.000000 0.000000
0.984161 0.000000 0.000000
1.000000 0.000000 0.000000
1.000000 0.000000 0.000000
1.000000 0.000000 0.000000
1.000000 0.000000 0.000000
1.000000 0.000000 0.060975
1.000000 0.000000 0.098695
1.000000 0.000000 0.126284
0.048707 0.137606 0.070954
0.048188 0.138338 0.070832
0.048737 0.139040 0.070710
0.072541 0.141665 0.069734
0.099031 0.145968 0.067933
0.120150 0.142794 0.067994
0.132479 0.134157 0.069368
0.161013 0.139040 0.066957
0.208652 0.155337 0.058778
0.257450 0.169100 0.038270
0.306249 0.177920 0.013458
0.356573 0.184787 0.000000
0.407996 0.190982 0.000000
0.460975 0.196231 0.000000
0.514702 0.200381 0.000000
0.569390 0.203922 0.000000
0.624842 0.203861 0.000000
0.680049 0.200290 0.000000
0.729488 0.194095 0.000000
0.775387 0.185611 0.000000
0.820768 0.176486 0.000000
0.865446 0.164523 0.000000
0.907622 0.152773 0.000000
0.946197 0.138643 0.000000
0.979889 0.123812 0.000000
1.000000 0.108614 0.000000
1.000000 0.094240 0.000000
1.000000 0.080568 0.000000
1.000000 0.070985 0.000000
1.000000 0.066987 0.012024
1.000000 0.067750 0.083040
1.000000 0.075807 0.114382
0.014832 0.180941 0.061036
0.015534 0.181460 0.060883
0.037995 0.182589 0.060304
0.076539 0.185611 0.058595
0.109468 0.190341 0.053193
0.143221 0.194339 0.046906
0.161288 0.184787 0.050721
0.174441 0.173587 0.056367
0.201236 0.173770 0.053712
0.249973 0.190921 0.027008
0.300206 0.205997 0.000000
0.351598 0.219364 0.000000
0.402991 0.227665 0.000000
0.455695 0.234958 0.000000
0.509483 0.241184 0.000000
0.564202 0.246250 0.000000
0.622034 0.248936 0.000000
0.676295 0.247898 0.000000
0.725246 0.244602 0.000000
0.771084 0.238682 0.000000
0.816434 0.232090 0.000000
0.861082 0.224460 0.000000
0.903502 0.215824 0.000000
0.942351 0.205905 0.000000
0.976501 0.195438 0.000000
1.000000 0.185641 0.000000
1.000000 0.175814 0.000000
1.000000 0.166598 0.000000
1.000000 0.159731 0.000000
1.000000 0.153780 0.000000
1.000000 0.150851 0.060121
1.000000 0.149905 0.098787
0.000000 0.228244 0.028962
0.006104 0.229099 0.027314
0.047150 0.230686 0.024689
0.085573 0.233341 0.019532
0.121798 0.238010 0.010376
0.159854 0.244388 0.000000
0.188174 0.240787 0.000000
0.206607 0.229892 0.002777
0.219608 0.216251 0.015259
0.242771 0.211185 0.016815
0.292882 0.228977 0.000000
0.344671 0.244694 0.000000
0.397131 0.259312 0.000000
0.450721 0.271458 0.000000
0.504204 0.279423 0.000000
0.561151 0.286717 0.000000
0.618555 0.291203 0.000000
0.672267 0.292302 0.000000
0.721340 0.290257 0.000000
0.767056 0.286473 0.000000
0.812467 0.281590 0.000000
0.857176 0.275700 0.000000
0.899809 0.269017 0.000000
0.938964 0.261082 0.000000
0.973419 0.252720 0.000000
1.000000 0.243259 0.000000
1.000000 0.234348 0.000000
1.000000 0.225589 0.000000
1.000000 0.217807 0.000000
1.000000 0.211276 0.000000
1.000000 0.206210 0.000000
1.000000 0.202335 0.076631
0.000000 0.277836 0.000000
0.032258 0.278904 0.000000
0.065919 0.280278 0.000000
0.099092 0.283146 0.000000
0.135592 0.287846 0.000000
0.174624 0.294011 0.000000
0.214328 0.299474 0.000000
0.235782 0.288487 0.000000
0.254246 0.276249 0.000000
0.266514 0.260533 0.000000
0.284916 0.249271 0.000000
0.336461 0.267704 0.000000
0.389410 0.284245 0.000000
0.443397 0.299504 0.000000
0.500420 0.314763 0.000000
0.557885 0.325292 0.000000
0.615106 0.331914 0.000000
0.668849 0.334600 0.000000
0.717952 0.334020 0.000000
0.763729 0.331243 0.000000
0.808988 0.327764 0.000000
0.853269 0.322759 0.000000
0.895598 0.317082 0.000000
0.934630 0.310399 0.000000
0.969421 0.302464 0.000000
0.999634 0.293645 0.000000
1.000000 0.284794 0.000000
1.000000 0.276066 0.000000
1.000000 0.267582 0.000000
1.000000 0.260044 0.000000
1.000000 0.253544 0.000000
1.000000 0.247929 0.017762
0.037781 0.329046 0.000000
0.065766 0.329931 0.000000
0.084382 0.331365 0.000000
0.114687 0.334386 0.000000
0.150759 0.338903 0.000000
0.190036 0.345495 0.000000
0.233158 0.353491 0.000000
0.264500 0.350256 0.000000
0.285496 0.337774 0.000000
0.303777 0.324193 0.000000
0.315129 0.306340 0.000000
0.328862 0.289128 0.000000
0.382391 0.308446 0.000000
0.437690 0.326421 0.000000
0.494301 0.342718 0.000000
0.551690 0.357244 0.000000
0.609583 0.369757 0.000000
0.663355 0.374304 0.000000
0.712703 0.375219 0.000000
0.758755 0.373388 0.000000
0.804044 0.370825 0.000000
0.848631 0.367376 0.000000
0.891386 0.362585 0.000000
0.930846 0.356390 0.000000
0.966094 0.349310 0.000000
0.996735 0.340520 0.000000
1.000000 0.331518 0.000000
1.000000 0.322484 0.000000
1.000000 0.313390 0.000000
1.000000 0.304784 0.000000
1.000000 0.296910 0.000000
1.000000 0.289769 0.000000
0.075715 0.382422 0.000000
0.089113 0.383429 0.000000
0.105409 0.384771 0.000000
0.132967 0.387732 0.000000
0.167758 0.392615 0.000000
0.206638 0.399054 0.000000
0.249393 0.407416 0.000000
0.293889 0.415076 0.000000
0.316991 0.402625 0.000000
0.337682 0.388952 0.000000
0.356023 0.374517 0.000000
0.367437 0.355413 0.000000
0.388922 0.343297 0.000000
0.441993 0.360235 0.000000
0.499763 0.378332 0.000000
0.558282 0.394446 0.000000
0.616571 0.408118 0.000000
0.670619 0.417578 0.000000
0.719417 0.421546 0.000000
0.764889 0.420203 0.000000
0.809964 0.417639 0.000000
0.853849 0.414191 0.000000
0.895476 0.409522 0.000000
0.933959 0.403449 0.000000
0.968292 0.395850 0.000000
0.998199 0.387243 0.000000
1.000000 0.377569 0.000000
1.000000 0.367864 0.000000
1.000000 0.358068 0.000000
1.000000 0.348516 0.000000
1.000000 0.339422 0.000000
1.000000 0.330755 0.000000
0.102510 0.441382 0.000000
0.113436 0.442420 0.000000
0.127352 0.443763 0.000000
0.153079 0.446479 0.000000
0.186648 0.450965 0.000000
0.225010 0.457008 0.000000
0.267491 0.464942 0.000000
0.314305 0.474708 0.000000
0.350713 0.473487 0.000000
0.375189 0.461372 0.000000
0.397467 0.447700 0.000000
0.417121 0.433021 0.000000
0.428077 0.411933 0.000000
0.438087 0.388220 0.000000
0.489418 0.402167 0.000000
0.548180 0.420356 0.000000
0.606744 0.435889 0.000000
0.661372 0.446876 0.000000
0.711177 0.453681 0.000000
0.757748 0.457649 0.000000
0.803098 0.457465 0.000000
0.847318 0.454841 0.000000
0.889433 0.450996 0.000000
0.928527 0.445350 0.000000
0.963409 0.438270 0.000000
0.993988 0.429450 0.000000
1.000000 0.419806 0.000000
1.000000 0.409644 0.000000
1.000000 0.399237 0.000000
1.000000 0.388861 0.000000
1.000000 0.378729 0.000000
1.000000 0.368780 0.000000
0.126284 0.497444 0.000000
0.136355 0.498482 0.000000
0.148348 0.499580 0.000000
0.172396 0.502373 0.000000
0.204257 0.506889 0.000000
0.242588 0.513878 0.000000
0.285679 0.522789 0.000000
0.332891 0.533623 0.000000
0.384405 0.546136 0.000000
0.410163 0.533501 0.000000
0.434211 0.519341 0.000000
0.455818 0.503868 0.000000
0.474372 0.487129 0.000000
0.483284 0.463111 0.000000
0.488991 0.434363 0.000000
0.537591 0.444526 0.000000
0.596002 0.461860 0.000000
0.651209 0.474739 0.000000
0.702113 0.482979 0.000000
0.749355 0.488075 0.000000
0.795621 0.491798 0.000000
0.840696 0.494087 0.000000
0.883421 0.490791 0.000000
0.923186 0.485939 0.000000
0.958770 0.479133 0.000000
0.989990 0.470558 0.000000
1.000000 0.460700 0.000000
1.000000 0.450202 0.000000
1.000000 0.439399 0.000000
1.000000 0.428229 0.000000
1.000000 0.417151 0.000000
1.000000 0.406226 0.000000
0.150729 0.558099 0.000000
0.159945 0.559350 0.000000
0.170962 0.560571 0.000000
0.193484 0.563561 0.000000
0.224674 0.568078 0.000000
0.262119 0.574487 0.000000
0.303929 0.582574 0.000000
0.350500 0.592584 0.000000
0.401526 0.604334 0.000000
0.443610 0.605737 0.000000
0.469429 0.592035 0.000000
0.493202 0.576745 0.000000
0.514153 0.559808 0.000000
0.531945 0.541161 0.000000
0.538842 0.514000 0.000000
0.540307 0.480629 0.000000
0.585107 0.486549 0.000000
0.641108 0.501274 0.000000
0.692805 0.511345 0.000000
0.740902 0.517632 0.000000
0.787442 0.522179 0.000000
0.833188 0.525566 0.000000
0.876890 0.527459 0.000000
0.917479 0.525231 0.000000
0.953887 0.518883 0.000000
0.985870 0.510582 0.000000
1.000000 0.500755 0.000000
1.000000 0.490120 0.000000
1.000000 0.478706 0.000000
1.000000 0.466987 0.000000
1.000000 0.455177 0.000000
1.000000 0.443519 0.000000
0.174289 0.618769 0.000000
0.182559 0.619837 0.000000
0.192782 0.621088 0.000000
0.214237 0.623835 0.000000
0.244297 0.627955 0.000000
0.280735 0.633692 0.000000
0.321447 0.640986 0.000000
0.366979 0.649866 0.000000
0.416358 0.659785 0.000000
0.469337 0.670619 0.000000
0.499611 0.660578 0.000000
0.525566 0.646418 0.000000
0.549157 0.630335 0.000000
0.570092 0.612177 0.000000
0.587366 0.592279 0.000000
0.592950 0.563165 0.000000
0.590417 0.525719 0.000000
0.630182 0.526146 0.000000
0.683162 0.538293 0.000000
0.732418 0.546410 0.000000
0.779873 0.552117 0.000000
0.826383 0.556603 0.000000
0.870939 0.559197 0.000000
0.912413 0.559655 0.000000
0.949828 0.557641 0.000000
0.982513 0.550011 0.000000
1.000000 0.540246 0.000000
1.000000 0.529229 0.000000
1.000000 0.517418 0.000000
1.000000 0.504967 0.000000
1.000000 0.492256 0.000000
1.000000 0.479866 0.000000
0.195377 0.672724 0.000000
0.202640 0.673548 0.000000
0.212284 0.674464 0.000000
0.232456 0.676783 0.000000
0.260929 0.680293 0.000000
0.295293 0.685023 0.000000
0.334691 0.690974 0.000000
0.377783 0.697932 0.000000
0.424445 0.705867 0.000000
0.474250 0.714687 0.000000
0.520104 0.718013 0.000000
0.547875 0.705470 0.000000
0.574334 0.691310 0.000000
0.598505 0.675441 0.000000
0.619837 0.657557 0.000000
0.637690 0.637720 0.000000
0.643519 0.608637 0.000000
0.638483 0.568688 0.000000
0.672877 0.563867 0.000000
0.723140 0.573632 0.000000
0.771023 0.580499 0.000000
0.818112 0.585870 0.000000
0.863371 0.589471 0.000000
0.905821 0.590692 0.000000
0.944152 0.589380 0.000000
0.977844 0.585382 0.000000
1.000000 0.578485 0.000000
1.000000 0.567346 0.000000
1.000000 0.555169 0.000000
1.000000 0.542199 0.000000
1.000000 0.528740 0.000000
1.000000 0.515557 0.000000
0.213657 0.720790 0.000000
0.220615 0.721584 0.000000
0.231907 0.731441 0.000000
0.251286 0.733211 0.000000
0.277806 0.735836 0.000000
0.310307 0.739284 0.000000
0.347601 0.743893 0.000000
0.389166 0.749325 0.000000
0.434394 0.755825 0.000000
0.483070 0.763363 0.000000
0.534722 0.771633 0.000000
0.571313 0.766018 0.000000
0.598718 0.752529 0.000000
0.624903 0.737575 0.000000
0.648920 0.721187 0.000000
0.670619 0.703334 0.000000
0.689601 0.684169 0.000000
0.696132 0.655299 0.000000
0.689143 0.613428 0.000000
0.717952 0.603143 0.000000
0.765988 0.610773 0.000000
0.813443 0.617029 0.000000
0.859037 0.621210 0.000000
0.901762 0.622919 0.000000
0.940215 0.621668 0.000000
0.974090 0.617762 0.000000
1.000000 0.611536 0.000000
1.000000 0.603693 0.000000
1.000000 0.592309 0.000000
1.000000 0.578759 0.000000
1.000000 0.564538 0.000000
1.000000 0.550713 0.000000
0.228031 0.766384 0.000000
0.234379 0.768002 0.000000
0.243473 0.769955 0.000000
0.260960 0.772610 0.000000
0.286809 0.775875 0.000000
0.317876 0.779446 0.000000
0.354223 0.783810 0.000000
0.394507 0.788785 0.000000
0.438056 0.794705 0.000000
0.484779 0.801389 0.000000
0.534600 0.808591 0.000000
0.585351 0.814786 0.000000
0.613916 0.802670 0.000000
0.641505 0.789212 0.000000
0.667414 0.774166 0.000000
0.691402 0.758053 0.000000
0.713130 0.740352 0.000000
0.732235 0.721431 0.000000
0.739101 0.692988 0.000000
0.731136 0.650538 0.000000
0.756161 0.636622 0.000000
0.804288 0.644312 0.000000
0.850919 0.649775 0.000000
0.894591 0.652583 0.000000
0.934173 0.652186 0.000000
0.968933 0.648829 0.000000
0.999329 0.642939 0.000000
1.000000 0.635065 0.000000
1.000000 0.625696 0.000000
1.000000 0.614618 0.000000
1.000000 0.599939 0.000000
1.000000 0.585473 0.000000
0.240757 0.807340 0.000000
0.247166 0.808835 0.000000
0.255192 0.810544 0.000000
0.272343 0.813016 0.000000
0.296330 0.815854 0.000000
0.326238 0.819089 0.000000
0.361212 0.822782 0.000000
0.400122 0.827207 0.000000
0.441840 0.832334 0.000000
0.487037 0.838071 0.000000
0.534813 0.844327 0.000000
0.585321 0.850797 0.000000
0.626398 0.848997 0.000000
0.655146 0.837247 0.000000
0.682918 0.824002 0.000000
0.709071 0.809567 0.000000
0.733303 0.793820 0.000000
0.755489 0.776791 0.000000
0.775387 0.758816 0.000000
0.782650 0.730861 0.000000
0.773465 0.687495 0.000000
0.795377 0.670771 0.000000
0.842802 0.677546 0.000000
0.887388 0.681514 0.000000
0.927916 0.682124 0.000000
0.963592 0.679286 0.000000
0.994720 0.673732 0.000000
1.000000 0.666011 0.000000
1.000000 0.656458 0.000000
1.000000 0.645533 0.000000
1.000000 0.633722 0.000000
1.000000 0.619867 0.000000
0.253269 0.846769 0.000000
0.258915 0.848020 0.000000
0.267094 0.849607 0.000000
0.283268 0.851682 0.000000
0.305730 0.854124 0.000000
0.334142 0.856840 0.000000
0.367681 0.860014 0.000000
0.404547 0.863584 0.000000
0.445258 0.867826 0.000000
0.488624 0.872526 0.000000
0.534112 0.877531 0.000000
0.582300 0.882597 0.000000
0.632349 0.887633 0.000000
0.664637 0.879515 0.000000
0.693782 0.868345 0.000000
0.721950 0.856138 0.000000
0.748989 0.842802 0.000000
0.774472 0.828458 0.000000
0.798215 0.813077 0.000000
0.819883 0.796811 0.000000
0.828489 0.770108 0.000000
0.819425 0.727169 0.000000
0.839567 0.708492 0.000000
0.883543 0.712215 0.000000
0.924926 0.713649 0.000000
0.961212 0.711330 0.000000
0.992767 0.705898 0.000000
1.000000 0.698085 0.000000
1.000000 0.688411 0.000000
1.000000 0.677272 0.000000
1.000000 0.665248 0.000000
1.000000 0.652674 0.000000
0.264378 0.886839 0.000000
0.269993 0.887602 0.000000
0.277165 0.888334 0.000000
0.292302 0.889586 0.000000
0.314366 0.891264 0.000000
0.342168 0.893339 0.000000
0.374151 0.895781 0.000000
0.409705 0.898650 0.000000
0.448402 0.902037 0.000000
0.490059 0.905608 0.000000
0.533684 0.909514 0.000000
0.579828 0.913359 0.000000
0.627253 0.916930 0.000000
0.671107 0.917082 0.000000
0.701259 0.907805 0.000000
0.730861 0.897551 0.000000
0.759640 0.886381 0.000000
0.787533 0.874235 0.000000
0.814023 0.861204 0.000000
0.838926 0.847074 0.000000
0.861875 0.832120 0.000000
0.871061 0.805966 0.000000
0.861753 0.763302 0.000000
0.879911 0.742947 0.000000
0.918273 0.741970 0.000000
0.955413 0.740536 0.000000
0.987823 0.735683 0.000000
1.000000 0.728176 0.000000
1.000000 0.718654 0.000000
1.000000 0.707576 0.000000
1.000000 0.695521 0.000000
1.000000 0.682948 0.000000
0.269230 0.919371 0.000000
0.274540 0.919982 0.000000
0.281224 0.920653 0.000000
0.295903 0.921630 0.000000
0.317266 0.922911 0.000000
0.343877 0.924346 0.000000
0.374640 0.926116 0.000000
0.408942 0.928161 0.000000
0.446662 0.930510 0.000000
0.486793 0.933104 0.000000
0.529046 0.935821 0.000000
0.573175 0.938506 0.000000
0.618677 0.941009 0.000000
0.665705 0.943206 0.000000
0.702144 0.938842 0.000000
0.732570 0.930358 0.000000
0.762661 0.921080 0.000000
0.792203 0.911040 0.000000
0.820859 0.900267 0.000000
0.848447 0.888670 0.000000
0.874754 0.876310 0.000000
0.899504 0.863005 0.000000
0.910185 0.838590 0.000000
0.902831 0.797879 0.000000
0.915984 0.773800 0.000000
0.948699 0.768368 0.000000
0.981964 0.764370 0.000000
1.000000 0.757443 0.000000
1.000000 0.748257 0.000000
1.000000 0.737331 0.000000
1.000000 0.725307 0.000000
1.000000 0.712795 0.000000
0.271672 0.949950 0.000000
0.276646 0.950439 0.000000
0.283421 0.950866 0.000000
0.297520 0.951446 0.000000
0.317815 0.952178 0.000000
0.343389 0.953063 0.000000
0.373144 0.954070 0.000000
0.406378 0.955261 0.000000
0.442756 0.956634 0.000000
0.481178 0.958129 0.000000
0.521691 0.959686 0.000000
0.563714 0.961212 0.000000
0.607385 0.962615 0.000000
0.652125 0.963745 0.000000
0.697902 0.964477 0.000000
0.728786 0.957244 0.000000
0.759304 0.949279 0.000000
0.789609 0.940764 0.000000
0.819577 0.931670 0.000000
0.848997 0.922026 0.000000
0.877562 0.911742 0.000000
0.905058 0.900786 0.000000
0.931121 0.889036 0.000000
0.943023 0.865934 0.000000
0.937346 0.827176 0.000000
0.949218 0.802335 0.000000
0.976837 0.793088 0.000000
1.000000 0.786587 0.000000
1.000000 0.777615 0.000000
1.000000 0.766842 0.000000
1.000000 0.754910 0.000000
1.000000 0.742367 0.000000
0.269261 0.973877 0.000000
0.274083 0.974243 0.000000
0.280797 0.974548 0.000000
0.294285 0.974945 0.000000
0.314183 0.975402 0.000000
0.339055 0.975982 0.000000
0.368017 0.976623 0.000000
0.400244 0.977356 0.000000
0.435431 0.978241 0.000000
0.472755 0.979156 0.000000
0.511894 0.980072 0.000000
0.552728 0.980926 0.000000
0.594751 0.981628 0.000000
0.637751 0.982055 0.000000
0.681819 0.982177 0.000000
0.722072 0.980102 0.000000
0.752926 0.973449 0.000000
0.783749 0.966308 0.000000
0.814481 0.958679 0.000000
0.845029 0.950591 0.000000
0.874998 0.941985 0.000000
0.904387 0.932830 0.000000
0.932769 0.923033 0.000000
0.959960 0.912657 0.000000
0.973175 0.890990 0.000000
0.969421 0.854398 0.000000
0.978851 0.828153 0.000000
1.000000 0.815854 0.000000
1.000000 0.807095 0.000000
1.000000 0.796445 0.000000
1.000000 0.784573 0.000000
1.000000 0.772030 0.000000
0.263951 0.995087 0.000000
0.268681 0.995300 0.000000
0.274968 0.995453 0.000000
0.288212 0.995605 0.000000
0.307744 0.995789 0.000000
0.331884 0.996002 0.000000
0.360021 0.996277 0.000000
0.391577 0.996582 0.000000
0.425940 0.996948 0.000000
0.462104 0.997314 0.000000
0.500175 0.997681 0.000000
0.539544 0.997986 0.000000
0.580224 0.998077 0.000000
0.622004 0.997955 0.000000
0.664332 0.997498 0.000000
0.707485 0.996704 0.000000
0.743069 0.992737 0.000000
0.773953 0.986664 0.000000
0.804868 0.980224 0.000000
0.835782 0.973388 0.000000
0.866606 0.966094 0.000000
0.897063 0.958312 0.000000
0.926848 0.950134 0.000000
0.955901 0.941405 0.000000
0.984039 0.932189 0.000000
0.998291 0.912016 0.000000
0.996185 0.877348 0.000000
1.000000 0.850462 0.000000
1.000000 0.835538 0.000000
1.000000 0.825132 0.000000
1.000000 0.813321 0.000000
1.000000 0.800900 0.000000
0.254459 1.000000 0.000000
0.259098 1.000000 0.000000
0.265629 1.000000 0.000000
0.278508 1.000000 0.000000
0.297887 1.000000 0.000000
0.321996 1.000000 0.000000
0.349920 1.000000 0.000000
0.381079 1.000000 0.000000
0.414710 1.000000 0.000000
0.450263 1.000000 0.000000
0.487526 1.000000 0.000000
0.526085 1.000000 0.000000
0.565606 1.000000 0.000000
0.605951 1.000000 0.000000
0.647242 1.000000 0.000000
0.688930 1.000000 0.000000
0.731197 1.000000 0.000000
0.762844 1.000000 0.000000
0.793881 0.999359 0.000000
0.824979 0.993530 0.000000
0.856138 0.987304 0.000000
0.887205 0.980713 0.000000
0.917906 0.973754 0.000000
0.948150 0.966400 0.000000
0.977783 0.958648 0.000000
1.000000 0.950561 0.000000
1.000000 0.931731 0.000000
1.000000 0.899016 0.000000
1.000000 0.871977 0.000000
1.000000 0.854978 0.000000
1.000000 0.843046 0.000000
1.000000 0.830411 0.115602
0.241917 1.000000 0.000000
0.246494 1.000000 0.000000
0.252781 1.000000 0.000000
0.265934 1.000000 0.000000
0.285557 1.000000 0.000000
0.309606 1.000000 0.000000
0.337255 1.000000 0.000000
0.367895 1.000000 0.000000
0.401038 1.000000 0.000000
0.436194 1.000000 0.000000
0.472511 1.000000 0.000000
0.510063 1.000000 0.000000
0.548547 1.000000 0.000000
0.587854 1.000000 0.000000
