data/fiter_cube/39179523/1023433/file.cube
# Created by Adobe Lightroom plugin Export LUT (1.17.0)
# www.johnrellis.com/lightroom/exportlut.htm
# Preset: 日系大师人物肖像_07 云集
# Color profile: C:\Program Files (x86)\Common Files\Adobe\Color\Profiles\Recommended\AdobeRGB1998.icc
LUT_3D_SIZE 5
DOMAIN_MIN 0.000000 0.000000 0.000000
DOMAIN_MAX 0.903226 0.903226 0.903226
0.065797 0.073579 0.078614
0.172854 0.006287 0.079591
0.528283 0.000000 0.000000
0.871946 0.000000 0.000000
1.000000 0.000000 0.004913
0.014832 0.180941 0.061036
0.174441 0.173587 0.056367
0.509483 0.241184 0.000000
0.861082 0.224460 0.000000
1.000000 0.159731 0.000000
0.150729 0.558099 0.000000
0.350500 0.592584 0.000000
0.538842 0.514000 0.000000
0.833188 0.525566 0.000000
1.000000 0.478706 0.000000
0.264378 0.886839 0.000000
0.409705 0.898650 0.000000
0.701259 0.907805 0.000000
0.871061 0.805966 0.000000
1.000000 0.718654 0.000000
0.223270 1.000000 0.000000
0.352026 1.000000 0.000000
0.606714 1.000000 0.000000
0.854612 1.000000 0.000000
1.000000 0.958801 0.000000
0.007324 0.067109 0.206546
0.187076 0.000000 0.229862
0.539971 0.000000 0.268070
0.860807 0.000000 0.261753
1.000000 0.000000 0.313512
0.000000 0.159701 0.181765
0.156344 0.174624 0.186465
0.507378 0.181796 0.209628
0.852781 0.168826 0.240146
1.000000 0.191989 0.295781
0.000000 0.518090 0.142489
0.214420 0.549157 0.093111
0.519982 0.503563 0.143984
0.826932 0.514946 0.146212
1.000000 0.478187 0.220859
0.000000 0.871489 0.000000
0.300298 0.885008 0.000000
0.678981 0.911437 0.000000
0.864775 0.805844 0.000000
1.000000 0.719509 0.083436
0.156161 1.000000 0.000000
0.320592 1.000000 0.000000
0.596826 1.000000 0.000000
0.854002 1.000000 0.000000
1.000000 0.957855 0.000000
0.000000 0.000000 0.591760
0.234012 0.000000 0.636805
0.594720 0.000000 0.693629
0.921080 0.000000 0.670985
1.000000 0.321691 0.645991
0.000000 0.080842 0.534966
0.131197 0.138552 0.578241
0.569360 0.196841 0.663508
0.896696 0.283330 0.655512
1.000000 0.436622 0.659419
0.000000 0.420325 0.478523
0.000000 0.432624 0.487251
0.444648 0.485389 0.513878
0.812802 0.539666 0.580682
1.000000 0.582513 0.634668
0.000000 0.783719 0.498054
0.000000 0.800748 0.483742
0.528832 0.858274 0.525414
0.831540 0.805692 0.532769
1.000000 0.746548 0.539788
0.000000 1.000000 0.352605
0.000000 1.000000 0.350011
0.511955 1.000000 0.414801
0.837461 1.000000 0.489937
1.000000 0.960266 0.468086
0.000000 0.000000 0.882322
0.239658 0.000000 0.899016
0.541833 0.000000 0.943389
0.884886 0.171572 0.955993
1.000000 0.466499 0.879423
0.000000 0.033387 0.859709
0.162387 0.057069 0.878782
0.532250 0.190188 0.930755
0.880613 0.384436 0.947692
1.000000 0.569574 0.885679
0.000000 0.335058 0.790433
0.000000 0.314458 0.795071
0.458900 0.475715 0.858732
0.860990 0.653040 0.918334
1.000000 0.748013 0.896544
0.000000 0.674983 0.750393
0.000000 0.679988 0.752987
0.207492 0.705074 0.765255
0.740414 0.775326 0.800626
0.988037 0.838468 0.864927
0.000000 0.996124 0.745327
0.000000 1.000000 0.736782
0.185122 1.000000 0.721523
0.818143 0.998901 0.833158
0.994171 0.967712 0.822690
0.124544 0.000000 1.000000
0.241093 0.000000 1.000000
0.457984 0.000000 1.000000
0.728695 0.292027 1.000000
0.975463 0.511620 1.000000
0.000000 0.000000 1.000000
0.205386 0.000000 1.000000
0.461189 0.112673 1.000000
0.744991 0.428290 1.000000
0.976593 0.600214 1.000000
0.000000 0.167819 1.000000
0.000000 0.239322 1.000000
0.466987 0.451148 1.000000
0.783749 0.650965 1.000000
0.980224 0.784695 1.000000
0.000000 0.561547 0.990082
0.000000 0.551507 0.990631
0.000000 0.525872 0.992798
0.765866 0.777249 0.993347
0.984649 0.924804 0.995911
0.000000 0.901671 0.969757
0.000000 0.902892 0.969665
0.000000 0.909606 0.969360
0.529351 0.928618 0.965789
0.956970 0.964721 0.970275
