data/fiter_cube/39179523/1023433/file.cube
# Created by Adobe Lightroom plugin Export LUT (1.17.0)
# www.johnrellis.com/lightroom/exportlut.htm
# Preset: 日系大师人物肖像_07 云集
# Color profile: C:\Program Files (x86)\Common Files\Adobe\Color\Profiles\Recommended\AdobeRGB1998.icc
LUT_3D_SIZE 8
DOMAIN_MIN 0.000000 0.000000 0.000000
DOMAIN_MAX 0.903226 0.903226 0.903226
0.065797 0.073579 0.078614
0.074952 0.072511 0.078798
0.220279 0.000000 0.075074
0.420966 0.000000 0.036255
0.637781 0.000000 0.000000
0.828824 0.000000 0.000000
0.980468 0.000000 0.000000
1.000000 0.000000 0.004913
0.064729 0.082979 0.077852
0.076753 0.083314 0.077882
0.213596 0.099611 0.068269
0.411231 0.100221 0.003326
0.627924 0.090364 0.000000
0.818936 0.000000 0.000000
0.973754 0.000000 0.000000
1.000000 0.000000 0.000000
0.000000 0.228244 0.028962
0.121798 0.238010 0.010376
0.219608 0.216251 0.015259
0.397131 0.259312 0.000000
0.618555 0.291203 0.000000
0.812467 0.281590 0.000000
0.973419 0.252720 0.000000
1.000000 0.217807 0.000000
0.102510 0.441382 0.000000
0.186648 0.450965 0.000000
0.350713 0.473487 0.000000
0.428077 0.411933 0.000000
0.606744 0.435889 0.000000
0.803098 0.457465 0.000000
0.963409 0.438270 0.000000
1.000000 0.399237 0.000000
0.195377 0.672724 0.000000
0.260929 0.680293 0.000000
0.424445 0.705867 0.000000
0.574334 0.691310 0.000000
0.643519 0.608637 0.000000
0.771023 0.580499 0.000000
0.944152 0.589380 0.000000
1.000000 0.555169 0.000000
0.253269 0.846769 0.000000
0.305730 0.854124 0.000000
0.445258 0.867826 0.000000
0.632349 0.887633 0.000000
0.748989 0.842802 0.000000
0.828489 0.770108 0.000000
0.924926 0.713649 0.000000
1.000000 0.688411 0.000000
0.269261 0.973877 0.000000
0.314183 0.975402 0.000000
0.435431 0.978241 0.000000
0.594751 0.981628 0.000000
0.752926 0.973449 0.000000
0.874998 0.941985 0.000000
0.973175 0.890990 0.000000
1.000000 0.807095 0.000000
0.223270 1.000000 0.000000
0.268650 1.000000 0.000000
0.384924 1.000000 0.000000
0.530236 1.000000 0.000000
0.686152 1.000000 0.000000
0.823606 1.000000 0.000000
0.947448 0.994049 0.000000
1.000000 0.958801 0.000000
0.064271 0.073243 0.091646
0.075990 0.071748 0.092897
0.217990 0.000000 0.118227
0.413275 0.000000 0.089876
0.630762 0.000000 0.075837
0.818845 0.000000 0.078035
0.972992 0.000000 0.112886
1.000000 0.000000 0.167666
0.061158 0.081636 0.089509
0.074952 0.083833 0.089357
0.211887 0.077546 0.088746
0.408240 0.010651 0.078340
0.624842 0.000000 0.053864
0.813230 0.000000 0.055390
0.967803 0.000000 0.096773
1.000000 0.000000 0.155886
0.000000 0.219944 0.087190
0.093202 0.229038 0.058839
0.217990 0.214755 0.063844
0.396551 0.250126 0.000000
0.613519 0.268956 0.000000
0.804990 0.259922 0.000000
0.964446 0.237583 0.000000
1.000000 0.215274 0.126070
0.000000 0.428626 0.000000
0.139651 0.437964 0.000000
0.336095 0.469734 0.000000
0.418280 0.403632 0.000000
0.593256 0.422156 0.000000
0.789914 0.441932 0.000000
0.953918 0.427405 0.000000
1.000000 0.395270 0.000000
0.101472 0.661219 0.000000
0.202213 0.668299 0.000000
0.390173 0.693477 0.000000
0.560449 0.684871 0.000000
0.633051 0.600305 0.000000
0.764523 0.574762 0.000000
0.939666 0.584466 0.000000
1.000000 0.551354 0.000000
0.187564 0.837888 0.000000
0.255467 0.842618 0.000000
0.413123 0.857511 0.000000
0.611536 0.879881 0.000000
0.741543 0.840177 0.000000
0.824704 0.767971 0.000000
0.922881 0.712428 0.000000
1.000000 0.686976 0.000000
0.247379 0.970001 0.000000
0.294957 0.970733 0.000000
0.422431 0.974456 0.000000
0.586053 0.979217 0.000000
0.749233 0.972564 0.000000
0.872435 0.940520 0.000000
0.969574 0.888151 0.000000
1.000000 0.804807 0.000000
0.222324 1.000000 0.000000
0.267491 1.000000 0.000000
0.383917 1.000000 0.000000
0.529442 1.000000 0.000000
0.686458 1.000000 0.000000
0.823697 1.000000 0.000000
0.947326 0.993835 0.000000
1.000000 0.957885 0.000000
0.000000 0.061799 0.258518
0.093782 0.025971 0.274510
0.237369 0.000000 0.291142
0.454353 0.000000 0.328038
0.656794 0.000000 0.331823
0.823850 0.000000 0.334325
0.973327 0.000000 0.338811
1.000000 0.000000 0.368658
0.000000 0.071504 0.246586
0.060273 0.070405 0.257786
0.225803 0.021546 0.276066
0.437293 0.000000 0.305211
0.641352 0.000000 0.312627
0.815274 0.000000 0.309026
0.969512 0.000000 0.330571
1.000000 0.061891 0.361700
0.000000 0.196658 0.224582
0.000000 0.200443 0.227848
0.194675 0.217105 0.231632
0.394629 0.227878 0.248692
0.618158 0.232670 0.266850
0.807828 0.233158 0.286595
0.964385 0.237308 0.311742
1.000000 0.257237 0.343633
0.000000 0.388891 0.247135
0.000000 0.399329 0.232242
0.222202 0.431586 0.207889
0.407507 0.405463 0.221500
0.599634 0.423529 0.228305
0.793637 0.431830 0.247227
0.955871 0.424506 0.275151
1.000000 0.408820 0.309117
0.000000 0.623560 0.174807
0.000000 0.632746 0.122042
0.267826 0.660883 0.146365
0.534478 0.690150 0.174441
0.627619 0.603571 0.194675
0.768551 0.579095 0.208255
0.941100 0.585534 0.207340
1.000000 0.553429 0.246708
0.000000 0.817655 0.000000
0.000000 0.822354 0.000000
0.310460 0.838712 0.000000
0.553887 0.864591 0.000000
0.726436 0.841581 0.097444
0.816007 0.766995 0.155215
0.921660 0.715053 0.192966
1.000000 0.689784 0.186435
0.000000 0.965057 0.000000
0.091676 0.966278 0.000000
0.335729 0.970428 0.000000
0.537407 0.976013 0.000000
0.733150 0.975708 0.000000
0.864195 0.942748 0.000000
0.966064 0.890654 0.012268
1.000000 0.808988 0.173648
0.000000 1.000000 0.000000
0.152438 1.000000 0.000000
0.326329 1.000000 0.000000
0.497353 1.000000 0.000000
0.668330 1.000000 0.000000
0.817990 1.000000 0.000000
0.945861 0.994263 0.000000
1.000000 0.957000 0.000000
0.000000 0.000000 0.476356
0.103700 0.000000 0.495613
0.272557 0.000000 0.541619
0.469459 0.000000 0.560632
0.710140 0.000000 0.586358
0.866911 0.000000 0.563684
0.982086 0.000000 0.554559
1.000000 0.278202 0.570092
0.000000 0.002197 0.464607
0.000000 0.000000 0.478096
0.251041 0.000000 0.525261
0.459907 0.000000 0.549035
0.704524 0.000000 0.577569
0.857267 0.000000 0.555627
0.976104 0.167788 0.552087
1.000000 0.317998 0.573022
0.000000 0.173190 0.419409
0.000000 0.153841 0.422889
0.180819 0.200168 0.458656
0.424537 0.244266 0.504845
0.668116 0.258793 0.536309
0.827451 0.287694 0.533135
0.960632 0.347143 0.552667
1.000000 0.403906 0.572839
0.000000 0.346166 0.395636
0.000000 0.350042 0.398962
0.032532 0.365179 0.408423
0.359380 0.395880 0.420783
0.586542 0.419532 0.451514
0.783871 0.440314 0.482002
0.946532 0.461311 0.513573
1.000000 0.483192 0.542565
0.000000 0.543847 0.417365
0.000000 0.552178 0.415778
0.000000 0.583001 0.409155
0.403021 0.636561 0.420630
0.599786 0.599756 0.425666
0.765438 0.592645 0.439673
0.936065 0.599023 0.468238
1.000000 0.586664 0.496773
0.000000 0.770413 0.401526
0.000000 0.778439 0.394476
0.000000 0.797024 0.367071
0.444068 0.828550 0.407813
0.705165 0.848173 0.457343
0.800259 0.769284 0.425147
0.919310 0.727169 0.429236
1.000000 0.705348 0.437140
0.000000 0.945251 0.309300
0.000000 0.948180 0.299016
0.050324 0.955657 0.306859
0.464454 0.965057 0.367346
0.700099 0.971221 0.427039
0.852262 0.946868 0.432898
0.954650 0.894041 0.410285
1.000000 0.818082 0.415625
0.000000 1.000000 0.098634
0.000000 1.000000 0.172457
0.206760 1.000000 0.236088
0.431922 1.000000 0.217807
0.632868 1.000000 0.257176
0.806363 1.000000 0.293248
0.934325 0.995422 0.308293
1.000000 0.959258 0.334417
0.000000 0.000000 0.693202
0.102663 0.000000 0.704005
0.279698 0.000000 0.737697
0.480446 0.000000 0.785458
0.699519 0.000000 0.796506
0.889921 0.000000 0.777768
0.999878 0.217838 0.742885
1.000000 0.367620 0.719631
0.000000 0.000000 0.680201
0.000000 0.000000 0.691615
0.257023 0.000000 0.726833
0.471534 0.000000 0.776242
0.693721 0.000000 0.789853
0.886290 0.027039 0.774350
0.995819 0.286259 0.743313
1.000000 0.405829 0.723781
0.000000 0.093446 0.628565
0.000000 0.119356 0.639796
0.178042 0.181216 0.678950
0.439277 0.237034 0.741878
0.671504 0.283421 0.764096
0.869718 0.345525 0.760433
0.979858 0.432105 0.742977
1.000000 0.500389 0.733181
0.000000 0.318883 0.589319
0.000000 0.314397 0.591913
0.000000 0.301762 0.602289
0.357488 0.385626 0.655634
0.628168 0.469581 0.713344
0.832090 0.530755 0.733486
0.952117 0.563043 0.732753
1.000000 0.598444 0.737057
0.000000 0.494057 0.559594
0.000000 0.497475 0.562188
0.000000 0.509545 0.570459
0.257115 0.534569 0.585351
0.532799 0.575402 0.605707
0.747066 0.612268 0.648066
0.920226 0.642237 0.684108
1.000000 0.662593 0.708461
0.000000 0.675166 0.566918
0.000000 0.681666 0.568017
0.000000 0.703731 0.569970
0.221988 0.740780 0.572625
0.586755 0.793698 0.622827
0.761440 0.760983 0.623224
0.907500 0.750790 0.637903
1.000000 0.743709 0.662470
0.000000 0.896117 0.568139
0.000000 0.899443 0.564630
0.000000 0.911528 0.553674
0.277226 0.930449 0.551873
0.625849 0.948272 0.626154
0.840299 0.949157 0.681453
0.931945 0.895903 0.627832
1.000000 0.835660 0.617060
0.000000 1.000000 0.492226
0.000000 1.000000 0.488197
0.000000 1.000000 0.481422
0.347234 1.000000 0.516075
0.605676 1.000000 0.570397
0.803403 1.000000 0.633661
0.922972 0.994842 0.623499
1.000000 0.962249 0.592401
0.000000 0.000000 0.851408
0.120119 0.000000 0.857389
0.278691 0.000000 0.876768
0.454597 0.000000 0.908965
0.659754 0.000000 0.937896
0.859098 0.020020 0.935943
0.993011 0.281407 0.896117
1.000000 0.464546 0.853758
0.000000 0.000000 0.842039
0.000000 0.000000 0.848112
0.258549 0.000000 0.868956
0.447150 0.000000 0.902739
0.657465 0.137545 0.933196
0.856413 0.197330 0.932403
0.990173 0.341497 0.894987
1.000000 0.497078 0.855863
0.000000 0.098726 0.813657
0.000000 0.132509 0.820127
0.197604 0.160708 0.844419
0.426673 0.209812 0.882933
0.653803 0.342382 0.919707
0.850797 0.396246 0.922576
0.981567 0.494087 0.893736
1.000000 0.586877 0.862821
0.000000 0.225223 0.764126
0.000000 0.211398 0.765316
0.000000 0.254612 0.787594
0.372534 0.383001 0.835172
0.639185 0.503777 0.890898
0.839597 0.576318 0.904875
0.969665 0.643610 0.891630
1.000000 0.687861 0.870268
0.000000 0.463447 0.742733
0.000000 0.461769 0.744228
0.000000 0.457557 0.749691
0.088960 0.453956 0.759976
0.547662 0.577447 0.810239
0.804105 0.685603 0.866819
0.949187 0.749599 0.878599
1.000000 0.765103 0.867826
0.000000 0.639277 0.713954
0.000000 0.642023 0.715785
0.000000 0.649470 0.720211
0.000000 0.664332 0.728206
0.422461 0.690700 0.740291
0.699825 0.737606 0.765011
0.896452 0.781918 0.811521
0.993866 0.809384 0.839780
0.000000 0.818936 0.715999
0.000000 0.820706 0.715053
0.000000 0.827634 0.711574
0.000000 0.854673 0.713924
0.416480 0.889799 0.726558
0.768521 0.926818 0.798672
0.905028 0.897185 0.790463
0.990204 0.867887 0.794247
0.000000 1.000000 0.702052
0.000000 1.000000 0.698939
0.000000 1.000000 0.688716
0.000000 1.000000 0.678645
0.499001 1.000000 0.708003
0.778408 1.000000 0.790188
0.925780 0.993439 0.835233
1.000000 0.966674 0.783413
0.078737 0.000000 0.959960
0.149447 0.000000 0.962554
0.277409 0.000000 0.970306
0.424262 0.000000 0.982361
0.592248 0.000000 0.994110
0.775631 0.321294 1.000000
0.939452 0.365118 0.995239
1.000000 0.474403 0.954925
0.000000 0.000000 0.956359
0.104250 0.000000 0.959014
0.262516 0.000000 0.967132
0.419898 0.000000 0.979431
0.592187 0.000000 0.991791
0.778012 0.367193 0.998230
0.938689 0.408453 0.993256
1.000000 0.503929 0.954223
0.000000 0.105318 0.945922
0.000000 0.109590 0.948638
0.223972 0.131106 0.957519
0.410986 0.185702 0.971313
0.596704 0.292393 0.985565
0.791104 0.499550 0.992309
0.939513 0.538079 0.988586
1.000000 0.602350 0.954314
0.000000 0.166720 0.922301
0.000000 0.189822 0.925048
0.000000 0.275669 0.934997
0.384985 0.370703 0.952575
0.602411 0.468788 0.971740
0.805844 0.631464 0.982849
0.940337 0.671168 0.981750
1.000000 0.719203 0.954772
0.000000 0.384833 0.895293
0.000000 0.378912 0.895781
0.000000 0.359442 0.898161
0.000000 0.377325 0.911528
0.559533 0.571527 0.941772
0.799069 0.714961 0.967651
0.937652 0.780667 0.971862
1.000000 0.825162 0.956390
0.000000 0.599176 0.877989
0.000000 0.597955 0.878660
0.000000 0.594171 0.881041
0.000000 0.589319 0.885710
0.307256 0.592309 0.892607
0.724361 0.745663 0.927337
0.928191 0.861906 0.957366
0.993530 0.899168 0.957305
0.000000 0.780789 0.855924
0.000000 0.782071 0.856596
0.000000 0.785733 0.858030
0.000000 0.793454 0.860716
0.235477 0.807248 0.864317
0.586053 0.832639 0.871855
0.854032 0.877226 0.893919
0.975250 0.911009 0.926421
0.000000 0.974151 0.862333
0.000000 0.974640 0.860990
0.000000 0.977295 0.856565
0.000000 0.979431 0.845792
0.000000 0.987304 0.834287
0.597681 0.989776 0.844388
0.905303 0.986236 0.920348
0.979400 0.970764 0.912627
0.124544 0.000000 1.000000
0.168612 0.000000 1.000000
0.268742 0.000000 1.000000
0.391028 0.000000 1.000000
0.528191 0.000000 1.000000
0.687251 0.213107 1.000000
0.846342 0.468482 1.000000
0.975463 0.511620 1.000000
0.075563 0.000000 1.000000
0.141146 0.000000 1.000000
0.258091 0.000000 1.000000
0.388617 0.000000 1.000000
0.529931 0.000000 1.000000
0.691249 0.270024 1.000000
0.850492 0.504387 1.000000
0.975708 0.539879 1.000000
0.000000 0.000000 1.000000
0.000000 0.014466 1.000000
0.235782 0.078004 1.000000
0.387488 0.146609 1.000000
0.540246 0.240269 1.000000
0.707240 0.408270 1.000000
0.864683 0.605982 1.000000
0.976867 0.623651 1.000000
0.000000 0.158724 1.000000
0.000000 0.192752 1.000000
0.189425 0.303319 1.000000
0.384649 0.348730 1.000000
0.558801 0.427161 1.000000
0.733516 0.557916 1.000000
0.884703 0.718715 1.000000
0.979004 0.731411 1.000000
0.000000 0.215366 0.999969
0.000000 0.210849 1.000000
0.000000 0.258213 1.000000
0.161898 0.380407 1.000000
0.555291 0.553094 1.000000
0.747341 0.666590 1.000000
0.901976 0.805844 1.000000
0.981598 0.833982 1.000000
0.000000 0.506462 0.991943
0.000000 0.502556 0.992065
0.000000 0.489479 0.992706
0.000000 0.468513 0.994141
0.215640 0.489326 0.996460
0.724483 0.734859 0.996185
0.911559 0.869352 0.997559
0.984253 0.910826 0.996918
0.000000 0.712367 0.981964
0.000000 0.711086 0.982055
0.000000 0.706661 0.982452
0.000000 0.700740 0.983307
0.000000 0.700130 0.983948
0.503868 0.725887 0.982971
0.875731 0.886259 0.985077
0.984527 0.955993 0.992706
0.000000 0.901671 0.969757
0.000000 0.901946 0.969726
0.000000 0.903380 0.969665
0.000000 0.906828 0.969574
0.000000 0.913451 0.968811
0.445991 0.925109 0.966491
0.754513 0.941131 0.963622
0.956970 0.964721 0.970275
