data/fiter_cube/25649002/1023278/file.cube
# Created by Adobe Lightroom plugin Export LUT (1.17.0)
# www.johnrellis.com/lightroom/exportlut.htm
# Preset: 高级电影质感情绪胶片_08 云集
# Color profile: C:\Program Files (x86)\Common Files\Adobe\Color\Profiles\Recommended\AdobeRGB1998.icc
LUT_3D_SIZE 8
DOMAIN_MIN 0.000000 0.000000 0.000000
DOMAIN_MAX 0.903226 0.903226 0.903226
0.068147 0.076265 0.088075
0.077760 0.079652 0.090700
0.106844 0.086885 0.093965
0.169650 0.096986 0.096284
0.265232 0.108064 0.098543
0.406592 0.120058 0.100801
0.537591 0.156619 0.106447
0.655879 0.250553 0.128756
0.071687 0.082490 0.092805
0.075654 0.084169 0.094697
0.119265 0.093843 0.091127
0.182559 0.103883 0.093935
0.280278 0.114778 0.095521
0.406958 0.126101 0.096407
0.534569 0.159823 0.100740
0.653742 0.250736 0.120912
0.080964 0.100771 0.103426
0.088350 0.107546 0.111666
0.099184 0.108766 0.109621
0.215549 0.143832 0.091127
0.365698 0.159884 0.076722
0.473243 0.169680 0.076539
0.587182 0.214420 0.080903
0.683589 0.299229 0.105592
0.105318 0.153902 0.129488
0.115724 0.163394 0.139895
0.155673 0.199832 0.170047
0.169955 0.180575 0.148836
0.343786 0.228733 0.105837
0.557244 0.293431 0.000000
0.644739 0.314458 0.000000
0.711879 0.364935 0.013397
0.160006 0.257450 0.180484
0.175296 0.269841 0.193759
0.240177 0.319463 0.248234
0.341070 0.401404 0.309606
0.277958 0.282963 0.205600
0.415961 0.301183 0.144808
0.641230 0.410407 0.000000
0.736507 0.466224 0.000000
0.256901 0.399756 0.260349
0.282719 0.418036 0.281865
0.347875 0.453559 0.337102
0.439063 0.511040 0.410010
0.494148 0.541680 0.434028
0.414740 0.411200 0.290745
0.508629 0.402045 0.209751
0.711421 0.526085 0.145968
0.397040 0.541314 0.376074
0.413703 0.549065 0.391394
0.459419 0.568566 0.434974
0.529046 0.605127 0.507012
0.583612 0.643946 0.556603
0.597406 0.640162 0.541802
0.539788 0.537682 0.401221
0.592950 0.511131 0.309361
0.520897 0.648493 0.494942
0.529717 0.651637 0.504967
0.560113 0.663752 0.540002
0.606714 0.686793 0.596185
0.643702 0.710018 0.636652
0.685512 0.745785 0.674464
0.681636 0.725277 0.641382
0.645136 0.652796 0.532647
0.069978 0.079927 0.095857
0.078370 0.080323 0.097444
0.095552 0.091066 0.104067
0.152865 0.102235 0.108888
0.244327 0.115267 0.112703
0.368536 0.127779 0.116121
0.505455 0.155612 0.122103
0.634607 0.239414 0.141695
0.072236 0.083925 0.096315
0.077333 0.087770 0.101137
0.106783 0.095369 0.103487
0.167025 0.107179 0.106813
0.260044 0.120577 0.110292
0.378698 0.133059 0.112856
0.507164 0.159792 0.117250
0.632502 0.238987 0.134493
0.081209 0.100679 0.105501
0.088746 0.108339 0.114748
0.102693 0.114168 0.118471
0.211460 0.144350 0.101778
0.333440 0.156283 0.097566
0.440620 0.167239 0.099550
0.554040 0.201480 0.103731
0.662165 0.282628 0.122377
0.104189 0.149966 0.130953
0.114870 0.160311 0.142153
0.154879 0.196506 0.175937
0.165530 0.178073 0.154513
0.321996 0.219150 0.115816
0.520348 0.268711 0.067048
0.615167 0.291295 0.037781
0.694270 0.348394 0.076753
0.159274 0.253330 0.183261
0.172702 0.263890 0.195071
0.230198 0.307561 0.243687
0.322942 0.380987 0.302403
0.267552 0.275090 0.207919
0.407050 0.296788 0.151736
0.631495 0.402716 0.064576
0.726680 0.455695 0.000000
0.248203 0.387457 0.256474
0.265904 0.397986 0.271275
0.328099 0.433631 0.323400
0.423377 0.494667 0.400122
0.488655 0.536248 0.435218
0.412238 0.410224 0.296513
0.507439 0.402502 0.216251
0.707820 0.522667 0.154696
0.380560 0.526818 0.364141
0.393164 0.531273 0.375372
0.441535 0.553063 0.419898
0.516075 0.593561 0.494697
0.577020 0.637110 0.551019
0.593500 0.636378 0.540673
0.532158 0.530571 0.398169
0.585443 0.503105 0.305150
0.511376 0.641566 0.485908
0.521508 0.645655 0.497108
0.552941 0.658534 0.532769
0.601129 0.682094 0.590265
0.647639 0.713924 0.642512
0.686946 0.747189 0.677577
0.681422 0.725307 0.643214
0.642237 0.649866 0.530816
0.071595 0.086030 0.115297
0.077516 0.085206 0.121798
0.118166 0.087709 0.127779
0.137545 0.115663 0.135897
0.206546 0.136965 0.150362
0.330694 0.156558 0.160372
0.476875 0.184878 0.171756
0.617609 0.262760 0.197513
0.078401 0.094942 0.114839
0.080690 0.096254 0.122835
0.116304 0.098054 0.130831
0.131930 0.125490 0.142733
0.220554 0.140566 0.150271
0.341558 0.159518 0.158450
0.482429 0.187778 0.168154
0.620233 0.265202 0.192447
0.082033 0.108278 0.119295
0.087984 0.113191 0.124788
0.115969 0.134279 0.148806
0.191257 0.148440 0.146242
0.291661 0.167269 0.151217
0.405280 0.185000 0.155245
0.526390 0.218265 0.162844
0.643580 0.295079 0.183993
0.101228 0.147921 0.134157
0.111513 0.158022 0.145266
0.155734 0.197391 0.189090
0.186801 0.205386 0.191623
0.361669 0.248081 0.155093
0.506279 0.271580 0.142184
0.596429 0.298772 0.146548
0.681941 0.359167 0.166079
0.151034 0.243198 0.183688
0.166140 0.255833 0.197543
0.223117 0.300877 0.247196
0.325994 0.379034 0.324681
0.294011 0.305028 0.248417
0.439521 0.327886 0.189792
0.638819 0.422553 0.146944
0.720180 0.456733 0.141146
0.238590 0.376593 0.257023
0.257481 0.388037 0.272953
0.317693 0.422889 0.323308
0.415015 0.481697 0.405737
0.499702 0.546777 0.466011
0.419348 0.421668 0.325689
0.521538 0.421973 0.248142
0.713527 0.536461 0.210147
0.374090 0.521569 0.365759
0.388128 0.527153 0.378027
0.433448 0.546868 0.418860
0.504356 0.584283 0.487587
0.572137 0.630701 0.553246
0.600488 0.644282 0.563073
0.540642 0.542931 0.424933
0.602686 0.525658 0.337713
0.501884 0.636316 0.480415
0.509728 0.638880 0.488716
0.540856 0.651057 0.522789
0.592859 0.676539 0.583124
0.644038 0.709438 0.642695
0.685847 0.745693 0.680751
0.686976 0.732204 0.656519
0.645624 0.655909 0.546380
0.068879 0.096925 0.156619
0.075074 0.097261 0.165743
0.125185 0.089235 0.196750
0.215061 0.096559 0.192752
0.242374 0.143618 0.186007
0.238407 0.186465 0.204105
0.390265 0.211124 0.222507
0.558984 0.274998 0.257176
0.082399 0.113588 0.159457
0.082063 0.111086 0.168063
0.121920 0.105196 0.196872
0.214939 0.112703 0.197482
0.236942 0.155093 0.190616
0.254154 0.189822 0.206546
0.402014 0.214389 0.222751
0.565728 0.278202 0.255100
0.092012 0.134554 0.159030
0.099947 0.138888 0.164370
0.123995 0.153170 0.192355
0.213260 0.162539 0.212955
0.217746 0.195346 0.212345
0.325292 0.213077 0.220951
0.467079 0.245182 0.235019
0.603784 0.312322 0.260868
0.101991 0.166171 0.168154
0.110445 0.171878 0.174319
0.143618 0.193118 0.197299
0.219913 0.248508 0.254551
0.337407 0.258000 0.234592
0.435767 0.270756 0.232517
0.541375 0.300542 0.236790
0.648157 0.365423 0.257115
0.138552 0.233707 0.188327
0.149233 0.241306 0.195987
0.197757 0.276555 0.236484
0.303807 0.354955 0.325933
0.329747 0.347509 0.312383
0.490120 0.379858 0.259953
0.626795 0.429206 0.247990
0.700374 0.457038 0.250980
0.221805 0.360327 0.255467
0.242771 0.375799 0.273045
0.299016 0.408484 0.319249
0.394476 0.466865 0.398322
0.498665 0.543389 0.484596
0.444160 0.453254 0.379889
0.554314 0.463661 0.308110
0.719600 0.558099 0.298528
0.351110 0.504356 0.357427
0.366735 0.511833 0.370520
0.415747 0.535363 0.412543
0.488655 0.574334 0.479622
0.568170 0.624750 0.560449
0.617548 0.662989 0.602472
0.551476 0.559442 0.461982
0.622431 0.551171 0.379278
0.490669 0.630030 0.477516
0.500023 0.633845 0.486885
0.528161 0.645258 0.515587
0.575494 0.666682 0.567346
0.631617 0.699397 0.632410
0.681849 0.741238 0.683101
0.696407 0.743862 0.678645
0.649378 0.663416 0.567468
0.060151 0.118715 0.224338
0.068635 0.119051 0.233738
0.114199 0.115480 0.265263
0.241093 0.089113 0.307073
0.372503 0.108705 0.293217
0.396735 0.181308 0.266148
0.381994 0.237797 0.271031
0.459907 0.305638 0.316350
0.082002 0.137942 0.225864
0.080812 0.134859 0.235477
0.117525 0.131899 0.265599
0.240909 0.109804 0.311345
0.369787 0.131899 0.296269
0.390875 0.195071 0.269383
0.375311 0.246036 0.274571
0.471565 0.309331 0.318212
0.113252 0.166567 0.211276
0.119173 0.172976 0.222446
0.133913 0.180423 0.260685
0.231266 0.170291 0.318334
0.360784 0.193942 0.306676
0.365698 0.232303 0.277256
0.347265 0.267002 0.282719
0.506554 0.320623 0.320714
0.118898 0.209171 0.229557
0.128359 0.213748 0.234501
0.162844 0.230961 0.254185
0.228305 0.267521 0.306615
0.357183 0.285588 0.333379
0.328954 0.291997 0.303777
0.433143 0.306676 0.307012
0.573114 0.356909 0.328222
0.140108 0.255283 0.240330
0.150454 0.261143 0.246525
0.186435 0.281163 0.267704
0.256809 0.319524 0.309422
0.363928 0.390326 0.381567
0.473457 0.389776 0.346136
0.556573 0.397864 0.334417
0.649165 0.436835 0.340185
0.191318 0.332891 0.259434
0.203189 0.339971 0.266972
0.244114 0.362493 0.292760
0.326299 0.409247 0.352148
0.442573 0.488746 0.448432
0.461158 0.478157 0.430274
0.594934 0.509697 0.379248
0.713252 0.560784 0.377783
0.309361 0.470192 0.336767
0.322026 0.476112 0.346746
0.366461 0.498085 0.382391
0.439887 0.537591 0.444038
0.527733 0.592462 0.525536
0.611261 0.656794 0.609491
0.558923 0.573327 0.497841
0.645075 0.577417 0.424475
0.455634 0.606897 0.455055
0.464118 0.610101 0.462776
0.492958 0.622004 0.489540
0.544610 0.647822 0.540826
0.602411 0.678462 0.603082
0.667475 0.726314 0.675288
0.708339 0.758724 0.707210
0.649958 0.667872 0.585992
0.021576 0.156313 0.322942
0.054780 0.156649 0.331456
0.115328 0.155032 0.360876
0.240787 0.134463 0.413886
0.408423 0.095460 0.432288
0.516258 0.177249 0.404120
0.552514 0.269352 0.382361
0.562310 0.341711 0.387457
0.076204 0.173404 0.317723
0.076844 0.170108 0.326055
0.120974 0.169131 0.354986
0.233585 0.153597 0.405890
0.401648 0.123507 0.429633
0.511101 0.195407 0.403906
0.546380 0.277958 0.381872
0.556054 0.343938 0.385931
0.132601 0.218906 0.308385
0.138643 0.222202 0.318364
0.148135 0.218692 0.350591
0.230472 0.215518 0.400061
0.398444 0.198611 0.438544
0.506584 0.257450 0.415229
0.532372 0.312169 0.387640
0.539239 0.359472 0.388098
0.154574 0.255833 0.301640
0.163729 0.258732 0.304997
0.197604 0.271733 0.320348
0.253117 0.303990 0.388525
0.397650 0.303410 0.458961
0.505943 0.347234 0.439460
0.509575 0.361639 0.398688
0.504967 0.387915 0.395911
0.164034 0.317052 0.323674
0.174838 0.321111 0.328069
0.212772 0.334844 0.343328
0.277470 0.359564 0.370825
0.366949 0.402838 0.427192
0.491279 0.426551 0.455634
0.450355 0.399359 0.401312
0.545342 0.421607 0.408240
0.201114 0.367834 0.330144
0.213565 0.373754 0.336431
0.250553 0.388281 0.353491
0.311254 0.413642 0.383062
0.390478 0.451087 0.425971
0.498177 0.524926 0.504051
0.587488 0.519799 0.464149
0.660395 0.527428 0.449836
0.287510 0.461402 0.363836
0.299535 0.467262 0.370886
0.335180 0.482490 0.390784
0.391974 0.508629 0.424475
0.472145 0.549187 0.482399
0.573968 0.620722 0.580438
0.577874 0.600946 0.550927
0.683894 0.621942 0.500008
0.411627 0.586114 0.436622
0.420630 0.587915 0.442359
0.450721 0.595300 0.462806
0.500053 0.618860 0.506584
0.562188 0.651057 0.567010
0.632105 0.696132 0.641657
0.711147 0.763241 0.724971
0.655512 0.678767 0.614832
0.063447 0.211643 0.433295
0.085206 0.212924 0.441474
0.145174 0.211612 0.463142
0.254612 0.201053 0.501244
0.430854 0.147189 0.550256
0.546777 0.184176 0.537774
0.621332 0.295506 0.511437
0.665644 0.398566 0.507378
0.092653 0.224247 0.425025
0.100069 0.223026 0.432807
0.149294 0.222232 0.454749
0.248478 0.213169 0.491981
0.417914 0.169802 0.541161
0.539513 0.194400 0.533074
0.613764 0.296941 0.505516
0.658473 0.393378 0.500206
0.168338 0.278935 0.417090
0.177584 0.281865 0.425544
0.179446 0.267979 0.446906
0.255131 0.265965 0.484230
0.402899 0.245060 0.533440
0.538811 0.256413 0.541375
0.612726 0.343908 0.515496
0.655085 0.422248 0.508080
0.203494 0.310094 0.383917
0.209812 0.314061 0.390753
0.236484 0.330144 0.418647
0.276249 0.338994 0.468757
0.384192 0.339391 0.521599
0.534081 0.345129 0.553063
0.611170 0.410864 0.531579
0.644312 0.455634 0.513451
0.216495 0.366155 0.398962
0.224369 0.366827 0.400061
0.252415 0.371862 0.406928
0.300114 0.382696 0.421820
0.369818 0.415991 0.489509
0.512840 0.424292 0.558556
0.599725 0.469795 0.540856
0.618738 0.482765 0.509239
0.239567 0.440070 0.424994
0.248783 0.441932 0.427497
0.279118 0.448249 0.436011
0.328649 0.460121 0.451881
0.392584 0.476875 0.475135
0.483925 0.519524 0.533989
0.596674 0.550256 0.567498
0.568322 0.510674 0.504021
0.296666 0.492287 0.434058
0.305882 0.495430 0.437964
0.333440 0.503044 0.448707
0.378271 0.516869 0.467781
0.436255 0.536400 0.494759
0.509178 0.569299 0.536980
0.601373 0.634485 0.613184
0.671412 0.622278 0.569970
0.384527 0.569390 0.463935
0.391791 0.571893 0.467628
0.421607 0.584771 0.484962
0.462318 0.601343 0.508354
0.514061 0.623651 0.541039
0.580224 0.655116 0.593439
0.667720 0.721523 0.687129
0.667414 0.697597 0.654017
0.184878 0.302525 0.550408
0.197513 0.303014 0.555291
0.237034 0.298772 0.567834
0.319097 0.291112 0.593194
0.443275 0.269139 0.626001
0.579736 0.247807 0.653986
0.644617 0.326329 0.626368
0.702327 0.431983 0.611536
0.192721 0.312047 0.544457
0.202213 0.311681 0.549401
0.239322 0.308415 0.562829
0.315892 0.301030 0.587732
0.437263 0.281559 0.621393
0.575586 0.258885 0.651850
0.641932 0.331395 0.625269
0.699886 0.434760 0.610071
0.248081 0.361273 0.531762
0.248631 0.357671 0.536431
0.251835 0.341680 0.550072
0.319249 0.341955 0.579278
0.427466 0.329198 0.613672
0.567803 0.304021 0.651637
0.640253 0.363775 0.630579
0.697627 0.457679 0.614099
0.266423 0.391852 0.502892
0.275181 0.395819 0.509300
0.302525 0.404913 0.528710
0.325872 0.396063 0.561486
0.412665 0.394324 0.600183
0.545434 0.383551 0.644221
0.641047 0.417029 0.644038
0.696590 0.496986 0.624292
0.288212 0.430060 0.486641
0.294896 0.431037 0.488319
0.312688 0.429511 0.490211
0.343816 0.441138 0.517571
0.396551 0.452949 0.572412
0.506584 0.457252 0.624994
0.631037 0.476844 0.652033
0.693874 0.543755 0.636835
0.311772 0.497444 0.508171
0.316136 0.496529 0.508171
0.332616 0.494759 0.509483
0.362219 0.493721 0.514275
0.405188 0.493660 0.523766
0.481209 0.527520 0.595300
0.618891 0.555077 0.666804
0.690822 0.597406 0.653498
0.349828 0.571527 0.539208
0.354345 0.571252 0.539635
0.371008 0.571160 0.542199
0.402106 0.573724 0.549554
0.445655 0.578729 0.561791
0.501640 0.588769 0.581842
0.580163 0.620905 0.635370
0.684230 0.651759 0.670527
0.417487 0.617273 0.551446
0.421149 0.617517 0.552392
0.435798 0.619776 0.557183
0.463264 0.625574 0.567834
0.501030 0.634333 0.583642
0.548821 0.647730 0.606744
0.607568 0.671473 0.642664
0.693477 0.734188 0.719997
