data/fiter_cube/25649002/1023278/file.cube
# Created by Adobe Lightroom plugin Export LUT (1.17.0)
# www.johnrellis.com/lightroom/exportlut.htm
# Preset: 高级电影质感情绪胶片_08 云集
# Color profile: C:\Program Files (x86)\Common Files\Adobe\Color\Profiles\Recommended\AdobeRGB1998.icc
LUT_3D_SIZE 5
DOMAIN_MIN 0.000000 0.000000 0.000000
DOMAIN_MAX 0.903226 0.903226 0.903226
0.068147 0.076265 0.088075
0.097017 0.085115 0.093355
0.213565 0.102998 0.097475
0.441321 0.125612 0.101625
0.655879 0.250553 0.128756
0.077668 0.094240 0.099947
0.091066 0.100130 0.104646
0.281651 0.138460 0.085389
0.488136 0.161746 0.084535
0.680018 0.290715 0.114137
0.126314 0.196292 0.150210
0.177310 0.239689 0.196017
0.222019 0.231113 0.176638
0.562799 0.332311 0.022980
0.727474 0.408972 0.000000
0.295415 0.442725 0.291661
0.358343 0.476112 0.345434
0.503868 0.566674 0.466957
0.449165 0.444800 0.317296
0.688472 0.529473 0.200534
0.520897 0.648493 0.494942
0.550439 0.659693 0.528679
0.623377 0.693904 0.616327
0.697017 0.755459 0.685145
0.645136 0.652796 0.532647
0.071626 0.084138 0.108370
0.103243 0.085664 0.116945
0.168032 0.120912 0.134615
0.372412 0.151156 0.148043
0.618830 0.250462 0.178408
0.078828 0.099947 0.111543
0.101381 0.117159 0.131838
0.227939 0.142489 0.134493
0.426886 0.173617 0.142214
0.642725 0.281041 0.170199
0.122835 0.190433 0.154726
0.168948 0.229770 0.198367
0.225559 0.240299 0.203983
0.552178 0.334630 0.121889
0.709285 0.405097 0.123110
0.285557 0.430274 0.292760
0.347021 0.463691 0.344427
0.496590 0.556268 0.472084
0.454810 0.454871 0.345159
0.692042 0.538842 0.238895
0.510704 0.642512 0.488350
0.540795 0.653834 0.521538
0.622858 0.695003 0.618006
0.699275 0.757443 0.692317
0.648310 0.658503 0.547845
0.065400 0.106538 0.188022
0.099916 0.104189 0.217868
0.291814 0.099977 0.241276
0.303471 0.198154 0.228061
0.517510 0.290074 0.289921
0.100740 0.142763 0.180911
0.113344 0.151064 0.215885
0.287724 0.160800 0.254582
0.279667 0.225528 0.242008
0.552392 0.308629 0.293065
0.118227 0.207187 0.201633
0.150668 0.226108 0.221897
0.290806 0.318883 0.318090
0.476326 0.330053 0.284276
0.648768 0.401678 0.298375
0.233738 0.379370 0.271366
0.282872 0.407111 0.311192
0.444770 0.507378 0.445747
0.480446 0.492226 0.423499
0.708278 0.570031 0.346624
0.472358 0.617670 0.464729
0.503197 0.630854 0.494606
0.588373 0.671687 0.584588
0.687800 0.745388 0.691341
0.647700 0.663203 0.573327
0.016175 0.165988 0.345220
0.097505 0.166415 0.373266
0.334691 0.112093 0.462043
0.543328 0.201968 0.429450
0.591485 0.353063 0.412757
0.126162 0.220066 0.336370
0.130587 0.212467 0.364569
0.314488 0.193332 0.450355
0.534783 0.256779 0.435157
0.574609 0.363714 0.409644
0.165408 0.289769 0.324376
0.197543 0.300633 0.336858
0.301884 0.347448 0.414374
0.515190 0.382483 0.456153
0.514580 0.403754 0.410773
0.226139 0.402502 0.358465
0.258396 0.412116 0.371160
0.360693 0.453010 0.420142
0.525933 0.553918 0.531853
0.660365 0.546441 0.474830
0.406226 0.583429 0.444007
0.431556 0.592218 0.459327
0.518700 0.626886 0.526635
0.641779 0.703517 0.653803
0.656947 0.681758 0.622553
0.184878 0.302525 0.550408
0.223636 0.299992 0.563561
0.376654 0.282689 0.609003
0.602167 0.264836 0.651545
0.702327 0.431983 0.611536
0.234287 0.348363 0.537194
0.240177 0.334783 0.551659
0.369726 0.324804 0.598901
0.593408 0.304601 0.649561
0.699062 0.452216 0.613825
0.278660 0.402380 0.481453
0.294347 0.410315 0.499123
0.358495 0.421363 0.564385
0.562005 0.414618 0.645716
0.695460 0.519432 0.630243
0.324620 0.519463 0.518608
0.340429 0.517998 0.519860
0.394842 0.517418 0.529686
0.504997 0.549523 0.603632
0.688838 0.609796 0.656794
0.417487 0.617273 0.551446
0.430884 0.618891 0.555444
0.481056 0.629633 0.575067
0.562249 0.652338 0.614130
0.693477 0.734188 0.719997
