data/fiter_cube/25649002/1023278/file.cube
# Created by Adobe Lightroom plugin Export LUT (1.17.0)
# www.johnrellis.com/lightroom/exportlut.htm
# Preset: 高级电影质感情绪胶片_08 云集
# Color profile: C:\Program Files (x86)\Common Files\Adobe\Color\Profiles\Recommended\AdobeRGB1998.icc
LUT_3D_SIZE 32
DOMAIN_MIN 0.0 0.0 0.0
DOMAIN_MAX 1.0 1.0 1.0
0.068147 0.076265 0.088075
0.069459 0.076417 0.088319
0.070710 0.076936 0.088563
0.074159 0.078157 0.089509
0.077760 0.079652 0.090700
0.082673 0.081544 0.091554
0.089021 0.083040 0.092653
0.097017 0.085115 0.093355
0.106844 0.086885 0.093965
0.119081 0.089082 0.094453
0.133761 0.091676 0.094759
0.150546 0.094209 0.095644
0.169650 0.096986 0.096284
0.190738 0.099977 0.096895
0.213565 0.102998 0.097475
0.238041 0.105531 0.098238
0.265232 0.108064 0.098543
0.301335 0.110689 0.099153
0.336278 0.113252 0.099641
0.371374 0.116304 0.100282
0.406592 0.120058 0.100801
0.441321 0.125612 0.101625
0.474678 0.133181 0.102663
0.506889 0.143496 0.104189
0.537591 0.156619 0.106447
0.567498 0.173404 0.109285
0.596979 0.194644 0.113954
0.626612 0.220249 0.119875
0.655879 0.250553 0.128756
0.684016 0.285222 0.141543
0.711208 0.324224 0.159976
0.738582 0.368200 0.185336
0.068421 0.076905 0.088319
0.068849 0.076844 0.088594
0.071046 0.077607 0.088502
0.074647 0.078798 0.088899
0.078614 0.080262 0.090089
0.083864 0.081697 0.091218
0.090028 0.083558 0.092317
0.097993 0.085267 0.092775
0.107637 0.087343 0.093660
0.119783 0.089509 0.094118
0.134340 0.092103 0.094697
0.151064 0.094636 0.095338
0.169772 0.097475 0.095979
0.190860 0.100465 0.096620
0.213321 0.103334 0.097200
0.237613 0.105959 0.097993
0.264958 0.108461 0.098299
0.299504 0.111238 0.098787
0.333196 0.113741 0.099214
0.367620 0.116396 0.099763
0.402289 0.120180 0.100191
0.436622 0.125093 0.100984
0.469947 0.132296 0.101869
0.502220 0.141878 0.103334
0.533196 0.154757 0.105226
0.563226 0.171145 0.108186
0.593133 0.191745 0.112215
0.622950 0.216953 0.118166
0.652644 0.247074 0.126528
0.681209 0.281468 0.139162
0.708736 0.320134 0.156802
0.736080 0.363714 0.181369
0.069062 0.077516 0.089113
0.069764 0.078096 0.089601
0.070192 0.078401 0.089570
0.074769 0.079835 0.089387
0.079805 0.080751 0.089754
0.084901 0.082521 0.090883
0.091371 0.084321 0.091676
0.099153 0.086000 0.092683
0.109255 0.087953 0.093294
0.121401 0.090333 0.093751
0.135775 0.092927 0.094301
0.152499 0.095369 0.094942
0.171328 0.098360 0.095583
0.192203 0.101015 0.096468
0.214725 0.104067 0.097047
0.238956 0.106630 0.097566
0.266300 0.109468 0.098085
0.300114 0.112062 0.098421
0.333349 0.114351 0.098634
0.367376 0.117006 0.099001
0.401434 0.120790 0.099489
0.435645 0.125826 0.100313
0.468696 0.132876 0.101289
0.500664 0.142184 0.102632
0.531640 0.154635 0.104585
0.561791 0.170779 0.107210
0.591669 0.191012 0.111330
0.621668 0.216037 0.116793
0.651453 0.245945 0.125307
0.680049 0.280125 0.137484
0.707729 0.318578 0.154696
0.734951 0.361822 0.178988
0.070527 0.079713 0.090852
0.071107 0.080293 0.091615
0.071748 0.080873 0.092103
0.072938 0.080995 0.092348
0.078279 0.082918 0.091279
0.086397 0.084596 0.090700
0.094820 0.086244 0.090883
0.102815 0.088106 0.091859
0.113069 0.089876 0.092500
0.125429 0.092348 0.093202
0.140108 0.094636 0.093721
0.156954 0.097383 0.094301
0.175814 0.100374 0.094881
0.196658 0.103334 0.095491
0.218997 0.105867 0.096071
0.243137 0.108705 0.096834
0.271153 0.111391 0.097230
0.303532 0.113893 0.097658
0.335393 0.116274 0.097719
0.367895 0.118868 0.097993
0.401373 0.122530 0.098329
0.434516 0.127260 0.099092
0.467720 0.134188 0.099855
0.500206 0.143587 0.101106
0.532006 0.156283 0.102663
0.562646 0.172549 0.105623
0.593103 0.193240 0.109621
0.623163 0.218723 0.115419
0.652796 0.248386 0.123659
0.681056 0.281956 0.135622
0.708186 0.319646 0.152682
0.734981 0.361730 0.176333
0.071687 0.082490 0.092805
0.072328 0.082704 0.093568
0.073213 0.083528 0.094514
0.074311 0.084016 0.094972
0.075654 0.084169 0.094697
0.081880 0.086152 0.093629
0.093935 0.089174 0.091768
0.105806 0.091707 0.091493
0.119265 0.093843 0.091127
0.131777 0.095979 0.092103
0.146639 0.098177 0.092622
0.163851 0.101015 0.093141
0.182559 0.103883 0.093935
0.203616 0.106600 0.094484
0.225925 0.109224 0.095003
0.250736 0.112001 0.095369
0.280278 0.114778 0.095521
0.311925 0.117433 0.095918
0.343206 0.119722 0.095918
0.374578 0.122652 0.096223
0.406958 0.126101 0.096407
0.439307 0.131075 0.096925
0.471473 0.137881 0.097780
0.503380 0.147372 0.098817
0.534569 0.159823 0.100740
0.564965 0.176303 0.103243
0.595056 0.196689 0.107118
0.624689 0.221469 0.112520
0.653742 0.250736 0.120912
0.681666 0.283757 0.132570
0.708461 0.320623 0.149477
0.735103 0.362097 0.172366
0.073243 0.085145 0.094911
0.073884 0.085664 0.095399
0.074830 0.086122 0.096376
0.075959 0.087495 0.097505
0.077607 0.088472 0.098146
0.079164 0.087984 0.097169
0.085847 0.090028 0.095857
0.102266 0.094911 0.093233
0.120638 0.099550 0.091676
0.137819 0.102541 0.091249
0.157137 0.104982 0.090944
0.174502 0.107424 0.091402
0.193790 0.109773 0.092164
0.215091 0.112459 0.092592
0.238010 0.115084 0.092958
0.262699 0.117586 0.093507
0.293828 0.120455 0.093599
0.324865 0.122896 0.093599
0.355230 0.125429 0.093538
0.386297 0.128267 0.093721
0.417517 0.132143 0.094087
0.449775 0.137575 0.094148
0.517144 0.158694 0.096132
0.545922 0.171420 0.098207
0.573388 0.187228 0.101137
0.600092 0.205966 0.104860
0.626368 0.228031 0.110079
0.652277 0.253300 0.117159
0.677272 0.282048 0.127199
0.701717 0.314061 0.141299
0.725551 0.349615 0.160250
0.751064 0.390143 0.185183
0.075715 0.089387 0.097139
0.076234 0.089876 0.097841
0.077058 0.090608 0.098756
0.078950 0.092317 0.101045
0.080659 0.094057 0.102296
0.083162 0.094820 0.102174
0.084840 0.093507 0.100832
0.091859 0.095033 0.099092
0.112795 0.102266 0.095644
0.139834 0.109895 0.092622
0.166720 0.116274 0.090639
0.190494 0.119142 0.089998
0.216068 0.121584 0.089052
0.237888 0.123323 0.089601
0.261021 0.125277 0.089784
0.289097 0.127626 0.089723
0.320592 0.130312 0.089693
0.350408 0.132448 0.089784
0.380529 0.135195 0.089631
0.411505 0.138582 0.089601
0.444312 0.143557 0.089693
0.477882 0.150942 0.090394
0.511498 0.161379 0.091035
0.543481 0.175021 0.092744
0.573693 0.191653 0.095308
0.601404 0.210941 0.099336
0.628016 0.232944 0.104463
0.653559 0.257694 0.111604
0.678218 0.285466 0.121187
0.702113 0.316258 0.134615
0.725551 0.350347 0.152987
0.750698 0.389593 0.177005
0.077668 0.094240 0.099947
0.078614 0.094667 0.100618
0.079438 0.095369 0.101503
0.081147 0.097261 0.103944
0.084108 0.099733 0.106447
0.087098 0.102632 0.107942
0.089418 0.102602 0.106996
0.091066 0.100130 0.104646
0.097200 0.100587 0.102602
0.122225 0.109987 0.098909
0.157321 0.120607 0.093843
0.191012 0.129335 0.090669
0.222690 0.134768 0.088533
0.251072 0.136812 0.087221
0.281651 0.138460 0.085389
0.311650 0.140536 0.084810
0.340520 0.142336 0.084596
0.368414 0.144106 0.084413
0.396460 0.146181 0.084382
0.425696 0.149508 0.084413
0.456397 0.154604 0.084291
0.488136 0.161746 0.084535
0.519829 0.171847 0.085145
0.550103 0.185031 0.086519
0.578698 0.201053 0.089296
0.605524 0.219516 0.092714
0.631281 0.240391 0.097444
0.656062 0.264103 0.104189
0.680018 0.290715 0.114137
0.703334 0.320226 0.127291
0.726406 0.353185 0.145418
0.751308 0.391058 0.168521
0.080964 0.100771 0.103426
0.081422 0.101198 0.104311
0.082460 0.102052 0.105379
0.084779 0.104219 0.107637
0.088350 0.107546 0.111666
0.091524 0.111086 0.113649
0.096437 0.115328 0.116304
0.098238 0.112978 0.113161
0.099184 0.108766 0.109621
0.104067 0.107149 0.107210
0.133059 0.119051 0.102724
0.172335 0.132052 0.096956
0.215549 0.143832 0.091127
0.260197 0.153902 0.085786
0.296880 0.157412 0.083253
0.332097 0.159121 0.080201
0.365698 0.159884 0.076722
0.391485 0.160525 0.076692
0.417182 0.161990 0.076814
0.444373 0.164889 0.076936
0.473243 0.169680 0.076539
0.502647 0.176730 0.076631
0.532097 0.186709 0.077089
0.560174 0.199191 0.078614
0.587182 0.214420 0.080903
0.612573 0.231968 0.084352
0.637140 0.251865 0.088960
0.660517 0.274052 0.096284
0.683589 0.299229 0.105592
0.706050 0.327092 0.118654
0.728328 0.358343 0.136690
0.752926 0.394598 0.158938
0.085054 0.109285 0.108125
0.085481 0.109926 0.108705
0.086427 0.110933 0.109712
0.088808 0.113100 0.112276
0.092592 0.116945 0.116457
0.097810 0.121462 0.120729
0.102876 0.126619 0.123629
0.108461 0.131075 0.125551
0.110018 0.126162 0.120455
0.110048 0.119722 0.115816
0.111574 0.114382 0.112490
0.144717 0.128908 0.107301
0.188571 0.144350 0.100740
0.244602 0.160922 0.091676
0.297917 0.173739 0.084352
0.347875 0.182467 0.076509
0.381476 0.183230 0.073182
0.413367 0.183597 0.069093
0.443977 0.184298 0.064240
0.468391 0.186130 0.064454
0.493843 0.190097 0.064942
0.519829 0.196292 0.065278
0.545556 0.204776 0.066011
0.570764 0.215976 0.066987
0.595422 0.229770 0.069276
0.619165 0.245914 0.072724
0.642634 0.264561 0.077455
0.665278 0.285649 0.084688
0.687617 0.309545 0.094789
0.709621 0.336248 0.108614
0.731807 0.366400 0.126802
0.756313 0.401740 0.149416
0.089815 0.119966 0.113161
0.090486 0.120699 0.113893
0.091554 0.121798 0.115236
0.093935 0.124300 0.117800
0.098116 0.128420 0.122255
0.104555 0.134279 0.128817
0.110811 0.140230 0.132601
0.118349 0.147829 0.136873
0.124269 0.150179 0.136690
0.124849 0.142794 0.129763
0.123232 0.133394 0.123110
0.121462 0.124117 0.118563
0.158968 0.141299 0.113252
0.209506 0.160159 0.105653
0.271580 0.179049 0.094453
0.332433 0.193881 0.083192
0.388373 0.206058 0.071138
0.426978 0.210117 0.063386
0.456275 0.210361 0.059113
0.485573 0.211948 0.048554
0.514702 0.215213 0.032532
0.538109 0.220310 0.034882
0.561700 0.228214 0.036439
0.584771 0.238193 0.040345
0.607355 0.250614 0.046998
0.629297 0.265110 0.054170
0.650904 0.281773 0.061372
0.671839 0.300847 0.070344
0.692836 0.322637 0.081422
0.713649 0.347112 0.095949
0.735256 0.375402 0.114229
0.759274 0.408911 0.137179
0.095766 0.133730 0.119692
0.096559 0.134554 0.120760
0.097780 0.135836 0.121981
0.100649 0.138491 0.124880
0.105348 0.142885 0.129488
0.112428 0.149233 0.136355
0.120577 0.157046 0.143618
0.129091 0.165377 0.148379
0.139925 0.175784 0.154391
0.144015 0.173342 0.150271
0.143465 0.163394 0.141176
0.141329 0.151888 0.133211
0.145083 0.145815 0.130709
0.188174 0.164981 0.124056
0.250370 0.188846 0.113771
0.324071 0.211276 0.099001
0.394873 0.229679 0.079744
0.449287 0.243473 0.062959
0.498604 0.257633 0.023987
0.523888 0.258244 0.014405
0.548791 0.260472 0.002045
0.572930 0.264591 0.000000
0.596216 0.270451 0.000000
0.615015 0.278264 0.000000
0.633845 0.288212 0.000000
0.652308 0.300328 0.001282
0.670405 0.314275 0.019959
0.688533 0.330358 0.044434
0.706722 0.349126 0.066987
0.725460 0.370825 0.085176
0.746059 0.396765 0.105287
0.769314 0.428046 0.129213
0.105318 0.153902 0.129488
0.106233 0.154879 0.130434
0.107546 0.156100 0.131716
0.110628 0.158877 0.134798
0.115724 0.163394 0.139895
0.123293 0.169772 0.147005
0.134005 0.178805 0.157107
0.143557 0.188174 0.163302
0.155673 0.199832 0.170047
0.172641 0.215976 0.179599
0.175326 0.209140 0.171176
0.175051 0.197086 0.160098
0.169955 0.180575 0.148836
0.161776 0.161685 0.139376
0.202548 0.178653 0.132143
0.268894 0.204898 0.121492
0.343786 0.228733 0.105837
0.416144 0.249027 0.083833
0.472511 0.265232 0.063386
0.521172 0.281804 0.018799
0.557244 0.293431 0.000000
0.580224 0.296422 0.000000
0.602319 0.300877 0.000000
0.623957 0.306798 0.000000
0.644739 0.314458 0.000000
0.661311 0.323644 0.000000
0.678004 0.335149 0.000000
0.694728 0.348730 0.000000
0.711879 0.364935 0.013397
0.730007 0.384619 0.059297
0.750149 0.408667 0.083619
0.773068 0.437690 0.109895
0.114809 0.173373 0.138888
0.115755 0.174472 0.140078
0.117281 0.175753 0.141512
0.120790 0.178775 0.144778
0.126284 0.183352 0.149813
0.134096 0.190158 0.157382
0.145113 0.199313 0.167483
0.158633 0.211124 0.178622
0.172915 0.225620 0.187076
0.191470 0.243626 0.197848
0.211337 0.260197 0.206851
0.208988 0.245182 0.192416
0.204929 0.227756 0.177188
0.194919 0.205020 0.162203
0.181399 0.180026 0.149569
0.217441 0.192660 0.141054
0.286290 0.220737 0.129915
0.360967 0.245487 0.114046
0.433173 0.267735 0.092317
0.495033 0.287816 0.064790
0.542290 0.306554 0.018555
0.584436 0.326787 0.000000
0.609583 0.334051 0.000000
0.630396 0.338964 0.000000
0.650172 0.344915 0.000000
0.669062 0.351934 0.000000
0.687160 0.360143 0.000000
0.702632 0.371069 0.000000
0.718654 0.384741 0.000000
0.736049 0.402075 0.000000
0.755795 0.424018 0.046387
0.778317 0.450752 0.086000
0.126314 0.196292 0.150210
0.127596 0.197330 0.151247
0.129091 0.198642 0.152712
0.132815 0.201846 0.156161
0.139193 0.207523 0.162081
0.148379 0.215366 0.170413
0.160769 0.225864 0.181491
0.177310 0.239689 0.196017
0.193210 0.254734 0.206271
0.212131 0.272984 0.217197
0.236240 0.294957 0.230472
0.252018 0.303319 0.233097
0.246067 0.283360 0.214511
0.237705 0.260258 0.195315
0.222019 0.231113 0.176638
0.202060 0.199374 0.160525
0.232303 0.206851 0.150332
0.303593 0.236515 0.138918
0.378576 0.263005 0.123323
0.450843 0.287572 0.101656
0.516045 0.311467 0.069703
0.562799 0.332311 0.022980
0.603052 0.353460 0.000000
0.636896 0.372473 0.000000
0.655573 0.376837 0.000000
0.673762 0.382422 0.000000
0.691646 0.389349 0.000000
0.709560 0.398077 0.000000
0.727474 0.408972 0.000000
0.745052 0.424994 0.000000
0.764889 0.445441 0.000000
0.787564 0.470619 0.046387
0.142306 0.225925 0.164767
0.143862 0.227512 0.166262
0.145541 0.229068 0.167880
0.149935 0.232792 0.171847
0.156954 0.238743 0.177981
0.166842 0.247074 0.186831
0.180392 0.258091 0.198459
0.197818 0.272160 0.213291
0.218296 0.289311 0.229129
0.237949 0.307408 0.240543
0.261967 0.328252 0.254185
0.290043 0.351385 0.270268
0.295232 0.346197 0.261753
0.284154 0.320562 0.237217
0.270634 0.291783 0.213230
0.248966 0.256382 0.190524
0.223239 0.218906 0.171328
0.245914 0.220066 0.159792
0.320623 0.252415 0.148562
0.397589 0.281895 0.133669
0.470314 0.309453 0.112764
0.534752 0.336278 0.083192
0.584588 0.360662 0.033417
0.623621 0.383154 0.000000
0.657618 0.404761 0.000000
0.680873 0.416632 0.000000
0.697810 0.421851 0.000000
0.714748 0.428748 0.000000
0.732662 0.438209 0.000000
0.752377 0.450782 0.000000
0.773526 0.467201 0.000000
0.795315 0.489265 0.000000
0.160006 0.257450 0.180484
0.161379 0.258640 0.181857
0.163363 0.260258 0.183627
0.167971 0.263951 0.187564
0.175296 0.269841 0.193759
0.185489 0.277989 0.202487
0.199313 0.289006 0.214267
0.217075 0.302586 0.229221
0.240177 0.319463 0.248234
0.261357 0.337102 0.261967
0.284764 0.356603 0.276097
0.311681 0.378363 0.292058
0.341070 0.401404 0.309606
0.334356 0.383062 0.288701
0.320317 0.354742 0.260197
0.303532 0.322637 0.231662
0.277958 0.282963 0.205600
0.246494 0.240238 0.183261
0.261082 0.234501 0.169680
0.337957 0.269047 0.159243
0.415961 0.301183 0.144808
0.488441 0.331334 0.125124
0.551049 0.360021 0.097963
0.603693 0.387304 0.050599
0.641230 0.410407 0.000000
0.673426 0.431708 0.000000
0.701747 0.451484 0.000000
0.718898 0.458045 0.000000
0.736507 0.466224 0.000000
0.755917 0.477546 0.000000
0.777493 0.492409 0.000000
0.801785 0.511040 0.000000
0.180087 0.291752 0.197604
0.182010 0.293492 0.199283
0.195834 0.313268 0.210941
0.201053 0.317052 0.215335
0.209537 0.323003 0.222354
0.220798 0.330816 0.231815
0.235874 0.340917 0.244450
0.255314 0.353521 0.260563
0.279210 0.368841 0.280583
0.305028 0.386206 0.300755
0.327733 0.404150 0.314733
0.352850 0.423743 0.330144
0.379553 0.443946 0.346654
0.402564 0.459480 0.358801
0.386572 0.432227 0.327886
0.368627 0.400580 0.294438
0.348089 0.364752 0.259709
0.318639 0.320500 0.227756
0.280735 0.270573 0.200198
0.284611 0.255406 0.183352
0.364782 0.293004 0.173281
0.442969 0.327764 0.159365
0.513542 0.360266 0.141054
0.573083 0.390448 0.116396
0.623529 0.418158 0.080171
0.660853 0.440803 0.030304
0.690639 0.460426 0.000000
0.717311 0.478920 0.000000
0.740932 0.494728 0.000000
0.759762 0.504509 0.000000
0.780819 0.517754 0.000000
0.804501 0.534783 0.000000
0.206058 0.332158 0.219150
0.209384 0.335882 0.221958
0.213779 0.340124 0.225559
0.220523 0.345892 0.231296
0.230472 0.353216 0.239414
0.242741 0.361395 0.249790
0.258366 0.371130 0.262730
0.277440 0.382635 0.278660
0.300664 0.396704 0.298192
0.327184 0.412848 0.320531
0.350378 0.429786 0.336431
0.373571 0.447547 0.351171
0.398138 0.465949 0.366735
0.423468 0.484596 0.383215
0.434363 0.487892 0.383337
0.417670 0.460365 0.351049
0.398657 0.428321 0.315892
0.377386 0.392065 0.279484
0.346960 0.346654 0.244327
0.307439 0.294347 0.213870
0.300206 0.270176 0.194156
0.382605 0.310826 0.185367
0.461402 0.348425 0.172976
0.530480 0.383032 0.156435
0.588617 0.414862 0.134829
0.637812 0.443427 0.105440
0.676936 0.466682 0.067842
0.705928 0.486397 0.051545
0.733364 0.506310 0.028016
0.761624 0.528252 0.005432
0.784634 0.543725 0.021973
0.807767 0.559075 0.054322
0.230045 0.365881 0.238682
0.233494 0.369238 0.241611
0.238132 0.373358 0.245304
0.245274 0.378851 0.251255
0.255467 0.385626 0.259648
0.267643 0.393011 0.270024
0.283146 0.401892 0.282933
0.301823 0.412421 0.298619
0.323644 0.425208 0.317113
0.348882 0.439948 0.338506
0.374517 0.455940 0.359411
0.396033 0.472175 0.373510
0.418463 0.488838 0.388251
0.441657 0.505760 0.403998
0.464759 0.522454 0.420020
0.464698 0.514916 0.408087
0.448066 0.488014 0.374945
0.429175 0.456580 0.339025
0.407996 0.420844 0.301274
0.377508 0.375494 0.264073
0.337621 0.321721 0.230076
0.318090 0.286961 0.206332
0.402350 0.330632 0.198947
0.480690 0.370672 0.188083
0.548089 0.407202 0.173587
0.604822 0.440314 0.155001
0.652186 0.468727 0.131289
0.691585 0.492103 0.099519
0.721736 0.512505 0.088136
0.750820 0.534630 0.086000
0.780789 0.558618 0.087190
0.810697 0.582635 0.093568
0.256901 0.399756 0.260349
0.260807 0.403052 0.263554
0.265446 0.406836 0.267521
0.272740 0.411872 0.273503
0.282719 0.418036 0.281865
0.294926 0.424872 0.292210
0.309758 0.432868 0.304631
0.327123 0.442267 0.319402
0.347875 0.453559 0.337102
0.371221 0.466560 0.357214
0.396887 0.481209 0.379828
0.418616 0.496162 0.396002
0.439063 0.511040 0.410010
0.460121 0.526360 0.424842
0.481147 0.541802 0.440223
0.502098 0.557366 0.456092
0.494148 0.541680 0.434028
0.479408 0.516960 0.401892
0.462715 0.488258 0.366644
0.443732 0.455085 0.329015
0.414740 0.411200 0.290745
0.376013 0.357397 0.253056
0.351232 0.316381 0.224521
0.431006 0.358740 0.218112
0.508629 0.402045 0.209751
0.573816 0.441047 0.198520
0.628656 0.475196 0.184237
0.673487 0.502953 0.166995
0.711421 0.526085 0.145968
0.745754 0.548882 0.129671
0.776883 0.573449 0.135317
0.808652 0.599145 0.145205
0.295415 0.442725 0.291661
0.298222 0.444709 0.294011
0.301488 0.446784 0.296696
0.307530 0.450172 0.301884
0.316442 0.454810 0.309331
0.327581 0.460395 0.318914
0.341619 0.467475 0.330846
0.358343 0.476112 0.345434
0.378149 0.486458 0.362615
0.400244 0.498360 0.382269
0.424353 0.511559 0.403998
0.448127 0.525566 0.425238
0.466499 0.539025 0.438605
0.485145 0.552758 0.452583
0.503868 0.566674 0.466957
0.522606 0.580774 0.481697
0.538842 0.592309 0.493599
0.526085 0.571679 0.464790
0.511925 0.547875 0.432593
0.496101 0.520409 0.396887
0.477729 0.488258 0.357946
0.449165 0.444800 0.317296
0.410315 0.390265 0.276036
0.383825 0.346380 0.243137
0.452216 0.381567 0.235569
0.528374 0.426917 0.229679
0.591974 0.467231 0.221744
0.645045 0.501579 0.211826
0.688472 0.529473 0.200534
0.726864 0.553979 0.186007
0.765499 0.579278 0.164920
0.798703 0.605829 0.175021
0.326604 0.475288 0.317052
0.329351 0.477150 0.319341
0.332738 0.479225 0.322301
0.338598 0.482246 0.327245
0.346960 0.486305 0.334478
0.357519 0.491218 0.343603
0.370367 0.497200 0.354925
0.385718 0.504601 0.368505
0.403693 0.513420 0.384527
0.423865 0.523705 0.402991
0.445869 0.535393 0.423499
0.468421 0.547936 0.445411
0.487037 0.560510 0.461128
0.504051 0.573205 0.474372
0.521050 0.585992 0.487922
0.538201 0.598932 0.501976
0.555169 0.611627 0.516411
0.563256 0.614984 0.518456
0.551965 0.596338 0.490791
0.539330 0.574334 0.459907
0.524926 0.548760 0.424994
0.508354 0.518853 0.386328
0.482063 0.477821 0.345251
0.445930 0.425330 0.302403
0.414008 0.375280 0.262303
0.471870 0.403326 0.253391
0.546532 0.450813 0.250858
0.609094 0.492531 0.246830
0.660243 0.526818 0.242130
0.702480 0.555016 0.236576
0.742611 0.582361 0.228794
0.783139 0.610620 0.218326
0.366552 0.513481 0.350256
0.369268 0.515190 0.352575
0.372320 0.516899 0.355261
0.377417 0.519158 0.359808
0.384527 0.522240 0.366217
0.393866 0.526085 0.374548
0.405249 0.530846 0.384894
0.418647 0.536553 0.397162
0.434241 0.543633 0.411749
0.451637 0.551934 0.428290
0.470253 0.561303 0.446571
0.489845 0.571862 0.466285
0.509056 0.583246 0.485603
0.523644 0.594049 0.497139
0.538079 0.604669 0.508904
0.552697 0.615351 0.521141
0.567254 0.626032 0.533898
0.581903 0.636957 0.547265
0.583154 0.633509 0.539910
0.573236 0.616632 0.513420
0.562310 0.596918 0.483772
0.549432 0.573144 0.450202
0.534020 0.544854 0.411872
0.509117 0.505577 0.370184
0.475044 0.454780 0.325536
0.447822 0.408698 0.286320
0.495399 0.429938 0.276066
0.568017 0.478737 0.276890
0.628382 0.520531 0.277379
0.676967 0.554467 0.278294
0.718715 0.583948 0.279210
0.760800 0.614618 0.280064
0.397040 0.541314 0.376074
0.399695 0.542901 0.378485
0.402502 0.544396 0.381109
0.407050 0.546380 0.385199
0.413703 0.549065 0.391394
0.422309 0.552575 0.399359
0.432868 0.556847 0.409308
0.445197 0.562158 0.421149
0.459419 0.568566 0.434974
0.475380 0.576257 0.450935
0.492409 0.584955 0.468269
0.510430 0.594720 0.487098
0.529046 0.605127 0.507012
0.544060 0.615137 0.521355
0.557214 0.624659 0.532708
0.570397 0.634272 0.544427
0.583612 0.643946 0.556603
0.596826 0.653773 0.569116
0.610040 0.663783 0.581933
0.606134 0.655299 0.566979
0.597406 0.640162 0.541802
0.587762 0.622309 0.513176
0.576593 0.600885 0.480415
0.562829 0.574792 0.443091
0.539788 0.537682 0.401221
0.509117 0.490578 0.355932
0.483864 0.445747 0.314824
0.522087 0.460822 0.303410
0.592950 0.511131 0.309361
0.650019 0.552422 0.315923
0.696010 0.586267 0.324132
0.739803 0.619562 0.333654
0.429664 0.570001 0.404913
0.431769 0.571191 0.406928
0.434028 0.572198 0.409033
0.437934 0.573724 0.412818
0.443397 0.575738 0.418097
0.450874 0.578637 0.425360
0.459998 0.582238 0.434485
0.470893 0.586786 0.445380
0.483619 0.592554 0.458381
0.497780 0.599329 0.473121
0.513390 0.607019 0.489540
0.529686 0.615564 0.507286
0.546471 0.624598 0.525994
0.562890 0.634028 0.544335
0.574609 0.642512 0.554986
0.586389 0.651057 0.565850
0.598047 0.659663 0.576806
0.609796 0.668421 0.588037
0.621729 0.677607 0.599634
0.633295 0.686702 0.610285
0.625574 0.674037 0.590295
0.617700 0.660151 0.567041
0.609186 0.643915 0.539605
0.599359 0.624384 0.507897
0.587793 0.601099 0.471839
0.567193 0.566979 0.431189
0.539788 0.523369 0.386053
0.517205 0.481605 0.344244
0.547356 0.490883 0.332006
0.615534 0.541344 0.343297
0.669093 0.582055 0.356481
0.714717 0.618006 0.372625
0.458595 0.595453 0.431647
0.460334 0.596399 0.433387
0.462196 0.597162 0.435218
0.465705 0.598596 0.438788
0.471107 0.600763 0.444282
0.478340 0.603784 0.451728
0.487739 0.607874 0.461463
0.498695 0.612940 0.473060
0.511437 0.619013 0.486763
0.525475 0.625940 0.502037
0.540581 0.633600 0.518822
0.556176 0.641840 0.536706
0.572107 0.650446 0.555352
0.587732 0.659266 0.574029
0.600122 0.667506 0.587366
0.610346 0.675166 0.597131
0.620752 0.683162 0.606897
0.631281 0.691615 0.616754
0.642298 0.700649 0.626856
0.653620 0.710201 0.637140
0.660090 0.714076 0.640131
0.652552 0.701350 0.622309
0.644526 0.687373 0.601373
0.636286 0.672053 0.576684
0.628016 0.655024 0.547265
0.618677 0.634699 0.512749
0.602045 0.605097 0.473976
0.579583 0.566827 0.430091
0.561089 0.529992 0.389014
0.584833 0.535302 0.377111
0.647089 0.584009 0.396124
0.696712 0.624323 0.418463
0.495430 0.626856 0.468330
0.496773 0.627436 0.469764
0.498146 0.627955 0.471229
0.500908 0.628901 0.474250
0.505303 0.630426 0.478981
0.511254 0.632654 0.485512
0.518822 0.635584 0.493843
0.527794 0.639277 0.503807
0.538262 0.643793 0.515648
0.550011 0.649073 0.529015
0.562646 0.655024 0.543725
0.575891 0.661524 0.559503
0.589441 0.668513 0.575769
0.602960 0.675990 0.592187
