data/fiter_cube/93231427/1022691/file.cube
# Created by Adobe Lightroom plugin Export LUT (1.17.0)
# www.johnrellis.com/lightroom/exportlut.htm
# Preset: 工业风黑金_03 云集后期
# Color profile: C:\Program Files (x86)\Common Files\Adobe\Color\Profiles\Recommended\AdobeRGB1998.icc
LUT_3D_SIZE 32
DOMAIN_MIN 0.0 0.0 0.0
DOMAIN_MAX 1.0 1.0 1.0
0.070314 0.085451 0.089326
0.070314 0.085451 0.089326
0.070314 0.085451 0.089326
0.071626 0.085573 0.089296
0.076692 0.085512 0.089479
0.082643 0.084932 0.089387
0.089754 0.084688 0.089509
0.100313 0.083619 0.089570
0.114687 0.081697 0.089235
0.135897 0.077760 0.088960
0.166445 0.069642 0.088533
0.211917 0.036286 0.086732
0.276249 0.000000 0.083925
0.363775 0.000000 0.077638
0.470283 0.000000 0.066102
0.583093 0.000000 0.032959
0.687892 0.000000 0.000000
0.773831 0.000000 0.000000
0.839322 0.000000 0.000000
0.892027 0.000000 0.000000
0.934325 0.000000 0.000000
0.968475 0.000000 0.000000
0.996490 0.000000 0.000000
1.000000 0.000000 0.000000
1.000000 0.000000 0.000000
1.000000 0.000000 0.000000
1.000000 0.000000 0.000000
1.000000 0.000000 0.000000
1.000000 0.000000 0.000000
1.000000 0.000000 0.000000
1.000000 0.000000 0.000000
1.000000 0.000000 0.000000
0.070314 0.085451 0.089326
0.070314 0.085451 0.089326
0.070314 0.085451 0.089326
0.072053 0.085512 0.089296
0.077089 0.085451 0.089479
0.082643 0.084932 0.089387
0.089784 0.084352 0.089540
0.099733 0.083406 0.089601
0.113649 0.081971 0.089265
0.133974 0.078370 0.089021
0.162997 0.070863 0.088380
0.205783 0.044831 0.087007
0.266819 0.000000 0.084199
0.349798 0.000000 0.078859
0.451728 0.000000 0.068666
0.563043 0.000000 0.041718
0.668635 0.000000 0.000000
0.758358 0.000000 0.000000
0.827054 0.000000 0.000000
0.882353 0.000000 0.000000
0.926604 0.000000 0.000000
0.962310 0.000000 0.000000
0.991363 0.000000 0.000000
1.000000 0.000000 0.000000
1.000000 0.000000 0.000000
1.000000 0.000000 0.000000
1.000000 0.000000 0.000000
1.000000 0.000000 0.000000
1.000000 0.000000 0.000000
1.000000 0.000000 0.000000
1.000000 0.000000 0.000000
1.000000 0.000000 0.000000
0.070192 0.085756 0.089601
0.070192 0.085756 0.089601
0.070192 0.085756 0.089601
0.071992 0.085847 0.089265
0.077089 0.085451 0.089479
0.082643 0.084932 0.089387
0.089784 0.084352 0.089540
0.099092 0.083558 0.089601
0.113130 0.082094 0.089265
0.132509 0.078492 0.089052
0.160769 0.071412 0.088472
0.202029 0.049287 0.087160
0.261234 0.000000 0.084535
0.341711 0.000000 0.079561
0.441627 0.000000 0.069612
0.551873 0.000000 0.047089
0.657984 0.000000 0.000000
0.749203 0.000000 0.000000
0.820371 0.000000 0.000000
0.876982 0.000000 0.000000
0.922484 0.000000 0.000000
0.959045 0.000000 0.000000
0.988800 0.000000 0.000000
1.000000 0.000000 0.000000
1.000000 0.000000 0.000000
1.000000 0.000000 0.000000
1.000000 0.000000 0.000000
1.000000 0.000000 0.000000
1.000000 0.000000 0.000000
1.000000 0.000000 0.000000
1.000000 0.000000 0.000000
1.000000 0.000000 0.000000
0.069276 0.091493 0.093477
0.069917 0.091157 0.093233
0.069978 0.090852 0.093263
0.072633 0.089052 0.092836
0.077150 0.088533 0.090333
0.082460 0.088380 0.089387
0.089418 0.087251 0.089326
0.099092 0.086122 0.089418
0.112459 0.083925 0.089143
0.131716 0.080507 0.088960
0.159091 0.074037 0.088655
0.199039 0.057527 0.087129
0.255558 0.000000 0.084627
0.332097 0.000000 0.079988
0.428199 0.000000 0.070710
0.535393 0.000000 0.051026
0.641077 0.000000 0.000000
0.733364 0.000000 0.000000
0.806485 0.000000 0.000000
0.864805 0.000000 0.000000
0.912444 0.000000 0.000000
0.950896 0.000000 0.000000
0.982513 0.000000 0.000000
1.000000 0.000000 0.000000
1.000000 0.000000 0.000000
1.000000 0.000000 0.000000
1.000000 0.000000 0.000000
1.000000 0.000000 0.000000
1.000000 0.000000 0.000000
1.000000 0.000000 0.000000
1.000000 0.000000 0.000000
1.000000 0.000000 0.000000
0.067292 0.099336 0.098726
0.067353 0.099062 0.098756
0.069032 0.098360 0.098543
0.073823 0.096742 0.098604
0.076753 0.093599 0.097780
0.076600 0.092561 0.096101
0.089204 0.092988 0.089387
0.097047 0.092561 0.089235
0.109499 0.091646 0.088930
0.126925 0.090089 0.088685
0.151827 0.086336 0.088136
0.187625 0.078645 0.086915
0.238956 0.055055 0.084596
0.308995 0.000000 0.080110
0.400305 0.000000 0.071962
0.506584 0.000000 0.055207
0.615747 0.000000 0.003723
0.713741 0.000000 0.000000
0.792050 0.000000 0.000000
0.854002 0.000000 0.000000
0.903502 0.000000 0.000000
0.943572 0.000000 0.000000
0.976501 0.000000 0.000000
1.000000 0.000000 0.000000
1.000000 0.000000 0.000000
1.000000 0.000000 0.000000
1.000000 0.000000 0.000000
1.000000 0.000000 0.000000
1.000000 0.000000 0.000000
1.000000 0.000000 0.000000
1.000000 0.000000 0.000000
1.000000 0.000000 0.000000
0.063386 0.111086 0.106783
0.064515 0.110780 0.106783
0.066835 0.109865 0.106355
0.071626 0.108003 0.105989
0.078737 0.104768 0.105684
0.082582 0.100526 0.104585
0.080385 0.097963 0.101991
0.100771 0.097719 0.091127
0.107362 0.100130 0.088502
0.123629 0.100099 0.088197
0.146578 0.099153 0.087282
0.179446 0.096498 0.085969
0.226230 0.087373 0.083619
0.291386 0.057465 0.079530
0.377264 0.000000 0.071382
0.481300 0.000000 0.054749
0.591272 0.000000 0.004364
0.693080 0.000000 0.000000
0.777188 0.000000 0.000000
0.843168 0.000000 0.000000
0.895567 0.000000 0.000000
0.938048 0.000000 0.000000
1.000000 0.000000 0.000000
1.000000 0.000000 0.000000
1.000000 0.000000 0.000000
1.000000 0.000000 0.000000
1.000000 0.000000 0.000000
1.000000 0.000000 0.000000
1.000000 0.000000 0.000000
1.000000 0.000000 0.000000
1.000000 0.000000 0.000000
1.000000 0.000000 0.000000
0.051209 0.134127 0.122377
0.054963 0.133455 0.122042
0.059297 0.132540 0.121706
0.065583 0.130434 0.121065
0.076753 0.126802 0.120455
0.089143 0.121065 0.119753
0.095064 0.114778 0.118379
0.091127 0.110414 0.114321
0.116030 0.108217 0.100252
0.144198 0.112306 0.087739
0.150546 0.114534 0.085451
0.185763 0.115450 0.083528
0.235233 0.112184 0.080568
0.302586 0.097597 0.074769
0.389136 0.021271 0.064942
0.490394 0.000000 0.035126
0.597467 0.000000 0.000000
0.697414 0.000000 0.000000
0.781064 0.000000 0.000000
0.848173 0.000000 0.000000
0.902617 0.000000 0.000000
0.946960 0.000000 0.000000
0.982727 0.000000 0.000000
1.000000 0.000000 0.000000
1.000000 0.000000 0.000000
1.000000 0.000000 0.000000
1.000000 0.000000 0.000000
1.000000 0.000000 0.000000
1.000000 0.000000 0.000000
1.000000 0.000000 0.000000
1.000000 0.000000 0.000000
1.000000 0.000000 0.000000
0.016083 0.161318 0.140017
0.021607 0.160464 0.139590
0.030243 0.159426 0.138979
0.048188 0.157076 0.138155
0.067170 0.153353 0.137209
0.086488 0.148226 0.137087
0.103822 0.140230 0.136477
0.112032 0.132906 0.135592
0.107118 0.127596 0.130587
0.129335 0.123445 0.116793
0.189334 0.127260 0.089937
0.200656 0.130373 0.082643
0.215122 0.132387 0.078950
0.274693 0.130129 0.073671
0.352667 0.114900 0.064393
0.447974 0.060853 0.037446
0.554070 0.000000 0.000000
0.658381 0.000000 0.000000
0.750149 0.000000 0.000000
0.824460 0.000000 0.000000
0.884184 0.000000 0.000000
0.932311 0.000000 0.000000
0.973419 0.000000 0.000000
1.000000 0.000000 0.000000
1.000000 0.000000 0.000000
1.000000 0.000000 0.000000
1.000000 0.000000 0.000000
1.000000 0.000000 0.000000
1.000000 0.000000 0.000000
1.000000 0.000000 0.000000
1.000000 0.000000 0.000000
1.000000 0.000000 0.000000
0.000000 0.200687 0.164096
0.000000 0.199893 0.163729
0.000000 0.198795 0.163272
0.000000 0.196384 0.162234
0.029175 0.192630 0.161135
0.072724 0.187259 0.160159
0.105562 0.180148 0.161135
0.129580 0.170413 0.161563
0.141604 0.161685 0.161379
0.135256 0.155795 0.156130
0.148501 0.152804 0.148714
0.237766 0.145296 0.100587
0.284733 0.149691 0.077241
0.287053 0.151553 0.070314
0.320592 0.150576 0.063081
0.409400 0.135348 0.035462
0.512810 0.087556 0.000000
0.619501 0.000000 0.000000
0.717617 0.000000 0.000000
0.799893 0.000000 0.000000
0.865049 0.000000 0.000000
0.922820 0.000000 0.000000
0.970764 0.000000 0.000000
1.000000 0.000000 0.000000
1.000000 0.000000 0.000000
1.000000 0.000000 0.000000
1.000000 0.000000 0.000000
1.000000 0.000000 0.000000
1.000000 0.000000 0.000000
1.000000 0.000000 0.000000
1.000000 0.000000 0.000000
1.000000 0.000000 0.000000
0.000000 0.254582 0.194644
0.000000 0.253696 0.194186
0.000000 0.252445 0.193637
0.000000 0.249943 0.192721
0.000000 0.246159 0.191470
0.012573 0.240909 0.190463
0.089296 0.234043 0.190463
0.135348 0.225528 0.192599
0.175143 0.214328 0.196262
0.192081 0.204410 0.197055
0.183536 0.197787 0.191684
0.181979 0.196414 0.190616
0.301122 0.171847 0.123903
0.409949 0.165499 0.064332
0.407263 0.167117 0.039460
0.401129 0.169375 0.023346
0.472084 0.158572 0.000000
0.581537 0.119936 0.000000
0.685451 0.000000 0.000000
0.779812 0.000000 0.000000
0.857694 0.000000 0.000000
0.916960 0.000000 0.000000
0.962524 0.000000 0.000000
0.998322 0.000000 0.000000
1.000000 0.000000 0.000000
1.000000 0.000000 0.000000
1.000000 0.000000 0.000000
1.000000 0.000000 0.000000
1.000000 0.000000 0.000000
1.000000 0.000000 0.000000
1.000000 0.000000 0.000000
1.000000 0.000000 0.000000
0.000000 0.317388 0.226413
0.000000 0.316625 0.226108
0.000000 0.315831 0.225895
0.000000 0.314031 0.225223
0.000000 0.311376 0.224674
0.000000 0.307805 0.224338
0.037934 0.302983 0.224979
0.130251 0.296239 0.227604
0.193484 0.288487 0.232639
0.258061 0.275822 0.240635
0.278477 0.265202 0.241947
0.267430 0.258122 0.237034
0.252262 0.248203 0.230014
0.388647 0.215335 0.167025
0.529015 0.180758 0.067597
0.566400 0.177127 0.000000
0.559045 0.180850 0.000000
0.550866 0.183963 0.000000
0.660945 0.159976 0.000000
0.762905 0.115328 0.000000
0.842252 0.000000 0.000000
0.903349 0.000000 0.000000
0.950622 0.000000 0.000000
0.987823 0.000000 0.000000
1.000000 0.000000 0.000000
1.000000 0.000000 0.000000
1.000000 0.000000 0.000000
1.000000 0.000000 0.000000
1.000000 0.000000 0.000000
1.000000 0.000000 0.000000
1.000000 0.000000 0.000000
1.000000 0.000000 0.000000
0.000000 0.393591 0.260319
0.000000 0.393256 0.260258
0.000000 0.392523 0.260014
0.000000 0.391577 0.259922
0.000000 0.389837 0.259770
0.000000 0.387732 0.260044
0.000000 0.385901 0.261723
0.118624 0.384405 0.265721
0.223148 0.380041 0.272892
0.313207 0.377203 0.282628
0.418860 0.364630 0.295537
0.447791 0.358618 0.299351
0.589380 0.430182 0.341985
0.556054 0.412970 0.331212
0.684565 0.372992 0.281651
0.793362 0.270390 0.118379
0.835447 0.239811 0.000000
0.817746 0.233616 0.000000
0.799161 0.232212 0.000000
0.807675 0.229984 0.000000
0.872618 0.214847 0.000000
0.924743 0.193698 0.000000
0.965209 0.168338 0.000000
0.997803 0.140108 0.000000
1.000000 0.104860 0.000000
1.000000 0.045777 0.000000
1.000000 0.000000 0.000000
1.000000 0.000000 0.000000
1.000000 0.000000 0.000000
1.000000 0.000000 0.000000
1.000000 0.000000 0.000000
1.000000 0.000000 0.000000
0.000000 0.538567 0.318395
0.000000 0.538201 0.318425
0.000000 0.535912 0.317601
0.000000 0.532860 0.316747
0.000000 0.528710 0.315862
0.000000 0.523552 0.315282
0.000000 0.519829 0.316625
0.164858 0.516411 0.320348
0.299077 0.512169 0.327794
0.443214 0.505791 0.340673
0.569207 0.506096 0.359533
0.693324 0.499550 0.385168
0.719753 0.505303 0.394354
0.728267 0.510826 0.398596
0.714900 0.502190 0.391974
0.777737 0.495674 0.373724
0.861784 0.374243 0.223758
0.904784 0.299046 0.000000
0.900572 0.279850 0.000000
0.886778 0.273167 0.000000
0.874418 0.271305 0.000000
0.897887 0.268284 0.000000
0.943023 0.254673 0.000000
0.979004 0.239292 0.000000
1.000000 0.223056 0.000000
1.000000 0.205936 0.000000
1.000000 0.188418 0.000000
1.000000 0.169406 0.000000
1.000000 0.147402 0.000000
1.000000 0.120394 0.000000
1.000000 0.079072 0.000000
1.000000 0.000000 0.000000
0.000000 0.617121 0.354894
0.000000 0.616754 0.354955
0.000000 0.614954 0.354345
0.000000 0.611963 0.353460
0.000000 0.607538 0.352483
0.000000 0.602472 0.352117
0.000000 0.598383 0.353643
0.212284 0.594202 0.357671
0.348028 0.588830 0.365270
0.493385 0.580468 0.378210
0.627558 0.573999 0.397620
0.729519 0.573968 0.421820
0.809567 0.573144 0.448341
0.818418 0.577478 0.453590
0.820584 0.579339 0.455268
0.809506 0.570092 0.447211
0.828519 0.582574 0.457008
0.897490 0.479927 0.314122
0.938384 0.373846 0.137392
0.952331 0.328466 0.000000
0.942962 0.315099 0.000000
0.934142 0.310491 0.000000
0.925505 0.308904 0.000000
0.957794 0.302708 0.000000
0.990692 0.292302 0.000000
1.000000 0.281224 0.000000
1.000000 0.270542 0.000000
1.000000 0.260349 0.000000
1.000000 0.250065 0.000000
1.000000 0.239658 0.000000
1.000000 0.227512 0.000000
1.000000 0.211856 0.000000
0.000000 0.673823 0.388098
0.000000 0.673854 0.388434
0.000000 0.672267 0.387884
0.000000 0.669459 0.387213
0.000000 0.665126 0.386389
0.000000 0.660182 0.386236
0.147372 0.655451 0.388128
0.279545 0.650141 0.392370
0.407263 0.643793 0.400519
0.541619 0.634974 0.413428
0.669917 0.624994 0.432197
0.759487 0.624689 0.454475
0.825467 0.628290 0.478492
0.874571 0.630213 0.501518
0.876280 0.632044 0.503227
0.874601 0.630274 0.501549
0.865751 0.621118 0.492988
0.870573 0.626062 0.497597
0.920134 0.571283 0.404608
0.960815 0.466499 0.247898
0.986786 0.385901 0.000000
0.983185 0.359716 0.000000
0.976349 0.349828 0.000000
0.969848 0.346288 0.000000
0.969848 0.343328 0.000000
1.000000 0.336736 0.000000
1.000000 0.330755 0.000000
1.000000 0.326482 0.000000
1.000000 0.322972 0.000000
1.000000 0.319646 0.000000
1.000000 0.315373 0.000000
1.000000 0.308507 0.000000
0.000000 0.717678 0.420081
0.000000 0.717983 0.420844
0.000000 0.717342 0.421057
0.000000 0.715785 0.421515
0.000000 0.713069 0.422339
0.163272 0.709651 0.424170
0.277684 0.705653 0.427955
0.388190 0.700038 0.434028
0.502373 0.692439 0.443122
0.615167 0.682979 0.455634
0.713527 0.673640 0.470954
0.792233 0.666712 0.488472
0.841978 0.669886 0.507225
0.882292 0.672236 0.526207
0.911070 0.672419 0.542382
0.909575 0.670558 0.540520
0.907225 0.667628 0.537621
0.901335 0.660365 0.530449
0.901427 0.660487 0.530602
0.938415 0.639490 0.481666
0.976989 0.565454 0.348211
1.000000 0.468177 0.166873
1.000000 0.415290 0.000000
1.000000 0.396857 0.000000
1.000000 0.390143 0.000000
1.000000 0.388159 0.000000
1.000000 0.383246 0.000000
1.000000 0.382208 0.000000
1.000000 0.382116 0.000000
1.000000 0.381781 0.000000
1.000000 0.380316 0.000000
1.000000 0.376715 0.000000
0.000000 0.749722 0.448798
0.000000 0.749325 0.449165
0.000000 0.748379 0.449195
0.099458 0.746822 0.449866
0.193484 0.744137 0.451179
0.277684 0.740566 0.453681
0.366155 0.735988 0.457893
0.460182 0.729854 0.464027
0.558648 0.722133 0.472908
0.653864 0.713741 0.484535
0.735561 0.706477 0.498299
0.802335 0.701289 0.513756
0.853361 0.700313 0.530755
0.888396 0.704799 0.548363
0.917540 0.707576 0.565606
0.936217 0.707424 0.577935
0.934234 0.704463 0.574853
0.932067 0.701198 0.571527
0.928313 0.695796 0.565942
0.925628 0.691981 0.562036
0.952209 0.692195 0.545800
0.986938 0.639307 0.435523
1.000000 0.557397 0.277684
1.000000 0.475349 0.000000
1.000000 0.444038 0.000000
1.000000 0.432197 0.000000
1.000000 0.429633 0.000000
1.000000 0.424109 0.000000
1.000000 0.427405 0.000000
1.000000 0.430945 0.000000
1.000000 0.433478 0.000000
1.000000 0.433936 0.000000
0.211551 0.778103 0.480110
0.230350 0.778408 0.481514
0.411139 0.803494 0.520043
0.438636 0.801083 0.521080
0.479561 0.797024 0.522698
0.528222 0.791623 0.524987
0.584344 0.785000 0.528435
0.645014 0.777737 0.533593
0.705165 0.770748 0.540764
0.761044 0.764736 0.549676
0.810605 0.760037 0.560113
0.853696 0.756741 0.571923
0.889982 0.754452 0.584497
0.917174 0.756649 0.598718
0.938293 0.760281 0.613336
0.956817 0.762234 0.627985
0.967193 0.761166 0.636286
0.965087 0.756985 0.631525
0.962860 0.752621 0.626612
0.960266 0.747738 0.621180
0.957824 0.743221 0.616205
0.971527 0.753201 0.620783
1.000000 0.711757 0.524010
1.000000 0.657710 0.396124
1.000000 0.568353 0.199466
1.000000 0.506706 0.000000
1.000000 0.482826 0.000000
1.000000 0.475532 0.000000
1.000000 0.471077 0.000000
1.000000 0.472145 0.000000
1.000000 0.478157 0.000000
1.000000 0.481971 0.000000
0.393561 0.806821 0.521080
0.420874 0.809262 0.526482
0.451667 0.811185 0.532219
0.491829 0.811551 0.538048
0.537407 0.809934 0.543511
0.584161 0.806119 0.547784
0.632715 0.800961 0.552087
0.682033 0.795132 0.557092
0.731044 0.789670 0.563622
0.777279 0.784817 0.571435
0.820096 0.781094 0.580896
0.857755 0.778500 0.591363
0.890166 0.776608 0.602411
0.918303 0.775509 0.614466
0.938109 0.779232 0.627924
0.955016 0.782223 0.641382
0.970092 0.783810 0.655024
0.977142 0.782559 0.661067
0.975677 0.779232 0.657130
0.974395 0.776394 0.653803
0.973083 0.773495 0.650416
0.972320 0.771847 0.648524
0.979095 0.787167 0.666529
1.000000 0.754421 0.584619
1.000000 0.713436 0.476509
1.000000 0.649073 0.316381
1.000000 0.565209 0.000000
1.000000 0.530083 0.000000
1.000000 0.519554 0.000000
1.000000 0.517662 0.000000
1.000000 0.517144 0.000000
1.000000 0.524712 0.000000
0.488075 0.822354 0.548028
0.511162 0.824002 0.553124
0.534997 0.825498 0.558373
0.567010 0.825650 0.563867
0.603754 0.824186 0.569024
0.640284 0.821134 0.573083
0.678279 0.816953 0.577020
0.717311 0.812406 0.581567
0.757137 0.808194 0.587488
0.795773 0.804379 0.594598
0.831907 0.801572 0.603052
0.864530 0.799680 0.612543
0.893370 0.798154 0.622461
0.918883 0.797421 0.633326
0.940215 0.797879 0.645075
0.955688 0.801694 0.657923
0.969421 0.804410 0.670802
0.981628 0.806180 0.684077
0.986267 0.805356 0.688655
0.985473 0.803250 0.686030
0.984802 0.801419 0.683803
0.984466 0.800565 0.682765
0.984497 0.800626 0.682826
0.988464 0.811490 0.696284
1.000000 0.792691 0.641993
1.000000 0.757656 0.545006
1.000000 0.713161 0.416876
1.000000 0.634974 0.203464
1.000000 0.580255 0.000000
1.000000 0.561913 0.000000
1.000000 0.560174 0.000000
1.000000 0.562127 0.000000
0.572351 0.836545 0.575830
0.589960 0.838041 0.580560
0.609339 0.839292 0.585504
0.633539 0.839536 0.590478
0.660975 0.838499 0.595056
0.689967 0.836088 0.598840
0.719112 0.832822 0.602258
0.750149 0.829160 0.606287
0.781857 0.825711 0.611261
0.813474 0.822599 0.617426
0.843626 0.820310 0.624750
0.871794 0.818631 0.633051
0.897154 0.817441 0.641871
0.920348 0.816861 0.651850
0.941100 0.816953 0.662867
0.957641 0.819760 0.675654
0.970733 0.824430 0.689631
0.982391 0.828855 0.704494
0.992584 0.833127 0.720302
0.995850 0.834836 0.726284
0.996063 0.835538 0.727230
0.996307 0.836423 0.728389
0.996582 0.837461 0.729763
0.997070 0.839261 0.732204
0.998962 0.846555 0.741970
1.000000 0.839597 0.713069
1.000000 0.809506 0.625818
1.000000 0.776150 0.518791
1.000000 0.728298 0.361151
1.000000 0.654017 0.070497
1.000000 0.619409 0.000000
1.000000 0.613306 0.000000
0.679805 0.857786 0.619745
0.687312 0.858274 0.621942
0.695033 0.858488 0.623987
0.708034 0.857816 0.626246
0.724819 0.856443 0.628717
0.743771 0.854276 0.631067
0.765591 0.851713 0.633997
0.789609 0.849180 0.637781
0.814817 0.846921 0.642817
0.840452 0.845151 0.649012
0.865171 0.843961 0.656245
0.888762 0.843137 0.664271
0.910033 0.842527 0.672633
0.929808 0.842283 0.681819
0.947692 0.842435 0.691890
0.963867 0.843290 0.703365
0.975311 0.847349 0.716121
0.985016 0.851713 0.729610
0.993439 0.855863 0.743557
1.000000 0.859648 0.757870
1.000000 0.860319 0.760952
1.000000 0.860197 0.760800
1.000000 0.859983 0.760464
1.000000 0.859800 0.760220
1.000000 0.861082 0.762020
1.000000 0.865171 0.767788
1.000000 0.866514 0.759274
1.000000 0.840970 0.682795
1.000000 0.811734 0.587121
1.000000 0.776822 0.460945
1.000000 0.711330 0.229068
1.000000 0.659449 0.000000
0.727993 0.870695 0.645411
0.733822 0.871214 0.647456
0.740749 0.871519 0.649531
0.750759 0.871122 0.651667
0.763546 0.870115 0.653803
0.778195 0.868315 0.655756
0.795071 0.866178 0.658106
0.813779 0.863981 0.661158
0.834104 0.862028 0.665309
0.855009 0.860472 0.670527
0.875944 0.859403 0.676875
0.896239 0.858701 0.684077
0.915312 0.858244 0.691890
0.933104 0.858152 0.700526
0.949584 0.858579 0.710201
0.964477 0.859586 0.721126
0.977020 0.861967 0.733486
0.985779 0.866697 0.746578
0.993347 0.871275 0.760128
0.999786 0.875639 0.773983
1.000000 0.879789 0.788113
1.000000 0.880644 0.790219
1.000000 0.881163 0.790951
1.000000 0.881437 0.791409
1.000000 0.875486 0.782650
1.000000 0.876951 0.784787
1.000000 0.879515 0.788571
1.000000 0.887083 0.796414
1.000000 0.865751 0.730434
1.000000 0.840085 0.645319
1.000000 0.810422 0.535912
1.000000 0.766598 0.365118
0.785489 0.888426 0.681483
0.790280 0.889036 0.683589
0.794614 0.889250 0.685115
0.800900 0.888762 0.686366
0.809049 0.887663 0.687434
0.819120 0.886076 0.688563
0.830838 0.884092 0.689876
0.843992 0.881956 0.691585
0.858732 0.879820 0.694087
0.874540 0.877928 0.697597
0.890745 0.876280 0.701900
0.907103 0.875120 0.707393
0.923003 0.874205 0.713680
0.938048 0.873533 0.720607
0.951995 0.872984 0.728054
0.964813 0.872984 0.736507
0.976349 0.873655 0.746273
0.985382 0.876463 0.757595
0.992248 0.880797 0.769955
0.998322 0.885405 0.783322
1.000000 0.889982 0.797116
1.000000 0.894011 0.810330
1.000000 0.894377 0.810910
1.000000 0.894316 0.810788
1.000000 0.893706 0.809812
1.000000 0.892760 0.808408
1.000000 0.894316 0.810758
1.000000 0.896086 0.813504
1.000000 0.904387 0.826474
1.000000 0.888487 0.774868
1.000000 0.866667 0.701411
1.000000 0.839994 0.603876
0.812650 0.898802 0.702205
0.816403 0.899413 0.704128
0.819913 0.899596 0.705501
0.824949 0.899260 0.706661
0.831785 0.898375 0.707729
0.840177 0.897124 0.708888
0.850156 0.895598 0.710323
0.861418 0.894011 0.712276
0.874235 0.892454 0.715023
0.888060 0.891142 0.718746
0.902190 0.890013 0.723201
0.916777 0.889311 0.728878
0.930999 0.888853 0.735286
0.944518 0.888548 0.742306
0.956939 0.888457 0.749844
0.968322 0.888792 0.758175
0.978515 0.889677 0.767575
0.987610 0.891539 0.778561
0.993683 0.895476 0.790066
0.998718 0.899779 0.802243
1.000000 0.903990 0.814664
1.000000 0.907897 0.826810
1.000000 0.910796 0.836637
1.000000 0.910887 0.836790
1.000000 0.910613 0.836362
1.000000 0.909972 0.835355
1.000000 0.909178 0.834043
1.000000 0.910948 0.836912
1.000000 0.913146 0.840391
1.000000 0.919036 0.850034
1.000000 0.910063 0.817746
1.000000 0.892058 0.756100
0.840208 0.910277 0.725704
0.842832 0.910613 0.727016
0.845029 0.910613 0.727779
0.848661 0.910124 0.728389
0.853635 0.909209 0.728908
0.860136 0.907988 0.729610
0.867979 0.906584 0.730617
0.877409 0.905119 0.732235
0.888121 0.903777 0.734707
0.899840 0.902678 0.738155
0.912322 0.901793 0.742550
0.925139 0.901305 0.748043
0.937804 0.900999 0.754330
0.949767 0.900877 0.761074
0.960754 0.900847 0.768215
0.970794 0.901183 0.775937
0.979797 0.901915 0.784482
0.987823 0.903441 0.794339
0.994385 0.906157 0.805447
0.998718 0.910094 0.816464
1.000000 0.914000 0.827726
1.000000 0.917632 0.838773
1.000000 0.920836 0.849271
1.000000 0.922820 0.856291
1.000000 0.922698 0.856138
1.000000 0.922332 0.855467
1.000000 0.921782 0.854612
1.000000 0.921050 0.853361
1.000000 0.922789 0.856229
1.000000 0.925017 0.859953
1.000000 0.929259 0.867063
1.000000 0.924804 0.848692
0.860441 0.919432 0.744900
0.862181 0.919615 0.745754
0.864042 0.919585 0.746426
0.867155 0.919280 0.747127
0.871824 0.918700 0.748135
0.878172 0.918120 0.749752
0.886381 0.917632 0.752407
0.895872 0.917327 0.755917
0.906676 0.917235 0.760555
0.918242 0.917357 0.766079
0.929931 0.917632 0.772427
0.941588 0.918090 0.779507
0.952544 0.918700 0.787015
0.962493 0.919280 0.794644
0.971435 0.919890 0.802304
0.979217 0.920531 0.809934
0.986145 0.921447 0.818021
0.992187 0.922881 0.826932
0.997406 0.924987 0.836942
1.000000 0.927977 0.846769
1.000000 0.931090 0.856016
1.000000 0.934020 0.865019
1.000000 0.936584 0.873472
1.000000 0.938811 0.881285
1.000000 0.939727 0.885161
1.000000 0.939422 0.884581
1.000000 0.938964 0.883787
1.000000 0.938384 0.882750
1.000000 0.937713 0.881621
1.000000 0.938903 0.883635
1.000000 0.940459 0.886381
1.000000 0.942565 0.890043
0.891234 0.933074 0.775998
0.892485 0.933104 0.776577
0.893584 0.932982 0.776852
0.895628 0.932586 0.777188
0.898955 0.932006 0.777768
0.903380 0.931273 0.778714
0.909178 0.930571 0.780331
0.916014 0.929931 0.782650
0.924010 0.929351 0.785855
0.932616 0.928923 0.789792
0.941466 0.928588 0.794369
0.950408 0.928466 0.799680
0.959045 0.928466 0.805447
0.967132 0.928588 0.811643
