data/fiter_cube/93231427/1022691/file.cube
# Created by Adobe Lightroom plugin Export LUT (1.17.0)
# www.johnrellis.com/lightroom/exportlut.htm
# Preset: 工业风黑金_03 云集后期
# Color profile: C:\Program Files (x86)\Common Files\Adobe\Color\Profiles\Recommended\AdobeRGB1998.icc
LUT_3D_SIZE 5
DOMAIN_MIN 0.000000 0.000000 0.000000
DOMAIN_MAX 0.903226 0.903226 0.903226
0.070314 0.085451 0.089326
0.100313 0.083619 0.089570
0.470283 0.000000 0.066102
0.968475 0.000000 0.000000
1.000000 0.000000 0.000000
0.016083 0.161318 0.140017
0.112032 0.132906 0.135592
0.352667 0.114900 0.064393
0.932311 0.000000 0.000000
1.000000 0.000000 0.000000
0.000000 0.673823 0.388098
0.279545 0.650141 0.392370
0.876280 0.632044 0.503227
0.983185 0.359716 0.000000
1.000000 0.322972 0.000000
0.679805 0.857786 0.619745
0.789609 0.849180 0.637781
0.947692 0.842435 0.691890
1.000000 0.860197 0.760800
1.000000 0.811734 0.587121
0.906371 0.940429 0.793362
0.928191 0.938018 0.800687
0.972778 0.931334 0.820188
1.000000 0.943999 0.879911
1.000000 0.950927 0.904997
0.066438 0.099062 0.127138
0.090120 0.089479 0.131624
0.458930 0.000000 0.092348
0.939788 0.000000 0.000000
1.000000 0.000000 0.000000
0.068391 0.149813 0.167422
0.117830 0.149996 0.160433
0.450629 0.000000 0.120821
0.923339 0.000000 0.000000
1.000000 0.000000 0.000000
0.000000 0.614527 0.367285
0.000000 0.604242 0.365301
0.808713 0.569451 0.446632
0.903685 0.319341 0.000000
1.000000 0.323766 0.000000
0.597467 0.851438 0.601282
0.737545 0.840360 0.618921
0.924681 0.829770 0.668299
1.000000 0.855070 0.753628
1.000000 0.807034 0.575555
0.892638 0.939940 0.788205
0.916533 0.937194 0.794949
0.972168 0.935241 0.826627
1.000000 0.945098 0.881773
1.000000 0.953765 0.910094
0.000000 0.185672 0.324926
0.000000 0.188632 0.357824
0.398840 0.000000 0.362554
0.938293 0.000000 0.288914
1.000000 0.000000 0.000000
0.190036 0.260044 0.320378
0.211612 0.284520 0.355138
0.394812 0.183719 0.415778
0.940307 0.000000 0.324010
1.000000 0.000000 0.099733
0.291356 0.505791 0.438270
0.390967 0.500008 0.429664
0.660182 0.496468 0.412299
0.944366 0.547143 0.444709
1.000000 0.345586 0.201083
0.554620 0.802823 0.605798
0.622644 0.792477 0.597192
0.794400 0.786252 0.593378
0.987976 0.820706 0.703609
1.000000 0.741604 0.460761
0.820005 0.935882 0.763668
0.857969 0.933928 0.772793
0.940398 0.930785 0.802090
0.998291 0.936126 0.857420
1.000000 0.954284 0.911101
0.250675 0.387762 0.552148
0.238712 0.389349 0.571923
0.000000 0.366064 0.633753
0.844511 0.000000 0.600092
1.000000 0.224491 0.487465
0.500450 0.460761 0.535973
0.490181 0.460334 0.552453
0.440070 0.451972 0.612329
0.835264 0.253696 0.604852
1.000000 0.366583 0.508354
0.656764 0.526085 0.503075
0.690425 0.529198 0.497047
0.790127 0.587152 0.550317
0.837034 0.568444 0.624537
1.000000 0.589929 0.573175
0.781857 0.710994 0.629023
0.797574 0.706935 0.622889
0.853574 0.706386 0.615778
0.927214 0.714412 0.606653
1.000000 0.784085 0.656153
0.868986 0.896727 0.791470
0.878264 0.899718 0.794400
0.908782 0.910552 0.803403
0.962127 0.921538 0.807980
1.000000 0.951537 0.906096
0.724666 0.602930 0.717586
0.713344 0.599298 0.726619
0.664179 0.583581 0.762020
0.462348 0.516106 0.822934
1.000000 0.309209 0.775753
0.783902 0.630243 0.704921
0.776516 0.628046 0.714046
0.746883 0.618952 0.749447
0.623011 0.568261 0.810727
0.996765 0.409277 0.771237
0.870085 0.679011 0.672663
0.874784 0.685054 0.682399
0.870237 0.690303 0.717830
0.843198 0.681666 0.781460
0.989075 0.601709 0.779721
0.914946 0.761746 0.726070
0.918425 0.759274 0.721370
0.932128 0.753017 0.706355
0.955688 0.786130 0.755062
0.986023 0.788571 0.824552
0.932097 0.867155 0.821836
0.935180 0.867063 0.820798
0.949096 0.871244 0.822995
0.970916 0.877806 0.823758
1.000000 0.888640 0.816892
