data/fiter_cube/93231427/1022691/file.cube
# Created by Adobe Lightroom plugin Export LUT (1.17.0)
# www.johnrellis.com/lightroom/exportlut.htm
# Preset: 工业风黑金_03 云集后期
# Color profile: C:\Program Files (x86)\Common Files\Adobe\Color\Profiles\Recommended\AdobeRGB1998.icc
LUT_3D_SIZE 8
DOMAIN_MIN 0.000000 0.000000 0.000000
DOMAIN_MAX 0.903226 0.903226 0.903226
0.070314 0.085451 0.089326
0.076692 0.085512 0.089479
0.114687 0.081697 0.089235
0.276249 0.000000 0.083925
0.687892 0.000000 0.000000
0.934325 0.000000 0.000000
1.000000 0.000000 0.000000
1.000000 0.000000 0.000000
0.067292 0.099336 0.098726
0.076753 0.093599 0.097780
0.109499 0.091646 0.088930
0.238956 0.055055 0.084596
0.615747 0.000000 0.003723
0.903502 0.000000 0.000000
1.000000 0.000000 0.000000
1.000000 0.000000 0.000000
0.000000 0.200687 0.164096
0.029175 0.192630 0.161135
0.141604 0.161685 0.161379
0.284733 0.149691 0.077241
0.512810 0.087556 0.000000
0.865049 0.000000 0.000000
1.000000 0.000000 0.000000
1.000000 0.000000 0.000000
0.000000 0.538567 0.318395
0.000000 0.528710 0.315862
0.299077 0.512169 0.327794
0.719753 0.505303 0.394354
0.861784 0.374243 0.223758
0.874418 0.271305 0.000000
1.000000 0.223056 0.000000
1.000000 0.147402 0.000000
0.000000 0.749722 0.448798
0.193484 0.744137 0.451179
0.558648 0.722133 0.472908
0.853361 0.700313 0.530755
0.934234 0.704463 0.574853
0.952209 0.692195 0.545800
1.000000 0.444038 0.000000
1.000000 0.427405 0.000000
0.572351 0.836545 0.575830
0.660975 0.838499 0.595056
0.781857 0.825711 0.611261
0.897154 0.817441 0.641871
0.970733 0.824430 0.689631
0.996063 0.835538 0.727230
0.998962 0.846555 0.741970
1.000000 0.728298 0.361151
0.812650 0.898802 0.702205
0.831785 0.898375 0.707729
0.874235 0.892454 0.715023
0.930999 0.888853 0.735286
0.978515 0.889677 0.767575
1.000000 0.903990 0.814664
1.000000 0.910613 0.836362
1.000000 0.913146 0.840391
0.906371 0.940429 0.793362
0.913024 0.939544 0.795163
0.935119 0.937591 0.803891
0.965454 0.937438 0.823697
0.985779 0.932982 0.835080
1.000000 0.941283 0.871885
1.000000 0.950378 0.900572
1.000000 0.950927 0.904997
0.070466 0.089387 0.098970
0.072816 0.085664 0.099184
0.112673 0.081727 0.092592
0.250095 0.037446 0.083986
0.622187 0.000000 0.000214
0.900481 0.000000 0.000000
1.000000 0.000000 0.000000
1.000000 0.000000 0.000000
0.071229 0.099153 0.106935
0.079438 0.099580 0.105623
0.114931 0.096925 0.100740
0.234226 0.086183 0.086000
0.574640 0.000000 0.008484
0.878599 0.000000 0.000000
1.000000 0.000000 0.000000
1.000000 0.000000 0.000000
0.000000 0.185794 0.160739
0.022034 0.184298 0.159060
0.143130 0.168002 0.164858
0.234073 0.146914 0.092256
0.490608 0.102022 0.010285
0.838529 0.000000 0.000000
1.000000 0.000000 0.000000
1.000000 0.000000 0.000000
0.000000 0.472511 0.295171
0.000000 0.471656 0.295964
0.195407 0.470314 0.306126
0.604852 0.438392 0.347204
0.764401 0.308263 0.189792
0.783505 0.227146 0.000000
0.970947 0.183932 0.000000
1.000000 0.060731 0.000000
0.000000 0.731716 0.435035
0.000000 0.725246 0.434852
0.453193 0.705531 0.447791
0.790707 0.667140 0.488899
0.904540 0.664302 0.534325
0.933135 0.655421 0.506950
1.000000 0.415503 0.000000
1.000000 0.406409 0.000000
0.489540 0.825223 0.552911
0.554498 0.820645 0.558343
0.715969 0.805722 0.576013
0.866606 0.796414 0.611048
0.959075 0.805844 0.664118
0.993439 0.826688 0.715633
0.997253 0.839902 0.732998
1.000000 0.713222 0.342321
0.774533 0.888212 0.678889
0.789181 0.884764 0.678737
0.844480 0.879149 0.688991
0.914946 0.877684 0.714412
0.971679 0.880827 0.751247
1.000000 0.895445 0.799893
1.000000 0.901732 0.822263
1.000000 0.904265 0.826230
0.893584 0.936797 0.782681
0.902251 0.936400 0.785885
0.926879 0.934661 0.795346
0.960571 0.934691 0.816068
0.987060 0.936400 0.842100
1.000000 0.942199 0.873686
1.000000 0.949584 0.898741
1.000000 0.949584 0.902617
0.061341 0.105257 0.146395
0.050538 0.104189 0.154543
0.103090 0.090578 0.153750
0.252811 0.009461 0.145541
0.697505 0.000000 0.073030
0.922759 0.000000 0.000000
1.000000 0.000000 0.000000
1.000000 0.000000 0.000000
0.084627 0.120638 0.148409
0.083589 0.123445 0.157321
0.089662 0.108064 0.171603
0.253880 0.070649 0.153079
0.683864 0.000000 0.096040
0.908751 0.000000 0.000000
1.000000 0.000000 0.000000
1.000000 0.000000 0.000000
0.061616 0.181704 0.201480
0.085206 0.181247 0.199313
0.145937 0.181888 0.191989
0.307103 0.164096 0.190555
0.681605 0.000000 0.127871
0.907073 0.000000 0.000000
1.000000 0.000000 0.000000
1.000000 0.000000 0.000000
0.000000 0.450660 0.323919
0.000000 0.456672 0.324590
0.096925 0.459663 0.315526
0.540520 0.445411 0.337194
0.728786 0.317235 0.192874
0.873869 0.201114 0.000000
0.999817 0.169436 0.000000
1.000000 0.160311 0.000000
0.000000 0.709102 0.426734
0.000000 0.708583 0.425818
0.312016 0.700069 0.438392
0.719265 0.671687 0.476173
0.912261 0.674006 0.543908
0.945037 0.653620 0.495125
0.989349 0.408850 0.000000
1.000000 0.403632 0.000000
0.360571 0.821592 0.540032
0.446448 0.817105 0.545220
0.642817 0.799954 0.559808
0.821744 0.784268 0.588190
0.937499 0.783993 0.632929
0.990204 0.816556 0.702693
0.997620 0.841367 0.734951
1.000000 0.716884 0.355261
0.746792 0.889006 0.675898
0.766323 0.885832 0.677089
0.823239 0.877928 0.683619
0.896239 0.872740 0.702632
0.959655 0.873686 0.735225
0.998352 0.890654 0.790219
1.000000 0.906981 0.830533
1.000000 0.914977 0.843442
0.879728 0.936980 0.779110
0.886076 0.935637 0.779568
0.912047 0.932891 0.786862
0.952728 0.933715 0.810361
0.982605 0.934508 0.835203
1.000000 0.940703 0.868833
1.000000 0.950347 0.899443
1.000000 0.952483 0.907836
0.000000 0.147127 0.256291
0.000000 0.150057 0.271000
0.000000 0.149722 0.308202
0.245029 0.041993 0.288762
0.564874 0.000000 0.247074
0.914336 0.000000 0.209689
1.000000 0.000000 0.080507
1.000000 0.000000 0.000000
0.071992 0.178653 0.267521
0.051667 0.178897 0.277409
0.000000 0.174655 0.309941
0.244663 0.093080 0.307164
0.579431 0.000000 0.257633
0.916045 0.000000 0.221439
1.000000 0.000000 0.120699
1.000000 0.000000 0.000000
0.143709 0.218967 0.264195
0.165957 0.224369 0.264652
0.222782 0.261662 0.297948
0.188052 0.239994 0.356237
0.659846 0.129519 0.303166
0.941283 0.000000 0.282200
1.000000 0.000000 0.219242
1.000000 0.000000 0.000000
0.154757 0.415686 0.372320
0.191440 0.411994 0.368200
0.302464 0.406134 0.359045
0.484138 0.406134 0.348852
0.715389 0.407050 0.359838
0.926787 0.396307 0.339330
1.000000 0.275181 0.232792
1.000000 0.063172 0.000000
0.190097 0.643305 0.471778
0.238193 0.639185 0.467384
0.386877 0.638636 0.464607
0.603815 0.643488 0.469032
0.826200 0.631281 0.483925
0.922057 0.589288 0.415381
0.991669 0.441596 0.209628
1.000000 0.403052 0.000000
0.408423 0.803006 0.567559
0.483894 0.805722 0.575372
0.584863 0.793942 0.567193
0.742885 0.780819 0.571466
0.899168 0.775692 0.611170
0.986236 0.809049 0.691615
1.000000 0.829740 0.708431
1.000000 0.682094 0.327733
0.648585 0.887541 0.658717
0.684382 0.885252 0.663264
0.772824 0.878508 0.675715
0.867185 0.873411 0.696956
0.943023 0.873106 0.727382
0.993164 0.883818 0.776272
1.000000 0.908965 0.833707
1.000000 0.921538 0.854154
0.858305 0.939269 0.778378
0.868040 0.938689 0.780941
0.895018 0.936187 0.787381
0.935210 0.933623 0.802090
0.973236 0.932799 0.825559
0.997620 0.938048 0.859281
1.000000 0.949798 0.897124
1.000000 0.955352 0.912993
0.000000 0.233158 0.392187
0.000000 0.236088 0.403723
0.000000 0.235019 0.433936
0.000000 0.224063 0.492470
0.588678 0.000000 0.450050
0.881102 0.000000 0.379461
1.000000 0.000000 0.329595
1.000000 0.000000 0.206241
0.098024 0.267155 0.393774
0.088075 0.271611 0.406592
0.000000 0.272404 0.439857
0.000000 0.256138 0.492164
0.582391 0.000000 0.460578
0.884092 0.000000 0.388678
1.000000 0.000000 0.341375
1.000000 0.000000 0.219974
0.301732 0.338659 0.384131
0.328405 0.353216 0.396277
0.341924 0.366278 0.424506
0.304021 0.361944 0.473396
0.551415 0.241733 0.484443
0.877897 0.172854 0.411109
1.000000 0.174899 0.377111
1.000000 0.000000 0.265110
0.371130 0.420203 0.413428
0.392859 0.419806 0.410437
0.475685 0.425360 0.404639
0.613703 0.470008 0.432654
0.648768 0.494728 0.504814
0.885649 0.454658 0.460029
1.000000 0.476081 0.446845
1.000000 0.424628 0.359655
0.469062 0.577844 0.499153
0.496284 0.577508 0.498024
0.573236 0.573785 0.491829
0.683253 0.571405 0.483680
0.781491 0.571313 0.471931
0.884123 0.592248 0.493172
0.999481 0.623041 0.495949
1.000000 0.543389 0.364202
0.561364 0.714656 0.568322
0.582910 0.713161 0.567224
0.639155 0.706416 0.560601
0.724819 0.702571 0.556207
0.809354 0.713924 0.561120
0.922698 0.731258 0.587823
0.994568 0.742061 0.572534
1.000000 0.632593 0.333776
0.716182 0.852018 0.680446
0.725093 0.850217 0.678431
0.758541 0.847013 0.675013
0.810025 0.847074 0.673915
0.878508 0.851133 0.680720
0.966705 0.859098 0.727352
1.000000 0.894194 0.809995
1.000000 0.912230 0.834043
0.816159 0.929870 0.768490
0.820462 0.929412 0.767300
0.835935 0.928710 0.764187
0.892607 0.930266 0.782376
0.946777 0.928466 0.803769
0.987549 0.931029 0.837339
1.000000 0.943084 0.882109
1.000000 0.954955 0.912291
0.226749 0.377417 0.543114
0.224857 0.378698 0.549676
0.180148 0.369940 0.564477
0.000671 0.356054 0.598840
0.000000 0.274693 0.636072
0.813993 0.000000 0.579400
0.994690 0.000000 0.516411
1.000000 0.000000 0.449805
0.297398 0.391485 0.525994
0.290440 0.390387 0.530968
0.262638 0.385809 0.549065
0.197940 0.374609 0.583917
0.000000 0.334966 0.628717
0.803861 0.000000 0.577630
0.990967 0.155154 0.519097
1.000000 0.169863 0.456794
0.552239 0.473671 0.517967
0.544335 0.471321 0.521172
0.529778 0.469123 0.537774
0.510948 0.467536 0.571588
0.458473 0.452338 0.619745
0.808133 0.313390 0.592187
0.987091 0.377234 0.543420
1.000000 0.379950 0.493538
0.622522 0.490150 0.476570
0.631830 0.494759 0.480507
0.682368 0.521355 0.502190
0.752071 0.565332 0.548089
0.763546 0.580621 0.601556
0.842374 0.540154 0.623865
0.986725 0.548943 0.582422
1.000000 0.543816 0.544915
0.671626 0.576471 0.533349
0.684230 0.577325 0.532341
0.722103 0.579736 0.528313
0.775967 0.585382 0.521660
0.838865 0.615869 0.541619
0.865782 0.649592 0.616236
0.975982 0.636439 0.590600
1.000000 0.646143 0.573297
0.730404 0.680659 0.597406
0.744869 0.683131 0.599329
0.773678 0.682795 0.596887
0.813962 0.682185 0.592340
0.856870 0.681086 0.584863
0.908965 0.689906 0.581567
0.973632 0.729030 0.618799
1.000000 0.758175 0.616907
0.809049 0.802701 0.690028
0.817044 0.804166 0.691798
0.833799 0.803555 0.690120
0.859800 0.804868 0.689052
0.891020 0.809445 0.688258
0.928283 0.826261 0.696407
0.988708 0.845212 0.729854
1.000000 0.857511 0.716732
0.858396 0.909972 0.796963
0.860716 0.909545 0.795804
0.870237 0.909300 0.793515
0.889860 0.912352 0.794400
0.913664 0.916716 0.792294
0.957794 0.921813 0.804471
0.999451 0.931731 0.853544
1.000000 0.953368 0.909453
0.487037 0.483467 0.625818
0.492744 0.486793 0.632319
0.476173 0.483955 0.646296
0.437629 0.476600 0.673793
0.330602 0.450752 0.711757
0.457832 0.307927 0.729122
0.935363 0.128420 0.678065
1.000000 0.319524 0.634577
0.525566 0.492378 0.614038
0.529351 0.495033 0.620020
0.515221 0.492836 0.634424
0.476844 0.484352 0.659876
0.387060 0.461402 0.697536
0.439124 0.331121 0.719539
0.921721 0.165225 0.665187
1.000000 0.314061 0.623255
0.689418 0.553643 0.607080
0.687221 0.553307 0.610712
0.676814 0.551019 0.622919
0.660090 0.548089 0.647639
0.617395 0.534813 0.683650
0.565393 0.470527 0.723171
0.927459 0.383215 0.676753
1.000000 0.455055 0.646357
0.779385 0.593927 0.586633
0.782010 0.595789 0.588800
0.799832 0.609003 0.602319
0.800015 0.615015 0.628779
0.792599 0.617517 0.666255
0.779355 0.616571 0.720211
0.936767 0.551110 0.698939
1.000000 0.574884 0.668086
0.796353 0.612757 0.575586
0.798001 0.610956 0.572381
0.809293 0.609186 0.564965
0.836606 0.626795 0.580529
0.867704 0.660334 0.626429
0.871305 0.675074 0.683650
0.928985 0.648646 0.708858
1.000000 0.663447 0.678676
0.828031 0.688960 0.635035
0.831876 0.688930 0.634241
0.844572 0.688808 0.631281
0.865568 0.689479 0.626856
0.890501 0.688716 0.617029
0.928466 0.719600 0.643610
0.945647 0.760555 0.732784
1.000000 0.755581 0.698939
0.862455 0.779751 0.707454
0.866300 0.780606 0.708156
0.876555 0.781033 0.707424
0.893217 0.782254 0.706538
0.913878 0.782498 0.702876
0.939940 0.784482 0.698360
0.971008 0.791165 0.692164
1.000000 0.837491 0.741634
0.894896 0.869993 0.791531
0.896971 0.870359 0.791714
0.906859 0.874266 0.796292
0.919158 0.878202 0.799283
0.934539 0.883513 0.801694
0.953765 0.892790 0.805783
0.976593 0.910185 0.815274
1.000000 0.931853 0.868070
0.724666 0.602930 0.717586
0.724514 0.603784 0.721614
0.708614 0.597620 0.729580
0.685084 0.590539 0.749020
0.630457 0.571679 0.776791
0.495918 0.527153 0.814115
0.753994 0.363287 0.810819
1.000000 0.309209 0.775753
0.739864 0.608209 0.710506
0.739651 0.609125 0.714595
0.727169 0.604608 0.723537
0.704128 0.597009 0.741970
0.657252 0.580621 0.770047
0.543755 0.540703 0.807462
0.751308 0.385016 0.806607
0.998627 0.327703 0.770077
0.796231 0.635920 0.699672
0.795163 0.636072 0.702846
0.784329 0.631098 0.710109
0.778347 0.632990 0.733455
0.749844 0.621820 0.760189
0.687312 0.594415 0.795468
0.775967 0.478462 0.806607
0.994629 0.430182 0.768612
0.858030 0.673243 0.685878
0.858335 0.674556 0.689784
0.853666 0.673182 0.698360
0.848722 0.674495 0.718471
0.837583 0.672694 0.747127
0.813931 0.662470 0.783993
0.809049 0.592126 0.814633
0.991058 0.549554 0.774136
0.881529 0.684321 0.658839
0.884031 0.687556 0.663111
0.887999 0.693416 0.672786
0.897032 0.706935 0.694392
0.895476 0.713313 0.724514
0.887266 0.714961 0.764370
0.874083 0.711543 0.815579
0.988006 0.656886 0.790097
0.907622 0.740902 0.705318
0.908415 0.739742 0.703395
0.911894 0.736538 0.697475
0.918822 0.731838 0.687312
0.929290 0.737819 0.693782
0.944121 0.769406 0.746975
0.946532 0.788724 0.808682
0.987396 0.768795 0.820706
0.921904 0.806332 0.766964
0.922820 0.805753 0.765957
0.926329 0.804105 0.762844
0.933776 0.802670 0.758846
0.944610 0.800229 0.751797
0.959014 0.796872 0.739345
0.979370 0.822965 0.765591
0.984405 0.847929 0.839811
0.932097 0.867155 0.821836
0.932799 0.866880 0.821195
0.936461 0.867338 0.820859
0.944121 0.869688 0.822263
0.954498 0.872770 0.823392
0.967285 0.876585 0.823758
0.983001 0.881743 0.822782
1.000000 0.888640 0.816892
