data/fiter_cube/96471014/1022823/file.cube
# Created by Adobe Lightroom plugin Export LUT (1.17.0)
# www.johnrellis.com/lightroom/exportlut.htm
# Preset: 古风系-古典气质
# Color profile: C:\Program Files (x86)\Common Files\Adobe\Color\Profiles\Recommended\AdobeRGB1998.icc
LUT_3D_SIZE 5
DOMAIN_MIN 0.000000 0.000000 0.000000
DOMAIN_MAX 0.903226 0.903226 0.903226
0.000000 0.000000 0.000000
0.255467 0.000000 0.010986
0.641260 0.000000 0.063264
0.865354 0.000000 0.132998
1.000000 0.115755 0.275120
0.000000 0.242802 0.000000
0.155276 0.214694 0.000000
0.536187 0.162448 0.000000
0.832609 0.000000 0.113619
1.000000 0.286534 0.296178
0.000000 0.650355 0.000000
0.000000 0.641749 0.000000
0.416999 0.441108 0.000000
0.793973 0.446601 0.198520
1.000000 0.535332 0.375891
0.000000 0.892271 0.000000
0.000000 0.898253 0.000000
0.524804 0.888762 0.000000
0.653956 0.626184 0.000000
0.950744 0.575250 0.143465
0.000000 1.000000 0.000000
0.000000 1.000000 0.000000
0.290288 1.000000 0.000000
0.721218 0.989166 0.000000
0.945525 0.859220 0.000000
0.000000 0.099397 0.200259
0.245731 0.000000 0.188846
0.708949 0.000000 0.203799
0.883391 0.000000 0.226139
1.000000 0.222629 0.326024
0.000000 0.223514 0.132204
0.196567 0.249790 0.155825
0.610803 0.161807 0.174289
0.837675 0.000000 0.208286
1.000000 0.299748 0.327764
0.000000 0.635676 0.000000
0.000000 0.644617 0.000000
0.457923 0.467262 0.000000
0.792813 0.463233 0.256504
1.000000 0.528649 0.388708
0.000000 0.883818 0.000000
0.000000 0.888853 0.000000
0.488441 0.881407 0.000000
0.657832 0.626429 0.000000
0.947448 0.603998 0.272831
0.000000 1.000000 0.000000
0.000000 1.000000 0.000000
0.299687 1.000000 0.000000
0.707759 0.992035 0.000000
0.939727 0.853269 0.000000
0.000000 0.000000 0.603815
0.325139 0.000000 0.566888
0.743862 0.000000 0.573175
0.982391 0.150912 0.425574
1.000000 0.406928 0.471504
0.000000 0.308965 0.586267
0.207156 0.233127 0.571679
0.718135 0.321324 0.551385
0.955047 0.358587 0.445777
1.000000 0.465003 0.485237
0.000000 0.636713 0.459632
0.000000 0.638025 0.469123
0.659663 0.647974 0.507012
0.852567 0.566583 0.458320
1.000000 0.563165 0.488380
0.000000 0.886809 0.337285
0.000000 0.890990 0.318822
0.534905 0.876921 0.375525
0.725185 0.671717 0.145541
0.963439 0.748562 0.568231
0.000000 1.000000 0.000000
0.000000 1.000000 0.000000
0.000000 1.000000 0.000000
0.716487 1.000000 0.165560
0.943755 0.852903 0.000000
0.000000 0.000000 0.847044
0.224521 0.000000 0.837369
0.661311 0.414740 0.795132
0.934295 0.476387 0.806058
1.000000 0.591974 0.692622
0.000000 0.179202 0.838529
0.059205 0.223056 0.829129
0.656764 0.482307 0.783841
0.924193 0.550011 0.796750
1.000000 0.639551 0.702632
0.000000 0.593072 0.786679
0.000000 0.583734 0.786801
0.636927 0.642298 0.787808
0.903899 0.711757 0.782742
1.000000 0.735531 0.718349
0.000000 0.868864 0.726162
0.000000 0.868650 0.731991
0.550561 0.856870 0.740688
0.874510 0.853849 0.758907
0.991241 0.768582 0.675166
0.000000 1.000000 0.538170
0.000000 1.000000 0.525597
0.226871 1.000000 0.531365
0.778286 0.987762 0.630976
0.940093 0.850431 0.246769
0.000000 0.000000 1.000000
0.000000 0.102876 1.000000
0.627955 0.511528 0.986755
0.895293 0.775967 0.953216
1.000000 0.749752 0.963989
0.000000 0.131106 1.000000
0.000000 0.234623 1.000000
0.620050 0.539757 0.980652
0.893095 0.783841 0.951293
1.000000 0.773251 0.963775
0.000000 0.568231 0.988159
0.171298 0.565667 0.985687
0.589105 0.634180 0.981231
0.888457 0.815946 0.954620
1.000000 0.829435 0.961425
0.000000 0.760678 0.968933
0.000000 0.764157 0.969207
0.497047 0.793332 0.965179
0.846006 0.850675 0.960143
0.990326 0.894560 0.953216
0.000000 1.000000 0.930816
0.000000 1.000000 0.930846
0.122683 0.991852 0.930358
0.770840 0.972412 0.931334
0.975280 0.966491 0.940185
