data/fiter_cube/96471014/1022823/file.cube
# Created by Adobe Lightroom plugin Export LUT (1.17.0)
# www.johnrellis.com/lightroom/exportlut.htm
# Preset: 古风系-古典气质
# Color profile: C:\Program Files (x86)\Common Files\Adobe\Color\Profiles\Recommended\AdobeRGB1998.icc
LUT_3D_SIZE 8
DOMAIN_MIN 0.000000 0.000000 0.000000
DOMAIN_MAX 0.903226 0.903226 0.903226
0.000000 0.000000 0.000000
0.087953 0.000000 0.002899
0.308446 0.000000 0.012512
0.546227 0.000000 0.037415
0.718776 0.000000 0.082368
0.838041 0.000000 0.121553
0.945403 0.000000 0.175540
1.000000 0.115755 0.275120
0.000000 0.067079 0.000000
0.048737 0.095094 0.000000
0.253819 0.086793 0.000000
0.510185 0.000000 0.000000
0.700771 0.000000 0.041871
0.827665 0.000000 0.098939
0.939300 0.000000 0.162600
1.000000 0.153475 0.272160
0.000000 0.308934 0.000000
0.000000 0.308385 0.000000
0.190646 0.248692 0.000000
0.387945 0.227878 0.012024
0.627436 0.190127 0.037629
0.790890 0.102968 0.102174
0.928344 0.114748 0.176547
1.000000 0.322148 0.303014
0.000000 0.533532 0.000000
0.000000 0.523186 0.000000
0.238346 0.538811 0.000000
0.340551 0.379400 0.000000
0.557519 0.350072 0.000000
0.783566 0.372564 0.157839
0.919615 0.380621 0.229770
1.000000 0.475288 0.353918
0.000000 0.742123 0.000000
0.000000 0.735805 0.000000
0.158358 0.736080 0.000000
0.484352 0.710384 0.000000
0.497536 0.504356 0.000000
0.632929 0.424170 0.000000
0.877867 0.527764 0.285466
0.994354 0.588220 0.396796
0.000000 0.855528 0.000000
0.000000 0.861234 0.000000
0.000000 0.865385 0.000000
0.426917 0.864317 0.000000
0.622919 0.798550 0.000000
0.622400 0.601587 0.000000
0.710018 0.493690 0.000000
0.966003 0.610407 0.308263
0.000000 0.958801 0.000000
0.000000 0.963226 0.000000
0.000000 0.962402 0.000000
0.297124 0.954955 0.000000
0.564813 0.944488 0.000000
0.729763 0.865934 0.000000
0.752468 0.703822 0.000000
0.812741 0.577050 0.000000
0.000000 1.000000 0.000000
0.000000 1.000000 0.000000
0.000000 1.000000 0.000000
0.000000 1.000000 0.000000
0.446021 1.000000 0.000000
0.674372 0.999573 0.000000
0.844602 0.949706 0.000000
0.945525 0.859220 0.000000
0.000000 0.017823 0.064393
0.070130 0.012268 0.066285
0.289708 0.000000 0.087465
0.532006 0.000000 0.113405
0.700923 0.000000 0.130800
0.819913 0.000000 0.154726
0.929320 0.000000 0.196475
1.000000 0.108370 0.280583
0.000000 0.049561 0.019989
0.038575 0.076356 0.038544
0.252811 0.063172 0.071962
0.492348 0.000000 0.094270
0.680873 0.000000 0.115541
0.809293 0.000000 0.143252
0.925048 0.000000 0.188510
1.000000 0.151003 0.278386
0.000000 0.267521 0.000000
0.000000 0.282017 0.000000
0.190616 0.243259 0.000000
0.411017 0.239597 0.084504
0.634699 0.189639 0.097047
0.786984 0.101869 0.130282
0.913634 0.088045 0.184329
1.000000 0.280552 0.287907
0.000000 0.520409 0.000000
0.000000 0.523522 0.000000
0.242344 0.541131 0.000000
0.349798 0.384955 0.000000
0.564385 0.354162 0.000000
0.764889 0.364263 0.168093
0.901518 0.365026 0.227237
1.000000 0.452003 0.340429
0.000000 0.726406 0.000000
0.000000 0.728023 0.000000
0.179965 0.731960 0.000000
0.469795 0.706996 0.000000
0.490364 0.497322 0.000000
0.635370 0.422797 0.000000
0.865324 0.518639 0.283604
0.986694 0.576776 0.389502
0.000000 0.850462 0.000000
0.000000 0.853635 0.000000
0.000000 0.854948 0.000000
0.405005 0.855741 0.000000
0.613550 0.794430 0.000000
0.617945 0.597101 0.000000
0.712276 0.491951 0.000000
0.959380 0.616205 0.330755
0.000000 0.957641 0.000000
0.000000 0.960937 0.000000
0.000000 0.960113 0.000000
0.311559 0.953521 0.000000
0.556970 0.945159 0.000000
0.730129 0.869413 0.000000
0.757290 0.706966 0.000000
0.827268 0.582666 0.000000
0.000000 1.000000 0.000000
0.000000 1.000000 0.000000
0.000000 1.000000 0.000000
0.000000 1.000000 0.000000
0.448707 1.000000 0.000000
0.669245 1.000000 0.000000
0.842741 0.949981 0.000000
0.943755 0.857450 0.000000
0.000000 0.115175 0.256901
0.062501 0.000000 0.246983
0.320470 0.000000 0.238315
0.668269 0.000000 0.237583
0.785336 0.000000 0.233219
0.869993 0.000000 0.243473
0.955810 0.000000 0.269200
1.000000 0.234531 0.337072
0.000000 0.120790 0.214633
0.048676 0.070497 0.227329
0.302251 0.105470 0.225803
0.631373 0.000000 0.225010
0.764614 0.000000 0.228305
0.856107 0.000000 0.239597
0.946197 0.000000 0.266484
1.000000 0.254704 0.336126
0.000000 0.282750 0.168978
0.000000 0.291844 0.177462
0.252781 0.300969 0.192355
0.512016 0.259098 0.196139
0.682094 0.205203 0.205417
0.803250 0.170321 0.223026
0.916411 0.189578 0.257542
1.000000 0.328954 0.340032
0.000000 0.511070 0.157656
0.000000 0.516869 0.140688
0.113191 0.542290 0.002441
0.405066 0.420783 0.048066
0.638605 0.426429 0.231540
0.785611 0.392676 0.245182
0.906249 0.390021 0.285191
1.000000 0.465705 0.374823
0.000000 0.718135 0.000000
0.000000 0.723079 0.000000
0.000000 0.733761 0.000000
0.456153 0.734798 0.000000
0.533165 0.525292 0.000000
0.700465 0.464485 0.136049
0.870817 0.543664 0.337133
0.985992 0.586114 0.417212
0.000000 0.847990 0.000000
0.000000 0.853300 0.000000
0.000000 0.858671 0.000000
0.354192 0.857420 0.000000
0.613184 0.811368 0.000000
0.637293 0.608820 0.000000
0.755978 0.509606 0.000000
0.960510 0.672724 0.442267
0.000000 0.957275 0.000000
0.000000 0.960113 0.000000
0.000000 0.960510 0.000000
0.230655 0.955688 0.000000
0.535454 0.946227 0.000000
0.729122 0.878660 0.000000
0.763088 0.709316 0.000000
0.856626 0.590173 0.000000
0.000000 1.000000 0.000000
0.000000 1.000000 0.000000
0.000000 1.000000 0.000000
0.000000 1.000000 0.000000
0.426337 1.000000 0.000000
0.654322 1.000000 0.000000
0.840024 0.954803 0.000000
0.945586 0.857694 0.000000
0.000000 0.000000 0.502983
0.009857 0.000000 0.497810
0.376440 0.000000 0.446296
0.648005 0.000000 0.484932
0.857298 0.000000 0.413916
0.942992 0.000000 0.361364
0.998474 0.197910 0.375586
1.000000 0.356573 0.425360
0.000000 0.013642 0.484779
0.000000 0.000000 0.490639
0.368231 0.152804 0.450690
0.636164 0.098024 0.475532
0.850797 0.000000 0.405982
0.931914 0.108705 0.363561
0.989685 0.237156 0.375708
1.000000 0.362554 0.421668
0.000000 0.388922 0.448310
0.000000 0.363531 0.452949
0.281407 0.300877 0.451240
0.598260 0.338537 0.445228
0.814267 0.299138 0.374548
0.889891 0.313939 0.367864
0.964324 0.344457 0.382940
1.000000 0.423835 0.431891
0.000000 0.536614 0.365881
0.000000 0.536156 0.367559
0.075593 0.547173 0.388769
0.555383 0.555993 0.413947
0.726162 0.510918 0.392981
0.826871 0.470161 0.381079
0.922057 0.454322 0.390082
1.000000 0.500267 0.442573
0.000000 0.723659 0.331853
0.000000 0.725460 0.325017
0.000000 0.733272 0.309117
0.472541 0.733028 0.331609
0.610895 0.578485 0.230930
0.778134 0.608637 0.416022
0.888975 0.582757 0.418067
0.993744 0.606165 0.469673
0.000000 0.847105 0.232578
0.000000 0.851591 0.219181
0.000000 0.857939 0.180270
0.353735 0.856077 0.203983
0.651057 0.842985 0.267369
0.680507 0.637140 0.000000
0.824063 0.577234 0.252842
0.966186 0.717311 0.529137
0.000000 0.954833 0.000000
0.000000 0.958312 0.000000
0.000000 0.960632 0.000000
0.125307 0.956268 0.000000
0.534905 0.944030 0.000000
0.736110 0.894408 0.000000
0.772396 0.713100 0.000000
0.893156 0.602319 0.000000
0.000000 1.000000 0.000000
0.000000 1.000000 0.000000
0.000000 1.000000 0.000000
0.000000 1.000000 0.000000
0.361028 1.000000 0.000000
0.644526 1.000000 0.000000
0.831754 0.958404 0.000000
0.939940 0.850980 0.000000
0.000000 0.000000 0.686854
0.000000 0.000000 0.677546
0.370672 0.000000 0.650263
0.588617 0.292546 0.611353
0.818265 0.195468 0.651270
0.947234 0.240940 0.558221
1.000000 0.356054 0.497200
1.000000 0.463203 0.524102
0.000000 0.000000 0.665431
0.000000 0.000000 0.665949
0.350805 0.110231 0.645808
0.580743 0.321630 0.603784
0.807767 0.259434 0.641138
0.941527 0.296361 0.555627
1.000000 0.385504 0.501152
1.000000 0.472969 0.524590
0.000000 0.342718 0.649744
0.000000 0.301183 0.650721
0.255436 0.286961 0.641718
0.571832 0.418494 0.601129
0.785122 0.417578 0.620752
0.927764 0.440009 0.555840
1.000000 0.479286 0.522026
1.000000 0.526635 0.540398
0.000000 0.555566 0.601373
0.000000 0.545830 0.600061
0.000000 0.523522 0.609186
0.554986 0.555871 0.613275
0.771450 0.598077 0.614282
0.917571 0.599512 0.568536
0.979919 0.579400 0.546014
1.000000 0.584253 0.552239
0.000000 0.716732 0.542718
0.000000 0.718044 0.545861
0.000000 0.719875 0.556512
0.485023 0.719295 0.574060
0.739132 0.721462 0.588037
0.837919 0.671382 0.546777
0.916258 0.621515 0.516503
1.000000 0.616876 0.530724
0.000000 0.851499 0.475349
0.000000 0.854826 0.475257
0.000000 0.857633 0.474006
0.423499 0.850797 0.495796
0.688472 0.840726 0.531518
0.740444 0.690303 0.375830
0.882567 0.739864 0.566583
0.979736 0.733852 0.582238
0.000000 0.957305 0.373724
0.000000 0.959930 0.369238
0.000000 0.960815 0.356390
0.254154 0.952850 0.373754
0.595392 0.937407 0.430365
0.787289 0.919219 0.460151
0.798489 0.731044 0.077821
0.938628 0.679744 0.350042
0.000000 1.000000 0.247898
0.000000 1.000000 0.235416
0.000000 1.000000 0.180545
0.000000 1.000000 0.106203
0.383093 1.000000 0.197910
0.678248 1.000000 0.316655
0.840574 0.968109 0.253117
0.943603 0.851499 0.000000
0.000000 0.000000 0.823423
0.000000 0.000000 0.822721
0.318883 0.000000 0.809903
0.567254 0.298711 0.784024
0.758663 0.477699 0.760769
0.917998 0.435462 0.780667
1.000000 0.486763 0.697230
1.000000 0.568902 0.648859
0.000000 0.000000 0.808621
0.000000 0.000000 0.811337
0.298222 0.125612 0.798611
0.556939 0.320378 0.771603
0.749905 0.491981 0.747097
0.910582 0.454353 0.771633
1.000000 0.501030 0.694209
1.000000 0.576165 0.646967
0.000000 0.248112 0.807828
0.000000 0.249882 0.805570
0.218936 0.292302 0.795407
0.539483 0.406531 0.757809
0.741146 0.562432 0.726040
0.897124 0.533959 0.758480
0.995117 0.572137 0.699428
1.000000 0.627527 0.658106
0.000000 0.516472 0.766323
0.000000 0.506859 0.762203
0.208560 0.512078 0.764584
0.531121 0.547295 0.765957
0.754116 0.657618 0.736599
0.889403 0.653590 0.757351
0.988251 0.669154 0.712093
1.000000 0.689326 0.680751
0.000000 0.681910 0.728573
0.000000 0.679683 0.730129
0.000000 0.675441 0.734798
0.452644 0.685634 0.742123
0.728786 0.719600 0.740932
0.869993 0.742061 0.740139
0.975952 0.740963 0.702876
1.000000 0.720272 0.677089
0.000000 0.833982 0.680171
0.000000 0.837186 0.686091
0.000000 0.837339 0.693111
0.418189 0.833036 0.701991
0.679103 0.828183 0.713069
0.851408 0.830198 0.725521
0.922179 0.779416 0.672816
0.994751 0.739773 0.645045
0.000000 0.952117 0.606439
0.000000 0.954925 0.608881
0.000000 0.953765 0.608179
0.306249 0.943023 0.616205
0.615900 0.927337 0.636164
0.803861 0.914916 0.664057
0.827695 0.767941 0.455634
0.957244 0.832822 0.689509
0.000000 1.000000 0.481666
0.000000 1.000000 0.476509
0.000000 1.000000 0.460914
0.000000 1.000000 0.452125
0.456733 1.000000 0.497139
0.725002 0.993469 0.566766
0.878019 0.977081 0.597223
0.942565 0.850492 0.129824
0.000000 0.000000 0.929656
0.000000 0.000000 0.929168
0.239261 0.083467 0.921263
0.520226 0.328038 0.906920
0.743587 0.553521 0.880735
0.869078 0.631464 0.874601
0.978058 0.606744 0.885344
1.000000 0.662867 0.818448
0.000000 0.000000 0.922698
0.000000 0.000000 0.923644
0.220829 0.156497 0.916716
0.517327 0.352483 0.902129
0.740505 0.560815 0.876219
0.867094 0.641596 0.870207
0.975494 0.617060 0.882292
1.000000 0.668208 0.817014
0.000000 0.231510 0.924498
0.000000 0.236942 0.924010
0.145602 0.297124 0.915435
0.514611 0.435798 0.896117
0.737881 0.597009 0.870329
0.864683 0.681300 0.861173
0.970855 0.664118 0.879911
1.000000 0.704524 0.822660
0.000000 0.501244 0.900572
0.000000 0.502251 0.897734
0.052979 0.469856 0.899992
0.506828 0.547723 0.895537
0.741848 0.665156 0.875761
0.869322 0.749935 0.858640
0.965087 0.730129 0.878660
1.000000 0.754238 0.829770
0.000000 0.643427 0.880522
0.000000 0.642756 0.880125
0.000000 0.649042 0.880217
0.521843 0.690486 0.879637
0.709529 0.717525 0.877073
0.862455 0.793179 0.852140
0.953552 0.785580 0.867430
1.000000 0.797116 0.826596
0.000000 0.784329 0.849393
0.000000 0.784909 0.852049
0.000000 0.785306 0.854582
0.391547 0.793240 0.857206
0.647944 0.805692 0.861143
0.841886 0.833280 0.861204
0.943297 0.851865 0.860838
1.000000 0.854154 0.829374
0.000000 0.933349 0.817563
0.000000 0.934661 0.821103
0.000000 0.932433 0.823270
0.278538 0.924559 0.823636
0.602930 0.914549 0.825193
0.796689 0.907500 0.831296
0.924254 0.907103 0.839445
0.981109 0.857908 0.779599
0.000000 1.000000 0.713649
0.000000 1.000000 0.712642
0.000000 1.000000 0.709041
0.000000 1.000000 0.712673
0.484169 1.000000 0.727932
0.738888 0.986053 0.755550
0.891356 0.972808 0.788907
0.932891 0.859586 0.517571
0.000000 0.000000 1.000000
0.000000 0.000000 1.000000
0.146792 0.163729 1.000000
0.493568 0.392859 0.995209
0.732479 0.607080 0.977264
0.872313 0.749264 0.958190
0.941405 0.766598 0.960571
1.000000 0.749752 0.963989
0.000000 0.000000 1.000000
0.000000 0.000000 1.000000
0.116335 0.197604 1.000000
0.489143 0.404852 0.992126
0.729244 0.610285 0.974975
0.871275 0.751553 0.957183
0.941161 0.772671 0.959594
1.000000 0.753902 0.962860
0.000000 0.197726 1.000000
0.000000 0.203769 1.000000
0.000000 0.294408 1.000000
0.488624 0.464698 0.989105
0.727657 0.636408 0.972778
0.869078 0.762387 0.955657
0.941527 0.795468 0.957946
1.000000 0.779263 0.963348
0.000000 0.437049 0.994507
0.000000 0.426001 0.993774
0.000000 0.436194 0.993713
0.470069 0.540520 0.988281
0.724178 0.680720 0.974334
0.868956 0.787655 0.958770
0.941894 0.828977 0.955535
1.000000 0.811490 0.962310
0.000000 0.610620 0.983307
0.000000 0.616724 0.982788
0.282811 0.647486 0.980255
0.475502 0.655421 0.980804
0.682551 0.711116 0.975525
0.852811 0.803128 0.959075
0.938201 0.859922 0.947997
0.998169 0.844358 0.958251
0.000000 0.726833 0.970031
0.000000 0.728511 0.971038
0.000000 0.735897 0.970886
0.374762 0.757076 0.969360
0.672175 0.800015 0.966186
0.820432 0.828611 0.963958
0.935363 0.891875 0.947082
0.992523 0.886656 0.955901
0.000000 0.860014 0.954986
0.000000 0.860044 0.956085
0.000000 0.859068 0.955962
0.157443 0.862455 0.953765
0.558556 0.871550 0.951202
0.766171 0.885985 0.950835
0.911711 0.908385 0.949065
0.984192 0.924468 0.947845
0.000000 1.000000 0.930816
0.000000 1.000000 0.930816
0.000000 1.000000 0.930938
0.000000 0.997009 0.930785
0.441810 0.986053 0.930266
0.722255 0.974823 0.930938
0.884794 0.967315 0.934142
0.975280 0.966491 0.940185
