data/fiter_cube/96471014/1022823/file.cube
# Created by Adobe Lightroom plugin Export LUT (1.17.0)
# www.johnrellis.com/lightroom/exportlut.htm
# Preset: 古风系-古典气质
# Color profile: C:\Program Files (x86)\Common Files\Adobe\Color\Profiles\Recommended\AdobeRGB1998.icc
LUT_3D_SIZE 32
DOMAIN_MIN 0.0 0.0 0.0
DOMAIN_MAX 1.0 1.0 1.0
0.000000 0.000000 0.000000
0.000000 0.000000 0.000000
0.000000 0.000000 0.000000
0.021332 0.000000 0.000732
0.087953 0.000000 0.002899
0.146242 0.000000 0.006134
0.202121 0.000000 0.007813
0.255467 0.000000 0.010986
0.308446 0.000000 0.012512
0.365423 0.000000 0.013092
0.424903 0.000000 0.018158
0.485878 0.000000 0.026795
0.546227 0.000000 0.037415
0.596918 0.000000 0.051759
0.641260 0.000000 0.063264
0.681636 0.000000 0.072297
0.718776 0.000000 0.082368
0.752102 0.000000 0.091371
0.781918 0.000000 0.100679
0.810178 0.000000 0.110719
0.838041 0.000000 0.121553
0.865354 0.000000 0.132998
0.892332 0.000000 0.145418
0.919097 0.000000 0.159670
0.945403 0.000000 0.175540
0.971862 0.000000 0.194491
0.997101 0.000000 0.216892
1.000000 0.000000 0.243015
1.000000 0.115755 0.275120
1.000000 0.256168 0.318639
1.000000 0.360082 0.369574
1.000000 0.450355 0.424506
0.000000 0.000000 0.000000
0.000000 0.000000 0.000000
0.000000 0.000000 0.000000
0.017273 0.000000 0.000763
0.082063 0.000000 0.003296
0.136233 0.000000 0.003632
0.190585 0.000000 0.001587
0.245365 0.000000 0.000671
0.301854 0.000000 0.000000
0.359167 0.000000 0.000000
0.419104 0.000000 0.000153
0.480812 0.000000 0.007874
0.542443 0.000000 0.020020
0.593347 0.000000 0.035065
0.638239 0.000000 0.052796
0.678950 0.000000 0.066224
0.716365 0.000000 0.077211
0.749905 0.000000 0.087129
0.779690 0.000000 0.097230
0.808042 0.000000 0.107912
0.835996 0.000000 0.118715
0.863493 0.000000 0.130617
0.890623 0.000000 0.143008
0.917510 0.000000 0.157534
0.943877 0.000000 0.173648
0.970489 0.000000 0.192813
0.995941 0.000000 0.215152
1.000000 0.000000 0.241642
1.000000 0.115084 0.273716
1.000000 0.255192 0.317388
1.000000 0.358801 0.368200
1.000000 0.448890 0.422919
0.000000 0.000000 0.000000
0.000000 0.000000 0.000000
0.000000 0.000000 0.000000
0.014557 0.000000 0.000793
0.076051 0.000000 0.001190
0.128420 0.000000 0.000000
0.181735 0.000000 0.000000
0.237308 0.000000 0.000000
0.294041 0.000000 0.000000
0.351629 0.000000 0.000000
0.412665 0.000000 0.000000
0.475074 0.000000 0.000000
0.537438 0.000000 0.000000
0.589075 0.000000 0.011383
0.634546 0.000000 0.034089
0.675654 0.000000 0.056977
0.713344 0.000000 0.069032
0.747127 0.000000 0.080903
0.776913 0.000000 0.092622
0.805356 0.000000 0.102998
0.833494 0.000000 0.114809
0.861112 0.000000 0.126986
0.888457 0.000000 0.140078
0.915526 0.000000 0.154940
0.942046 0.000000 0.171359
0.968872 0.000000 0.190463
0.994507 0.000000 0.213260
1.000000 0.000000 0.239933
1.000000 0.115023 0.272221
1.000000 0.255070 0.316045
1.000000 0.358709 0.367102
1.000000 0.448768 0.422034
0.000000 0.010834 0.000000
0.000000 0.014435 0.000000
0.000000 0.020447 0.000000
0.007080 0.035279 0.000000
0.060853 0.034394 0.002991
0.110750 0.033173 0.001495
0.163851 0.019562 0.000000
0.219547 0.000000 0.000000
0.277806 0.000000 0.000000
0.337377 0.000000 0.000000
0.400214 0.000000 0.000000
0.464302 0.000000 0.000000
0.527733 0.000000 0.000000
0.581872 0.000000 0.000000
0.629358 0.000000 0.004242
0.671595 0.000000 0.023377
0.710231 0.000000 0.046387
0.744717 0.000000 0.067109
0.775082 0.000000 0.081819
0.804074 0.000000 0.094820
0.832761 0.000000 0.107942
0.860716 0.000000 0.121645
0.888304 0.000000 0.135897
0.915587 0.000000 0.151644
0.942473 0.000000 0.168917
0.969635 0.000000 0.189517
0.995575 0.000000 0.213138
1.000000 0.000000 0.241123
1.000000 0.142733 0.274754
1.000000 0.271824 0.320562
1.000000 0.372686 0.372808
1.000000 0.462013 0.429145
0.000000 0.067079 0.000000
0.000000 0.070527 0.000000
0.000000 0.075624 0.000000
0.000000 0.085573 0.000000
0.048737 0.095094 0.000000
0.090455 0.084169 0.000000
0.138277 0.090852 0.001770
0.193698 0.092470 0.000000
0.253819 0.086793 0.000000
0.315190 0.066651 0.000000
0.379675 0.000000 0.000000
0.445716 0.000000 0.000000
0.510185 0.000000 0.000000
0.567224 0.000000 0.000000
0.616754 0.000000 0.000000
0.660670 0.000000 0.018341
0.700771 0.000000 0.041871
0.736355 0.000000 0.062531
0.767971 0.000000 0.074220
0.798123 0.000000 0.086152
0.827665 0.000000 0.098939
0.856321 0.000000 0.111666
0.884459 0.000000 0.127108
0.912108 0.000000 0.144106
0.939300 0.000000 0.162600
0.966857 0.000000 0.184115
0.993103 0.000000 0.208743
1.000000 0.000000 0.237583
1.000000 0.153475 0.272160
1.000000 0.277287 0.318730
1.000000 0.376226 0.371527
1.000000 0.464393 0.428046
0.000000 0.113466 0.000000
0.000000 0.118898 0.000000
0.000000 0.124453 0.000000
0.000000 0.135134 0.000000
0.000000 0.148775 0.000000
0.090455 0.143771 0.000000
0.127718 0.125643 0.000000
0.168154 0.125978 0.000000
0.227512 0.131594 0.000000
0.291691 0.129885 0.000000
0.358434 0.119570 0.000000
0.426032 0.093141 0.000000
0.492073 0.000000 0.000000
0.552575 0.000000 0.000000
0.604852 0.000000 0.000000
0.650843 0.000000 0.014954
0.692317 0.000000 0.041260
0.729824 0.000000 0.062562
0.763607 0.000000 0.075685
0.795743 0.000000 0.088319
0.827054 0.000000 0.101808
0.859373 0.000000 0.117067
0.894408 0.000000 0.135988
0.922911 0.000000 0.153231
0.950622 0.000000 0.172519
0.977173 0.000000 0.194553
1.000000 0.000000 0.220218
1.000000 0.108949 0.252171
1.000000 0.230442 0.290898
1.000000 0.329290 0.339055
1.000000 0.414771 0.390600
1.000000 0.496407 0.446967
0.000000 0.180606 0.000000
0.000000 0.178470 0.000000
0.000000 0.177646 0.000000
0.000000 0.180880 0.000000
0.000000 0.187198 0.000000
0.064057 0.193576 0.000000
0.117647 0.175051 0.000000
0.148836 0.152621 0.000000
0.189090 0.150546 0.000000
0.239384 0.154299 0.000000
0.301701 0.156222 0.000000
0.366339 0.151217 0.000000
0.429938 0.137667 0.000000
0.492317 0.112825 0.000000
0.549920 0.065614 0.000000
0.603845 0.000000 0.000458
0.650141 0.000000 0.021363
0.690364 0.000000 0.045930
0.726741 0.000000 0.064454
0.766445 0.000000 0.079591
0.803311 0.000000 0.094972
0.837888 0.000000 0.110170
0.870817 0.000000 0.126375
0.904448 0.000000 0.145571
0.936645 0.000000 0.166903
0.967163 0.000000 0.191104
0.995636 0.000000 0.219272
1.000000 0.157382 0.251774
1.000000 0.253452 0.291264
1.000000 0.343023 0.339361
1.000000 0.423957 0.390845
1.000000 0.501976 0.446571
0.000000 0.242802 0.000000
0.000000 0.240757 0.000000
0.000000 0.239231 0.000000
0.000000 0.241123 0.000000
0.000000 0.246036 0.000000
0.000000 0.251560 0.000000
0.121065 0.242954 0.000000
0.155276 0.214694 0.000000
0.173556 0.181949 0.000000
0.225986 0.185428 0.000000
0.280308 0.187564 0.000000
0.344854 0.192508 0.000000
0.410681 0.189609 0.000000
0.474983 0.179904 0.000000
0.536187 0.162448 0.000000
0.592584 0.138949 0.006287
0.639948 0.106538 0.026673
0.681727 0.049134 0.051667
0.719234 0.000000 0.067414
0.760006 0.000000 0.082551
0.797452 0.000000 0.097810
0.832609 0.000000 0.113619
0.866239 0.000000 0.130190
0.900175 0.000000 0.149538
0.932525 0.000000 0.170871
0.963195 0.000000 0.195468
0.991760 0.132296 0.223606
1.000000 0.209934 0.256077
1.000000 0.286534 0.296178
1.000000 0.364843 0.343450
1.000000 0.439277 0.394110
1.000000 0.512932 0.449256
0.000000 0.308934 0.000000
0.000000 0.306249 0.000000
0.000000 0.304845 0.000000
0.000000 0.305272 0.000000
0.000000 0.308385 0.000000
0.000000 0.312230 0.000000
0.114687 0.316747 0.000000
0.172183 0.286992 0.000000
0.190646 0.248692 0.000000
0.193851 0.205020 0.000000
0.258305 0.216220 0.000000
0.320256 0.219730 0.000000
0.387945 0.227878 0.012024
0.454994 0.226352 0.007599
0.518944 0.218906 0.008270
0.577478 0.206485 0.018982
0.627436 0.190127 0.037629
0.671046 0.170596 0.059541
0.710109 0.147921 0.071901
0.752193 0.125216 0.086641
0.790890 0.102968 0.102174
0.827054 0.080995 0.118196
0.861479 0.071321 0.135134
0.895720 0.084932 0.154726
0.928344 0.114748 0.176547
0.959197 0.155550 0.201297
0.987884 0.204044 0.229770
1.000000 0.257420 0.262181
1.000000 0.322148 0.303014
1.000000 0.390295 0.349432
1.000000 0.457740 0.399023
1.000000 0.526757 0.453529
0.000000 0.376654 0.000000
0.000000 0.374182 0.000000
0.000000 0.372564 0.000000
0.000000 0.372442 0.000000
0.000000 0.374731 0.000000
0.000000 0.377356 0.000000
0.097841 0.380560 0.000000
0.186801 0.370306 0.000000
0.223056 0.328985 0.000000
0.228672 0.283391 0.000000
0.216617 0.228367 0.000000
0.294865 0.247593 0.000000
0.363958 0.253391 0.000000
0.438270 0.262425 0.000000
0.507897 0.265782 0.040620
0.569818 0.260105 0.048615
0.622248 0.250156 0.060792
0.667842 0.237308 0.071504
0.708522 0.223270 0.082979
0.751644 0.211246 0.097292
0.791073 0.200778 0.112520
0.828336 0.193851 0.129000
0.863554 0.191531 0.147127
0.897490 0.197665 0.167208
0.929747 0.212589 0.189548
0.960143 0.237247 0.215122
0.988312 0.271855 0.244327
1.000000 0.315221 0.278080
1.000000 0.369879 0.319188
1.000000 0.427771 0.364111
1.000000 0.487709 0.412390
1.000000 0.550652 0.465583
0.000000 0.437385 0.000000
0.000000 0.435340 0.000000
0.000000 0.433478 0.000000
0.000000 0.433265 0.000000
0.000000 0.434668 0.000000
0.000000 0.436530 0.000000
0.057527 0.439002 0.000000
0.185183 0.442206 0.000000
0.244511 0.409369 0.000000
0.266392 0.362921 0.000000
0.264347 0.314855 0.000000
0.238315 0.249790 0.000000
0.321202 0.271885 0.000000
0.394110 0.279637 0.000000
0.471809 0.288548 0.000000
0.549493 0.301030 0.069184
0.605676 0.295781 0.074281
0.653834 0.287327 0.082490
0.696681 0.277043 0.092103
0.741482 0.268986 0.105592
0.782528 0.261936 0.120729
0.820737 0.257298 0.137087
0.856718 0.256382 0.155032
0.891081 0.260563 0.175143
0.923613 0.271366 0.197513
0.954253 0.290166 0.223056
0.982757 0.317937 0.252567
1.000000 0.355474 0.286961
1.000000 0.402228 0.327214
1.000000 0.452949 0.370672
1.000000 0.506920 0.417639
1.000000 0.565270 0.469825
0.000000 0.503868 0.000000
0.000000 0.501640 0.000000
0.000000 0.500008 0.000000
0.000000 0.498634 0.000000
0.000000 0.499611 0.000000
0.000000 0.500908 0.000000
0.000000 0.502922 0.000000
0.177584 0.506218 0.000000
0.265049 0.501030 0.000000
0.302281 0.450568 0.000000
0.314946 0.402960 0.000000
0.306920 0.351568 0.000000
0.282658 0.288304 0.000000
0.368292 0.308171 0.000000
0.455299 0.321477 0.000000
0.542809 0.332616 0.000000
0.617945 0.345861 0.077424
0.672450 0.348302 0.112276
0.716609 0.341253 0.121157
0.758114 0.334722 0.132937
0.796384 0.329015 0.146426
0.831815 0.325170 0.161563
0.865537 0.324529 0.178500
0.897795 0.328405 0.197940
0.928557 0.337682 0.220218
0.955871 0.350988 0.243290
0.982513 0.373327 0.271702
1.000000 0.405585 0.305974
1.000000 0.444831 0.344518
1.000000 0.486976 0.384894
1.000000 0.534142 0.429694
1.000000 0.587152 0.480354
0.000000 0.533532 0.000000
0.000000 0.529473 0.000000
0.000000 0.525689 0.000000
0.000000 0.523583 0.000000
0.000000 0.523186 0.000000
0.000000 0.527520 0.000000
0.000000 0.531579 0.000000
0.132662 0.535363 0.000000
0.238346 0.538811 0.000000
0.309606 0.521294 0.000000
0.341009 0.477180 0.000000
0.352636 0.433112 0.000000
0.340551 0.379400 0.000000
0.298436 0.304021 0.000000
0.370031 0.315831 0.000000
0.465583 0.336156 0.000000
0.557519 0.350072 0.000000
0.634363 0.362676 0.027008
0.697871 0.380072 0.133913
0.742702 0.376226 0.144533
0.783566 0.372564 0.157839
0.820401 0.369696 0.172183
0.855161 0.369390 0.188785
0.888212 0.372595 0.207767
0.919615 0.380621 0.229770
0.948211 0.392798 0.253544
0.975494 0.412634 0.282261
1.000000 0.441108 0.316320
1.000000 0.475288 0.353918
1.000000 0.512840 0.393469
1.000000 0.555962 0.437507
1.000000 0.606561 0.488930
0.000000 0.598169 0.000000
0.000000 0.594049 0.000000
0.000000 0.590082 0.000000
0.000000 0.587793 0.000000
0.000000 0.586419 0.000000
0.000000 0.588739 0.000000
0.000000 0.590600 0.000000
0.100984 0.592554 0.000000
0.227878 0.594263 0.000000
0.319615 0.602045 0.000000
0.370489 0.563348 0.000000
0.395148 0.520623 0.000000
0.399725 0.471229 0.000000
0.379034 0.410803 0.000000
0.326604 0.328222 0.000000
0.382086 0.329412 0.000000
0.487526 0.356237 0.000000
0.578119 0.370214 0.000000
0.655390 0.382177 0.000000
0.722072 0.403723 0.135592
0.769192 0.411719 0.170871
0.807523 0.409857 0.184360
0.843442 0.409827 0.200290
0.877226 0.412696 0.218601
0.909789 0.420325 0.240635
0.939422 0.431373 0.264652
0.967224 0.449134 0.293217
0.992981 0.473732 0.326299
1.000000 0.503624 0.362615
1.000000 0.537224 0.401251
1.000000 0.577142 0.445075
1.000000 0.624781 0.496529
0.000000 0.650355 0.000000
0.000000 0.646540 0.000000
0.000000 0.642939 0.000000
0.000000 0.640375 0.000000
0.000000 0.638941 0.000000
0.000000 0.640223 0.000000
0.000000 0.641108 0.000000
0.000000 0.641749 0.000000
0.209018 0.642451 0.000000
0.306889 0.648432 0.000000
0.381720 0.637934 0.000000
0.421607 0.600885 0.000000
0.443122 0.558282 0.000000
0.445472 0.507744 0.000000
0.416999 0.441108 0.000000
0.355108 0.352209 0.000000
0.393408 0.341619 0.000000
0.505974 0.374060 0.000000
0.596887 0.388739 0.000000
0.674800 0.400427 0.000000
0.741970 0.420142 0.119326
0.793973 0.446601 0.198520
0.831022 0.447395 0.213687
0.866453 0.450874 0.232059
0.900023 0.458381 0.253971
0.930694 0.469154 0.278264
0.959472 0.486152 0.307439
0.986206 0.508232 0.339971
1.000000 0.535332 0.375891
1.000000 0.567651 0.415686
1.000000 0.607874 0.462715
1.000000 0.653956 0.515801
0.000000 0.703609 0.000000
0.000000 0.700893 0.000000
0.000000 0.698177 0.000000
0.000000 0.696620 0.000000
0.000000 0.695827 0.000000
0.000000 0.696803 0.000000
0.000000 0.697383 0.000000
0.000000 0.697780 0.000000
0.193973 0.697963 0.000000
0.299016 0.702327 0.000000
0.384710 0.706264 0.000000
0.441260 0.681910 0.000000
0.477028 0.645136 0.000000
0.497139 0.601526 0.000000
0.497383 0.548852 0.000000
0.462409 0.476753 0.000000
0.389410 0.380255 0.000000
0.405463 0.354070 0.000000
0.527001 0.392859 0.000000
0.618891 0.408637 0.000000
0.697017 0.420233 0.000000
0.763668 0.438056 0.100740
0.818112 0.472541 0.209110
0.856748 0.488777 0.249546
0.890257 0.495308 0.270024
0.921324 0.505364 0.293950
0.950439 0.519615 0.321019
0.977600 0.538384 0.351537
1.000000 0.561669 0.385473
1.000000 0.592798 0.426337
1.000000 0.629603 0.472328
1.000000 0.671504 0.523735
0.000000 0.742123 0.000000
0.000000 0.739803 0.000000
0.000000 0.737758 0.000000
0.000000 0.736477 0.000000
0.000000 0.735805 0.000000
0.000000 0.736385 0.000000
0.000000 0.736507 0.000000
0.000000 0.736416 0.000000
0.158358 0.736080 0.000000
0.276280 0.739223 0.000000
0.365179 0.742123 0.000000
0.437781 0.741390 0.000000
0.484352 0.710384 0.000000
0.516655 0.672755 0.000000
0.533989 0.628443 0.000000
0.532891 0.575952 0.000000
0.497536 0.504356 0.000000
0.416236 0.402350 0.000000
0.410010 0.361181 0.000000
0.539361 0.406287 0.000000
0.632929 0.424170 0.000000
0.714107 0.436744 0.000000
0.781643 0.453742 0.070222
0.836423 0.485908 0.197665
0.877867 0.527764 0.285466
0.909728 0.536950 0.307897
0.939727 0.549432 0.333532
0.967742 0.565820 0.362402
0.994354 0.588220 0.396796
1.000000 0.616449 0.436591
1.000000 0.650080 0.481483
1.000000 0.688472 0.531487
0.000000 0.780148 0.000000
0.000000 0.780453 0.000000
0.000000 0.776181 0.000000
0.000000 0.777768 0.000000
0.000000 0.779782 0.000000
0.000000 0.781125 0.000000
0.000000 0.782071 0.000000
0.000000 0.783993 0.000000
0.128389 0.785641 0.000000
0.262455 0.786801 0.000000
0.353887 0.787625 0.000000
0.428748 0.787900 0.000000
0.487709 0.775570 0.000000
0.530571 0.743465 0.000000
0.560540 0.705531 0.000000
0.573205 0.657954 0.000000
0.568383 0.603113 0.000000
0.530175 0.529778 0.000000
0.445350 0.425849 0.000000
0.414954 0.368139 0.000000
0.549767 0.418463 0.000000
0.647028 0.439155 0.000000
0.729122 0.452308 0.000000
0.796475 0.467384 0.000000
0.851133 0.496254 0.180819
0.893553 0.547570 0.294133
0.925780 0.573571 0.342199
0.955688 0.589105 0.370733
0.983154 0.608606 0.402869
1.000000 0.632807 0.439673
1.000000 0.662440 0.482002
1.000000 0.697444 0.530236
0.000000 0.794369 0.000000
0.000000 0.795712 0.000000
0.000000 0.797421 0.000000
0.000000 0.800290 0.000000
0.000000 0.803616 0.000000
0.000000 0.806302 0.000000
0.000000 0.808713 0.000000
0.000000 0.810758 0.000000
0.000000 0.812497 0.000000
0.226535 0.813840 0.000000
0.325841 0.814786 0.000000
0.406653 0.814572 0.000000
0.470619 0.815061 0.000000
0.523217 0.794247 0.000000
0.563165 0.763027 0.000000
0.589899 0.724086 0.000000
0.602136 0.678462 0.000000
0.597406 0.624964 0.000000
0.560449 0.553307 0.000000
0.475654 0.449897 0.000000
0.419989 0.374731 0.000000
0.558373 0.429328 0.000000
0.662959 0.454719 0.000000
0.746578 0.468757 0.000000
0.815274 0.483742 0.000000
0.871183 0.511498 0.167269
0.914397 0.562982 0.291875
0.946654 0.617121 0.386664
0.974853 0.634791 0.417426
1.000000 0.656886 0.452857
1.000000 0.684047 0.494118
1.000000 0.716762 0.541711
0.000000 0.826413 0.000000
0.000000 0.827420 0.000000
0.000000 0.828611 0.000000
0.000000 0.830869 0.000000
0.000000 0.833433 0.000000
0.000000 0.835508 0.000000
0.000000 0.837095 0.000000
0.000000 0.838560 0.000000
0.000000 0.839597 0.000000
0.184604 0.840269 0.000000
0.295415 0.840574 0.000000
0.379583 0.840177 0.000000
0.448615 0.839780 0.000000
0.508476 0.837705 0.000000
0.556023 0.811551 0.000000
0.592737 0.779873 0.000000
0.618494 0.742794 0.000000
0.630732 0.698848 0.000000
0.625818 0.646448 0.000000
0.588006 0.574670 0.000000
0.506188 0.474098 0.000000
0.424872 0.381079 0.000000
0.567224 0.439765 0.000000
0.677974 0.469642 0.000000
0.764736 0.485481 0.000000
0.835386 0.500633 0.000000
0.892180 0.527672 0.152743
0.935058 0.578759 0.289097
0.965759 0.644373 0.408667
0.991180 0.677943 0.464240
1.000000 0.703639 0.505058
1.000000 0.734249 0.552026
0.000000 0.855528 0.000000
0.000000 0.856413 0.000000
0.000000 0.857389 0.000000
0.000000 0.859159 0.000000
0.000000 0.861234 0.000000
0.000000 0.862821 0.000000
0.000000 0.864042 0.000000
0.000000 0.864897 0.000000
0.000000 0.865385 0.000000
0.125368 0.865537 0.000000
0.260258 0.865568 0.000000
0.350591 0.865080 0.000000
0.426917 0.864317 0.000000
0.487251 0.864195 0.000000
0.542870 0.854765 0.000000
0.587366 0.828794 0.000000
0.622919 0.798550 0.000000
0.648310 0.763119 0.000000
0.661219 0.721248 0.000000
0.657893 0.671138 0.000000
0.622400 0.601587 0.000000
0.544366 0.503471 0.000000
0.464851 0.411170 0.000000
0.589593 0.458106 0.000000
0.710018 0.493690 0.000000
0.798978 0.510765 0.000000
0.870573 0.526757 0.000000
0.926299 0.555505 0.154818
0.966003 0.610407 0.308263
0.993347 0.678340 0.436988
1.000000 0.737667 0.536767
1.000000 0.766445 0.583581
0.000000 0.892271 0.000000
0.000000 0.893370 0.000000
0.000000 0.894499 0.000000
0.000000 0.895689 0.000000
0.000000 0.897063 0.000000
0.000000 0.898039 0.000000
0.000000 0.898650 0.000000
0.000000 0.898253 0.000000
0.000000 0.897673 0.000000
0.000000 0.896727 0.000000
0.225437 0.895628 0.000000
0.323674 0.893980 0.000000
0.402472 0.892119 0.000000
0.467628 0.890349 0.000000
0.524804 0.888762 0.000000
0.575830 0.872068 0.000000
0.618036 0.846372 0.000000
0.651850 0.816526 0.000000
0.675898 0.781796 0.000000
0.688808 0.741421 0.000000
0.687343 0.693782 0.000000
0.653956 0.626184 0.000000
0.579797 0.530938 0.000000
0.503471 0.440223 0.000000
0.605707 0.472480 0.000000
0.732113 0.512352 0.000000
0.822263 0.530114 0.000000
0.894469 0.545953 0.000000
0.950744 0.575250 0.143465
0.988952 0.632349 0.315526
1.000000 0.701106 0.452552
1.000000 0.769253 0.572656
0.000000 0.916258 0.000000
0.000000 0.917235 0.000000
0.000000 0.918273 0.000000
0.000000 0.919219 0.000000
0.000000 0.920378 0.000000
0.000000 0.921233 0.000000
0.000000 0.921752 0.000000
0.000000 0.921141 0.000000
0.000000 0.920256 0.000000
0.000000 0.919127 0.000000
0.172244 0.917815 0.000000
0.286870 0.915984 0.000000
0.370794 0.913878 0.000000
0.443244 0.911528 0.000000
0.502220 0.909575 0.000000
0.557031 0.907042 0.000000
0.604578 0.885557 0.000000
0.645045 0.861021 0.000000
0.678309 0.832853 0.000000
0.703304 0.800626 0.000000
0.717525 0.762875 0.000000
0.718013 0.717617 0.000000
0.687556 0.652522 0.000000
0.616052 0.558953 0.000000
0.533410 0.463478 0.000000
0.613062 0.481483 0.000000
0.747402 0.527001 0.000000
0.841215 0.546990 0.000000
0.915129 0.563317 0.000000
0.971771 0.592279 0.123384
1.000000 0.650477 0.318059
1.000000 0.722652 0.468208
0.000000 0.939117 0.000000
0.000000 0.940124 0.000000
0.000000 0.941192 0.000000
0.000000 0.942412 0.000000
0.000000 0.943877 0.000000
0.000000 0.944060 0.000000
0.000000 0.943725 0.000000
0.000000 0.943175 0.000000
0.000000 0.942351 0.000000
0.000000 0.940581 0.000000
0.077150 0.938628 0.000000
0.242893 0.936492 0.000000
0.335760 0.934173 0.000000
0.411566 0.931395 0.000000
0.479164 0.928527 0.000000
0.533440 0.926421 0.000000
0.585565 0.918425 0.000000
0.631189 0.898192 0.000000
0.670497 0.874846 0.000000
0.702663 0.847776 0.000000
0.726497 0.816129 0.000000
0.740597 0.779538 0.000000
0.742092 0.736202 0.000000
0.713680 0.673182 0.000000
0.646082 0.582666 0.000000
0.579919 0.497658 0.000000
0.642206 0.503563 0.000000
0.778012 0.550713 0.000000
0.873198 0.571374 0.000000
0.946563 0.587427 0.000000
1.000000 0.617426 0.123018
1.000000 0.680293 0.340917
0.000000 0.958801 0.000000
0.000000 0.959747 0.000000
0.000000 0.960784 0.000000
0.000000 0.961913 0.000000
0.000000 0.963226 0.000000
0.000000 0.963745 0.000000
0.000000 0.963561 0.000000
0.000000 0.963104 0.000000
0.000000 0.962402 0.000000
0.000000 0.960754 0.000000
0.000000 0.959045 0.000000
0.187961 0.957092 0.000000
0.297124 0.954955 0.000000
0.379217 0.952453 0.000000
0.449683 0.949737 0.000000
0.512535 0.946899 0.000000
0.564813 0.944488 0.000000
0.614771 0.932403 0.000000
0.658991 0.913359 0.000000
0.697688 0.891325 0.000000
0.729763 0.865934 0.000000
0.754543 0.836606 0.000000
0.770779 0.802823 0.000000
0.775631 0.762722 0.000000
0.752468 0.703822 0.000000
0.691676 0.617639 0.000000
0.629999 0.534539 0.000000
0.676905 0.529015 0.000000
0.812741 0.577050 0.000000
0.913359 0.600519 0.000000
0.984100 0.616144 0.000000
1.000000 0.647700 0.142641
0.000000 0.978241 0.000000
0.000000 0.978973 0.000000
0.000000 0.979675 0.000000
0.000000 0.980591 0.000000
0.000000 0.981598 0.000000
0.000000 0.982086 0.000000
0.000000 0.982177 0.000000
0.000000 0.981811 0.000000
0.000000 0.981109 0.000000
0.000000 0.979583 0.000000
0.000000 0.977874 0.000000
0.092012 0.975891 0.000000
0.249454 0.973724 0.000000
0.341344 0.971221 0.000000
0.416205 0.968475 0.000000
0.482551 0.965545 0.000000
0.542351 0.962524 0.000000
0.592920 0.960021 0.000000
0.641169 0.944701 0.000000
0.684596 0.927123 0.000000
0.723293 0.907012 0.000000
0.756374 0.884123 0.000000
0.782589 0.857298 0.000000
0.800565 0.825895 0.000000
0.808133 0.788510 0.000000
0.789670 0.733425 0.000000
0.735836 0.651881 0.000000
0.682582 0.573266 0.000000
0.718288 0.558953 0.000000
0.856016 0.608606 0.000000
0.953796 0.630243 0.000000
1.000000 0.643549 0.000000
0.000000 0.996155 0.000000
0.000000 0.996826 0.000000
0.000000 0.997528 0.000000
0.000000 0.998352 0.000000
0.000000 0.999298 0.000000
0.000000 1.000000 0.000000
0.000000 1.000000 0.000000
0.000000 1.000000 0.000000
0.000000 1.000000 0.000000
0.000000 1.000000 0.000000
0.000000 0.999145 0.000000
0.000000 0.997925 0.000000
0.192508 0.996399 0.000000
0.302220 0.994141 0.000000
0.384009 0.991669 0.000000
0.454200 0.988922 0.000000
0.517876 0.986175 0.000000
0.574945 0.983581 0.000000
0.625055 0.978302 0.000000
0.673213 0.964874 0.000000
0.717372 0.949584 0.000000
0.757534 0.932464 0.000000
0.792844 0.912657 0.000000
0.822354 0.889555 0.000000
0.845182 0.862425 0.000000
0.861479 0.832212 0.000000
0.853666 0.784543 0.000000
0.813260 0.710964 0.000000
0.773648 0.638727 0.000000
0.807675 0.619654 0.000000
0.937774 0.663996 0.000000
1.000000 0.678584 0.000000
0.000000 1.000000 0.000000
0.000000 1.000000 0.000000
0.000000 1.000000 0.000000
0.000000 1.000000 0.000000
0.000000 1.000000 0.000000
0.000000 1.000000 0.000000
0.000000 1.000000 0.000000
0.000000 1.000000 0.000000
0.000000 1.000000 0.000000
0.000000 1.000000 0.000000
0.000000 1.000000 0.000000
0.000000 1.000000 0.000000
0.078279 1.000000 0.000000
0.248325 1.000000 0.000000
