data/fiter_cube/55192441/1023183/file.cube
# Created by Adobe Lightroom plugin Export LUT (1.17.0)
# www.johnrellis.com/lightroom/exportlut.htm
# Preset: 清新轻盈通透人像_01 云集
# Color profile: C:\Program Files (x86)\Common Files\Adobe\Color\Profiles\Recommended\AdobeRGB1998.icc
LUT_3D_SIZE 32
DOMAIN_MIN 0.0 0.0 0.0
DOMAIN_MAX 1.0 1.0 1.0
0.000000 0.000000 0.000000
0.004059 0.000000 0.000000
0.024414 0.000000 0.000000
0.065400 0.000000 0.000000
0.095644 0.000000 0.000000
0.144015 0.000000 0.000000
0.207614 0.000000 0.000000
0.278782 0.000000 0.000000
0.349676 0.000000 0.000000
0.414832 0.000000 0.000000
0.473335 0.000000 0.000000
0.525261 0.000000 0.000000
0.571160 0.000000 0.000000
0.611780 0.000000 0.000000
0.647669 0.000000 0.000000
0.680140 0.000000 0.000000
0.709224 0.000000 0.000000
0.735195 0.000000 0.000000
0.759701 0.000000 0.000000
0.790097 0.000000 0.000000
0.818387 0.000000 0.000000
0.845212 0.000000 0.000000
0.870329 0.000000 0.000000
0.894224 0.000000 0.000000
0.917205 0.000000 0.000000
0.939788 0.000000 0.000000
0.962646 0.000000 0.000000
0.985962 0.000000 0.000000
1.000000 0.000000 0.000000
1.000000 0.000000 0.000000
1.000000 0.000000 0.000000
1.000000 0.000000 0.000000
0.000000 0.004822 0.000000
0.004425 0.006317 0.000000
0.024292 0.006592 0.000000
0.065126 0.005829 0.000000
0.095338 0.006439 0.000000
0.142458 0.008576 0.000000
0.205417 0.010559 0.000000
0.275273 0.004974 0.000000
0.345556 0.000000 0.000000
0.410834 0.000000 0.000000
0.469032 0.000000 0.000000
0.521019 0.000000 0.000000
0.566918 0.000000 0.000000
0.607630 0.000000 0.000000
0.643610 0.000000 0.000000
0.676173 0.000000 0.000000
0.705470 0.000000 0.000000
0.731655 0.000000 0.000000
0.756802 0.000000 0.000000
0.786069 0.000000 0.000000
0.813657 0.000000 0.000000
0.839963 0.000000 0.000000
0.864866 0.000000 0.000000
0.888762 0.000000 0.000000
0.911803 0.000000 0.000000
0.934630 0.000000 0.000000
0.957824 0.000000 0.000000
0.981476 0.000000 0.000000
1.000000 0.000000 0.000000
1.000000 0.000000 0.000000
1.000000 0.000000 0.000000
1.000000 0.000000 0.000000
0.000000 0.025269 0.000000
0.002991 0.026551 0.000000
0.025391 0.027558 0.000000
0.064363 0.029664 0.000000
0.094789 0.032685 0.000000
0.141512 0.046113 0.000000
0.203189 0.059144 0.000000
0.272221 0.063539 0.000000
0.342199 0.065064 0.000000
0.407294 0.059937 0.000000
0.465705 0.047639 0.000000
0.517845 0.023560 0.000000
0.564019 0.000000 0.000000
0.604974 0.000000 0.000000
0.641016 0.000000 0.000000
0.673732 0.000000 0.000000
0.703151 0.000000 0.000000
0.729488 0.000000 0.000000
0.755337 0.000000 0.000000
0.783871 0.000000 0.000000
0.811093 0.000000 0.000000
0.837247 0.000000 0.000000
0.862028 0.000000 0.000000
0.885893 0.000000 0.000000
0.908965 0.000000 0.000000
0.931823 0.000000 0.000000
0.955138 0.000000 0.000000
0.979034 0.000000 0.000000
1.000000 0.000000 0.000000
1.000000 0.000000 0.000000
1.000000 0.000000 0.000000
1.000000 0.000000 0.000000
0.000000 0.065339 0.000000
0.002167 0.065827 0.000000
0.024720 0.065766 0.000000
0.064698 0.066011 0.000000
0.095064 0.069154 0.000000
0.141726 0.081209 0.000000
0.202884 0.094667 0.000000
0.271183 0.105989 0.000000
0.340215 0.113252 0.000000
0.404944 0.115389 0.000000
0.462928 0.114443 0.000000
0.514824 0.110750 0.000000
0.560845 0.105226 0.000000
0.601740 0.096986 0.000000
0.638025 0.088380 0.000000
0.670741 0.077668 0.000000
0.700343 0.065492 0.000000
0.726711 0.048005 0.000000
0.753445 0.019043 0.000000
0.780636 0.000000 0.000000
0.806882 0.000000 0.000000
0.832395 0.000000 0.000000
0.857237 0.000000 0.000000
0.881651 0.000000 0.000000
0.905730 0.000000 0.000000
0.929656 0.000000 0.000000
0.953826 0.000000 0.000000
0.978241 0.000000 0.000000
1.000000 0.000000 0.000000
1.000000 0.005097 0.000000
1.000000 0.047913 0.000000
1.000000 0.074708 0.000000
0.000000 0.096132 0.000000
0.000000 0.096498 0.000000
0.023835 0.097169 0.000000
0.067506 0.098085 0.000000
0.098177 0.099611 0.000000
0.140597 0.110872 0.000000
0.200443 0.129335 0.000000
0.267277 0.145663 0.000000
0.335393 0.157168 0.000000
0.399634 0.163912 0.000000
0.457496 0.165866 0.000000
0.509545 0.164706 0.000000
0.555840 0.160922 0.000000
0.597162 0.155947 0.000000
0.633997 0.149569 0.000000
0.667384 0.142733 0.000000
0.697688 0.135195 0.000000
0.724636 0.127382 0.000000
0.752865 0.119997 0.000000
0.779294 0.113283 0.000000
0.804776 0.106722 0.000000
0.829801 0.100771 0.000000
0.854337 0.095979 0.000000
0.878752 0.091737 0.000000
0.902983 0.089052 0.000000
0.927184 0.087526 0.000000
0.951507 0.087800 0.000000
0.975982 0.089631 0.000000
1.000000 0.093965 0.000000
1.000000 0.100191 0.000000
1.000000 0.108156 0.000000
1.000000 0.118471 0.000000
0.000000 0.146304 0.000000
0.000000 0.147341 0.000000
0.020050 0.148074 0.000000
0.075502 0.149325 0.000000
0.113222 0.151247 0.000000
0.151003 0.153353 0.000000
0.201816 0.166323 0.000000
0.267674 0.186740 0.000000
0.334630 0.201785 0.000000
0.398108 0.210788 0.000000
0.455482 0.214755 0.000000
0.507225 0.214694 0.000000
0.553368 0.211948 0.000000
0.594781 0.207370 0.000000
0.631769 0.201633 0.000000
0.665370 0.195102 0.000000
0.696010 0.188235 0.000000
0.724544 0.181247 0.000000
0.753079 0.174868 0.000000
0.779080 0.168673 0.000000
0.804562 0.163149 0.000000
0.829770 0.157778 0.000000
0.886748 0.167300 0.000000
0.910735 0.165743 0.000000
0.933684 0.164675 0.000000
0.956085 0.164340 0.000000
0.978149 0.165072 0.000000
1.000000 0.166598 0.000000
1.000000 0.169558 0.000000
1.000000 0.173800 0.000000
1.000000 0.179141 0.000000
1.000000 0.185733 0.049256
0.000000 0.224765 0.000000
0.000000 0.225101 0.000000
0.000000 0.225742 0.000000
0.085176 0.227085 0.000000
0.133669 0.228977 0.000000
0.181552 0.229984 0.000000
0.227848 0.231235 0.000000
0.283360 0.240879 0.000000
0.349889 0.257389 0.000000
0.412238 0.266911 0.000000
0.468635 0.270603 0.000000
0.519188 0.270268 0.000000
0.563989 0.266728 0.000000
0.603937 0.261204 0.000000
0.639368 0.254185 0.000000
0.671534 0.246677 0.000000
0.700862 0.238987 0.000000
0.732296 0.232731 0.000000
0.760372 0.226261 0.000000
0.787350 0.220066 0.000000
0.814755 0.215244 0.000000
0.842863 0.211460 0.000000
0.871092 0.209201 0.000000
0.898741 0.207401 0.000000
0.925078 0.206668 0.000000
0.949584 0.205936 0.000000
0.972869 0.205753 0.000000
0.995544 0.206027 0.000000
1.000000 0.207065 0.000000
1.000000 0.209110 0.000000
1.000000 0.211887 0.000000
1.000000 0.216068 0.026062
0.000000 0.295354 0.000000
0.000000 0.295506 0.000000
0.000000 0.295720 0.000000
0.078126 0.296178 0.000000
0.139345 0.296941 0.000000
0.191806 0.297673 0.000000
0.243473 0.297459 0.000000
0.293523 0.297734 0.000000
0.348211 0.302525 0.000000
0.409583 0.313298 0.000000
0.465431 0.317876 0.000000
0.515496 0.317693 0.000000
0.560235 0.314122 0.000000
0.600061 0.308385 0.000000
0.635615 0.301244 0.000000
0.667933 0.293217 0.000000
0.700954 0.286503 0.000000
0.731228 0.279423 0.000000
0.757992 0.272160 0.000000
0.784115 0.265263 0.000000
0.810849 0.259770 0.000000
0.838346 0.255406 0.000000
0.866087 0.252262 0.000000
0.893400 0.249729 0.000000
0.919615 0.247868 0.000000
0.944213 0.246433 0.000000
0.967742 0.244968 0.000000
0.990784 0.243900 0.000000
1.000000 0.243809 0.000000
1.000000 0.244450 0.000000
1.000000 0.246036 0.000000
1.000000 0.248325 0.012207
0.000000 0.363470 0.000000
0.000000 0.363470 0.000000
0.000000 0.363561 0.000000
0.048890 0.363409 0.000000
0.136202 0.363561 0.000000
0.194522 0.363470 0.000000
0.249882 0.362860 0.000000
0.303624 0.361852 0.000000
0.355749 0.360906 0.000000
0.409216 0.362219 0.000000
0.464271 0.366400 0.000000
0.513970 0.365911 0.000000
0.558312 0.362188 0.000000
0.597955 0.355810 0.000000
0.633326 0.347967 0.000000
0.668971 0.341161 0.000000
0.701961 0.333684 0.000000
0.730678 0.325475 0.000000
0.756527 0.316960 0.000000
0.782071 0.309392 0.000000
0.808347 0.303166 0.000000
0.835416 0.298131 0.000000
0.862699 0.294285 0.000000
0.889677 0.291356 0.000000
0.915709 0.288762 0.000000
0.940307 0.286076 0.000000
0.963958 0.283970 0.000000
0.987121 0.281987 0.000000
1.000000 0.280919 0.000000
1.000000 0.280400 0.000000
1.000000 0.280644 0.000000
1.000000 0.281498 0.006531
0.000000 0.424414 0.000000
0.000000 0.424140 0.000000
0.000000 0.423804 0.000000
0.000000 0.423438 0.000000
0.123079 0.422889 0.000000
0.189944 0.422278 0.000000
0.246586 0.421546 0.000000
0.303319 0.419623 0.000000
0.357580 0.417914 0.000000
0.410163 0.416266 0.000000
0.462287 0.415106 0.000000
0.511162 0.413245 0.000000
0.555505 0.409033 0.000000
0.595239 0.402319 0.000000
0.635462 0.396857 0.000000
0.671473 0.389593 0.000000
0.703426 0.380957 0.000000
0.731502 0.371496 0.000000
0.756893 0.362066 0.000000
0.781918 0.353521 0.000000
0.807279 0.346288 0.000000
0.833005 0.340246 0.000000
0.858915 0.335149 0.000000
0.884672 0.330877 0.000000
0.909972 0.327153 0.000000
0.934478 0.323827 0.000000
0.958495 0.320958 0.000000
0.982361 0.318669 0.000000
1.000000 0.317052 0.000000
1.000000 0.316136 0.000000
1.000000 0.316075 0.000000
1.000000 0.316289 0.025147
0.000000 0.475807 0.000000
0.000000 0.475715 0.000000
0.000000 0.475563 0.000000
0.000000 0.475135 0.000000
0.099367 0.474617 0.000000
0.178073 0.474159 0.000000
0.239384 0.473579 0.000000
0.296147 0.472663 0.000000
0.352758 0.470527 0.000000
0.406989 0.468391 0.000000
0.459174 0.465980 0.000000
0.510185 0.463355 0.000000
0.556664 0.459266 0.000000
0.599268 0.453620 0.000000
0.637171 0.445808 0.000000
0.671626 0.436744 0.000000
0.702296 0.426581 0.000000
0.729610 0.415930 0.000000
0.754574 0.405280 0.000000
0.779232 0.395758 0.000000
0.804349 0.387823 0.000000
0.829953 0.381018 0.000000
0.855802 0.375402 0.000000
0.881498 0.370672 0.000000
0.906676 0.366400 0.000000
0.931060 0.362341 0.000000
0.954955 0.358709 0.000000
0.978698 0.355657 0.000000
1.000000 0.353216 0.000000
1.000000 0.351446 0.000000
1.000000 0.350439 0.000000
1.000000 0.349950 0.033570
0.000000 0.523339 0.000000
0.000000 0.523247 0.000000
0.000000 0.523003 0.000000
0.000000 0.522637 0.000000
0.054963 0.522179 0.000000
0.160800 0.521538 0.000000
0.227665 0.520928 0.000000
0.285924 0.520256 0.000000
0.343023 0.518639 0.000000
0.398718 0.516411 0.000000
0.453834 0.515923 0.000000
0.508965 0.516503 0.000000
0.589380 0.540490 0.000000
0.629847 0.528618 0.000000
0.666499 0.516930 0.000000
0.698299 0.503624 0.000000
0.726162 0.489693 0.000000
0.750942 0.475868 0.000000
0.774533 0.463111 0.000000
0.798367 0.452064 0.000000
0.822446 0.442451 0.000000
0.846677 0.434272 0.000000
0.870817 0.427008 0.000000
0.894804 0.420874 0.000000
0.918456 0.415229 0.000000
0.941619 0.410132 0.000000
0.964324 0.405432 0.000000
0.986786 0.401190 0.000000
1.000000 0.397650 0.000000
1.000000 0.394781 0.021302
1.000000 0.392676 0.070680
1.000000 0.390967 0.093996
0.000000 0.576104 0.000000
0.000000 0.575860 0.000000
0.000000 0.575128 0.000000
0.000000 0.573999 0.000000
0.000000 0.572412 0.000000
0.139956 0.570489 0.000000
0.214389 0.568902 0.000000
0.275456 0.567498 0.000000
0.333410 0.568994 0.000000
0.393683 0.570733 0.000000
0.452644 0.572656 0.000000
0.510613 0.574365 0.000000
0.567224 0.575494 0.000000
0.622126 0.575250 0.000000
0.661067 0.562860 0.000000
0.693599 0.549065 0.000000
0.721614 0.533867 0.000000
0.746242 0.518608 0.000000
0.769680 0.504723 0.000000
0.793149 0.492592 0.000000
0.816831 0.482307 0.000000
0.840879 0.473182 0.000000
0.864805 0.465187 0.000000
0.888731 0.458106 0.000000
0.912291 0.451759 0.000000
0.935485 0.445930 0.000000
0.958312 0.440620 0.000000
0.981079 0.435859 0.000000
1.000000 0.431647 0.000000
1.000000 0.428351 0.028962
1.000000 0.425635 0.072023
1.000000 0.423529 0.095827
0.000000 0.611719 0.000000
0.000000 0.611475 0.000000
0.000000 0.610895 0.000000
0.000000 0.610224 0.000000
0.000000 0.609949 0.000000
0.108858 0.609705 0.000000
0.196201 0.609705 0.000000
0.261997 0.609918 0.000000
0.320958 0.610590 0.000000
0.378271 0.611597 0.000000
0.436957 0.612055 0.000000
0.494026 0.612696 0.000000
0.549401 0.612665 0.000000
0.602808 0.611505 0.000000
0.653712 0.608850 0.000000
0.688319 0.593439 0.000000
0.716243 0.576989 0.000000
0.740963 0.560510 0.000000
0.764462 0.545373 0.000000
0.787930 0.532280 0.000000
0.811673 0.521141 0.000000
0.835599 0.511589 0.000000
0.859556 0.503105 0.000000
0.883574 0.495552 0.000000
0.907286 0.488624 0.000000
0.930632 0.482277 0.000000
0.953704 0.476356 0.000000
0.976684 0.471107 0.000000
0.999786 0.466590 0.000000
1.000000 0.462837 0.054658
1.000000 0.459724 0.082918
1.000000 0.457099 0.103578
0.000000 0.652674 0.000000
0.000000 0.652735 0.000000
0.000000 0.652247 0.000000
0.000000 0.651453 0.000000
0.000000 0.650202 0.000000
0.063996 0.648798 0.000000
0.175387 0.647669 0.000000
0.245640 0.646845 0.000000
0.305791 0.646632 0.000000
0.362188 0.646998 0.000000
0.418738 0.647181 0.000000
0.475319 0.646845 0.000000
0.529839 0.646113 0.000000
0.582116 0.644373 0.000000
0.632197 0.641260 0.000000
0.679316 0.636591 0.000000
0.711360 0.620111 0.000000
0.736080 0.602197 0.000000
0.759762 0.585962 0.000000
0.783108 0.571740 0.000000
0.806668 0.559594 0.000000
0.830503 0.549096 0.000000
0.854337 0.539971 0.000000
0.878264 0.532097 0.000000
0.902190 0.524865 0.000000
0.926024 0.518242 0.000000
0.949859 0.512352 0.000000
0.973785 0.507317 0.000000
0.997864 0.503044 0.057832
1.000000 0.499611 0.085206
1.000000 0.496712 0.106874
1.000000 0.494209 0.126955
0.000000 0.686732 0.000000
0.000000 0.686854 0.000000
0.000000 0.686610 0.000000
0.000000 0.685969 0.000000
0.000000 0.684962 0.000000
0.000000 0.683864 0.000000
0.152438 0.682918 0.000000
0.228336 0.682185 0.000000
0.290959 0.681514 0.000000
0.347478 0.681056 0.000000
0.401007 0.680568 0.000000
0.456367 0.678798 0.000000
0.509331 0.676417 0.000000
0.560266 0.673274 0.000000
0.608789 0.669276 0.000000
0.655146 0.664424 0.000000
0.699428 0.658961 0.000000
0.730800 0.643610 0.000000
0.754818 0.626093 0.000000
0.779049 0.611353 0.000000
0.803281 0.598718 0.000000
0.827512 0.587823 0.000000
0.851743 0.578271 0.000000
0.876005 0.570001 0.000000
0.900145 0.562646 0.000000
0.924224 0.556146 0.000000
0.948394 0.549981 0.009277
0.972534 0.544671 0.064881
0.996643 0.540002 0.089296
1.000000 0.535882 0.107271
1.000000 0.532219 0.124758
1.000000 0.528832 0.140688
0.000000 0.713771 0.000000
0.000000 0.713619 0.000000
0.000000 0.713252 0.000000
0.000000 0.712551 0.000000
0.000000 0.711574 0.000000
0.000000 0.710445 0.000000
0.124483 0.709377 0.000000
0.208865 0.708309 0.000000
0.272953 0.707393 0.000000
0.329686 0.706538 0.000000
0.382879 0.705806 0.000000
0.434638 0.704677 0.000000
0.487434 0.702358 0.000000
0.537835 0.699275 0.000000
0.586053 0.695369 0.000000
0.631739 0.690578 0.000000
0.675624 0.685176 0.000000
0.717830 0.679530 0.000000
0.749874 0.666377 0.000000
0.773709 0.649653 0.000000
0.798062 0.636011 0.000000
0.822446 0.624262 0.000000
0.846708 0.614099 0.000000
0.871183 0.605310 0.000000
0.895598 0.597620 0.000000
0.920012 0.590845 0.000000
0.944488 0.584955 0.054414
0.969024 0.579736 0.086915
0.993591 0.574945 0.106264
1.000000 0.570733 0.123537
1.000000 0.566857 0.138918
1.000000 0.563287 0.154818
0.000000 0.738552 0.000000
0.000000 0.738857 0.000000
0.000000 0.755398 0.000000
0.000000 0.754696 0.000000
0.000000 0.753536 0.000000
0.000000 0.751980 0.000000
0.106844 0.750240 0.000000
0.198428 0.748440 0.000000
0.264347 0.746792 0.000000
0.321813 0.745296 0.000000
0.374792 0.743862 0.000000
0.425025 0.742214 0.000000
0.475685 0.739406 0.000000
0.525994 0.735592 0.000000
0.573663 0.731167 0.000000
0.619196 0.726040 0.000000
0.662837 0.720394 0.000000
0.704524 0.714382 0.000000
0.744808 0.708278 0.000000
0.777401 0.696742 0.000000
0.800534 0.680110 0.000000
0.824643 0.667048 0.000000
0.848814 0.655604 0.000000
0.872648 0.645686 0.000000
0.896086 0.636439 0.000000
0.919402 0.628290 0.013245
0.942809 0.620905 0.075227
0.966491 0.614649 0.101106
0.990631 0.609491 0.121492
1.000000 0.604913 0.137179
1.000000 0.600732 0.151614
1.000000 0.596674 0.166079
0.000000 0.766293 0.000000
0.000000 0.768368 0.000000
0.000000 0.770382 0.000000
0.000000 0.771817 0.000000
0.000000 0.772366 0.000000
0.000000 0.771817 0.000000
0.073487 0.770565 0.000000
0.180117 0.768978 0.000000
0.247807 0.767544 0.000000
0.305058 0.766079 0.000000
0.357855 0.764675 0.000000
0.407385 0.763119 0.000000
0.454749 0.761105 0.000000
0.504143 0.757595 0.000000
0.551568 0.753384 0.000000
0.596826 0.748531 0.000000
0.640131 0.743252 0.000000
0.681788 0.737697 0.000000
0.722103 0.732143 0.000000
0.761379 0.726802 0.000000
0.795193 0.717769 0.000000
0.818936 0.702480 0.000000
0.843534 0.690730 0.000000
0.867979 0.680323 0.000000
0.891905 0.670893 0.000000
0.915679 0.662470 0.019959
0.939452 0.654963 0.081636
0.963500 0.648524 0.108034
0.987884 0.643122 0.128847
1.000000 0.638544 0.147768
1.000000 0.634424 0.164797
1.000000 0.630060 0.178073
0.000000 0.787106 0.000000
0.000000 0.788968 0.000000
0.000000 0.790860 0.000000
0.000000 0.792172 0.000000
0.000000 0.792752 0.000000
0.000000 0.792264 0.000000
0.000000 0.791165 0.000000
0.162936 0.789792 0.000000
0.232822 0.788479 0.000000
0.290623 0.787137 0.000000
0.342840 0.785885 0.000000
0.391974 0.784482 0.000000
0.438666 0.782620 0.000000
0.484504 0.780148 0.000000
0.531762 0.776181 0.000000
0.576867 0.771664 0.000000
0.620050 0.766751 0.000000
0.661646 0.761593 0.000000
0.702022 0.756466 0.000000
0.741390 0.751553 0.000000
0.779751 0.746792 0.000000
0.814847 0.740322 0.000000
0.838895 0.726009 0.000000
0.863676 0.715236 0.000000
0.887999 0.705318 0.000000
0.912016 0.696376 0.020172
0.935882 0.688441 0.084443
0.960052 0.681605 0.111482
0.984497 0.675837 0.133425
1.000000 0.670924 0.152407
1.000000 0.666499 0.169497
1.000000 0.662104 0.185855
0.000000 0.808072 0.000000
0.000000 0.809873 0.000000
0.000000 0.811643 0.000000
0.000000 0.812924 0.000000
0.000000 0.813474 0.000000
0.000000 0.813077 0.000000
0.000000 0.812070 0.000000
0.147555 0.810758 0.000000
0.219608 0.809415 0.000000
0.277531 0.808072 0.000000
0.329381 0.806790 0.000000
0.377905 0.805356 0.000000
0.423865 0.803616 0.000000
0.468147 0.801602 0.000000
0.513329 0.798672 0.000000
0.558709 0.794949 0.000000
0.602564 0.791135 0.000000
0.645075 0.787381 0.000000
0.686519 0.783719 0.000000
0.726986 0.780270 0.000000
0.766629 0.777035 0.000000
0.805417 0.773922 0.000000
0.842222 0.769924 0.000000
0.866850 0.756802 0.000000
0.892058 0.747097 0.062745
0.916747 0.738125 0.098116
0.941131 0.729915 0.123537
0.965362 0.722835 0.146548
0.989715 0.716670 0.165896
1.000000 0.711177 0.183169
1.000000 0.706081 0.199680
1.000000 0.701259 0.214817
0.000000 0.836973 0.000000
0.000000 0.837736 0.000000
0.000000 0.838285 0.000000
0.000000 0.838499 0.000000
0.000000 0.838254 0.000000
0.000000 0.837491 0.000000
0.000000 0.836484 0.000000
0.139559 0.835416 0.000000
0.212314 0.834470 0.000000
0.270146 0.833585 0.000000
0.321691 0.832731 0.000000
0.369818 0.831601 0.000000
0.415229 0.830137 0.000000
0.458839 0.828275 0.000000
0.500969 0.826078 0.000000
0.545739 0.822660 0.000000
0.589410 0.818967 0.000000
0.631769 0.815244 0.000000
0.672877 0.811551 0.000000
0.713008 0.807919 0.000000
0.752102 0.804318 0.000000
0.790311 0.800839 0.000000
0.827420 0.797299 0.000000
0.863920 0.794003 0.000000
0.887877 0.780819 0.075105
0.912688 0.771420 0.107301
0.937438 0.762997 0.130282
0.962127 0.755550 0.148714
0.986664 0.749111 0.169345
1.000000 0.743252 0.187198
1.000000 0.738003 0.203494
1.000000 0.733211 0.218387
0.000000 0.858213 0.000000
0.000000 0.859007 0.000000
0.000000 0.859648 0.000000
0.000000 0.859892 0.000000
0.000000 0.859678 0.000000
0.000000 0.858885 0.000000
0.000000 0.857816 0.000000
0.129610 0.856626 0.000000
0.203433 0.855558 0.000000
0.260929 0.854612 0.000000
0.311894 0.853696 0.000000
0.359106 0.852659 0.000000
0.403845 0.851316 0.000000
0.446998 0.849729 0.000000
0.488594 0.847898 0.000000
0.530114 0.845701 0.000000
0.573938 0.842557 0.000000
0.616419 0.839353 0.000000
0.657771 0.836240 0.000000
0.698116 0.833158 0.000000
0.737575 0.830228 0.000000
0.776181 0.827359 0.000000
0.813840 0.824582 0.000000
0.850584 0.821683 0.032136
0.882444 0.814786 0.062135
0.906859 0.802853 0.105837
0.931762 0.793820 0.130556
0.956756 0.786160 0.149264
0.981628 0.779385 0.165927
1.000000 0.773434 0.183932
1.000000 0.768368 0.201144
1.000000 0.764034 0.217136
0.000000 0.885740 0.000000
0.000000 0.886625 0.000000
0.000000 0.887083 0.000000
0.000000 0.886992 0.000000
0.000000 0.886351 0.000000
0.000000 0.885283 0.000000
0.000000 0.883879 0.000000
0.132326 0.882261 0.000000
0.201968 0.880583 0.000000
0.256992 0.878965 0.000000
0.306157 0.877256 0.000000
0.351812 0.875731 0.000000
0.395392 0.873960 0.000000
0.437110 0.871916 0.000000
0.477424 0.869505 0.000000
0.516686 0.866911 0.000000
0.557549 0.863706 0.000000
0.599420 0.860258 0.000000
0.640467 0.857237 0.000000
0.680934 0.854643 0.000000
0.720577 0.852262 0.000000
0.759304 0.849882 0.000000
0.796902 0.847196 0.000000
0.833310 0.844144 0.021241
0.868437 0.840757 0.086549
0.902770 0.837278 0.113649
0.929046 0.827604 0.138521
0.953491 0.818540 0.156710
0.978210 0.811276 0.171603
1.000000 0.804959 0.185977
1.000000 0.799680 0.201389
1.000000 0.795468 0.217594
0.000000 0.905821 0.000000
0.000000 0.906676 0.000000
0.000000 0.907134 0.000000
0.000000 0.907073 0.000000
0.000000 0.906493 0.000000
0.000000 0.905577 0.000000
0.000000 0.904417 0.000000
0.129091 0.903105 0.000000
0.197726 0.901823 0.000000
0.252140 0.900572 0.000000
0.300298 0.899321 0.000000
0.345647 0.898161 0.000000
0.388586 0.896849 0.000000
0.429816 0.895262 0.000000
0.469673 0.893339 0.000000
0.508476 0.891203 0.000000
0.546685 0.888975 0.000000
0.587976 0.886107 0.000000
0.629053 0.883391 0.000000
0.669429 0.881010 0.000000
0.708980 0.878752 0.000000
0.747707 0.876524 0.000000
0.785336 0.874113 0.000000
0.821927 0.871458 0.078309
0.857450 0.868467 0.109621
0.891905 0.865232 0.132876
0.925597 0.861997 0.152316
0.953307 0.854276 0.170443
0.977813 0.845823 0.186618
1.000000 0.839384 0.200656
1.000000 0.833860 0.214481
1.000000 0.829435 0.228153
0.000000 0.928069 0.000000
0.000000 0.928649 0.000000
0.000000 0.928771 0.000000
0.000000 0.928435 0.000000
0.000000 0.927672 0.000000
0.000000 0.926604 0.000000
0.000000 0.925353 0.000000
0.128328 0.924010 0.000000
0.194858 0.922759 0.000000
0.247501 0.921630 0.000000
0.295079 0.920562 0.000000
0.339544 0.919615 0.000000
0.381811 0.918578 0.000000
0.422553 0.917235 0.000000
0.461677 0.915526 0.000000
0.499916 0.913573 0.000000
0.537377 0.911498 0.000000
0.575250 0.909422 0.000000
0.616236 0.906859 0.000000
0.656367 0.904601 0.000000
0.695796 0.902525 0.000000
0.734463 0.900481 0.000000
0.772091 0.898283 0.037629
0.808743 0.895903 0.091493
0.844419 0.893248 0.118166
0.879210 0.890349 0.139834
0.913237 0.887388 0.158053
0.946380 0.884398 0.174472
0.974975 0.878386 0.189883
0.999207 0.870420 0.205112
1.000000 0.864744 0.218082
1.000000 0.860197 0.230838
0.000000 0.948302 0.000000
0.000000 0.948608 0.000000
0.000000 0.948699 0.000000
0.000000 0.948516 0.000000
0.000000 0.948119 0.000000
0.000000 0.947692 0.000000
0.000000 0.947539 0.000000
0.138216 0.947539 0.000000
0.201846 0.947723 0.000000
0.253941 0.948058 0.000000
0.300999 0.948394 0.000000
0.344976 0.948699 0.000000
0.386877 0.948699 0.000000
0.427039 0.948272 0.000000
0.465766 0.947356 0.000000
0.503166 0.945861 0.000000
0.539971 0.944121 0.000000
0.576287 0.942443 0.000000
0.614740 0.940490 0.000000
0.654658 0.938323 0.000000
0.693782 0.936278 0.077028
0.732143 0.934234 0.108125
0.769528 0.932006 0.131380
0.805966 0.929625 0.150851
0.841581 0.927062 0.168399
0.876463 0.924285 0.183597
0.910643 0.921477 0.197696
0.943999 0.918639 0.211093
0.976532 0.915984 0.224125
1.000000 0.911070 0.236851
1.000000 0.902861 0.250553
1.000000 0.897154 0.261967
0.000000 0.976349 0.000000
0.000000 0.976471 0.001953
0.000000 0.976379 0.003204
0.000000 0.975982 0.000000
0.000000 0.975341 0.000000
0.000000 0.974609 0.000000
0.087098 0.973938 0.000000
0.159457 0.973327 0.000000
0.212772 0.972778 0.000000
0.259861 0.972320 0.000000
0.303166 0.971801 0.000000
0.344396 0.971283 0.000000
0.384070 0.970581 0.000000
0.422522 0.969665 0.002869
