data/fiter_cube/55192441/1023183/file.cube
# Created by Adobe Lightroom plugin Export LUT (1.17.0)
# www.johnrellis.com/lightroom/exportlut.htm
# Preset: 清新轻盈通透人像_01 云集
# Color profile: C:\Program Files (x86)\Common Files\Adobe\Color\Profiles\Recommended\AdobeRGB1998.icc
LUT_3D_SIZE 8
DOMAIN_MIN 0.000000 0.000000 0.000000
DOMAIN_MAX 0.903226 0.903226 0.903226
0.000000 0.000000 0.000000
0.095644 0.000000 0.000000
0.349676 0.000000 0.000000
0.571160 0.000000 0.000000
0.709224 0.000000 0.000000
0.818387 0.000000 0.000000
0.917205 0.000000 0.000000
1.000000 0.000000 0.000000
0.000000 0.096132 0.000000
0.098177 0.099611 0.000000
0.335393 0.157168 0.000000
0.555840 0.160922 0.000000
0.697688 0.135195 0.000000
0.804776 0.106722 0.000000
0.902983 0.089052 0.000000
1.000000 0.093965 0.000000
0.000000 0.363470 0.000000
0.136202 0.363561 0.000000
0.355749 0.360906 0.000000
0.558312 0.362188 0.000000
0.701961 0.333684 0.000000
0.808347 0.303166 0.000000
0.915709 0.288762 0.000000
1.000000 0.280919 0.000000
0.000000 0.576104 0.000000
0.000000 0.572412 0.000000
0.333410 0.568994 0.000000
0.567224 0.575494 0.000000
0.721614 0.533867 0.000000
0.816831 0.482307 0.000000
0.912291 0.451759 0.000000
1.000000 0.431647 0.000000
0.000000 0.713771 0.000000
0.000000 0.711574 0.000000
0.272953 0.707393 0.000000
0.487434 0.702358 0.000000
0.675624 0.685176 0.000000
0.798062 0.636011 0.000000
0.895598 0.597620 0.000000
0.993591 0.574945 0.106264
0.000000 0.808072 0.000000
0.000000 0.813474 0.000000
0.219608 0.809415 0.000000
0.423865 0.803616 0.000000
0.602564 0.791135 0.000000
0.766629 0.777035 0.000000
0.892058 0.747097 0.062745
0.989715 0.716670 0.165896
0.000000 0.905821 0.000000
0.000000 0.906493 0.000000
0.197726 0.901823 0.000000
0.388586 0.896849 0.000000
0.546685 0.888975 0.000000
0.708980 0.878752 0.000000
0.857450 0.868467 0.109621
0.977813 0.845823 0.186618
0.000000 0.995941 0.081727
0.000000 0.995056 0.078828
0.216251 0.993317 0.079286
0.382696 0.992248 0.096040
0.516472 0.979156 0.000000
0.663905 0.975372 0.068086
0.813931 0.969177 0.169772
0.951171 0.958770 0.221500
0.000000 0.000000 0.091157
0.092531 0.000000 0.091341
0.331548 0.000000 0.118257
0.556512 0.000000 0.058564
0.697108 0.000000 0.000000
0.799466 0.000000 0.013825
0.895872 0.000000 0.075776
0.992584 0.000000 0.109987
0.000000 0.093812 0.092195
0.093782 0.095003 0.091279
0.333745 0.092653 0.079469
0.551751 0.069032 0.020661
0.692103 0.030365 0.000000
0.793179 0.056214 0.000000
0.885863 0.081636 0.056214
0.983276 0.108064 0.094118
0.000000 0.348699 0.128542
0.000000 0.355322 0.000000
0.348363 0.353918 0.000000
0.550530 0.342779 0.000000
0.690852 0.315709 0.000000
0.791806 0.291936 0.000000
0.889616 0.282261 0.088319
0.989502 0.282353 0.129213
0.000000 0.562707 0.000000
0.000000 0.563409 0.000000
0.309087 0.562310 0.000000
0.545464 0.553399 0.000000
0.692988 0.509178 0.000000
0.788022 0.464790 0.067018
0.884337 0.439887 0.117708
0.983612 0.427527 0.151949
0.000000 0.708309 0.000000
0.000000 0.706020 0.000000
0.251438 0.699397 0.000000
0.472633 0.689265 0.000000
0.660456 0.669703 0.000000
0.782040 0.623651 0.010651
0.880278 0.590845 0.154086
0.980316 0.572351 0.195773
0.000000 0.798886 0.000000
0.000000 0.798154 0.000000
0.209323 0.794736 0.000000
0.416144 0.791135 0.000000
0.595789 0.781949 0.000000
0.761227 0.771206 0.105715
0.883940 0.742336 0.189914
0.980194 0.713100 0.232700
0.000000 0.892973 0.000000
0.000000 0.890532 0.000000
0.198093 0.887694 0.000000
0.387121 0.885954 0.000000
0.544640 0.881193 0.000000
0.703700 0.870695 0.122499
0.847898 0.858579 0.185702
0.966064 0.836118 0.229374
0.000000 0.988617 0.172885
0.000000 0.988708 0.174563
0.231846 0.987610 0.175967
0.389563 0.987213 0.184939
0.530755 0.983490 0.185122
0.669551 0.976623 0.190799
0.813596 0.966857 0.230503
0.947601 0.954986 0.262882
0.000000 0.000000 0.346807
0.157137 0.000000 0.344549
0.346258 0.000000 0.340551
0.559014 0.000000 0.335027
0.695918 0.000000 0.312108
0.794797 0.194400 0.350042
0.892119 0.243137 0.360266
0.988952 0.264408 0.364691
0.000000 0.119814 0.352331
0.060060 0.066377 0.347967
0.346258 0.000000 0.339178
0.553002 0.000000 0.324987
0.690455 0.124392 0.321233
0.788540 0.235355 0.344671
0.885283 0.266606 0.352758
0.984253 0.284886 0.359289
0.000000 0.359045 0.350591
0.000000 0.359503 0.349157
0.344030 0.348119 0.333349
0.546990 0.346105 0.335637
0.689937 0.354742 0.345434
0.786862 0.360174 0.352392
0.882872 0.365148 0.358526
0.981476 0.368841 0.363317
0.000000 0.566735 0.329656
0.000000 0.568566 0.316564
0.286015 0.567285 0.287633
0.550164 0.556909 0.314244
0.689265 0.524773 0.352331
0.783444 0.501549 0.365576
0.880919 0.490211 0.371679
0.979339 0.482521 0.374945
0.000000 0.705196 0.293980
0.000000 0.704005 0.291081
0.270176 0.698756 0.284764
0.478584 0.692195 0.280858
0.665827 0.673732 0.321202
0.777646 0.634119 0.350225
0.873106 0.614313 0.378943
0.973724 0.601862 0.386084
0.000000 0.795071 0.289097
0.000000 0.793637 0.299107
0.272831 0.789548 0.296971
0.438514 0.784390 0.292638
0.600610 0.775540 0.302556
0.755947 0.764706 0.341802
0.873350 0.742702 0.372900
0.974029 0.726497 0.398260
0.066560 0.890959 0.326848
0.183749 0.888487 0.336828
0.285100 0.884977 0.318059
0.423438 0.880949 0.313542
0.561242 0.875761 0.308141
0.710170 0.867948 0.330602
0.850919 0.860563 0.364477
0.967498 0.844511 0.389563
0.208133 0.983337 0.367437
0.246677 0.981659 0.369757
0.301854 0.981231 0.343389
0.430182 0.982971 0.351507
0.553216 0.979309 0.347814
0.680720 0.974487 0.346990
0.819516 0.966094 0.370825
0.949401 0.956115 0.392279
0.000000 0.000000 0.548058
0.147341 0.000000 0.548913
0.346319 0.000000 0.540734
0.545830 0.000000 0.536919
0.687068 0.000000 0.496437
0.782712 0.187350 0.480171
0.873564 0.303349 0.494118
0.968902 0.369329 0.516594
0.000000 0.033967 0.557855
0.000000 0.000000 0.555718
0.335180 0.000000 0.544976
0.547234 0.000000 0.537987
0.685145 0.128054 0.499855
0.777646 0.263279 0.486458
0.868284 0.342687 0.499916
0.965576 0.395422 0.521569
0.000000 0.335729 0.558801
0.000000 0.324102 0.557977
0.316136 0.319280 0.544854
0.543664 0.340185 0.534539
0.678157 0.382025 0.516899
0.773922 0.428351 0.522118
0.872709 0.467933 0.542138
0.971099 0.463935 0.535424
0.000000 0.564569 0.552392
0.000000 0.563745 0.551049
0.308476 0.558923 0.545617
0.541466 0.545006 0.532280
0.667597 0.543450 0.535332
0.763546 0.542962 0.536065
0.864103 0.542748 0.536675
0.967285 0.540215 0.535027
0.000000 0.705226 0.499947
0.000000 0.701656 0.498878
0.317479 0.692561 0.502434
0.511223 0.683589 0.509514
0.666346 0.671717 0.521752
0.766201 0.651575 0.538201
0.863920 0.645136 0.543725
0.964965 0.636530 0.538994
0.000000 0.796811 0.467628
0.152865 0.799252 0.477790
0.350256 0.790402 0.492103
0.496498 0.782803 0.501427
0.621912 0.777859 0.495705
0.758938 0.765652 0.517144
0.866575 0.750271 0.529198
0.965515 0.742611 0.543114
0.150118 0.888273 0.465248
0.226474 0.887602 0.472511
0.369757 0.884062 0.493111
0.485054 0.881285 0.497108
0.597681 0.877409 0.491127
0.724849 0.870176 0.495064
0.852628 0.860716 0.512535
0.962280 0.847471 0.523430
0.249241 0.984314 0.483711
0.291966 0.983703 0.490120
0.393561 0.980255 0.506218
0.479225 0.978698 0.499031
0.583185 0.975341 0.493751
0.695949 0.971557 0.488136
0.825650 0.964446 0.501305
0.950378 0.956115 0.516686
0.000000 0.000000 0.677577
0.109621 0.000000 0.677272
0.311772 0.000000 0.671565
0.490059 0.000000 0.661250
0.673243 0.000000 0.663233
0.773526 0.186831 0.617456
0.867277 0.300145 0.605646
0.964904 0.365637 0.611688
0.000000 0.000000 0.680659
0.000000 0.000000 0.681056
0.301946 0.000000 0.674708
0.490547 0.000000 0.661494
0.671717 0.125368 0.661891
0.771298 0.264164 0.620050
0.865476 0.343572 0.610498
0.963256 0.393988 0.615839
0.000000 0.299931 0.683986
0.000000 0.306065 0.681758
0.315221 0.317937 0.673732
0.504967 0.341283 0.662562
0.664912 0.364050 0.655726
0.759701 0.408606 0.623835
0.856260 0.445136 0.620966
0.955627 0.466926 0.624353
0.000000 0.504723 0.681910
0.000000 0.506188 0.680568
0.335210 0.514733 0.677089
0.525658 0.528099 0.664088
0.659785 0.535698 0.651881
0.752590 0.550408 0.638727
0.850767 0.560662 0.640497
0.953246 0.563195 0.641077
0.000000 0.683711 0.670954
0.031769 0.682979 0.670283
0.341802 0.678645 0.666224
0.519951 0.670893 0.659205
0.652552 0.655451 0.645197
0.746151 0.652491 0.645624
0.847288 0.650446 0.644190
0.952239 0.645716 0.640345
0.000000 0.781979 0.615106
0.182315 0.780026 0.616175
0.352087 0.772061 0.617945
0.502159 0.762905 0.622583
0.621088 0.755581 0.619013
0.747951 0.752590 0.630457
0.853513 0.748836 0.643153
0.955474 0.745846 0.645411
0.203464 0.880369 0.598077
0.255894 0.878325 0.599969
0.376806 0.873472 0.607538
0.504173 0.868925 0.618036
0.608850 0.866484 0.612818
0.722072 0.863157 0.607263
0.846372 0.852873 0.619074
0.952331 0.840909 0.621607
0.260502 0.974853 0.592462
0.296422 0.973632 0.594965
0.389624 0.970367 0.602625
0.507530 0.971435 0.618738
0.596246 0.969360 0.607141
0.702327 0.965728 0.600519
0.823484 0.959625 0.602869
0.946349 0.951049 0.612543
0.000000 0.000000 0.777005
0.066224 0.000000 0.776150
0.281041 0.000000 0.770321
0.451698 0.000000 0.764767
0.611780 0.000000 0.755001
0.762264 0.191043 0.752163
0.862364 0.300542 0.725185
0.962127 0.365240 0.718532
0.000000 0.000000 0.773312
0.000000 0.000000 0.771969
0.276463 0.000000 0.767330
0.453071 0.093690 0.761105
0.610651 0.185306 0.750118
0.758114 0.256596 0.748257
0.858701 0.337865 0.724239
0.959380 0.389899 0.718898
0.000000 0.316960 0.778225
0.164645 0.319677 0.776577
0.328893 0.331151 0.771756
0.484382 0.352056 0.763424
0.622522 0.377539 0.748989
0.755367 0.403998 0.746181
0.854948 0.442725 0.729244
0.956298 0.467567 0.725734
0.143130 0.489540 0.785397
0.229343 0.493965 0.782559
0.390051 0.512657 0.775509
0.530053 0.531945 0.768856
0.646326 0.540642 0.755886
0.757412 0.547967 0.749355
0.855039 0.560479 0.740261
0.955749 0.563195 0.736233
0.168399 0.634485 0.772610
0.242313 0.636530 0.772061
0.388495 0.642695 0.769955
0.529961 0.650385 0.766690
0.646784 0.648768 0.752834
0.746365 0.646296 0.739376
0.845365 0.647669 0.735714
0.948913 0.644923 0.733242
0.198154 0.771908 0.759518
0.262089 0.772824 0.760555
0.390875 0.770474 0.758663
0.521904 0.765713 0.754665
0.632471 0.757229 0.746731
0.741970 0.744717 0.734768
0.845548 0.744869 0.737972
0.950561 0.741878 0.736110
0.270390 0.878386 0.733333
0.311650 0.878202 0.734890
0.408850 0.874083 0.735927
0.519402 0.869230 0.737362
0.620905 0.864469 0.733944
0.721889 0.859525 0.720272
0.845609 0.850401 0.722255
0.950195 0.841245 0.727810
0.296757 0.971038 0.712947
0.325048 0.969848 0.713619
0.404395 0.966857 0.716060
0.505730 0.965026 0.720607
0.604517 0.962860 0.719173
0.700893 0.961273 0.705715
0.817716 0.957427 0.700893
0.944152 0.947753 0.709102
0.000000 0.000000 0.864134
0.000000 0.000000 0.864927
0.261234 0.000000 0.862394
0.424201 0.000000 0.858030
0.575982 0.101564 0.848936
0.715572 0.208835 0.839719
0.847227 0.279850 0.836942
0.949950 0.344671 0.820706
0.000000 0.000000 0.860197
0.000000 0.000000 0.860685
0.263493 0.058564 0.858183
0.426825 0.124239 0.852537
0.575799 0.194430 0.843076
0.711116 0.256382 0.833005
0.839963 0.308537 0.829831
0.942626 0.359228 0.814420
0.133761 0.314183 0.864134
0.196963 0.316930 0.863157
0.324865 0.326696 0.859129
0.462776 0.344823 0.852903
0.594263 0.366522 0.842374
0.717342 0.391089 0.831724
0.840726 0.417884 0.831144
0.944945 0.446509 0.821286
0.262333 0.488014 0.868620
0.304143 0.492744 0.866270
0.407263 0.507012 0.860838
0.511681 0.513176 0.855344
0.621088 0.518669 0.845396
0.728298 0.525475 0.833371
0.842710 0.535546 0.834012
0.945495 0.543847 0.826780
0.265141 0.611994 0.864836
0.304143 0.613916 0.863493
0.406439 0.621546 0.861173
0.523919 0.630732 0.856229
0.629664 0.631281 0.845792
0.729458 0.627832 0.831479
0.835782 0.626734 0.827817
0.942290 0.630365 0.825193
0.278477 0.737758 0.856870
0.315007 0.738705 0.856657
0.410193 0.741543 0.855863
0.521416 0.745083 0.855558
0.625513 0.743587 0.854765
0.733516 0.735409 0.844450
0.838560 0.729793 0.831418
0.942321 0.730404 0.827451
0.299199 0.864317 0.852079
0.331823 0.864714 0.852598
0.416114 0.863859 0.852110
0.517876 0.862669 0.851469
0.616114 0.858976 0.848173
0.722011 0.852262 0.842008
0.834257 0.836790 0.827665
0.940307 0.834989 0.828733
0.315801 0.963073 0.827481
0.341009 0.962524 0.827634
0.418555 0.963104 0.830564
0.510246 0.961395 0.830930
0.604486 0.959197 0.828916
0.709621 0.956146 0.826261
0.819852 0.951629 0.819059
0.940459 0.942901 0.818509
0.000000 0.000000 0.947448
0.000000 0.000000 0.947692
0.242130 0.000000 0.945281
0.398566 0.000000 0.942931
0.545861 0.095064 0.938354
0.683345 0.194034 0.931518
0.813596 0.262638 0.927977
0.936919 0.311528 0.926207
0.000000 0.000000 0.945403
0.000000 0.000000 0.945586
0.248936 0.062684 0.943542
0.404273 0.123751 0.940429
0.549401 0.187961 0.935790
0.683925 0.245518 0.928893
0.811307 0.294865 0.924590
0.933593 0.333684 0.923003
0.124636 0.294163 0.943725
0.184634 0.297459 0.943420
0.303227 0.304845 0.940398
0.439124 0.326879 0.939422
0.568566 0.348058 0.934112
0.691646 0.369299 0.926299
0.811978 0.391913 0.921752
0.931365 0.411902 0.921233
0.285130 0.474617 0.943236
0.311376 0.476448 0.943206
0.382605 0.478401 0.940795
0.483742 0.484901 0.938201
0.593805 0.491981 0.933715
0.704311 0.497505 0.926818
0.815427 0.503075 0.921324
0.931395 0.509850 0.921874
0.287541 0.588067 0.944579
0.320439 0.591547 0.944610
0.402899 0.598138 0.942229
0.504570 0.605554 0.939025
0.604913 0.606134 0.933654
0.708248 0.603845 0.926513
0.814145 0.601465 0.919280
0.931426 0.603845 0.922667
0.292729 0.706233 0.941375
0.319554 0.706752 0.940703
0.396063 0.708766 0.939361
0.495460 0.711757 0.938842
0.597406 0.710567 0.937774
0.707424 0.708766 0.933349
0.818753 0.707301 0.927245
0.937224 0.711177 0.929351
0.306920 0.828550 0.939727
0.331121 0.828519 0.939330
0.401343 0.828580 0.938537
0.496590 0.829496 0.938689
0.596399 0.828977 0.939635
0.709224 0.829465 0.941588
0.826810 0.828275 0.937377
0.932677 0.819089 0.926268
0.324712 0.952422 0.940215
0.345739 0.951965 0.939879
0.410529 0.951324 0.939513
0.498665 0.951141 0.939849
0.595087 0.950622 0.939940
0.704463 0.948974 0.939269
0.823087 0.944762 0.936706
0.929534 0.931060 0.925353
