data/fiter_cube/55192441/1023183/file.cube
# Created by Adobe Lightroom plugin Export LUT (1.17.0)
# www.johnrellis.com/lightroom/exportlut.htm
# Preset: 清新轻盈通透人像_01 云集
# Color profile: C:\Program Files (x86)\Common Files\Adobe\Color\Profiles\Recommended\AdobeRGB1998.icc
LUT_3D_SIZE 5
DOMAIN_MIN 0.000000 0.000000 0.000000
DOMAIN_MAX 0.903226 0.903226 0.903226
0.000000 0.000000 0.000000
0.278782 0.000000 0.000000
0.647669 0.000000 0.000000
0.845212 0.000000 0.000000
1.000000 0.000000 0.000000
0.000000 0.295354 0.000000
0.293523 0.297734 0.000000
0.635615 0.301244 0.000000
0.838346 0.255406 0.000000
1.000000 0.243809 0.000000
0.000000 0.652674 0.000000
0.245640 0.646845 0.000000
0.632197 0.641260 0.000000
0.830503 0.549096 0.000000
0.997864 0.503044 0.057832
0.000000 0.836973 0.000000
0.139559 0.835416 0.000000
0.500969 0.826078 0.000000
0.790311 0.800839 0.000000
0.986664 0.749111 0.169345
0.000000 0.995941 0.081727
0.165591 0.993683 0.075990
0.443030 0.980865 0.000000
0.702571 0.974090 0.104585
0.951171 0.958770 0.221500
0.000000 0.000000 0.270512
0.275212 0.000000 0.270817
0.632959 0.000000 0.259648
0.816739 0.120211 0.282139
0.986328 0.201663 0.300511
0.000000 0.289708 0.283024
0.279454 0.283299 0.269200
0.625757 0.279637 0.268711
0.812802 0.296147 0.287877
0.985107 0.314885 0.309026
0.000000 0.644190 0.251560
0.175906 0.639826 0.196384
0.610773 0.618769 0.236088
0.803891 0.552850 0.310582
0.981933 0.533379 0.338109
0.000000 0.829160 0.268498
0.228916 0.827878 0.264836
0.515709 0.818997 0.258885
0.785702 0.795071 0.309697
0.976654 0.754971 0.359716
0.198734 0.989105 0.342473
0.266697 0.988373 0.316106
0.485237 0.984283 0.314458
0.715969 0.975158 0.321294
0.952850 0.959716 0.369787
0.000000 0.000000 0.620905
0.283268 0.000000 0.615045
0.614191 0.000000 0.604578
0.801389 0.224521 0.546746
0.966918 0.367407 0.562524
0.000000 0.249943 0.629938
0.244327 0.247776 0.620203
0.614679 0.292149 0.605310
0.790921 0.389868 0.563714
0.963500 0.455390 0.582086
0.000000 0.631891 0.619074
0.246159 0.626764 0.613794
0.602686 0.606012 0.594263
0.777493 0.603784 0.597131
0.959289 0.599664 0.594446
0.070130 0.815915 0.541131
0.315251 0.807462 0.549187
0.564019 0.797482 0.566369
0.779507 0.785611 0.578607
0.956329 0.766354 0.590448
0.247318 0.977783 0.534142
0.363775 0.976226 0.549340
0.540429 0.973358 0.555200
0.726741 0.966369 0.542443
0.946532 0.951781 0.562829
0.000000 0.000000 0.794369
0.229374 0.000000 0.791836
0.522301 0.000000 0.781735
0.781094 0.216220 0.771023
0.957580 0.357031 0.741848
0.000000 0.250126 0.795804
0.260990 0.263432 0.792111
0.539666 0.311437 0.778042
0.774411 0.370031 0.764950
0.950622 0.433722 0.743099
0.170565 0.550866 0.796017
0.347021 0.563043 0.793301
0.580652 0.582483 0.775082
0.761746 0.583612 0.754055
0.945037 0.592920 0.751369
0.243015 0.798184 0.785824
0.368109 0.794003 0.782101
0.576318 0.786557 0.775814
0.763943 0.766690 0.756802
0.945617 0.761135 0.755306
0.303624 0.969390 0.742000
0.387823 0.967376 0.744900
0.558587 0.964599 0.749905
0.732326 0.960815 0.735683
0.942687 0.946014 0.734005
0.000000 0.000000 0.947448
0.199863 0.000000 0.945892
0.473335 0.000000 0.941070
0.716182 0.213382 0.929747
0.936919 0.311528 0.926207
0.020600 0.242496 0.945190
0.252415 0.254368 0.943359
0.496925 0.295506 0.937865
0.720363 0.344793 0.925475
0.933196 0.392157 0.922881
0.285435 0.529686 0.943786
0.377600 0.539910 0.941222
0.546807 0.548028 0.934417
0.730800 0.548425 0.921843
0.930510 0.556512 0.921355
0.302525 0.739040 0.942657
0.380957 0.740566 0.941283
0.549920 0.743496 0.940703
0.734920 0.736294 0.933776
0.936126 0.736721 0.928557
0.324712 0.952422 0.940215
0.391028 0.951476 0.939544
0.545373 0.951049 0.940032
0.733577 0.948302 0.938933
0.929534 0.931060 0.925353
